films/agfa_apx_100.cube
# Created by: G'MIC (https://gmic.eu)
TITLE "agfa_apx_100"
# LUT size
LUT_3D_SIZE 5
# Data domain
DOMAIN_MIN 0.0 0.0 0.0
DOMAIN_MAX 1.0 1.0 1.0
# LUT data points
0.065274856984615326 0.065274856984615326 0.065274856984615326
0.11144844442605972 0.11144844442605972 0.11144844442605972
0.16171503067016602 0.16171503067016602 0.16171503067016602
0.30800020694732666 0.30800020694732666 0.30800020694732666
0.46605750918388367 0.46605750918388367 0.46605750918388367
0.32381036877632141 0.32381036877632141 0.32381036877632141
0.33266285061836243 0.33266285061836243 0.33266285061836243
0.39241966605186462 0.39241966605186462 0.39241966605186462
0.49567624926567078 0.49567624926567078 0.49567624926567078
0.62967365980148315 0.62967365980148315 0.62967365980148315
0.61965000629425049 0.61965000629425049 0.61965000629425049
0.61112165451049805 0.61112165451049805 0.61112165451049805
0.66073846817016602 0.66073846817016602 0.66073846817016602
0.70721006393432617 0.70721006393432617 0.70721006393432617
0.7854575514793396 0.7854575514793396 0.7854575514793396
0.81053125858306885 0.81053125858306885 0.81053125858306885
0.81861621141433716 0.81861621141433716 0.81861621141433716
0.84123796224594116 0.84123796224594116 0.84123796224594116
0.85790717601776123 0.85790717601776123 0.85790717601776123
0.88658374547958374 0.88658374547958374 0.88658374547958374
0.9091646671295166 0.9091646671295166 0.9091646671295166
0.92683166265487671 0.92683166265487671 0.92683166265487671
0.93914616107940674 0.93914616107940674 0.93914616107940674
0.95042091608047485 0.95042091608047485 0.95042091608047485
0.965096116065979 0.965096116065979 0.965096116065979
0.15545052289962769 0.15545052289962769 0.15545052289962769
0.20654445886611938 0.20654445886611938 0.20654445886611938
0.26426464319229126 0.26426464319229126 0.26426464319229126
0.38684678077697754 0.38684678077697754 0.38684678077697754
0.55288112163543701 0.55288112163543701 0.55288112163543701
0.3931887149810791 0.3931887149810791 0.3931887149810791
0.41429659724235535 0.41429659724235535 0.41429659724235535
0.46643322706222534 0.46643322706222534 0.46643322706222534
0.56007564067840576 0.56007564067840576 0.56007564067840576
0.69864130020141602 0.69864130020141602 0.69864130020141602
0.65463513135910034 0.65463513135910034 0.65463513135910034
0.6612011194229126 0.6612011194229126 0.6612011194229126
0.69627600908279419 0.69627600908279419 0.69627600908279419
0.74282801151275635 0.74282801151275635 0.74282801151275635
0.80999338626861572 0.80999338626861572 0.80999338626861572
0.83522570133209229 0.83522570133209229 0.83522570133209229
0.84474807977676392 0.84474807977676392 0.84474807977676392
0.85826045274734497 0.85826045274734497 0.85826045274734497
0.87542080879211426 0.87542080879211426 0.87542080879211426
0.9015815258026123 0.9015815258026123 0.9015815258026123
0.93622654676437378 0.93622654676437378 0.93622654676437378
0.94840496778488159 0.94840496778488159 0.94840496778488159
0.9549558162689209 0.9549558162689209 0.9549558162689209
0.96516376733779907 0.96516376733779907 0.96516376733779907
0.98056310415267944 0.98056310415267944 0.98056310415267944
0.2540719211101532 0.2540719211101532 0.2540719211101532
0.31487804651260376 0.31487804651260376 0.31487804651260376
0.38551902770996094 0.38551902770996094 0.38551902770996094
0.47496533393859863 0.47496533393859863 0.47496533393859863
0.65066814422607422 0.65066814422607422 0.65066814422607422
0.4981626570224762 0.4981626570224762 0.4981626570224762
0.52317488193511963 0.52317488193511963 0.52317488193511963
0.57383006811141968 0.57383006811141968 0.57383006811141968
0.64726966619491577 0.64726966619491577 0.64726966619491577
0.75309020280838013 0.75309020280838013 0.75309020280838013
0.73101580142974854 0.73101580142974854 0.73101580142974854
0.73203688859939575 0.73203688859939575 0.73203688859939575
0.76181632280349731 0.76181632280349731 0.76181632280349731
0.79005640745162964 0.79005640745162964 0.79005640745162964
0.83800226449966431 0.83800226449966431 0.83800226449966431
0.86655610799789429 0.86655610799789429 0.86655610799789429
0.87150090932846069 0.87150090932846069 0.87150090932846069
0.87779206037521362 0.87779206037521362 0.87779206037521362
0.89162105321884155 0.89162105321884155 0.89162105321884155
0.91185802221298218 0.91185802221298218 0.91185802221298218
0.95517593622207642 0.95517593622207642 0.95517593622207642
0.96094232797622681 0.96094232797622681 0.96094232797622681
0.96116477251052856 0.96116477251052856 0.96116477251052856
0.97466707229614258 0.97466707229614258 0.97466707229614258
0.99194175004959106 0.99194175004959106 0.99194175004959106
0.4474034309387207 0.4474034309387207 0.4474034309387207
0.46783357858657837 0.46783357858657837 0.46783357858657837
0.54629415273666382 0.54629415273666382 0.54629415273666382
0.62513035535812378 0.62513035535812378 0.62513035535812378
0.72688639163970947 0.72688639163970947 0.72688639163970947
0.63502210378646851 0.63502210378646851 0.63502210378646851
0.64763516187667847 0.64763516187667847 0.64763516187667847
0.68709200620651245 0.68709200620651245 0.68709200620651245
0.74006479978561401 0.74006479978561401 0.74006479978561401
0.80834025144577026 0.80834025144577026 0.80834025144577026
0.79852133989334106 0.79852133989334106 0.79852133989334106
0.80010110139846802 0.80010110139846802 0.80010110139846802
0.8132515549659729 0.8132515549659729 0.8132515549659729
0.83743762969970703 0.83743762969970703 0.83743762969970703
0.87360841035842896 0.87360841035842896 0.87360841035842896
0.89996457099914551 0.89996457099914551 0.89996457099914551
0.9011847972869873 0.9011847972869873 0.9011847972869873
0.90532344579696655 0.90532344579696655 0.90532344579696655
0.91927051544189453 0.91927051544189453 0.91927051544189453
0.94233506917953491 0.94233506917953491 0.94233506917953491
0.97401642799377441 0.97401642799377441 0.97401642799377441
0.97892773151397705 0.97892773151397705 0.97892773151397705
0.98239141702651978 0.98239141702651978 0.98239141702651978
0.99353241920471191 0.99353241920471191 0.99353241920471191
0.999980628490448 0.999980628490448 0.999980628490448
0.64004337787628174 0.64004337787628174 0.64004337787628174
0.65906667709350586 0.65906667709350586 0.65906667709350586
0.72617906332015991 0.72617906332015991 0.72617906332015991
0.7629731297492981 0.7629731297492981 0.7629731297492981
0.82105773687362671 0.82105773687362671 0.82105773687362671
0.76204204559326172 0.76204204559326172 0.76204204559326172
0.77487987279891968 0.77487987279891968 0.77487987279891968
0.80411738157272339 0.80411738157272339 0.80411738157272339
0.83406126499176025 0.83406126499176025 0.83406126499176025
0.87179458141326904 0.87179458141326904 0.87179458141326904
0.86502856016159058 0.86502856016159058 0.86502856016159058
0.86680781841278076 0.86680781841278076 0.86680781841278076
0.87615245580673218 0.87615245580673218 0.87615245580673218
0.89286601543426514 0.89286601543426514 0.89286601543426514
0.91367721557617188 0.91367721557617188 0.91367721557617188
0.93573874235153198 0.93573874235153198 0.93573874235153198
0.93648028373718262 0.93648028373718262 0.93648028373718262
0.94273078441619873 0.94273078441619873 0.94273078441619873
0.95769613981246948 0.95769613981246948 0.95769613981246948
0.97853600978851318 0.97853600978851318 0.97853600978851318
0.99518311023712158 0.99518311023712158 0.99518311023712158
0.99889230728149414 0.99889230728149414 0.99889230728149414
0.99993103742599487 0.99993103742599487 0.99993103742599487
1 1 1
1 1 1
