films/agfa_apx_25.cube
TITLE "data/luts/rawtherapee/HaldCLUT/Black-and-White/Agfa/Agfa APX 25.png"
LUT_3D_SIZE 4
DOMAIN_MIN 0 0 0
DOMAIN_MAX 1 1 1
0.000000 0.000000 0.000000
0.015686 0.015686 0.015686
0.147712 0.147712 0.147712
0.509804 0.509804 0.509804
0.232680 0.232680 0.232680
0.290632 0.290632 0.290632
0.441830 0.441830 0.441830
0.658824 0.658824 0.658824
0.649673 0.649673 0.649673
0.665359 0.665359 0.665359
0.719390 0.719390 0.719390
0.813072 0.813072 0.813072
0.925490 0.925490 0.925490
0.929412 0.929412 0.929412
0.941176 0.941176 0.941176
0.968627 0.968627 0.968627
0.011765 0.011765 0.011765
0.070588 0.070588 0.070588
0.255338 0.255338 0.255338
0.576471 0.576471 0.576471
0.309804 0.309804 0.309804
0.365577 0.365577 0.365577
0.504575 0.504575 0.504575
0.692810 0.692810 0.692810
0.679739 0.679739 0.679739
0.695425 0.695425 0.695425
0.743355 0.743355 0.743355
0.828758 0.828758 0.828758
0.937255 0.937255 0.937255
0.939869 0.939869 0.939869
0.949020 0.949020 0.949020
0.972549 0.972549 0.972549
0.086275 0.086275 0.086275
0.202179 0.202179 0.202179
0.388235 0.388235 0.388235
0.648366 0.648366 0.648366
0.449673 0.449673 0.449673
0.495861 0.495861 0.495861
0.600871 0.600871 0.600871
0.745098 0.745098 0.745098
0.738562 0.738562 0.738562
0.751344 0.751344 0.751344
0.789833 0.789833 0.789833
0.862745 0.862745 0.862745
0.952941 0.952941 0.952941
0.956863 0.956863 0.956863
0.964706 0.964706 0.964706
0.984314 0.984314 0.984314
0.337255 0.337255 0.337255
0.437908 0.437908 0.437908
0.569935 0.569935 0.569935
0.737255 0.737255 0.737255
0.626144 0.626144 0.626144
0.653595 0.653595 0.653595
0.717647 0.717647 0.717647
0.815686 0.815686 0.815686
0.820915 0.820915 0.820915
0.828758 0.828758 0.828758
0.857081 0.857081 0.857081
0.911111 0.911111 0.911111
0.980392 0.980392 0.980392
0.980392 0.980392 0.980392
0.988235 0.988235 0.988235
1.000000 1.000000 1.000000
