films/agfa_apx_100.cube
# Created by: G'MIC (https://gmic.eu)
TITLE "agfa_apx_100"
# LUT size
LUT_3D_SIZE 7
# Data domain
DOMAIN_MIN 0.0 0.0 0.0
DOMAIN_MAX 1.0 1.0 1.0
# LUT data points
0.065274856984615326 0.065274856984615326 0.065274856984615326
0.094575710594654083 0.094575710594654083 0.094575710594654083
0.12643404304981232 0.12643404304981232 0.12643404304981232
0.16171503067016602 0.16171503067016602 0.16171503067016602
0.25267896056175232 0.25267896056175232 0.25267896056175232
0.36338812112808228 0.36338812112808228 0.36338812112808228
0.46605750918388367 0.46605750918388367 0.46605750918388367
0.23010371625423431 0.23010371625423431 0.23010371625423431
0.23953020572662354 0.23953020572662354 0.23953020572662354
0.26633033156394958 0.26633033156394958 0.26633033156394958
0.30900982022285461 0.30900982022285461 0.30900982022285461
0.38052043318748474 0.38052043318748474 0.38052043318748474
0.47844985127449036 0.47844985127449036 0.47844985127449036
0.57444757223129272 0.57444757223129272 0.57444757223129272
0.42151680588722229 0.42151680588722229 0.42151680588722229
0.41476979851722717 0.41476979851722717 0.41476979851722717
0.43723949790000916 0.43723949790000916 0.43723949790000916
0.48044976592063904 0.48044976592063904 0.48044976592063904
0.53218090534210205 0.53218090534210205 0.53218090534210205
0.60744863748550415 0.60744863748550415 0.60744863748550415
0.68464100360870361 0.68464100360870361 0.68464100360870361
0.61965000629425049 0.61965000629425049 0.61965000629425049
0.6082608699798584 0.6082608699798584 0.6082608699798584
0.62396436929702759 0.62396436929702759 0.62396436929702759
0.66073846817016602 0.66073846817016602 0.66073846817016602
0.68777638673782349 0.68777638673782349 0.68777638673782349
0.73177063465118408 0.73177063465118408 0.73177063465118408
0.7854575514793396 0.7854575514793396 0.7854575514793396
0.76534372568130493 0.76534372568130493 0.76534372568130493
0.76174890995025635 0.76174890995025635 0.76174890995025635
0.77279752492904663 0.77279752492904663 0.77279752492904663
0.79676765203475952 0.79676765203475952 0.79676765203475952
0.80782532691955566 0.80782532691955566 0.80782532691955566
0.82839632034301758 0.82839632034301758 0.82839632034301758
0.85616034269332886 0.85616034269332886 0.85616034269332886
0.84818881750106812 0.84818881750106812 0.84818881750106812
0.85789716243743896 0.85789716243743896 0.85789716243743896
0.86705058813095093 0.86705058813095093 0.86705058813095093
0.87848323583602905 0.87848323583602905 0.87848323583602905
0.88771498203277588 0.88771498203277588 0.88771498203277588
0.89920413494110107 0.89920413494110107 0.89920413494110107
0.91449141502380371 0.91449141502380371 0.91449141502380371
0.9091646671295166 0.9091646671295166 0.9091646671295166
0.92210263013839722 0.92210263013839722 0.92210263013839722
0.9312131404876709 0.9312131404876709 0.9312131404876709
0.93914616107940674 0.93914616107940674 0.93914616107940674
0.94655042886734009 0.94655042886734009 0.94655042886734009
0.95483386516571045 0.95483386516571045 0.95483386516571045
0.965096116065979 0.965096116065979 0.965096116065979
0.12399425357580185 0.12399425357580185 0.12399425357580185
0.15186941623687744 0.15186941623687744 0.15186941623687744
0.18522939085960388 0.18522939085960388 0.18522939085960388
0.22659201920032501 0.22659201920032501 0.22659201920032501
0.304949551820755 0.304949551820755 0.304949551820755
0.4131753146648407 0.4131753146648407 0.4131753146648407
0.52210921049118042 0.52210921049118042 0.52210921049118042
0.27557751536369324 0.27557751536369324 0.27557751536369324
0.29037237167358398 0.29037237167358398 0.29037237167358398
0.31800583004951477 0.31800583004951477 0.31800583004951477
0.35765409469604492 0.35765409469604492 0.35765409469604492
0.42311730980873108 0.42311730980873108 0.42311730980873108
0.52406144142150879 0.52406144142150879 0.52406144142150879
0.62981027364730835 0.62981027364730835 0.62981027364730835
0.45769715309143066 0.45769715309143066 0.45769715309143066
0.45657041668891907 0.45657041668891907 0.45657041668891907
0.47841387987136841 0.47841387987136841 0.47841387987136841
0.51648348569869995 0.51648348569869995 0.51648348569869995
0.56197559833526611 0.56197559833526611 0.56197559833526611
0.64039021730422974 0.64039021730422974 0.64039021730422974
0.72071027755737305 0.72071027755737305 0.72071027755737305
0.63864856958389282 0.63864856958389282 0.63864856958389282
0.63650184869766235 0.63650184869766235 0.63650184869766235
0.65077000856399536 0.65077000856399536 0.65077000856399536
0.67968690395355225 0.67968690395355225 0.67968690395355225
0.70946222543716431 0.70946222543716431 0.70946222543716431
0.75285965204238892 0.75285965204238892 0.75285965204238892
0.80194860696792603 0.80194860696792603 0.80194860696792603
0.77795696258544922 0.77795696258544922 0.77795696258544922
0.78130584955215454 0.78130584955215454 0.78130584955215454
0.79045480489730835 0.79045480489730835 0.79045480489730835
0.80707007646560669 0.80707007646560669 0.80707007646560669
0.82222598791122437 0.82222598791122437 0.82222598791122437
0.84280514717102051 0.84280514717102051 0.84280514717102051
0.86919981241226196 0.86919981241226196 0.86919981241226196
0.86721533536911011 0.86721533536911011 0.86721533536911011
0.87610822916030884 0.87610822916030884 0.87610822916030884
0.88289844989776611 0.88289844989776611 0.88289844989776611
0.89134836196899414 0.89134836196899414 0.89134836196899414
0.899871826171875 0.899871826171875 0.899871826171875
0.91101586818695068 0.91101586818695068 0.91101586818695068
0.92594319581985474 0.92594319581985474 0.92594319581985474
0.92885839939117432 0.92885839939117432 0.92885839939117432
0.93953114748001099 0.93953114748001099 0.93953114748001099
0.94597369432449341 0.94597369432449341 0.94597369432449341
0.95177441835403442 0.95177441835403442 0.95177441835403442
0.95804661512374878 0.95804661512374878 0.95804661512374878
0.96607679128646851 0.96607679128646851 0.96607679128646851
0.97665923833847046 0.97665923833847046 0.97665923833847046
0.18476393818855286 0.18476393818855286 0.18476393818855286
0.21760666370391846 0.21760666370391846 0.21760666370391846
0.25839844346046448 0.25839844346046448 0.25839844346046448
0.30268284678459167 0.30268284678459167 0.30268284678459167
0.36973002552986145 0.36973002552986145 0.36973002552986145
0.47231605648994446 0.47231605648994446 0.47231605648994446
0.58495765924453735 0.58495765924453735 0.58495765924453735
0.33760049939155579 0.33760049939155579 0.33760049939155579
0.35787516832351685 0.35787516832351685 0.35787516832351685
0.38946467638015747 0.38946467638015747 0.38946467638015747
0.42891132831573486 0.42891132831573486 0.42891132831573486
0.4882158637046814 0.4882158637046814 0.4882158637046814
0.57859396934509277 0.57859396934509277 0.57859396934509277
0.67615151405334473 0.67615151405334473 0.67615151405334473
0.5137133002281189 0.5137133002281189 0.5137133002281189
0.5212520956993103 0.5212520956993103 0.5212520956993103
0.54284805059432983 0.54284805059432983 0.54284805059432983
0.57713419198989868 0.57713419198989868 0.57713419198989868
0.61991292238235474 0.61991292238235474 0.61991292238235474
0.68298286199569702 0.68298286199569702 0.68298286199569702
0.75233376026153564 0.75233376026153564 0.75233376026153564
0.67747002840042114 0.67747002840042114 0.67747002840042114
0.6799810528755188 0.6799810528755188 0.6799810528755188
0.69296032190322876 0.69296032190322876 0.69296032190322876
0.71800827980041504 0.71800827980041504 0.71800827980041504
0.74281585216522217 0.74281585216522217 0.74281585216522217
0.77683168649673462 0.77683168649673462 0.77683168649673462
0.81849551200866699 0.81849551200866699 0.81849551200866699
0.79899019002914429 0.79899019002914429 0.79899019002914429
0.80405813455581665 0.80405813455581665 0.80405813455581665
0.81078493595123291 0.81078493595123291 0.81078493595123291
0.82319098711013794 0.82319098711013794 0.82319098711013794
0.83661472797393799 0.83661472797393799 0.83661472797393799
0.85353660583496094 0.85353660583496094 0.85353660583496094
0.87594503164291382 0.87594503164291382 0.87594503164291382
0.88262099027633667 0.88262099027633667 0.88262099027633667
0.88979893922805786 0.88979893922805786 0.88979893922805786
0.89345854520797729 0.89345854520797729 0.89345854520797729
0.89874774217605591 0.89874774217605591 0.89874774217605591
0.90681689977645874 0.90681689977645874 0.90681689977645874
0.91713285446166992 0.91713285446166992 0.91713285446166992
0.93134540319442749 0.93134540319442749 0.93134540319442749
0.94288694858551025 0.94288694858551025 0.94288694858551025
0.95067912340164185 0.95067912340164185 0.95067912340164185
0.95398819446563721 0.95398819446563721 0.95398819446563721
0.95715051889419556 0.95715051889419556 0.95715051889419556
0.96372312307357788 0.96372312307357788 0.96372312307357788
0.97255110740661621 0.97255110740661621 0.97255110740661621
0.98406696319580078 0.98406696319580078 0.98406696319580078
0.2540719211101532 0.2540719211101532 0.2540719211101532
0.29222172498703003 0.29222172498703003 0.29222172498703003
0.3381340503692627 0.3381340503692627 0.3381340503692627
0.38551902770996094 0.38551902770996094 0.38551902770996094
0.43763443827629089 0.43763443827629089 0.43763443827629089
0.53204822540283203 0.53204822540283203 0.53204822540283203
0.65066814422607422 0.65066814422607422 0.65066814422607422
0.41280540823936462 0.41280540823936462 0.41280540823936462
0.43309521675109863 0.43309521675109863 0.43309521675109863
0.4662308394908905 0.4662308394908905 0.4662308394908905
0.50615102052688599 0.50615102052688599 0.50615102052688599
0.55682963132858276 0.55682963132858276 0.55682963132858276
0.63413441181182861 0.63413441181182861 0.63413441181182861
0.72219771146774292 0.72219771146774292 0.72219771146774292
0.58211177587509155 0.58211177587509155 0.58211177587509155
0.58981168270111084 0.58981168270111084 0.58981168270111084
0.60991209745407104 0.60991209745407104 0.60991209745407104
0.64184683561325073 0.64184683561325073 0.64184683561325073
0.67702066898345947 0.67702066898345947 0.67702066898345947
0.72620481252670288 0.72620481252670288 0.72620481252670288
0.78291457891464233 0.78291457891464233 0.78291457891464233
0.73101580142974854 0.73101580142974854 0.73101580142974854
0.72894209623336792 0.72894209623336792 0.72894209623336792
0.73882734775543213 0.73882734775543213 0.73882734775543213
0.76181632280349731 0.76181632280349731 0.76181632280349731
0.77922439575195312 0.77922439575195312 0.77922439575195312
0.80402874946594238 0.80402874946594238 0.80402874946594238
0.83800226449966431 0.83800226449966431 0.83800226449966431
0.82851248979568481 0.82851248979568481 0.82851248979568481
0.8315129280090332 0.8315129280090332 0.8315129280090332
0.83511388301849365 0.83511388301849365 0.83511388301849365
0.84419018030166626 0.84419018030166626 0.84419018030166626
0.85500162839889526 0.85500162839889526 0.85500162839889526
0.86789953708648682 0.86789953708648682 0.86789953708648682
0.88643777370452881 0.88643777370452881 0.88643777370452881
0.89974242448806763 0.89974242448806763 0.89974242448806763
0.90427279472351074 0.90427279472351074 0.90427279472351074
0.90477883815765381 0.90477883815765381 0.90477883815765381
0.90707266330718994 0.90707266330718994 0.90707266330718994
0.91542774438858032 0.91542774438858032 0.91542774438858032
0.92573875188827515 0.92573875188827515 0.92573875188827515
0.93963682651519775 0.93963682651519775 0.93963682651519775
0.95517593622207642 0.95517593622207642 0.95517593622207642
0.96043509244918823 0.96043509244918823 0.96043509244918823
0.96075761318206787 0.96075761318206787 0.96075761318206787
0.96116477251052856 0.96116477251052856 0.96116477251052856
0.96964657306671143 0.96964657306671143 0.96964657306671143
0.9799005389213562 0.9799005389213562 0.9799005389213562
0.99194175004959106 0.99194175004959106 0.99194175004959106
0.37975728511810303 0.37975728511810303 0.37975728511810303
0.39536160230636597 0.39536160230636597 0.39536160230636597
0.43632838129997253 0.43632838129997253 0.43632838129997253
0.48794141411781311 0.48794141411781311 0.48794141411781311
0.53977096080780029 0.53977096080780029 0.53977096080780029
0.61350858211517334 0.61350858211517334 0.61350858211517334
0.69812703132629395 0.69812703132629395 0.69812703132629395
0.51352769136428833 0.51352769136428833 0.51352769136428833
0.52570182085037231 0.52570182085037231 0.52570182085037231
0.55380052328109741 0.55380052328109741 0.55380052328109741
0.5923391580581665 0.5923391580581665 0.5923391580581665
0.63633286952972412 0.63633286952972412 0.63633286952972412
0.69578254222869873 0.69578254222869873 0.69578254222869873
0.76212674379348755 0.76212674379348755 0.76212674379348755
0.65668922662734985 0.65668922662734985 0.65668922662734985
0.66227602958679199 0.66227602958679199 0.66227602958679199
0.6764557957649231 0.6764557957649231 0.6764557957649231
0.70112472772598267 0.70112472772598267 0.70112472772598267
0.73119491338729858 0.73119491338729858 0.73119491338729858
0.76971089839935303 0.76971089839935303 0.76971089839935303
0.81442093849182129 0.81442093849182129 0.81442093849182129
0.7741847038269043 0.7741847038269043 0.7741847038269043
0.77588558197021484 0.77588558197021484 0.77588558197021484
0.7809368371963501 0.7809368371963501 0.7809368371963501
0.79465550184249878 0.79465550184249878 0.79465550184249878
0.81143897771835327 0.81143897771835327 0.81143897771835327
0.83275824785232544 0.83275824785232544 0.83275824785232544
0.86146253347396851 0.86146253347396851 0.86146253347396851
0.85644292831420898 0.85644292831420898 0.85644292831420898
0.85873478651046753 0.85873478651046753 0.85873478651046753
0.85956364870071411 0.85956364870071411 0.85956364870071411
0.86560332775115967 0.86560332775115967 0.86560332775115967
0.87541437149047852 0.87541437149047852 0.87541437149047852
0.88847202062606812 0.88847202062606812 0.88847202062606812
0.90775388479232788 0.90775388479232788 0.90775388479232788
0.91727209091186523 0.91727209091186523 0.91727209091186523
0.92030614614486694 0.92030614614486694 0.92030614614486694
0.91997355222702026 0.91997355222702026 0.91997355222702026
0.92233484983444214 0.92233484983444214 0.92233484983444214
0.9301302433013916 0.9301302433013916 0.9301302433013916
0.94111311435699463 0.94111311435699463 0.94111311435699463
0.95639616250991821 0.95639616250991821 0.95639616250991821
0.96759903430938721 0.96759903430938721 0.96759903430938721
0.97160923480987549 0.97160923480987549 0.97160923480987549
0.97196966409683228 0.97196966409683228 0.97196966409683228
0.97404986619949341 0.97404986619949341 0.97404986619949341
0.98159289360046387 0.98159289360046387 0.98159289360046387
0.9915764331817627 0.9915764331817627 0.9915764331817627
0.99904727935791016 0.99904727935791016 0.99904727935791016
0.5152965784072876 0.5152965784072876 0.5152965784072876
0.51960462331771851 0.51960462331771851 0.51960462331771851
0.55572187900543213 0.55572187900543213 0.55572187900543213
0.6077573299407959 0.6077573299407959 0.6077573299407959
0.65138256549835205 0.65138256549835205 0.65138256549835205
0.70244193077087402 0.70244193077087402 0.70244193077087402
0.75832879543304443 0.75832879543304443 0.75832879543304443
0.62440544366836548 0.62440544366836548 0.62440544366836548
0.63095152378082275 0.63095152378082275 0.63095152378082275
0.65360724925994873 0.65360724925994873 0.65360724925994873
0.68833351135253906 0.68833351135253906 0.68833351135253906
0.72282105684280396 0.72282105684280396 0.72282105684280396
0.76330786943435669 0.76330786943435669 0.76330786943435669
0.80826288461685181 0.80826288461685181 0.80826288461685181
0.73935788869857788 0.73935788869857788 0.73935788869857788
0.73849165439605713 0.73849165439605713 0.73849165439605713
0.74677801132202148 0.74677801132202148 0.74677801132202148
0.76552975177764893 0.76552975177764893 0.76552975177764893
0.78843051195144653 0.78843051195144653 0.78843051195144653
0.81552761793136597 0.81552761793136597 0.81552761793136597
0.8476976752281189 0.8476976752281189 0.8476976752281189
0.82317155599594116 0.82317155599594116 0.82317155599594116
0.82273787260055542 0.82273787260055542 0.82273787260055542
0.82383811473846436 0.82383811473846436 0.82383811473846436
0.83320754766464233 0.83320754766464233 0.83320754766464233
0.84696114063262939 0.84696114063262939 0.84696114063262939
0.86320620775222778 0.86320620775222778 0.86320620775222778
0.88559967279434204 0.88559967279434204 0.88559967279434204
0.8851197361946106 0.8851197361946106 0.8851197361946106
0.8859063982963562 0.8859063982963562 0.8859063982963562
0.88443660736083984 0.88443660736083984 0.88443660736083984
0.89005094766616821 0.89005094766616821 0.89005094766616821
0.90005457401275635 0.90005457401275635 0.90005457401275635
0.91234612464904785 0.91234612464904785 0.91234612464904785
0.93004471063613892 0.93004471063613892 0.93004471063613892
0.93584316968917847 0.93584316968917847 0.93584316968917847
0.93806934356689453 0.93806934356689453 0.93806934356689453
0.93794047832489014 0.93794047832489014 0.93794047832489014
0.94196945428848267 0.94196945428848267 0.94196945428848267
0.95027244091033936 0.95027244091033936 0.95027244091033936
0.96135962009429932 0.96135962009429932 0.96135962009429932
0.9767339825630188 0.9767339825630188 0.9767339825630188
0.98088520765304565 0.98088520765304565 0.98088520765304565
0.98524481058120728 0.98524481058120728 0.98524481058120728
0.98753374814987183 0.98753374814987183 0.98753374814987183
0.99105459451675415 0.99105459451675415 0.99105459451675415
0.99625694751739502 0.99625694751739502 0.99625694751739502
0.99969029426574707 0.99969029426574707 0.99969029426574707
1 1 1
0.64004337787628174 0.64004337787628174 0.64004337787628174
0.64708364009857178 0.64708364009857178 0.64708364009857178
0.67854619026184082 0.67854619026184082 0.67854619026184082
0.72617906332015991 0.72617906332015991 0.72617906332015991
0.7485358715057373 0.7485358715057373 0.7485358715057373
0.78093552589416504 0.78093552589416504 0.78093552589416504
0.82105773687362671 0.82105773687362671 0.82105773687362671
0.71994513273239136 0.71994513273239136 0.71994513273239136
0.72946059703826904 0.72946059703826904 0.72946059703826904
0.75022649765014648 0.75022649765014648 0.75022649765014648
0.77911978960037231 0.77911978960037231 0.77911978960037231
0.80145013332366943 0.80145013332366943 0.80145013332366943
0.8266979455947876 0.8266979455947876 0.8266979455947876
0.85689502954483032 0.85689502954483032 0.85689502954483032
0.80180865526199341 0.80180865526199341 0.80180865526199341
0.80606484413146973 0.80606484413146973 0.80606484413146973
0.81406211853027344 0.81406211853027344 0.81406211853027344
0.82904523611068726 0.82904523611068726 0.82904523611068726
0.84539073705673218 0.84539073705673218 0.84539073705673218
0.86289060115814209 0.86289060115814209 0.86289060115814209
0.88540405035018921 0.88540405035018921 0.88540405035018921
0.86502856016159058 0.86502856016159058 0.86502856016159058
0.86680454015731812 0.86680454015731812 0.86680454015731812
0.86800020933151245 0.86800020933151245 0.86800020933151245
0.87615245580673218 0.87615245580673218 0.87615245580673218
0.88715624809265137 0.88715624809265137 0.88715624809265137
0.89812010526657104 0.89812010526657104 0.89812010526657104
0.91367721557617188 0.91367721557617188 0.91367721557617188
0.91372418403625488 0.91372418403625488 0.91372418403625488
0.91509461402893066 0.91509461402893066 0.91509461402893066
0.91203242540359497 0.91203242540359497 0.91203242540359497
0.92000842094421387 0.92000842094421387 0.92000842094421387
0.93027198314666748 0.93027198314666748 0.93027198314666748
0.94094443321228027 0.94094443321228027 0.94094443321228027
0.9563489556312561 0.9563489556312561 0.9563489556312561
0.95657181739807129 0.95657181739807129 0.95657181739807129
0.95947051048278809 0.95947051048278809 0.95947051048278809
0.96038359403610229 0.96038359403610229 0.96038359403610229
0.96594440937042236 0.96594440937042236 0.96594440937042236
0.97503775358200073 0.97503775358200073 0.97503775358200073
0.98581397533416748 0.98581397533416748 0.98581397533416748
0.99701142311096191 0.99701142311096191 0.99701142311096191
0.99518311023712158 0.99518311023712158 0.99518311023712158
0.99821299314498901 0.99821299314498901 0.99821299314498901
0.99930417537689209 0.99930417537689209 0.99930417537689209
0.99993103742599487 0.99993103742599487 0.99993103742599487
1 1 1
1 1 1
1 1 1
