films/agfa_precisa_100.cube
# Created by: G'MIC (https://gmic.eu)
TITLE "agfa_precisa_100"
# LUT size
LUT_3D_SIZE 13
# Data domain
DOMAIN_MIN 0.0 0.0 0.0
DOMAIN_MAX 1.0 1.0 1.0
# LUT data points
0.03068033792078495 0.028818437829613686 0.023920411244034767
0.079006537795066833 0.031378503888845444 0.027568532153964043
0.13665616512298584 0.034923732280731201 0.033861123025417328
0.19929416477680206 0.040203049778938293 0.037926647812128067
0.26920536160469055 0.046002887189388275 0.042199064046144485
0.3464297354221344 0.049038995057344437 0.051812354475259781
0.4329744279384613 0.049623750150203705 0.069579795002937317
0.52946609258651733 0.051684495061635971 0.091521546244621277
0.62600690126419067 0.057271562516689301 0.11347198486328125
0.72040510177612305 0.063720583915710449 0.13967010378837585
0.81159400939941406 0.074447229504585266 0.16924382746219635
0.89901381731033325 0.094509243965148926 0.19632339477539062
0.9766845703125 0.11997145414352417 0.2162632942199707
0.058861825615167618 0.089378952980041504 0.044753566384315491
0.095688194036483765 0.090327411890029907 0.044408731162548065
0.14647087454795837 0.091856129467487335 0.04828331246972084
0.20829086005687714 0.095799528062343597 0.049834411591291428
0.27938076853752136 0.10298183560371399 0.048744380474090576
0.35907945036888123 0.10853087157011032 0.051654290407896042
0.44776120781898499 0.10941395163536072 0.063798226416110992
0.54291820526123047 0.10740302503108978 0.082799248397350311
0.63807541131973267 0.10451773554086685 0.10594276338815689
0.73019248247146606 0.099574953317642212 0.13434679806232452
0.81864672899246216 0.09547819197177887 0.16740071773529053
0.90216594934463501 0.10154937952756882 0.19768378138542175
0.97707533836364746 0.12215787172317505 0.21666102111339569
0.092375613749027252 0.15392130613327026 0.070482723414897919
0.11923287808895111 0.15378089249134064 0.068503618240356445
0.16220837831497192 0.15474095940589905 0.069882996380329132
0.22224721312522888 0.1575579047203064 0.071209505200386047
0.29369747638702393 0.16512675583362579 0.070485837757587433
0.37460729479789734 0.17241212725639343 0.069343820214271545
0.46380794048309326 0.17720922827720642 0.068862766027450562
0.55762439966201782 0.17604181170463562 0.076826103031635284
0.65135914087295532 0.16718250513076782 0.09689033031463623
0.74167954921722412 0.15365928411483765 0.12258746474981308
0.82666921615600586 0.1348641961812973 0.1566774994134903
0.90600347518920898 0.12313435971736908 0.19112439453601837
0.97807890176773071 0.13613896071910858 0.21141436696052551
0.11235640197992325 0.22719773650169373 0.098476573824882507
0.13831242918968201 0.2250884622335434 0.095193453133106232
0.17959322035312653 0.22570586204528809 0.095080070197582245
0.23850025236606598 0.22981859743595123 0.09562557190656662
0.31036809086799622 0.236983522772789 0.095200784504413605
0.39187967777252197 0.24476926028728485 0.092794142663478851
0.48107194900512695 0.24946644902229309 0.088203847408294678
0.57404369115829468 0.24902306497097015 0.088533066213130951
0.66662263870239258 0.24263320863246918 0.094938017427921295
0.75566947460174561 0.22882431745529175 0.10830949991941452
0.83911073207855225 0.20522460341453552 0.13609589636325836
0.91562104225158691 0.18167981505393982 0.17210116982460022
0.9824751615524292 0.17683814465999603 0.19964046776294708
0.12044855952262878 0.31038969755172729 0.12761335074901581
0.14966532588005066 0.30574172735214233 0.12376975268125534
0.19403944909572601 0.30674001574516296 0.12250842154026031
0.25521761178970337 0.31320753693580627 0.12111038714647293
0.32824626564979553 0.32134369015693665 0.11901888251304626
0.41015642881393433 0.32858026027679443 0.11496884375810623
0.49892741441726685 0.33322629332542419 0.10944746434688568
0.5913657546043396 0.33334705233573914 0.1043146625161171
0.68297475576400757 0.33154952526092529 0.097072258591651917
0.771465003490448 0.32376444339752197 0.094478949904441833
0.85404789447784424 0.30126965045928955 0.11114424467086792
0.92811167240142822 0.26694443821907043 0.14864790439605713
0.98828244209289551 0.24225568771362305 0.1849818080663681
0.13036355376243591 0.40244776010513306 0.15834483504295349
0.16301770508289337 0.39773508906364441 0.15437968075275421
0.21106292307376862 0.39901146292686462 0.15274810791015625
0.27474579215049744 0.40635669231414795 0.15032137930393219
0.34855824708938599 0.41468152403831482 0.14680041372776031
0.42987364530563354 0.42244431376457214 0.14058098196983337
0.51715075969696045 0.42860490083694458 0.13136292994022369
0.60755640268325806 0.43226161599159241 0.11917724460363388
0.69863766431808472 0.43524479866027832 0.10211814194917679
0.78732657432556152 0.43401771783828735 0.084195047616958618
0.86984264850616455 0.41796031594276428 0.085191197693347931
0.94021815061569214 0.38053408265113831 0.11759626865386963
0.99222362041473389 0.34415048360824585 0.15561957657337189
0.14832110702991486 0.5010179877281189 0.19200970232486725
0.18600009381771088 0.49885952472686768 0.18912352621555328
0.23732331395149231 0.50039756298065186 0.18858550488948822
0.30076679587364197 0.50604677200317383 0.18630008399486542
0.37297874689102173 0.5133521556854248 0.18217997252941132
0.45194002985954285 0.52148926258087158 0.17404316365718842
0.53580164909362793 0.53003776073455811 0.16055172681808472
0.62342441082000732 0.53789049386978149 0.14205601811408997
0.71334123611450195 0.54472720623016357 0.11753495037555695
0.80242741107940674 0.55060631036758423 0.087471723556518555
0.88524156808853149 0.54595547914505005 0.068202033638954163
0.95168209075927734 0.51865595579147339 0.078967556357383728
0.99469220638275146 0.48417335748672485 0.10362230241298676
0.1809287816286087 0.60032051801681519 0.23399780690670013
0.22214967012405396 0.60013258457183838 0.23324713110923767
0.27418020367622375 0.60119909048080444 0.23414056003093719
0.33519789576530457 0.60567688941955566 0.23305827379226685
0.40355062484741211 0.61180531978607178 0.22849784791469574
0.47783860564231873 0.62006086111068726 0.21934327483177185
0.55703055858612061 0.62958419322967529 0.20431153476238251
0.64036709070205688 0.63950872421264648 0.18262496590614319
0.72687292098999023 0.6498105525970459 0.15208980441093445
0.81441730260848999 0.661113440990448 0.1104191318154335
0.89780402183532715 0.66816574335098267 0.066810727119445801
0.96306782960891724 0.65658015012741089 0.040820673108100891
0.99820291996002197 0.63084262609481812 0.037552192807197571
0.23648577928543091 0.69410663843154907 0.29122957587242126
0.27485853433609009 0.69568675756454468 0.29114159941673279
0.3235175609588623 0.69695150852203369 0.29255616664886475
0.37925547361373901 0.70051330327987671 0.29194623231887817
0.44115328788757324 0.70608127117156982 0.28719350695610046
0.50877326726913452 0.71397668123245239 0.2777499258518219
0.58148270845413208 0.7234606146812439 0.26332125067710876
0.65829885005950928 0.73418599367141724 0.24182769656181335
0.73883926868438721 0.74607467651367188 0.20868757367134094
0.82247275114059448 0.76001238822937012 0.156209796667099
0.90448260307312012 0.77324491739273071 0.082669004797935486
0.97073245048522949 0.77597677707672119 0.01526800449937582
0.99980396032333374 0.76550817489624023 0.00034095914452336729
0.30722132325172424 0.78148913383483887 0.35972601175308228
0.3423708975315094 0.78355741500854492 0.36207330226898193
0.38485854864120483 0.78494495153427124 0.36503243446350098
0.43241703510284424 0.78785222768783569 0.36402219533920288
0.48588952422142029 0.79319757223129272 0.35796257853507996
0.545326828956604 0.80068868398666382 0.34793758392333984
0.61009007692337036 0.81006836891174316 0.33483359217643738
0.6791655421257019 0.82105690240859985 0.31629070639610291
0.75168412923812866 0.83361154794692993 0.28567761182785034
0.82808774709701538 0.84771883487701416 0.23239274322986603
0.90805983543395996 0.86437702178955078 0.13367557525634766
0.97385114431381226 0.87902694940567017 0.022370267659425735
0.9997718334197998 0.88347488641738892 0
0.39204782247543335 0.86018574237823486 0.44285163283348083
0.42243334650993347 0.86238515377044678 0.44681265950202942
0.45614030957221985 0.86348813772201538 0.44979146122932434
0.49396488070487976 0.86574822664260864 0.44829335808753967
0.53762328624725342 0.87069863080978394 0.44064471125602722
0.58801770210266113 0.87791883945465088 0.42883354425430298
0.64458417892456055 0.88668256998062134 0.41803604364395142
0.70551317930221558 0.89751189947128296 0.404664546251297
0.76899808645248413 0.91128569841384888 0.37840175628662109
0.83777201175689697 0.92470777034759521 0.33273601531982422
0.91021305322647095 0.94014096260070801 0.24326677620410919
0.96795731782913208 0.96014082431793213 0.109730064868927
0.99718183279037476 0.97477817535400391 0.016549726948142052
0.49039784073829651 0.92741519212722778 0.54077810049057007
0.51064395904541016 0.93009275197982788 0.54165536165237427
0.53327155113220215 0.93120068311691284 0.54289144277572632
0.56082260608673096 0.93325155973434448 0.54233348369598389
0.59542065858840942 0.93733513355255127 0.53460031747817993
0.63727879524230957 0.94316929578781128 0.52125906944274902
0.68651604652404785 0.94933271408081055 0.51409363746643066
0.7400553822517395 0.95805948972702026 0.50802278518676758
0.79400163888931274 0.97251802682876587 0.48609152436256409
0.85528731346130371 0.9811025857925415 0.45506134629249573
0.9203726053237915 0.9852861762046814 0.39873421192169189
0.97059297561645508 0.99631237983703613 0.28377038240432739
0.99819499254226685 0.99995064735412598 0.15575386583805084
0.58242279291152954 0.98363155126571655 0.63538414239883423
0.59444332122802734 0.98577815294265747 0.63349807262420654
0.60855019092559814 0.98673182725906372 0.63421028852462769
0.62874436378479004 0.98789143562316895 0.63650548458099365
0.65648943185806274 0.98964780569076538 0.63150811195373535
0.69232916831970215 0.99170172214508057 0.62103128433227539
0.73529744148254395 0.99355274438858032 0.61835986375808716
0.78328686952590942 0.99564105272293091 0.62067228555679321
0.83140230178833008 0.99927538633346558 0.6082690954208374
0.88541853427886963 0.99991071224212646 0.59182929992675781
0.94238799810409546 0.99940919876098633 0.55946630239486694
0.98723536729812622 1 0.47509545087814331
1 1 0.35678756237030029
0.027955582365393639 0.027495231479406357 0.064413420855998993
0.072074383497238159 0.027350347489118576 0.065709240734577179
0.12780334055423737 0.029412407428026199 0.06837279349565506
0.18976281583309174 0.034731920808553696 0.069688774645328522
0.2608884871006012 0.041120819747447968 0.071822360157966614
0.34161597490310669 0.047570772469043732 0.075334556400775909
0.43239429593086243 0.054602064192295074 0.078927658498287201
0.52950185537338257 0.060318142175674438 0.089559681713581085
0.62701952457427979 0.06241283193230629 0.11308456212282181
0.72214293479919434 0.064760200679302216 0.14191624522209167
0.81387901306152344 0.073511280119419098 0.17075072228908539
0.9008173942565918 0.091511130332946777 0.19622884690761566
0.97716885805130005 0.11307734996080399 0.21578297019004822
0.053408842533826828 0.085094541311264038 0.084157906472682953
0.087148062884807587 0.085363693535327911 0.08442281186580658
0.13652005791664124 0.086560361087322235 0.08498808741569519
0.19844990968704224 0.090319447219371796 0.084995508193969727
0.27078989148139954 0.096435755491256714 0.085010871291160583
0.35296893119812012 0.10338360816240311 0.084833495318889618
0.44451311230659485 0.11006940901279449 0.083079874515533447
0.54195785522460938 0.11281153559684753 0.088790670037269592
0.6389230489730835 0.10972114652395248 0.10802499949932098
0.73205685615539551 0.10210499167442322 0.13619783520698547
0.82140076160430908 0.097917892038822174 0.16780188679695129
0.90604805946350098 0.10472234338521957 0.19565886259078979
0.98040837049484253 0.12166478484869003 0.21613553166389465
0.088860549032688141 0.14701610803604126 0.10654433071613312
0.11137519031763077 0.14800365269184113 0.10534163564443588
0.1522487998008728 0.14995186030864716 0.1059320941567421
0.21250486373901367 0.15325382351875305 0.10687043517827988
0.2851530909538269 0.15878641605377197 0.10852363705635071
0.36770424246788025 0.16559703648090363 0.10706621408462524
0.45933431386947632 0.17211900651454926 0.10045652091503143
0.55579280853271484 0.1742987334728241 0.099319040775299072
0.6517791748046875 0.17070654034614563 0.10601392388343811
0.74385327100753784 0.15949022769927979 0.12361913919448853
0.83048081398010254 0.1429804265499115 0.15311650931835175
0.91130822896957397 0.13268962502479553 0.18589726090431213
0.98211854696273804 0.13728010654449463 0.21059201657772064
0.10721097141504288 0.22000764310359955 0.13192087411880493
0.13068525493144989 0.21930713951587677 0.12945051491260529
0.1704665869474411 0.22135822474956512 0.12942977249622345
0.22960834205150604 0.22557595372200012 0.13030219078063965
0.30182793736457825 0.23181615769863129 0.13137347996234894
0.38452672958374023 0.23842628300189972 0.12895098328590393
0.47610211372375488 0.24359512329101562 0.12261196970939636
0.57160693407058716 0.24570237100124359 0.11674134433269501
0.66648328304290771 0.24431711435317993 0.11060915142297745
0.7574581503868103 0.23550133407115936 0.11173337697982788
0.84267210960388184 0.21426372230052948 0.13215777277946472
0.92008429765701294 0.1892399787902832 0.16729100048542023
0.98542952537536621 0.17785957455635071 0.19825808703899384
0.11252715438604355 0.30431279540061951 0.15942056477069855
0.14130698144435883 0.30200794339179993 0.15589576959609985
0.18532432615756989 0.30382436513900757 0.15459467470645905
0.24633289873600006 0.30943912267684937 0.15395210683345795
0.32002413272857666 0.31679770350456238 0.15210403501987457
0.40312835574150085 0.32329258322715759 0.14868797361850739
0.49375423789024353 0.32756546139717102 0.1424713134765625
0.58801627159118652 0.33042201399803162 0.13293993473052979
0.68167793750762939 0.33183938264846802 0.1174919456243515
0.77212947607040405 0.32895752787590027 0.10335279256105423
0.85701823234558105 0.30950239300727844 0.11026453971862793
0.9313194751739502 0.27554255723953247 0.14361767470836639
0.98936492204666138 0.24867859482765198 0.17997102439403534
0.12110758572816849 0.39747506380081177 0.18918044865131378
0.15365108847618103 0.39578521251678467 0.1847350150346756
0.20163522660732269 0.39776957035064697 0.18286518752574921
0.26487571001052856 0.40391382575035095 0.18110275268554688
0.33955639600753784 0.41082823276519775 0.17844818532466888
0.422556072473526 0.417510986328125 0.17344754934310913
0.51175355911254883 0.42304909229278564 0.16468335688114166
0.60429561138153076 0.42800217866897583 0.15036366879940033
0.69666570425033569 0.43287718296051025 0.12896095216274261
0.78720468282699585 0.43395343422889709 0.10454832762479782
0.87257736921310425 0.42231246829032898 0.093425139784812927
0.94341456890106201 0.38990667462348938 0.11488602310419083
0.99244135618209839 0.3533790111541748 0.15138398110866547
0.14015109837055206 0.49660885334014893 0.22306452691555023
0.17570874094963074 0.49669229984283447 0.21877524256706238
0.22594235837459564 0.49951949715614319 0.21661026775836945
0.2891712486743927 0.50501012802124023 0.21516036987304688
0.36279863119125366 0.51085048913955688 0.21227507293224335
0.44377979636192322 0.51756173372268677 0.20607037842273712
0.53005766868591309 0.52490192651748657 0.19459520280361176
0.61974388360977173 0.53262078762054443 0.17631739377975464
0.71107256412506104 0.54055947065353394 0.14922963082790375
0.80208128690719604 0.54729509353637695 0.11420979350805283
0.88798874616622925 0.54687237739562988 0.083097107708454132
0.95621639490127563 0.5255851149559021 0.08041875809431076
0.99509263038635254 0.4882807731628418 0.10757365822792053
0.17517741024494171 0.59630304574966431 0.2654058039188385
0.21211360394954681 0.59798246622085571 0.26204144954681396
0.26206761598587036 0.60079246759414673 0.26094010472297668
0.32281658053398132 0.60535359382629395 0.2597619891166687
0.39230233430862427 0.61069625616073608 0.25667354464530945
0.46867868304252625 0.61763632297515869 0.24965797364711761
0.55029553174972534 0.62598234415054321 0.23718808591365814
0.63576334714889526 0.63535505533218384 0.21693965792655945
0.72404825687408447 0.64582473039627075 0.18584766983985901
0.81383234262466431 0.65750157833099365 0.14060181379318237
0.89928352832794189 0.66602343320846558 0.08806195855140686
0.96688359975814819 0.65828949213027954 0.051348965615034103
0.99898117780685425 0.63416832685470581 0.043740157037973404
0.23010529577732086 0.69173777103424072 0.31976935267448425
0.26536238193511963 0.69441753625869751 0.31754451990127563
0.31180521845817566 0.69683277606964111 0.31768524646759033
0.36670574545860291 0.70051205158233643 0.31640732288360596
0.42939156293869019 0.70585089921951294 0.31233909726142883
0.49886372685432434 0.7131657600402832 0.30494475364685059
0.57380831241607666 0.72185021638870239 0.29301130771636963
0.65307021141052246 0.73165929317474365 0.27384015917778015
0.73542839288711548 0.74245822429656982 0.24236544966697693
0.82139170169830322 0.75657719373703003 0.18988771736621857
0.90564829111099243 0.77116525173187256 0.1148144006729126
0.97464901208877563 0.77590888738632202 0.037561170756816864
1 0.76739799976348877 0.0025881149340420961
0.30224201083183289 0.78036439418792725 0.38616219162940979
0.33427673578262329 0.78329110145568848 0.3859010636806488
0.37404462695121765 0.7853965163230896 0.38644847273826599
0.42060229182243347 0.78849160671234131 0.384572833776474
0.47454437613487244 0.79397130012512207 0.37910905480384827
0.53509944677352905 0.80142313241958618 0.37062141299247742
0.60209363698959351 0.81022542715072632 0.36034870147705078
0.67333292961120605 0.82025682926177979 0.34452483057975769
0.74823105335235596 0.83126592636108398 0.3171144425868988
0.82749694585800171 0.84574204683303833 0.26586136221885681
0.90759772062301636 0.86348080635070801 0.17643214762210846
0.97324550151824951 0.87762612104415894 0.062368117272853851
0.99981027841567993 0.88025224208831787 0.0017871632007881999
0.38863211870193481 0.85963594913482666 0.46525847911834717
0.41589519381523132 0.86266517639160156 0.46672075986862183
0.44722253084182739 0.86456072330474854 0.46770688891410828
0.48322343826293945 0.8672250509262085 0.46449747681617737
0.52670365571975708 0.87256640195846558 0.45659220218658447
0.5778084397315979 0.8802531361579895 0.44582948088645935
0.63644087314605713 0.8886716365814209 0.43750244379043579
0.69951027631759644 0.89854592084884644 0.42741212248802185
0.7659955620765686 0.91063851118087769 0.40600836277008057
0.83687722682952881 0.92384630441665649 0.36599558591842651
0.90784329175949097 0.94000792503356934 0.28845357894897461
0.96487689018249512 0.9562113881111145 0.15358258783817291
0.99723553657531738 0.96296113729476929 0.027764039114117622
0.48267659544944763 0.92785650491714478 0.55476683378219604
0.50414919853210449 0.93092232942581177 0.55687284469604492
0.52651834487915039 0.93267863988876343 0.55723649263381958
0.55289977788925171 0.93492764234542847 0.55429816246032715
0.58653485774993896 0.93989211320877075 0.54557555913925171
0.62845277786254883 0.94687932729721069 0.53313064575195312
0.67854654788970947 0.95340019464492798 0.52759718894958496
0.7338373064994812 0.96137076616287231 0.52340459823608398
0.79141438007354736 0.97237592935562134 0.50793766975402832
0.8539237380027771 0.98026323318481445 0.48481893539428711
0.91639560461044312 0.98650991916656494 0.43401089310646057
0.96640920639038086 0.993946373462677 0.31348791718482971
0.99681633710861206 0.99807411432266235 0.15464723110198975
0.57061940431594849 0.98385536670684814 0.64327675104141235
0.58802622556686401 0.98658323287963867 0.64571648836135864
0.60436767339706421 0.98792552947998047 0.64685118198394775
0.62437987327575684 0.98887437582015991 0.64595645666122437
0.65114575624465942 0.99128597974777222 0.64023005962371826
0.68596720695495605 0.99402904510498047 0.63238829374313354
0.72869455814361572 0.99598020315170288 0.63002389669418335
0.7764168381690979 0.99804341793060303 0.6297183632850647
0.82675349712371826 0.99975496530532837 0.62261706590652466
0.88114935159683228 1 0.61162734031677246
0.93618184328079224 1 0.58334213495254517
0.98314350843429565 1 0.5116390585899353
0.9999203085899353 1 0.38158899545669556
0.025731360539793968 0.027142304927110672 0.10719326138496399
0.066133223474025726 0.025594480335712433 0.1058768630027771
0.11875069141387939 0.027677364647388458 0.10666448622941971
0.18141835927963257 0.032168325036764145 0.10758590698242188
0.25446933507919312 0.038428317755460739 0.1094956174492836
0.33726692199707031 0.045955508947372437 0.11121067404747009
0.42938974499702454 0.055324509739875793 0.10998824238777161
0.5283808708190918 0.064311042428016663 0.11051544547080994
0.62772512435913086 0.069118484854698181 0.12216983735561371
0.72377943992614746 0.070737220346927643 0.14436823129653931
0.81544661521911621 0.077567033469676971 0.16957294940948486
0.90122455358505249 0.09248034656047821 0.19361405074596405
0.97730302810668945 0.10989709198474884 0.2144879549741745
0.048820838332176208 0.081992298364639282 0.1269831657409668
0.082436896860599518 0.081561341881752014 0.12586493790149689
0.12949675321578979 0.083373501896858215 0.12561666965484619
0.19104556739330292 0.087128989398479462 0.12580321729183197
0.2644597589969635 0.092748172581195831 0.126445472240448
0.34767982363700867 0.099719151854515076 0.12575450539588928
0.44055533409118652 0.10790190100669861 0.12116925418376923
0.53960186243057251 0.11497129499912262 0.1167249009013176
0.63906300067901611 0.11709114164113998 0.11993669718503952
0.73323500156402588 0.10968296974897385 0.13960856199264526
0.82229673862457275 0.10345897078514099 0.16674251854419708
0.90687102079391479 0.10707098245620728 0.19322852790355682
0.98113834857940674 0.1185055747628212 0.21556690335273743
0.077790156006813049 0.14409124851226807 0.14949852228164673
0.10515959560871124 0.14406830072402954 0.14835889637470245
0.14589887857437134 0.14653904736042023 0.14824487268924713
0.2063664048910141 0.15031960606575012 0.14854742586612701
0.27966499328613281 0.15561456978321075 0.14894773066043854
0.36259481310844421 0.1618829071521759 0.14705100655555725
0.45523002743721008 0.16809143126010895 0.14182381331920624
0.55332291126251221 0.17342747747898102 0.13400278985500336
0.6514892578125 0.17652831971645355 0.12460404634475708
0.7450709342956543 0.1696355789899826 0.12824253737926483
0.83192116022109985 0.15285079181194305 0.15110693871974945
0.91292685270309448 0.13766466081142426 0.18304230272769928
0.98385822772979736 0.13464339077472687 0.21064235270023346
0.095746360719203949 0.21620394289493561 0.17378875613212585
0.12257163971662521 0.21559056639671326 0.17175275087356567
0.16404801607131958 0.21817314624786377 0.1715572327375412
0.22497564554214478 0.22276018559932709 0.1716332733631134
0.29759073257446289 0.22889985144138336 0.17095315456390381
0.37910458445549011 0.23504605889320374 0.16828794777393341
0.47175303101539612 0.23895610868930817 0.16471606492996216
0.56863057613372803 0.24248751997947693 0.15604753792285919
0.66488462686538696 0.24606071412563324 0.14042320847511292
0.75725024938583374 0.24231550097465515 0.12733307480812073
0.84411972761154175 0.22399008274078369 0.13538575172424316
0.9224855899810791 0.1965753585100174 0.16478602588176727
0.98688435554504395 0.17763783037662506 0.19748030602931976
0.10315358638763428 0.29980817437171936 0.1998935341835022
0.13231627643108368 0.29852953553199768 0.19689123332500458
0.17823085188865662 0.30097287893295288 0.19588424265384674
0.24156759679317474 0.30591791868209839 0.19503164291381836
0.31510835886001587 0.31275790929794312 0.1928023099899292
0.39752370119094849 0.31884667277336121 0.1895136684179306
0.48990190029144287 0.32241839170455933 0.18503513932228088
0.5849195122718811 0.32645931839942932 0.17430754005908966
0.67879199981689453 0.33059576153755188 0.15461632609367371
