films/agfa_apx_100.cube
# Created by: G'MIC (https://gmic.eu)
TITLE "agfa_apx_100"
# LUT size
LUT_3D_SIZE 13
# Data domain
DOMAIN_MIN 0.0 0.0 0.0
DOMAIN_MAX 1.0 1.0 1.0
# LUT data points
0.065274856984615326 0.065274856984615326 0.065274856984615326
0.077732622623443604 0.077732622623443604 0.077732622623443604
0.094575710594654083 0.094575710594654083 0.094575710594654083
0.11144844442605972 0.11144844442605972 0.11144844442605972
0.12643404304981232 0.12643404304981232 0.12643404304981232
0.14127530157566071 0.14127530157566071 0.14127530157566071
0.16171503067016602 0.16171503067016602 0.16171503067016602
0.20084933936595917 0.20084933936595917 0.20084933936595917
0.25267896056175232 0.25267896056175232 0.25267896056175232
0.30800020694732666 0.30800020694732666 0.30800020694732666
0.36338812112808228 0.36338812112808228 0.36338812112808228
0.41648128628730774 0.41648128628730774 0.41648128628730774
0.46605750918388367 0.46605750918388367 0.46605750918388367
0.14221800863742828 0.14221800863742828 0.14221800863742828
0.1488577276468277 0.1488577276468277 0.1488577276468277
0.16171005368232727 0.16171005368232727 0.16171005368232727
0.17616476118564606 0.17616476118564606 0.17616476118564606
0.19110383093357086 0.19110383093357086 0.19110383093357086
0.20778845250606537 0.20778845250606537 0.20778845250606537
0.23082301020622253 0.23082301020622253 0.23082301020622253
0.26635167002677917 0.26635167002677917 0.26635167002677917
0.31222793459892273 0.31222793459892273 0.31222793459892273
0.36414754390716553 0.36414754390716553 0.36414754390716553
0.41808429360389709 0.41808429360389709 0.41808429360389709
0.47056347131729126 0.47056347131729126 0.47056347131729126
0.51901042461395264 0.51901042461395264 0.51901042461395264
0.23010371625423431 0.23010371625423431 0.23010371625423431
0.23213912546634674 0.23213912546634674 0.23213912546634674
0.23953020572662354 0.23953020572662354 0.23953020572662354
0.25099620223045349 0.25099620223045349 0.25099620223045349
0.26633033156394958 0.26633033156394958 0.26633033156394958
0.28490284085273743 0.28490284085273743 0.28490284085273743
0.30900982022285461 0.30900982022285461 0.30900982022285461
0.34037548303604126 0.34037548303604126 0.34037548303604126
0.38052043318748474 0.38052043318748474 0.38052043318748474
0.4276716411113739 0.4276716411113739 0.4276716411113739
0.47844985127449036 0.47844985127449036 0.47844985127449036
0.52863770723342896 0.52863770723342896 0.52863770723342896
0.57444757223129272 0.57444757223129272 0.57444757223129272
0.32381036877632141 0.32381036877632141 0.32381036877632141
0.32203948497772217 0.32203948497772217 0.32203948497772217
0.32419019937515259 0.32419019937515259 0.32419019937515259
0.33266285061836243 0.33266285061836243 0.33266285061836243
0.3486291766166687 0.3486291766166687 0.3486291766166687
0.36894580721855164 0.36894580721855164 0.36894580721855164
0.39241966605186462 0.39241966605186462 0.39241966605186462
0.4200955331325531 0.4200955331325531 0.4200955331325531
0.45405188202857971 0.45405188202857971 0.45405188202857971
0.49567624926567078 0.49567624926567078 0.49567624926567078
0.54200810194015503 0.54200810194015503 0.54200810194015503
0.58821725845336914 0.58821725845336914 0.58821725845336914
0.62967365980148315 0.62967365980148315 0.62967365980148315
0.42151680588722229 0.42151680588722229 0.42151680588722229
0.41741275787353516 0.41741275787353516 0.41741275787353516
0.41476979851722717 0.41476979851722717 0.41476979851722717
0.42031672596931458 0.42031672596931458 0.42031672596931458
0.43723949790000916 0.43723949790000916 0.43723949790000916
0.45832285284996033 0.45832285284996033 0.45832285284996033
0.48044976592063904 0.48044976592063904 0.48044976592063904
0.50418233871459961 0.50418233871459961 0.50418233871459961
0.53218090534210205 0.53218090534210205 0.53218090534210205
0.56731683015823364 0.56731683015823364 0.56731683015823364
0.60744863748550415 0.60744863748550415 0.60744863748550415
0.64784485101699829 0.64784485101699829 0.64784485101699829
0.68464100360870361 0.68464100360870361 0.68464100360870361
0.52161049842834473 0.52161049842834473 0.52161049842834473
0.51643288135528564 0.51643288135528564 0.51643288135528564
0.51208806037902832 0.51208806037902832 0.51208806037902832
0.51580005884170532 0.51580005884170532 0.51580005884170532
0.53092783689498901 0.53092783689498901 0.53092783689498901
0.5512661337852478 0.5512661337852478 0.5512661337852478
0.57133424282073975 0.57133424282073975 0.57133424282073975
0.59068280458450317 0.59068280458450317 0.59068280458450317
0.61211627721786499 0.61211627721786499 0.61211627721786499
0.63938754796981812 0.63938754796981812 0.63938754796981812
0.67188823223114014 0.67188823223114014 0.67188823223114014
0.70641601085662842 0.70641601085662842 0.70641601085662842
0.73775726556777954 0.73775726556777954 0.73775726556777954
0.61965000629425049 0.61965000629425049 0.61965000629425049
0.61349457502365112 0.61349457502365112 0.61349457502365112
0.6082608699798584 0.6082608699798584 0.6082608699798584
0.61112165451049805 0.61112165451049805 0.61112165451049805
0.62396436929702759 0.62396436929702759 0.62396436929702759
0.64285504817962646 0.64285504817962646 0.64285504817962646
0.66073846817016602 0.66073846817016602 0.66073846817016602
0.67367511987686157 0.67367511987686157 0.67367511987686157
0.68777638673782349 0.68777638673782349 0.68777638673782349
0.70721006393432617 0.70721006393432617 0.70721006393432617
0.73177063465118408 0.73177063465118408 0.73177063465118408
0.75933611392974854 0.75933611392974854 0.75933611392974854
0.7854575514793396 0.7854575514793396 0.7854575514793396
0.70532053709030151 0.70532053709030151 0.70532053709030151
0.69809794425964355 0.69809794425964355 0.69809794425964355
0.69313174486160278 0.69313174486160278 0.69313174486160278
0.69533294439315796 0.69533294439315796 0.69533294439315796
0.70628046989440918 0.70628046989440918 0.70628046989440918
0.72367918491363525 0.72367918491363525 0.72367918491363525
0.73961573839187622 0.73961573839187622 0.73961573839187622
0.74599260091781616 0.74599260091781616 0.74599260091781616
0.75366157293319702 0.75366157293319702 0.75366157293319702
0.76656931638717651 0.76656931638717651 0.76656931638717651
0.78389543294906616 0.78389543294906616 0.78389543294906616
0.80393892526626587 0.80393892526626587 0.80393892526626587
0.82299035787582397 0.82299035787582397 0.82299035787582397
0.76534372568130493 0.76534372568130493 0.76534372568130493
0.76374125480651855 0.76374125480651855 0.76374125480651855
0.76174890995025635 0.76174890995025635 0.76174890995025635
0.76433444023132324 0.76433444023132324 0.76433444023132324
0.77279752492904663 0.77279752492904663 0.77279752492904663
0.78563898801803589 0.78563898801803589 0.78563898801803589
0.79676765203475952 0.79676765203475952 0.79676765203475952
0.80245876312255859 0.80245876312255859 0.80245876312255859
0.80782532691955566 0.80782532691955566 0.80782532691955566
0.81627100706100464 0.81627100706100464 0.81627100706100464
0.82839632034301758 0.82839632034301758 0.82839632034301758
0.84230577945709229 0.84230577945709229 0.84230577945709229
0.85616034269332886 0.85616034269332886 0.85616034269332886
0.81053125858306885 0.81053125858306885 0.81053125858306885
0.8137546181678772 0.8137546181678772 0.8137546181678772
0.81531679630279541 0.81531679630279541 0.81531679630279541
0.81861621141433716 0.81861621141433716 0.81861621141433716
0.82514595985412598 0.82514595985412598 0.82514595985412598
0.83364111185073853 0.83364111185073853 0.83364111185073853
0.84123796224594116 0.84123796224594116 0.84123796224594116
0.8466346263885498 0.8466346263885498 0.8466346263885498
0.8515089750289917 0.8515089750289917 0.8515089750289917
0.85790717601776123 0.85790717601776123 0.85790717601776123
0.8662879467010498 0.8662879467010498 0.8662879467010498
0.87610167264938354 0.87610167264938354 0.87610167264938354
0.88658374547958374 0.88658374547958374 0.88658374547958374
0.84818881750106812 0.84818881750106812 0.84818881750106812
0.85391539335250854 0.85391539335250854 0.85391539335250854
0.85789716243743896 0.85789716243743896 0.85789716243743896
0.86191052198410034 0.86191052198410034 0.86191052198410034
0.86705058813095093 0.86705058813095093 0.86705058813095093
0.87299489974975586 0.87299489974975586 0.87299489974975586
0.87848323583602905 0.87848323583602905 0.87848323583602905
0.8833196759223938 0.8833196759223938 0.8833196759223938
0.88771498203277588 0.88771498203277588 0.88771498203277588
0.89284157752990723 0.89284157752990723 0.89284157752990723
0.89920413494110107 0.89920413494110107 0.89920413494110107
0.90657949447631836 0.90657949447631836 0.90657949447631836
0.91449141502380371 0.91449141502380371 0.91449141502380371
0.88073408603668213 0.88073408603668213 0.88073408603668213
0.88751089572906494 0.88751089572906494 0.88751089572906494
0.89257156848907471 0.89257156848907471 0.89257156848907471
0.89714938402175903 0.89714938402175903 0.89714938402175903
0.90175962448120117 0.90175962448120117 0.90175962448120117
0.90634214878082275 0.90634214878082275 0.90634214878082275
0.91087979078292847 0.91087979078292847 0.91087979078292847
0.91487956047058105 0.91487956047058105 0.91487956047058105
0.91886401176452637 0.91886401176452637 0.91886401176452637
0.92339920997619629 0.92339920997619629 0.92339920997619629
0.92840415239334106 0.92840415239334106 0.92840415239334106
0.93419677019119263 0.93419677019119263 0.93419677019119263
0.94045710563659668 0.94045710563659668 0.94045710563659668
0.9091646671295166 0.9091646671295166 0.9091646671295166
0.9164389967918396 0.9164389967918396 0.9164389967918396
0.92210263013839722 0.92210263013839722 0.92210263013839722
0.92683166265487671 0.92683166265487671 0.92683166265487671
0.9312131404876709 0.9312131404876709 0.9312131404876709
0.93525195121765137 0.93525195121765137 0.93525195121765137
0.93914616107940674 0.93914616107940674 0.93914616107940674
0.94288343191146851 0.94288343191146851 0.94288343191146851
0.94655042886734009 0.94655042886734009 0.94655042886734009
0.95042091608047485 0.95042091608047485 0.95042091608047485
0.95483386516571045 0.95483386516571045 0.95483386516571045
0.95966368913650513 0.95966368913650513 0.95966368913650513
0.965096116065979 0.965096116065979 0.965096116065979
0.091909714043140411 0.091909714043140411 0.091909714043140411
0.101795494556427 0.101795494556427 0.101795494556427
0.11864142119884491 0.11864142119884491 0.11864142119884491
0.13564342260360718 0.13564342260360718 0.13564342260360718
0.15109288692474365 0.15109288692474365 0.15109288692474365
0.16753305494785309 0.16753305494785309 0.16753305494785309
0.19092509150505066 0.19092509150505066 0.19092509150505066
0.22743754088878632 0.22743754088878632 0.22743754088878632
0.27520602941513062 0.27520602941513062 0.27520602941513062
0.32953226566314697 0.32953226566314697 0.32953226566314697
0.38580220937728882 0.38580220937728882 0.38580220937728882
0.4411676824092865 0.4411676824092865 0.4411676824092865
0.49271649122238159 0.49271649122238159 0.49271649122238159
0.16457228362560272 0.16457228362560272 0.16457228362560272
0.17148841917514801 0.17148841917514801 0.17148841917514801
0.18490557372570038 0.18490557372570038 0.18490557372570038
0.19994604587554932 0.19994604587554932 0.19994604587554932
0.2147849053144455 0.2147849053144455 0.2147849053144455
0.23164013028144836 0.23164013028144836 0.23164013028144836
0.25484552979469299 0.25484552979469299 0.25484552979469299
0.28866827487945557 0.28866827487945557 0.28866827487945557
0.33292332291603088 0.33292332291603088 0.33292332291603088
0.38457614183425903 0.38457614183425903 0.38457614183425903
0.44034978747367859 0.44034978747367859 0.44034978747367859
0.49520450830459595 0.49520450830459595 0.49520450830459595
0.54560041427612305 0.54560041427612305 0.54560041427612305
0.24943166971206665 0.24943166971206665 0.24943166971206665
0.25214383006095886 0.25214383006095886 0.25214383006095886
0.26035484671592712 0.26035484671592712 0.26035484671592712
0.27233761548995972 0.27233761548995972 0.27233761548995972
0.28754183650016785 0.28754183650016785 0.28754183650016785
0.30597725510597229 0.30597725510597229 0.30597725510597229
0.3288818895816803 0.3288818895816803 0.3288818895816803
0.35897922515869141 0.35897922515869141 0.35897922515869141
0.39772841334342957 0.39772841334342957 0.39772841334342957
0.44565132260322571 0.44565132260322571 0.44565132260322571
0.49918550252914429 0.49918550252914429 0.49918550252914429
0.55253082513809204 0.55253082513809204 0.55253082513809204
0.60064095258712769 0.60064095258712769 0.60064095258712769
0.34110164642333984 0.34110164642333984 0.34110164642333984
0.34001842141151428 0.34001842141151428 0.34001842141151428
0.34213805198669434 0.34213805198669434 0.34213805198669434
0.35084065794944763 0.35084065794944763 0.35084065794944763
0.3670954704284668 0.3670954704284668 0.3670954704284668
0.38692417740821838 0.38692417740821838 0.38692417740821838
0.40940779447555542 0.40940779447555542 0.40940779447555542
0.43499630689620972 0.43499630689620972 0.43499630689620972
0.4669642448425293 0.4669642448425293 0.4669642448425293
0.51021850109100342 0.51021850109100342 0.51021850109100342
0.56008338928222656 0.56008338928222656 0.56008338928222656
0.60947668552398682 0.60947668552398682 0.60947668552398682
0.65322417020797729 0.65322417020797729 0.65322417020797729
0.43703761696815491 0.43703761696815491 0.43703761696815491
0.43318402767181396 0.43318402767181396 0.43318402767181396
0.42984744906425476 0.42984744906425476 0.42984744906425476
0.43500354886054993 0.43500354886054993 0.43500354886054993
0.45283347368240356 0.45283347368240356 0.45283347368240356
0.47392338514328003 0.47392338514328003 0.47392338514328003
0.49505218863487244 0.49505218863487244 0.49505218863487244
0.51689153909683228 0.51689153909683228 0.51689153909683228
0.54282093048095703 0.54282093048095703 0.54282093048095703
0.57954192161560059 0.57954192161560059 0.57954192161560059
0.62258988618850708 0.62258988618850708 0.62258988618850708
0.6653706431388855 0.6653706431388855 0.6653706431388855
0.7028878927230835 0.7028878927230835 0.7028878927230835
0.53437513113021851 0.53437513113021851 0.53437513113021851
0.53007179498672485 0.53007179498672485 0.53007179498672485
0.52516341209411621 0.52516341209411621 0.52516341209411621
0.52919536828994751 0.52919536828994751 0.52919536828994751
0.54473239183425903 0.54473239183425903 0.54473239183425903
0.56413865089416504 0.56413865089416504 0.56413865089416504
0.58332329988479614 0.58332329988479614 0.58332329988479614
0.60185164213180542 0.60185164213180542 0.60185164213180542
0.6230844259262085 0.6230844259262085 0.6230844259262085
0.65114313364028931 0.65114313364028931 0.65114313364028931
0.68470591306686401 0.68470591306686401 0.68470591306686401
0.71932685375213623 0.71932685375213623 0.71932685375213623
0.75061792135238647 0.75061792135238647 0.75061792135238647
0.62806993722915649 0.62806993722915649 0.62806993722915649
0.62416428327560425 0.62416428327560425 0.62416428327560425
0.62048423290252686 0.62048423290252686 0.62048423290252686
0.62354540824890137 0.62354540824890137 0.62354540824890137
0.63540410995483398 0.63540410995483398 0.63540410995483398
0.65239554643630981 0.65239554643630981 0.65239554643630981
0.66861802339553833 0.66861802339553833 0.66861802339553833
0.68256056308746338 0.68256056308746338 0.68256056308746338
0.69775068759918213 0.69775068759918213 0.69775068759918213
0.7178613543510437 0.7178613543510437 0.7178613543510437
0.74237000942230225 0.74237000942230225 0.74237000942230225
0.76911365985870361 0.76911365985870361 0.76911365985870361
0.79409283399581909 0.79409283399581909 0.79409283399581909
0.70939022302627563 0.70939022302627563 0.70939022302627563
0.70691210031509399 0.70691210031509399 0.70691210031509399
0.7040446400642395 0.7040446400642395 0.7040446400642395
0.70664727687835693 0.70664727687835693 0.70664727687835693
0.71617680788040161 0.71617680788040161 0.71617680788040161
0.73025047779083252 0.73025047779083252 0.73025047779083252
0.743336021900177 0.743336021900177 0.743336021900177
0.75274378061294556 0.75274378061294556 0.75274378061294556
0.76253664493560791 0.76253664493560791 0.76253664493560791
0.77599388360977173 0.77599388360977173 0.77599388360977173
0.79328638315200806 0.79328638315200806 0.79328638315200806
0.81269699335098267 0.81269699335098267 0.81269699335098267
0.83135819435119629 0.83135819435119629 0.83135819435119629
0.77226263284683228 0.77226263284683228 0.77226263284683228
0.7728729248046875 0.7728729248046875 0.7728729248046875
0.77220547199249268 0.77220547199249268 0.77220547199249268
0.77475374937057495 0.77475374937057495 0.77475374937057495
0.78217267990112305 0.78217267990112305 0.78217267990112305
0.79261916875839233 0.79261916875839233 0.79261916875839233
0.80233269929885864 0.80233269929885864 0.80233269929885864
0.80921858549118042 0.80921858549118042 0.80921858549118042
0.81577479839324951 0.81577479839324951 0.81577479839324951
0.82472360134124756 0.82472360134124756 0.82472360134124756
0.83663344383239746 0.83663344383239746 0.83663344383239746
0.85015875101089478 0.85015875101089478 0.85015875101089478
0.86394065618515015 0.86394065618515015 0.86394065618515015
0.82013511657714844 0.82013511657714844 0.82013511657714844
0.82380449771881104 0.82380449771881104 0.82380449771881104
0.82572257518768311 0.82572257518768311 0.82572257518768311
0.82886850833892822 0.82886850833892822 0.82886850833892822
0.8345034122467041 0.8345034122467041 0.8345034122467041
0.84163308143615723 0.84163308143615723 0.84163308143615723
0.84851926565170288 0.84851926565170288 0.84851926565170288
0.85390686988830566 0.85390686988830566 0.85390686988830566
0.85907256603240967 0.85907256603240967 0.85907256603240967
0.86539155244827271 0.86539155244827271 0.86539155244827271
0.87380498647689819 0.87380498647689819 0.87380498647689819
0.88352930545806885 0.88352930545806885 0.88352930545806885
0.89375239610671997 0.89375239610671997 0.89375239610671997
0.85912758111953735 0.85912758111953735 0.85912758111953735
0.86447006464004517 0.86447006464004517 0.86447006464004517
0.86812961101531982 0.86812961101531982 0.86812961101531982
0.87189632654190063 0.87189632654190063 0.87189632654190063
0.8762391209602356 0.8762391209602356 0.8762391209602356
0.8812747597694397 0.8812747597694397 0.8812747597694397
0.88623964786529541 0.88623964786529541 0.88623964786529541
0.89070796966552734 0.89070796966552734 0.89070796966552734
0.89499050378799438 0.89499050378799438 0.89499050378799438
0.90004009008407593 0.90004009008407593 0.90004009008407593
0.90622586011886597 0.90622586011886597 0.90622586011886597
0.91339397430419922 0.91339397430419922 0.91339397430419922
0.92129504680633545 0.92129504680633545 0.92129504680633545
0.89170259237289429 0.89170259237289429 0.89170259237289429
0.89804744720458984 0.89804744720458984 0.89804744720458984
0.90272367000579834 0.90272367000579834 0.90272367000579834
0.90675234794616699 0.90675234794616699 0.90675234794616699
0.91063809394836426 0.91063809394836426 0.91063809394836426
0.91450303792953491 0.91450303792953491 0.91450303792953491
0.9184877872467041 0.9184877872467041 0.9184877872467041
0.92216771841049194 0.92216771841049194 0.92216771841049194
0.92592746019363403 0.92592746019363403 0.92592746019363403
0.93022555112838745 0.93022555112838745 0.93022555112838745
0.93509387969970703 0.93509387969970703 0.93509387969970703
0.94070082902908325 0.94070082902908325 0.94070082902908325
0.94716560840606689 0.94716560840606689 0.94716560840606689
0.92003113031387329 0.92003113031387329 0.92003113031387329
0.92677503824234009 0.92677503824234009 0.92677503824234009
0.93194985389709473 0.93194985389709473 0.93194985389709473
0.93615877628326416 0.93615877628326416 0.93615877628326416
0.93985903263092041 0.93985903263092041 0.93985903263092041
0.94326388835906982 0.94326388835906982 0.94326388835906982
0.94662243127822876 0.94662243127822876 0.94662243127822876
0.94995337724685669 0.94995337724685669 0.94995337724685669
0.9533156156539917 0.9533156156539917 0.9533156156539917
0.95711356401443481 0.95711356401443481 0.95711356401443481
0.96139848232269287 0.96139848232269287 0.96139848232269287
0.9662550687789917 0.9662550687789917 0.9662550687789917
0.97169941663742065 0.97169941663742065 0.97169941663742065
0.12399425357580185 0.12399425357580185 0.12399425357580185
0.13384184241294861 0.13384184241294861 0.13384184241294861
0.15186941623687744 0.15186941623687744 0.15186941623687744
0.17036245763301849 0.17036245763301849 0.17036245763301849
0.18522939085960388 0.18522939085960388 0.18522939085960388
0.20218226313591003 0.20218226313591003 0.20218226313591003
0.22659201920032501 0.22659201920032501 0.22659201920032501
0.26081416010856628 0.26081416010856628 0.26081416010856628
0.304949551820755 0.304949551820755 0.304949551820755
0.35683858394622803 0.35683858394622803 0.35683858394622803
0.4131753146648407 0.4131753146648407 0.4131753146648407
0.4696563184261322 0.4696563184261322 0.4696563184261322
0.52210921049118042 0.52210921049118042 0.52210921049118042
0.19406844675540924 0.19406844675540924 0.19406844675540924
0.2020111083984375 0.2020111083984375 0.2020111083984375
0.21750766038894653 0.21750766038894653 0.21750766038894653
0.23392978310585022 0.23392978310585022 0.23392978310585022
0.24795210361480713 0.24795210361480713 0.24795210361480713
0.26458677649497986 0.26458677649497986 0.26458677649497986
0.28748834133148193 0.28748834133148193 0.28748834133148193
0.31927818059921265 0.31927818059921265 0.31927818059921265
0.36096104979515076 0.36096104979515076 0.36096104979515076
0.41110524535179138 0.41110524535179138 0.41110524535179138
0.46687370538711548 0.46687370538711548 0.46687370538711548
0.52357941865921021 0.52357941865921021 0.52357941865921021
0.57524800300598145 0.57524800300598145 0.57524800300598145
0.27557751536369324 0.27557751536369324 0.27557751536369324
0.28025075793266296 0.28025075793266296 0.28025075793266296
0.29037237167358398 0.29037237167358398 0.29037237167358398
0.30324086546897888 0.30324086546897888 0.30324086546897888
0.31800583004951477 0.31800583004951477 0.31800583004951477
0.33580875396728516 0.33580875396728516 0.33580875396728516
0.35765409469604492 0.35765409469604492 0.35765409469604492
0.38616925477981567 0.38616925477981567 0.38616925477981567
0.42311730980873108 0.42311730980873108 0.42311730980873108
0.47024762630462646 0.47024762630462646 0.47024762630462646
0.52406144142150879 0.52406144142150879 0.52406144142150879
0.57962203025817871 0.57962203025817871 0.57962203025817871
0.62981027364730835 0.62981027364730835 0.62981027364730835
0.36485990881919861 0.36485990881919861 0.36485990881919861
0.36558285355567932 0.36558285355567932 0.36558285355567932
0.37030017375946045 0.37030017375946045 0.37030017375946045
0.38013720512390137 0.38013720512390137 0.38013720512390137
0.39510256052017212 0.39510256052017212 0.39510256052017212
0.41363933682441711 0.41363933682441711 0.41363933682441711
0.43458381295204163 0.43458381295204163 0.43458381295204163
0.45873942971229553 0.45873942971229553 0.45873942971229553
0.48921439051628113 0.48921439051628113 0.48921439051628113
0.53191989660263062 0.53191989660263062 0.53191989660263062
0.58204078674316406 0.58204078674316406 0.58204078674316406
0.63277637958526611 0.63277637958526611 0.63277637958526611
0.67780017852783203 0.67780017852783203 0.67780017852783203
0.45769715309143066 0.45769715309143066 0.45769715309143066
0.45616349577903748 0.45616349577903748 0.45616349577903748
0.45657041668891907 0.45657041668891907 0.45657041668891907
0.46350252628326416 0.46350252628326416 0.46350252628326416
0.47841387987136841 0.47841387987136841 0.47841387987136841
0.49693828821182251 0.49693828821182251 0.49693828821182251
0.51648348569869995 0.51648348569869995 0.51648348569869995
0.53703635931015015 0.53703635931015015 0.53703635931015015
0.56197559833526611 0.56197559833526611 0.56197559833526611
