films/agfa_precisa_100.cube
# Created by: G'MIC (https://gmic.eu)
TITLE "agfa_precisa_100"
# LUT size
LUT_3D_SIZE 7
# Data domain
DOMAIN_MIN 0.0 0.0 0.0
DOMAIN_MAX 1.0 1.0 1.0
# LUT data points
0.03068033792078495 0.028818437829613686 0.023920411244034767
0.13665616512298584 0.034923732280731201 0.033861123025417328
0.26920536160469055 0.046002887189388275 0.042199064046144485
0.4329744279384613 0.049623750150203705 0.069579795002937317
0.62600690126419067 0.057271562516689301 0.11347198486328125
0.81159400939941406 0.074447229504585266 0.16924382746219635
0.9766845703125 0.11997145414352417 0.2162632942199707
0.092375613749027252 0.15392130613327026 0.070482723414897919
0.16220837831497192 0.15474095940589905 0.069882996380329132
0.29369747638702393 0.16512675583362579 0.070485837757587433
0.46380794048309326 0.17720922827720642 0.068862766027450562
0.65135914087295532 0.16718250513076782 0.09689033031463623
0.82666921615600586 0.1348641961812973 0.1566774994134903
0.97807890176773071 0.13613896071910858 0.21141436696052551
0.12044855952262878 0.31038969755172729 0.12761335074901581
0.19403944909572601 0.30674001574516296 0.12250842154026031
0.32824626564979553 0.32134369015693665 0.11901888251304626
0.49892741441726685 0.33322629332542419 0.10944746434688568
0.68297475576400757 0.33154952526092529 0.097072258591651917
0.85404789447784424 0.30126965045928955 0.11114424467086792
0.98828244209289551 0.24225568771362305 0.1849818080663681
0.14832110702991486 0.5010179877281189 0.19200970232486725
0.23732331395149231 0.50039756298065186 0.18858550488948822
0.37297874689102173 0.5133521556854248 0.18217997252941132
0.53580164909362793 0.53003776073455811 0.16055172681808472
0.71334123611450195 0.54472720623016357 0.11753495037555695
0.88524156808853149 0.54595547914505005 0.068202033638954163
0.99469220638275146 0.48417335748672485 0.10362230241298676
0.23648577928543091 0.69410663843154907 0.29122957587242126
0.3235175609588623 0.69695150852203369 0.29255616664886475
0.44115328788757324 0.70608127117156982 0.28719350695610046
0.58148270845413208 0.7234606146812439 0.26332125067710876
0.73883926868438721 0.74607467651367188 0.20868757367134094
0.90448260307312012 0.77324491739273071 0.082669004797935486
0.99980396032333374 0.76550817489624023 0.00034095914452336729
0.39204782247543335 0.86018574237823486 0.44285163283348083
0.45614030957221985 0.86348813772201538 0.44979146122932434
0.53762328624725342 0.87069863080978394 0.44064471125602722
0.64458417892456055 0.88668256998062134 0.41803604364395142
0.76899808645248413 0.91128569841384888 0.37840175628662109
0.91021305322647095 0.94014096260070801 0.24326677620410919
0.99718183279037476 0.97477817535400391 0.016549726948142052
0.58242279291152954 0.98363155126571655 0.63538414239883423
0.60855019092559814 0.98673182725906372 0.63421028852462769
0.65648943185806274 0.98964780569076538 0.63150811195373535
0.73529744148254395 0.99355274438858032 0.61835986375808716
0.83140230178833008 0.99927538633346558 0.6082690954208374
0.94238799810409546 0.99940919876098633 0.55946630239486694
1 1 0.35678756237030029
0.025731360539793968 0.027142304927110672 0.10719326138496399
0.11875069141387939 0.027677364647388458 0.10666448622941971
0.25446933507919312 0.038428317755460739 0.1094956174492836
0.42938974499702454 0.055324509739875793 0.10998824238777161
0.62772512435913086 0.069118484854698181 0.12216983735561371
0.81544661521911621 0.077567033469676971 0.16957294940948486
0.97730302810668945 0.10989709198474884 0.2144879549741745
0.077790156006813049 0.14409124851226807 0.14949852228164673
0.14589887857437134 0.14653904736042023 0.14824487268924713
0.27966499328613281 0.15561456978321075 0.14894773066043854
0.45523002743721008 0.16809143126010895 0.14182381331920624
0.6514892578125 0.17652831971645355 0.12460404634475708
0.83192116022109985 0.15285079181194305 0.15110693871974945
0.98385822772979736 0.13464339077472687 0.21064235270023346
0.10315358638763428 0.29980817437171936 0.1998935341835022
0.17823085188865662 0.30097287893295288 0.19588424265384674
0.31510835886001587 0.31275790929794312 0.1928023099899292
0.48990190029144287 0.32241839170455933 0.18503513932228088
0.67879199981689453 0.33059576153755188 0.15461632609367371
0.85750216245651245 0.31676861643791199 0.12170088291168213
0.99005258083343506 0.2533380389213562 0.17761921882629395
0.13387507200241089 0.49160274863243103 0.26294997334480286
0.21754314005374908 0.49686726927757263 0.25500327348709106
0.35606849193572998 0.50672227144241333 0.25244110822677612
0.52571564912796021 0.51861262321472168 0.23992669582366943
0.70750337839126587 0.53373783826828003 0.19757194817066193
0.88523107767105103 0.54316669702529907 0.11750784516334534
0.9967341423034668 0.49789890646934509 0.1009572371840477
0.22518360614776611 0.68712228536605835 0.35638150572776794
0.30317786335945129 0.69355529546737671 0.35169965028762817
0.42113840579986572 0.70259231328964233 0.34752699732780457
0.56857281923294067 0.71715688705444336 0.33413338661193848
0.73298966884613037 0.73675048351287842 0.29056617617607117
0.90244573354721069 0.76392227411270142 0.17059876024723053
1 0.76881951093673706 0.022531023249030113
0.3856644332408905 0.85636788606643677 0.49069911241531372
0.44083896279335022 0.86097508668899536 0.49157541990280151
0.51852691173553467 0.86948758363723755 0.48089149594306946
0.63237780332565308 0.88479942083358765 0.47032710909843445
0.76456457376480103 0.90557420253753662 0.44232094287872314
0.90358585119247437 0.92912834882736206 0.33982205390930176
0.99649035930633545 0.9557570219039917 0.082831457257270813
0.56267690658569336 0.98145079612731934 0.65467089414596558
0.60334974527359009 0.98502552509307861 0.66278225183486938
0.6485709547996521 0.98988479375839233 0.65532439947128296
0.72604292631149292 0.9954758882522583 0.64906805753707886
0.82368522882461548 0.99962532520294189 0.63831496238708496
0.92980915307998657 1 0.59925359487533569
0.99956053495407104 1 0.42125514149665833
0.014163985848426819 0.023340770974755287 0.19917978346347809
0.10222474485635757 0.022010937333106995 0.1997627466917038
0.24107065796852112 0.032621316611766815 0.20300815999507904
0.42110392451286316 0.048179835081100464 0.20338822901248932
0.62602114677429199 0.072505384683609009 0.17944289743900299
0.8204348087310791 0.095121912658214569 0.16922600567340851
0.98166704177856445 0.12129800766706467 0.21589867770671844
0.063846498727798462 0.13554459810256958 0.24808332324028015
0.13359081745147705 0.13811956346035004 0.24976380169391632
0.26603469252586365 0.14791959524154663 0.25152701139450073
0.4435420036315918 0.15869387984275818 0.24662455916404724
0.641265869140625 0.16847452521324158 0.21815671026706696
0.82938259840011597 0.16161231696605682 0.17633771896362305
0.98517733812332153 0.12304657697677612 0.21428471803665161
0.091111473739147186 0.28874421119689941 0.29732844233512878
0.16291181743144989 0.29194802045822144 0.29897749423980713
0.30373713374137878 0.30181479454040527 0.3013857901096344
0.47758355736732483 0.31431081891059875 0.29674777388572693
0.66725510358810425 0.32209676504135132 0.26843339204788208
0.85219544172286987 0.31692942976951599 0.19977386295795441
0.99242615699768066 0.26317563652992249 0.17853318154811859
0.11695854365825653 0.47927054762840271 0.36051860451698303
0.2008226215839386 0.48326313495635986 0.35794892907142639
0.34227782487869263 0.49466636776924133 0.36074188351631165
0.51391547918319702 0.50874429941177368 0.35825452208518982
0.69669538736343384 0.52144920825958252 0.33023962378501892
0.87245351076126099 0.52969253063201904 0.24804966151714325
0.99386751651763916 0.50784611701965332 0.12702056765556335
0.20070262253284454 0.67565113306045532 0.44362065196037292
0.28454193472862244 0.68025845289230347 0.4431397020816803
0.40843003988265991 0.68892472982406616 0.44523331522941589
0.56016117334365845 0.703605055809021 0.44429591298103333
0.72435623407363892 0.72208887338638306 0.42140233516693115
0.88812804222106934 0.74203008413314819 0.34277012944221497
0.9967726469039917 0.75617295503616333 0.15095888078212738
0.37071114778518677 0.84339672327041626 0.55833947658538818
0.4309355616569519 0.84712672233581543 0.56323516368865967
0.51408177614212036 0.85534727573394775 0.56112343072891235
0.62977522611618042 0.86948633193969727 0.56160181760787964
0.7610822319984436 0.88953101634979248 0.54720169305801392
0.89706742763519287 0.91232568025588989 0.47879889607429504
0.99624013900756836 0.94256478548049927 0.28048059344291687
0.55219697952270508 0.96928286552429199 0.69843089580535889
0.60484343767166138 0.97172504663467407 0.71479374170303345
0.65045905113220215 0.98159515857696533 0.70858818292617798
0.72733336687088013 0.98892265558242798 0.71110939979553223
0.82418590784072876 0.99474465847015381 0.71017110347747803
0.92380917072296143 0.99984973669052124 0.67000806331634521
0.99942624568939209 1 0.55223631858825684
0.0083734998479485512 0.010097713209688663 0.32379364967346191
0.087885819375514984 0.010529492050409317 0.32687792181968689
0.22329355776309967 0.018512485548853874 0.33291950821876526
0.40365931391716003 0.031620189547538757 0.33014196157455444
0.60871309041976929 0.046768009662628174 0.30102682113647461
0.81310123205184937 0.083146654069423676 0.23470090329647064
0.98446083068847656 0.12764061987400055 0.2132660299539566
0.046062663197517395 0.12288311123847961 0.36644545197486877
0.11387919634580612 0.12689667940139771 0.37241539359092712
0.24540452659130096 0.1343352198600769 0.38150337338447571
0.42433479428291321 0.14286608994007111 0.38224294781684875
0.6233750581741333 0.14298665523529053 0.36068257689476013
0.81867694854736328 0.13792815804481506 0.29485434293746948
0.98508471250534058 0.13826876878738403 0.22492510080337524
0.082987390458583832 0.27575048804283142 0.4177272617816925
0.14262032508850098 0.28293502330780029 0.42133858799934387
0.27951228618621826 0.28969970345497131 0.43203520774841309
0.45813426375389099 0.30275428295135498 0.43680891394615173
0.64953440427780151 0.30596837401390076 0.42143046855926514
0.83735924959182739 0.29824769496917725 0.36118322610855103
0.98919916152954102 0.27677306532859802 0.24954776465892792
0.089761830866336823 0.46816477179527283 0.47505730390548706
0.16473399102687836 0.47287812829017639 0.47817528247833252
0.3151606023311615 0.48311671614646912 0.48786178231239319
0.49935108423233032 0.49626767635345459 0.49902841448783875
0.67987596988677979 0.50640368461608887 0.4891323447227478
0.85615277290344238 0.51030945777893066 0.44047528505325317
0.99556070566177368 0.49751868844032288 0.30159983038902283
0.16998386383056641 0.66277295351028442 0.54666221141815186
0.24928607046604156 0.66675853729248047 0.55056464672088623
0.38726672530174255 0.67317062616348267 0.55985301733016968
0.54708731174468994 0.68854117393493652 0.56786185503005981
0.70871388912200928 0.70506036281585693 0.56274497509002686
0.86855578422546387 0.71961683034896851 0.51873338222503662
0.99504584074020386 0.72527706623077393 0.37570521235466003
0.3458041250705719 0.8293461799621582 0.64222413301467896
0.40756216645240784 0.83502936363220215 0.64660131931304932
0.50330257415771484 0.84169036149978638 0.65257304906845093
0.62122631072998047 0.85513120889663696 0.65835380554199219
0.74971431493759155 0.87361472845077515 0.65499234199523926
0.88527506589889526 0.89232426881790161 0.61969840526580811
0.99493527412414551 0.9112364649772644 0.49610218405723572
0.53603684902191162 0.95766156911849976 0.75424516201019287
0.58908873796463013 0.96493959426879883 0.76456654071807861
0.64804941415786743 0.97238636016845703 0.76933473348617554
0.72481799125671387 0.9811890721321106 0.77592867612838745
0.81684678792953491 0.99017447233200073 0.77844274044036865
0.91778767108917236 0.99714469909667969 0.75743716955184937
0.99889659881591797 1 0.66718125343322754
0.0034679488744586706 0.0025744119193404913 0.46033480763435364
0.070726878941059113 0.0040001813322305679 0.4689946174621582
0.19416818022727966 0.0081432266160845757 0.48391041159629822
0.37236276268959045 0.014678012579679489 0.48756605386734009
0.57996493577957153 0.022513026371598244 0.46587857604026794
0.78830409049987793 0.041967712342739105 0.4068799614906311
0.97966587543487549 0.10561417043209076 0.29599165916442871
0.029419887810945511 0.10848364979028702 0.49968931078910828
0.088110290467739105 0.11525043845176697 0.50878894329071045
0.21390809118747711 0.1223447322845459 0.52571010589599609
0.39582213759422302 0.12896598875522614 0.53761762380599976
0.59870082139968872 0.12396111339330673 0.53321248292922974
0.79437828063964844 0.10686454176902771 0.49630200862884521
0.97204726934432983 0.12566295266151428 0.39873436093330383
0.057361170649528503 0.26926371455192566 0.54610389471054077
0.0992317795753479 0.27531635761260986 0.55163460969924927
0.24249085783958435 0.28098821640014648 0.567047119140625
0.43108844757080078 0.29103711247444153 0.58352208137512207
0.62708991765975952 0.29066413640975952 0.589347243309021
0.81394577026367188 0.27461534738540649 0.56227260828018188
0.97741049528121948 0.26429426670074463 0.47639885544776917
0.034570205956697464 0.46305277943611145 0.59163832664489746
0.094850353896617889 0.46715584397315979 0.59899073839187622
0.26842352747917175 0.47388577461242676 0.61297452449798584
0.46915251016616821 0.48602035641670227 0.6304856538772583
0.65696364641189575 0.49219027161598206 0.64021509885787964
0.83551573753356934 0.4908997118473053 0.61776411533355713
0.98704034090042114 0.47707444429397583 0.53677159547805786
0.11557318270206451 0.65309780836105347 0.65031039714813232
0.1846952885389328 0.65712237358093262 0.65678912401199341
0.34557452797889709 0.66372561454772949 0.66868406534194946
0.52142232656478882 0.67675799131393433 0.68314081430435181
0.6901165246963501 0.68786251544952393 0.69157594442367554
0.8551865816116333 0.69628775119781494 0.67568427324295044
0.99303513765335083 0.69454032182693481 0.60048818588256836
0.31855469942092896 0.82244414091110229 0.72527343034744263
0.36786839365959167 0.82614040374755859 0.7288515567779541
0.47605907917022705 0.83281540870666504 0.73718887567520142
0.60299146175384521 0.8445429801940918 0.74766820669174194
0.73642712831497192 0.85811883211135864 0.75469416379928589
0.87227469682693481 0.87206429243087769 0.74588441848754883
0.99070459604263306 0.88161051273345947 0.67733544111251831
0.5313141942024231 0.94990307092666626 0.8128969669342041
0.5811036229133606 0.95661866664886475 0.82120388746261597
0.64263284206390381 0.96265405416488647 0.82883149385452271
0.71909201145172119 0.97232687473297119 0.8377649188041687
0.81146699190139771 0.98241144418716431 0.84696304798126221
0.91093355417251587 0.9902646541595459 0.8482201099395752
0.99668031930923462 0.99675345420837402 0.79077506065368652
0.00078017293708398938 0.0047588124871253967 0.59255105257034302
0.044359184801578522 0.0033949906937777996 0.60682559013366699
0.14964546263217926 0.0051830816082656384 0.62801104784011841
0.33207887411117554 0.009072442539036274 0.64360743761062622
0.5461428165435791 0.0086373575031757355 0.64853090047836304
0.7538299560546875 0.0037450604140758514 0.64208328723907471
0.94754660129547119 0.040834914892911911 0.56679642200469971
0.0097966659814119339 0.11324329674243927 0.62552648782730103
0.050142534077167511 0.11392749100923538 0.6404719352722168
0.16666020452976227 0.12022300809621811 0.6630139946937561
0.35689380764961243 0.12717829644680023 0.68672388792037964
0.57006263732910156 0.12276008725166321 0.70634347200393677
0.76752430200576782 0.097743690013885498 0.70776379108428955
0.94815647602081299 0.1048576682806015 0.64868593215942383
0.010464807040989399 0.27118995785713196 0.65993005037307739
0.040347378700971603 0.2762896716594696 0.67138028144836426
0.18596194684505463 0.28159934282302856 0.69192266464233398
0.39283540844917297 0.28996852040290833 0.71796798706054688
0.59961885213851929 0.29133722186088562 0.74516230821609497
0.78891950845718384 0.26529723405838013 0.75220626592636108
0.95961695909500122 0.23889809846878052 0.71006196737289429
0 0.46075397729873657 0.695792555809021
0.026527853682637215 0.46547213196754456 0.70578849315643311
0.20358255505561829 0.47210302948951721 0.72452390193939209
0.42278194427490234 0.48166784644126892 0.74958646297454834
0.62739652395248413 0.48957112431526184 0.77579289674758911
0.81095337867736816 0.48342856764793396 0.78460955619812012
0.97282379865646362 0.45561781525611877 0.75058954954147339
0.039355874061584473 0.64415073394775391 0.74256563186645508
0.1058141216635704 0.64939409494400024 0.75118565559387207
0.30028754472732544 0.65775805711746216 0.76725500822067261
0.48430714011192322 0.66965872049331665 0.78770929574966431
0.66534113883972168 0.67999517917633057 0.80878043174743652
0.83448702096939087 0.68711960315704346 0.8181149959564209
0.98168659210205078 0.6784369945526123 0.78931897878646851
0.26288467645645142 0.81004685163497925 0.79836565256118774
0.30656152963638306 0.81447011232376099 0.80546325445175171
0.43796545267105103 0.8228333592414856 0.81631386280059814
0.5774725079536438 0.83484405279159546 0.83134514093399048
0.72066277265548706 0.84599727392196655 0.84836608171463013
0.85901272296905518 0.85835248231887817 0.85826808214187622
0.98512411117553711 0.86306971311569214 0.83196008205413818
0.52632075548171997 0.94089162349700928 0.86786413192749023
0.56831270456314087 0.94487649202346802 0.87978154420852661
0.62547093629837036 0.95049005746841431 0.88757807016372681
0.70234954357147217 0.96213716268539429 0.89805811643600464
0.80422037839889526 0.97124391794204712 0.91198968887329102
0.90234220027923584 0.98458945751190186 0.91937088966369629
0.99224370718002319 0.98967933654785156 0.90231633186340332
0.0021788803860545158 0.016795707866549492 0.71077382564544678
0.029212502762675285 0.01056747417896986 0.72734445333480835
0.10795842856168747 0.009401015006005764 0.75094729661941528
0.30125734210014343 0.01451975479722023 0.77445673942565918
0.51699316501617432 0.01367975864559412 0.79822182655334473
0.7258753776550293 0.0073195365257561207 0.81525695323944092
0.9168161153793335 0.016595609486103058 0.79576516151428223
0.001939870766364038 0.13069859147071838 0.73537623882293701
0.029099468141794205 0.12914079427719116 0.75462460517883301
0.13181774318218231 0.13324254751205444 0.78074878454208374
0.32156574726104736 0.13941794633865356 0.8118818998336792
0.53628832101821899 0.13702887296676636 0.84602004289627075
0.73795211315155029 0.11880415678024292 0.86641210317611694
0.91803956031799316 0.11668814718723297 0.83868777751922607
0.00017697204020805657 0.28139927983283997 0.75945377349853516
0.017008194699883461 0.28871729969978333 0.77638071775436401
0.14600206911563873 0.29598107933998108 0.80096668004989624
0.35313722491264343 0.30215376615524292 0.83299434185028076
0.56409507989883423 0.30603334307670593 0.87225151062011719
0.75699800252914429 0.28576478362083435 0.90027445554733276
0.92999166250228882 0.25745826959609985 0.88066983222961426
0 0.46571734547615051 0.78588080406188965
0.0093163130804896355 0.47190165519714355 0.79919254779815674
0.1555623859167099 0.48088181018829346 0.82089030742645264
0.37550383806228638 0.48929974436759949 0.85168719291687012
0.59235870838165283 0.50046855211257935 0.88797867298126221
0.78249448537826538 0.49057552218437195 0.91884446144104004
0.94553059339523315 0.46489939093589783 0.91066402196884155
0.032817602157592773 0.64447760581970215 0.8184775710105896
0.071462072432041168 0.65019828081130981 0.82789796590805054
0.23160138726234436 0.66013777256011963 0.84712624549865723
0.43166711926460266 0.67130959033966064 0.87437897920608521
0.62910950183868408 0.68195527791976929 0.90668463706970215
0.80683928728103638 0.68716424703598022 0.93549686670303345
0.958842933177948 0.67598491907119751 0.93337392807006836
0.23309087753295898 0.80127489566802979 0.85861861705780029
0.23030591011047363 0.80933862924575806 0.86389738321304321
0.36919459700584412 0.8180575966835022 0.88113182783126831
0.52881616353988647 0.83241778612136841 0.89841669797897339
0.68398505449295044 0.84333211183547974 0.92245149612426758
0.83736836910247803 0.85131353139877319 0.95092052221298218
0.97193729877471924 0.84712105989456177 0.95969510078430176
0.49727818369865417 0.93465900421142578 0.91110694408416748
0.50209707021713257 0.93737220764160156 0.92598730325698853
0.56218403577804565 0.94407176971435547 0.93870943784713745
0.65935319662094116 0.95578354597091675 0.95099455118179321
0.77203327417373657 0.96664375066757202 0.96475845575332642
0.89020967483520508 0.97756916284561157 0.97599083185195923
0.98519629240036011 0.98544347286224365 0.98722487688064575
