films/agfa_precisa_100.cube
# Created by: G'MIC (https://gmic.eu)
TITLE "agfa_precisa_100"
# LUT size
LUT_3D_SIZE 5
# Data domain
DOMAIN_MIN 0.0 0.0 0.0
DOMAIN_MAX 1.0 1.0 1.0
# LUT data points
0.03068033792078495 0.028818437829613686 0.023920411244034767
0.19929416477680206 0.040203049778938293 0.037926647812128067
0.4329744279384613 0.049623750150203705 0.069579795002937317
0.72040510177612305 0.063720583915710449 0.13967010378837585
0.9766845703125 0.11997145414352417 0.2162632942199707
0.11235640197992325 0.22719773650169373 0.098476573824882507
0.23850025236606598 0.22981859743595123 0.09562557190656662
0.48107194900512695 0.24946644902229309 0.088203847408294678
0.75566947460174561 0.22882431745529175 0.10830949991941452
0.9824751615524292 0.17683814465999603 0.19964046776294708
0.14832110702991486 0.5010179877281189 0.19200970232486725
0.30076679587364197 0.50604677200317383 0.18630008399486542
0.53580164909362793 0.53003776073455811 0.16055172681808472
0.80242741107940674 0.55060631036758423 0.087471723556518555
0.99469220638275146 0.48417335748672485 0.10362230241298676
0.30722132325172424 0.78148913383483887 0.35972601175308228
0.43241703510284424 0.78785222768783569 0.36402219533920288
0.61009007692337036 0.81006836891174316 0.33483359217643738
0.82808774709701538 0.84771883487701416 0.23239274322986603
0.9997718334197998 0.88347488641738892 0
0.58242279291152954 0.98363155126571655 0.63538414239883423
0.62874436378479004 0.98789143562316895 0.63650548458099365
0.73529744148254395 0.99355274438858032 0.61835986375808716
0.88541853427886963 0.99991071224212646 0.59182929992675781
1 1 0.35678756237030029
0.021195938810706139 0.025787623599171638 0.15103642642498016
0.17363475263118744 0.030302863568067551 0.15006250143051147
0.42534682154655457 0.052648179233074188 0.15425164997577667
0.7263142466545105 0.081258080899715424 0.14748626947402954
0.97847568988800049 0.11199483275413513 0.21485356986522675
0.087323583662509918 0.21205800771713257 0.2210286557674408
0.21981796622276306 0.21951515972614288 0.22033964097499847
0.46666231751441956 0.23525756597518921 0.21313941478729248
0.75409489870071411 0.2429170161485672 0.16174294054508209
0.98803877830505371 0.17047420144081116 0.20179057121276855
0.12612199783325195 0.48564022779464722 0.30919152498245239
0.2753317654132843 0.4949817955493927 0.30287507176399231
0.5207512378692627 0.51324301958084106 0.29531770944595337
0.79311424493789673 0.5335579514503479 0.2223832905292511
0.99611788988113403 0.50528097152709961 0.10504502058029175
0.29110932350158691 0.77059948444366455 0.45521306991577148
0.40537592768669128 0.77938193082809448 0.45197120308876038
0.59414863586425781 0.79936516284942627 0.44477730989456177
0.82258212566375732 0.83029139041900635 0.38335523009300232
0.99814367294311523 0.87106174230575562 0.10394463688135147
0.55813789367675781 0.97647935152053833 0.6732822060585022
0.62314987182617188 0.9826207160949707 0.68298262357711792
0.72631335258483887 0.99288642406463623 0.67773473262786865
0.87468248605728149 0.9998355507850647 0.6565890908241272
0.99920779466629028 0.9999159574508667 0.49189081788063049
0.0083734998479485512 0.010097713209688663 0.32379364967346191
0.14882947504520416 0.013756575994193554 0.32990002632141113
0.40365931391716003 0.031620189547538757 0.33014196157455444
0.71229535341262817 0.057621389627456665 0.27426236867904663
0.98446083068847656 0.12764061987400055 0.2132660299539566
0.068395860493183136 0.19492253661155701 0.39085376262664795
0.18787674605846405 0.20353960990905762 0.40175238251686096
0.43983384966850281 0.21718315780162811 0.40866175293922424
0.73271769285202026 0.21407586336135864 0.36379590630531311
0.98727130889892578 0.18990440666675568 0.22925052046775818
0.089761830866336823 0.46816477179527283 0.47505730390548706
0.23243483901023865 0.47676017880439758 0.48256298899650574
0.49935108423233032 0.49626767635345459 0.49902841448783875
0.76880216598510742 0.50989091396331787 0.47231456637382507
0.99556070566177368 0.49751868844032288 0.30159983038902283
0.25043490529060364 0.75043284893035889 0.59132617712020874
0.37627437710762024 0.75746572017669678 0.59879940748214722
0.58020699024200439 0.77616226673126221 0.60980480909347534
0.80153012275695801 0.80297887325286865 0.59344947338104248
0.99570178985595703 0.82250320911407471 0.43511480093002319
0.53603684902191162 0.95766156911849976 0.75424516201019287
0.61653441190719604 0.96844536066055298 0.76697862148284912
0.72481799125671387 0.9811890721321106 0.77592867612838745
0.86626118421554565 0.99475395679473877 0.77198952436447144
0.99889659881591797 1 0.66718125343322754
0.0018835928058251739 0.0028962676879018545 0.52766335010528564
0.10719946771860123 0.004157376941293478 0.54853373765945435
0.3525504469871521 0.010436428710818291 0.56831192970275879
0.66858822107315063 0.013223176822066307 0.54647362232208252
0.96840977668762207 0.077126160264015198 0.41530689597129822
0.035216566175222397 0.18401533365249634 0.58521991968154907
0.12853868305683136 0.19153690338134766 0.60374140739440918
0.39538615942001343 0.20236711204051971 0.63436102867126465
0.69677281379699707 0.18762950599193573 0.6466057300567627
0.96262216567993164 0.17047616839408875 0.56631410121917725
0.008993096649646759 0.46078431606292725 0.64578437805175781
0.13836890459060669 0.46798497438430786 0.66187578439712524
0.44724768400192261 0.48213523626327515 0.69217699766159058
0.73483568429946899 0.48919960856437683 0.71197837591171265
0.98074531555175781 0.46574521064758301 0.64798492193222046
0.16926243901252747 0.73589837551116943 0.72971320152282715
0.30380955338478088 0.74306380748748779 0.74062550067901611
0.54438763856887817 0.75958991050720215 0.76218032836914062
0.77848988771438599 0.77601099014282227 0.77766364812850952
0.9888312816619873 0.78174847364425659 0.73001360893249512
0.53102785348892212 0.94528341293334961 0.84182274341583252
0.60596740245819092 0.95268672704696655 0.8548508882522583
0.71403461694717407 0.96665722131729126 0.86893677711486816
0.85849153995513916 0.98251879215240479 0.88543874025344849
0.99471569061279297 0.99276089668273926 0.85028088092803955
0.0021788803860545158 0.016795707866549492 0.71077382564544678
0.056808888912200928 0.0092818019911646843 0.73869037628173828
0.30125734210014343 0.01451975479722023 0.77445673942565918
0.62286603450775146 0.010329332202672958 0.80885124206542969
0.9168161153793335 0.016595609486103058 0.79576516151428223
0.0034570281859487295 0.20013006031513214 0.74729198217391968
0.07173117995262146 0.20764636993408203 0.77774816751480103
0.33774176239967346 0.2171902060508728 0.82396191358566284
0.64998441934585571 0.20967218279838562 0.87798446416854858
0.92279648780822754 0.18168003857135773 0.86001443862915039
0 0.46571734547615051 0.78588080406188965
0.067755110561847687 0.47635683417320251 0.80892044305801392
0.37550383806228638 0.48929974436759949 0.85168719291687012
0.69063818454742432 0.4996335506439209 0.90516120195388794
0.94553059339523315 0.46489939093589783 0.91066402196884155
0.11651216447353363 0.72509068250656128 0.83751648664474487
0.20021109282970428 0.73703145980834961 0.8515436053276062
0.47710296511650085 0.75497961044311523 0.88540589809417725
0.73925846815109253 0.77008998394012451 0.92962551116943359
0.96606826782226562 0.7642822265625 0.94670486450195312
0.49727818369865417 0.93465900421142578 0.91110694408416748
0.52437311410903931 0.94002968072891235 0.93236470222473145
0.65935319662094116 0.95578354597091675 0.95099455118179321
0.83230578899383545 0.97165298461914062 0.97099804878234863
0.98519629240036011 0.98544347286224365 0.98722487688064575
