films/agfa_apx_25.cube
TITLE "data/luts/rawtherapee/HaldCLUT/Black-and-White/Agfa/Agfa APX 25.png"
LUT_3D_SIZE 64
DOMAIN_MIN 0 0 0
DOMAIN_MAX 1 1 1
0.000000 0.000000 0.000000
0.000000 0.000000 0.000000
0.000000 0.000000 0.000000
0.000000 0.000000 0.000000
0.000000 0.000000 0.000000
0.000000 0.000000 0.000000
0.000000 0.000000 0.000000
0.000000 0.000000 0.000000
0.000000 0.000000 0.000000
0.001681 0.001681 0.001681
0.003922 0.003922 0.003922
0.003922 0.003922 0.003922
0.003922 0.003922 0.003922
0.003922 0.003922 0.003922
0.003922 0.003922 0.003922
0.007843 0.007843 0.007843
0.007843 0.007843 0.007843
0.007843 0.007843 0.007843
0.011204 0.011204 0.011204
0.011765 0.011765 0.011765
0.011765 0.011765 0.011765
0.015686 0.015686 0.015686
0.019359 0.019359 0.019359
0.019608 0.019608 0.019608
0.021475 0.021475 0.021475
0.023529 0.023529 0.023529
0.027451 0.027451 0.027451
0.031373 0.031373 0.031373
0.033551 0.033551 0.033551
0.038531 0.038531 0.038531
0.043137 0.043137 0.043137
0.048491 0.048491 0.048491
0.053470 0.053470 0.053470
0.058824 0.058824 0.058824
0.063430 0.063430 0.063430
0.072331 0.072331 0.072331
0.081232 0.081232 0.081232
0.090134 0.090134 0.090134
0.099035 0.099035 0.099035
0.111858 0.111858 0.111858
0.120759 0.120759 0.120759
0.133582 0.133582 0.133582
0.147712 0.147712 0.147712
0.161594 0.161594 0.161594
0.175475 0.175475 0.175475
0.189356 0.189356 0.189356
0.203237 0.203237 0.203237
0.221040 0.221040 0.221040
0.238842 0.238842 0.238842
0.251852 0.251852 0.251852
0.266604 0.266604 0.266604
0.284407 0.284407 0.284407
0.298288 0.298288 0.298288
0.317274 0.317274 0.317274
0.337815 0.337815 0.337815
0.355618 0.355618 0.355618
0.369935 0.369935 0.369935
0.391223 0.391223 0.391223
0.411578 0.411578 0.411578
0.430750 0.430750 0.430750
0.449300 0.449300 0.449300
0.470277 0.470277 0.470277
0.492001 0.492001 0.492001
0.509804 0.509804 0.509804
0.000000 0.000000 0.000000
0.001058 0.001058 0.001058
0.003922 0.003922 0.003922
0.003922 0.003922 0.003922
0.003922 0.003922 0.003922
0.004980 0.004980 0.004980
0.004980 0.004980 0.004980
0.007843 0.007843 0.007843
0.008011 0.008011 0.008011
0.008901 0.008901 0.008901
0.010901 0.010901 0.010901
0.011765 0.011765 0.011765
0.012823 0.012823 0.012823
0.012823 0.012823 0.012823
0.016509 0.016509 0.016509
0.016744 0.016744 0.016744
0.019944 0.019944 0.019944
0.020666 0.020666 0.020666
0.024027 0.024027 0.024027
0.024588 0.024588 0.024588
0.028509 0.028509 0.028509
0.031124 0.031124 0.031124
0.033422 0.033422 0.033422
0.036571 0.036571 0.036571
0.040778 0.040778 0.040778
0.043468 0.043468 0.043468
0.048134 0.048134 0.048134
0.052341 0.052341 0.052341
0.056548 0.056548 0.056548
0.060755 0.060755 0.060755
0.065235 0.065235 0.065235
0.074136 0.074136 0.074136
0.079116 0.079116 0.079116
0.088017 0.088017 0.088017
0.096919 0.096919 0.096919
0.105820 0.105820 0.105820
0.114721 0.114721 0.114721
0.124664 0.124664 0.124664
0.136714 0.136714 0.136714
0.147905 0.147905 0.147905
0.159228 0.159228 0.159228
0.172233 0.172233 0.172233
0.185828 0.185828 0.185828
0.199424 0.199424 0.199424
0.213943 0.213943 0.213943
0.227673 0.227673 0.227673
0.241269 0.241269 0.241269
0.254864 0.254864 0.254864
0.272331 0.272331 0.272331
0.285576 0.285576 0.285576
0.300093 0.300093 0.300093
0.315714 0.315714 0.315714
0.331777 0.331777 0.331777
0.349580 0.349580 0.349580
0.367383 0.367383 0.367383
0.385185 0.385185 0.385185
0.399066 0.399066 0.399066
0.420791 0.420791 0.420791
0.438593 0.438593 0.438593
0.456396 0.456396 0.456396
0.474744 0.474744 0.474744
0.494865 0.494865 0.494865
0.513725 0.513725 0.513725
0.531528 0.531528 0.531528
0.003922 0.003922 0.003922
0.004493 0.004493 0.004493
0.006038 0.006038 0.006038
0.007843 0.007843 0.007843
0.007843 0.007843 0.007843
0.008582 0.008582 0.008582
0.009960 0.009960 0.009960
0.011765 0.011765 0.011765
0.012101 0.012101 0.012101
0.013881 0.013881 0.013881
0.015686 0.015686 0.015686
0.017735 0.017735 0.017735
0.018232 0.018232 0.018232
0.020683 0.020683 0.020683
0.021724 0.021724 0.021724
0.025646 0.025646 0.025646
0.025646 0.025646 0.025646
0.028694 0.028694 0.028694
0.031115 0.031115 0.031115
0.033489 0.033489 0.033489
0.037411 0.037411 0.037411
0.040025 0.040025 0.040025
0.045005 0.045005 0.045005
0.046063 0.046063 0.046063
0.051043 0.051043 0.051043
0.056022 0.056022 0.056022
0.060940 0.060940 0.060940
0.063572 0.063572 0.063572
0.068783 0.068783 0.068783
0.074452 0.074452 0.074452
0.080749 0.080749 0.080749
0.087245 0.087245 0.087245
0.094802 0.094802 0.094802
0.103704 0.103704 0.103704
0.112605 0.112605 0.112605
0.121506 0.121506 0.121506
0.132524 0.132524 0.132524
0.143202 0.143202 0.143202
0.154707 0.154707 0.154707
0.167071 0.167071 0.167071
0.179457 0.179457 0.179457
0.192717 0.192717 0.192717
0.204129 0.204129 0.204129
0.217523 0.217523 0.217523
0.230917 0.230917 0.230917
0.244267 0.244267 0.244267
0.257577 0.257577 0.257577
0.272904 0.272904 0.272904
0.288017 0.288017 0.288017
0.301497 0.301497 0.301497
0.316855 0.316855 0.316855
0.332207 0.332207 0.332207
0.347463 0.347463 0.347463
0.364722 0.364722 0.364722
0.381264 0.381264 0.381264
0.397286 0.397286 0.397286
0.414753 0.414753 0.414753
0.432555 0.432555 0.432555
0.450358 0.450358 0.450358
0.468161 0.468161 0.468161
0.485963 0.485963 0.485963
0.507688 0.507688 0.507688
0.525490 0.525490 0.525490
0.543293 0.543293 0.543293
0.007096 0.007096 0.007096
0.007843 0.007843 0.007843
0.009556 0.009556 0.009556
0.011018 0.011018 0.011018
0.011765 0.011765 0.011765
0.011765 0.011765 0.011765
0.014939 0.014939 0.014939
0.015603 0.015603 0.015603
0.018861 0.018861 0.018861
0.019181 0.019181 0.019181
0.019608 0.019608 0.019608
0.022782 0.022782 0.022782
0.023529 0.023529 0.023529
0.026704 0.026704 0.026704
0.027285 0.027285 0.027285
0.030626 0.030626 0.030626
0.032380 0.032380 0.032380
0.034986 0.034986 0.034986
0.038469 0.038469 0.038469
0.042390 0.042390 0.042390
0.043946 0.043946 0.043946
0.048926 0.048926 0.048926
0.050233 0.050233 0.050233
0.054964 0.054964 0.054964
0.059944 0.059944 0.059944
0.064924 0.064924 0.064924
0.069841 0.069841 0.069841
0.073763 0.073763 0.073763
0.079863 0.079863 0.079863
0.084843 0.084843 0.084843
0.089823 0.089823 0.089823
0.098724 0.098724 0.098724
0.107625 0.107625 0.107625
0.115851 0.115851 0.115851
0.124811 0.124811 0.124811
0.134329 0.134329 0.134329
0.146405 0.146405 0.146405
0.156054 0.156054 0.156054
0.168876 0.168876 0.168876
0.180952 0.180952 0.180952
0.193120 0.193120 0.193120
0.203625 0.203625 0.203625
0.217305 0.217305 0.217305
0.230984 0.230984 0.230984
0.244664 0.244664 0.244664
0.257997 0.257997 0.257997
0.271021 0.271021 0.271021
0.284045 0.284045 0.284045
0.300129 0.300129 0.300129
0.313850 0.313850 0.313850
0.328235 0.328235 0.328235
0.342484 0.342484 0.342484
0.360162 0.360162 0.360162
0.374167 0.374167 0.374167
0.391970 0.391970 0.391970
0.409773 0.409773 0.409773
0.423654 0.423654 0.423654
0.441457 0.441457 0.441457
0.459259 0.459259 0.459259
0.477062 0.477062 0.477062
0.494865 0.494865 0.494865
0.512667 0.512667 0.512667
0.530470 0.530470 0.530470
0.548273 0.548273 0.548273
0.011765 0.011765 0.011765
0.012076 0.012076 0.012076
0.012076 0.012076 0.012076
0.015686 0.015686 0.015686
0.015998 0.015998 0.015998
0.017258 0.017258 0.017258
0.019608 0.019608 0.019608
0.019919 0.019919 0.019919
0.023529 0.023529 0.023529
0.023841 0.023841 0.023841
0.026362 0.026362 0.026362
0.027762 0.027762 0.027762
0.028696 0.028696 0.028696
0.031684 0.031684 0.031684
0.035536 0.035536 0.035536
0.035792 0.035792 0.035792
0.039527 0.039527 0.039527
0.043320 0.043320 0.043320
0.046543 0.046543 0.046543
0.047868 0.047868 0.047868
0.052724 0.052724 0.052724
0.055213 0.055213 0.055213
0.059135 0.059135 0.059135
0.063866 0.063866 0.063866
0.068845 0.068845 0.068845
0.073825 0.073825 0.073825
0.078748 0.078748 0.078748
0.083785 0.083785 0.083785
0.088764 0.088764 0.088764
0.094686 0.094686 0.094686
0.102646 0.102646 0.102646
0.111547 0.111547 0.111547
0.118156 0.118156 0.118156
0.129350 0.129350 0.129350
0.138251 0.138251 0.138251
0.147463 0.147463 0.147463
0.158944 0.158944 0.158944
0.169183 0.169183 0.169183
0.181778 0.181778 0.181778
0.192803 0.192803 0.192803
0.203735 0.203735 0.203735
0.216787 0.216787 0.216787
0.229173 0.229173 0.229173
0.242080 0.242080 0.242080
0.254987 0.254987 0.254987
0.268365 0.268365 0.268365
0.281979 0.281979 0.281979
0.295861 0.295861 0.295861
0.309756 0.309756 0.309756
0.323623 0.323623 0.323623
0.337662 0.337662 0.337662
0.352556 0.352556 0.352556
0.369188 0.369188 0.369188
0.383286 0.383286 0.383286
0.400871 0.400871 0.400871
0.418674 0.418674 0.418674
0.432555 0.432555 0.432555
0.450358 0.450358 0.450358
0.468161 0.468161 0.468161
0.485963 0.485963 0.485963
0.503766 0.503766 0.503766
0.521569 0.521569 0.521569
0.539060 0.539060 0.539060
0.556863 0.556863 0.556863
0.017056 0.017056 0.017056
0.017056 0.017056 0.017056
0.019608 0.019608 0.019608
0.020716 0.020716 0.020716
0.020977 0.020977 0.020977
0.023529 0.023529 0.023529
0.024899 0.024899 0.024899
0.024899 0.024899 0.024899
0.028820 0.028820 0.028820
0.029914 0.029914 0.029914
0.032742 0.032742 0.032742
0.035213 0.035213 0.035213
0.036664 0.036664 0.036664
0.039911 0.039911 0.039911
0.042570 0.042570 0.042570
0.044507 0.044507 0.044507
0.048428 0.048428 0.048428
0.050731 0.050731 0.050731
0.052350 0.052350 0.052350
0.056769 0.056769 0.056769
0.060193 0.060193 0.060193
0.064115 0.064115 0.064115
0.068036 0.068036 0.068036
0.072767 0.072767 0.072767
0.077747 0.077747 0.077747
0.082726 0.082726 0.082726
0.087706 0.087706 0.087706
0.093664 0.093664 0.093664
0.100169 0.100169 0.100169
0.106806 0.106806 0.106806
0.115468 0.115468 0.115468
0.121818 0.121818 0.121818
0.130719 0.130719 0.130719
0.141929 0.141929 0.141929
0.151074 0.151074 0.151074
0.161345 0.161345 0.161345
0.172069 0.172069 0.172069
0.183047 0.183047 0.183047
0.194870 0.194870 0.194870
0.206130 0.206130 0.206130
0.217333 0.217333 0.217333
0.229156 0.229156 0.229156
0.242349 0.242349 0.242349
0.254715 0.254715 0.254715
0.267538 0.267538 0.267538
0.280557 0.280557 0.280557
0.293749 0.293749 0.293749
0.306942 0.306942 0.306942
0.320134 0.320134 0.320134
0.335574 0.335574 0.335574
0.349071 0.349071 0.349071
0.364208 0.364208 0.364208
0.378089 0.378089 0.378089
0.395892 0.395892 0.395892
0.409773 0.409773 0.409773
0.427575 0.427575 0.427575
0.444942 0.444942 0.444942
0.459259 0.459259 0.459259
0.477062 0.477062 0.477062
0.494865 0.494865 0.494865
0.512406 0.512406 0.512406
0.526548 0.526548 0.526548
0.544351 0.544351 0.544351
0.562154 0.562154 0.562154
0.022035 0.022035 0.022035
0.023529 0.023529 0.023529
0.025957 0.025957 0.025957
0.025957 0.025957 0.025957
0.027451 0.027451 0.027451
0.029879 0.029879 0.029879
0.030803 0.030803 0.030803
0.033800 0.033800 0.033800
0.034423 0.034423 0.034423
0.037722 0.037722 0.037722
0.040461 0.040461 0.040461
0.041643 0.041643 0.041643
0.045565 0.045565 0.045565
0.047557 0.047557 0.047557
0.049486 0.049486 0.049486
0.053408 0.053408 0.053408
0.057330 0.057330 0.057330
0.059633 0.059633 0.059633
0.061251 0.061251 0.061251
0.065671 0.065671 0.065671
0.070650 0.070650 0.070650
0.074634 0.074634 0.074634
0.079211 0.079211 0.079211
0.083595 0.083595 0.083595
0.088702 0.088702 0.088702
0.094435 0.094435 0.094435
0.100505 0.100505 0.100505
0.105509 0.105509 0.105509
0.112916 0.112916 0.112916
0.119390 0.119390 0.119390
0.128149 0.128149 0.128149
0.135699 0.135699 0.135699
0.144600 0.144600 0.144600
0.154853 0.154853 0.154853
0.163897 0.163897 0.163897
0.175226 0.175226 0.175226
0.185194 0.185194 0.185194
0.196911 0.196911 0.196911
0.207345 0.207345 0.207345
0.219457 0.219457 0.219457
0.230996 0.230996 0.230996
0.242046 0.242046 0.242046
0.253719 0.253719 0.253719
0.266945 0.266945 0.266945
0.279863 0.279863 0.279863
0.291903 0.291903 0.291903
0.305129 0.305129 0.305129
0.318355 0.318355 0.318355
0.331582 0.331582 0.331582
0.345347 0.345347 0.345347
0.359228 0.359228 0.359228
0.374043 0.374043 0.374043
0.390787 0.390787 0.390787
0.404793 0.404793 0.404793
0.420355 0.420355 0.420355
0.436477 0.436477 0.436477
0.453844 0.453844 0.453844
0.468161 0.468161 0.468161
0.485963 0.485963 0.485963
0.503766 0.503766 0.503766
0.517647 0.517647 0.517647
0.535450 0.535450 0.535450
0.551480 0.551480 0.551480
0.567134 0.567134 0.567134
0.027451 0.027451 0.027451
0.030937 0.030937 0.030937
0.031172 0.031172 0.031172
0.034858 0.034858 0.034858
0.034858 0.034858 0.034858
0.036511 0.036511 0.036511
0.038780 0.038780 0.038780
0.042266 0.042266 0.042266
0.042702 0.042702 0.042702
0.046623 0.046623 0.046623
0.046623 0.046623 0.046623
0.050545 0.050545 0.050545
0.054466 0.054466 0.054466
0.056458 0.056458 0.056458
0.058388 0.058388 0.058388
0.062309 0.062309 0.062309
0.066231 0.066231 0.066231
0.068534 0.068534 0.068534
0.073140 0.073140 0.073140
0.074572 0.074572 0.074572
0.079552 0.079552 0.079552
0.084532 0.084532 0.084532
0.089733 0.089733 0.089733
0.094401 0.094401 0.094401
0.099471 0.099471 0.099471
0.105336 0.105336 0.105336
0.112861 0.112861 0.112861
0.118207 0.118207 0.118207
0.126797 0.126797 0.126797
0.132213 0.132213 0.132213
0.141073 0.141073 0.141073
0.149580 0.149580 0.149580
0.158481 0.158481 0.158481
0.167777 0.167777 0.167777
0.176720 0.176720 0.176720
0.189107 0.189107 0.189107
0.198319 0.198319 0.198319
0.210776 0.210776 0.210776
0.220168 0.220168 0.220168
0.232555 0.232555 0.232555
0.241892 0.241892 0.241892
0.254715 0.254715 0.254715
0.267248 0.267248 0.267248
0.278542 0.278542 0.278542
0.292306 0.292306 0.292306
0.302646 0.302646 0.302646
0.316347 0.316347 0.316347
0.330110 0.330110 0.330110
0.343874 0.343874 0.343874
0.357298 0.357298 0.357298
0.371837 0.371837 0.371837
0.385932 0.385932 0.385932
0.399813 0.399813 0.399813
0.413694 0.413694 0.413694
0.431497 0.431497 0.431497
0.445378 0.445378 0.445378
0.463132 0.463132 0.463132
0.477062 0.477062 0.477062
0.494865 0.494865 0.494865
0.508780 0.508780 0.508780
0.526548 0.526548 0.526548
0.540665 0.540665 0.540665
0.558232 0.558232 0.558232
0.572549 0.572549 0.572549
0.035917 0.035917 0.035917
0.039838 0.039838 0.039838
0.039838 0.039838 0.039838
0.043013 0.043013 0.043013
0.043760 0.043760 0.043760
0.045129 0.045129 0.045129
0.047681 0.047681 0.047681
0.051167 0.051167 0.051167
0.051603 0.051603 0.051603
0.055524 0.055524 0.055524
0.055524 0.055524 0.055524
0.059446 0.059446 0.059446
0.063368 0.063368 0.063368
0.065359 0.065359 0.065359
0.067773 0.067773 0.067773
0.071397 0.071397 0.071397
0.075132 0.075132 0.075132
0.079054 0.079054 0.079054
0.082504 0.082504 0.082504
0.086976 0.086976 0.086976
0.092375 0.092375 0.092375
0.097354 0.097354 0.097354
0.102334 0.102334 0.102334
0.107314 0.107314 0.107314
0.112620 0.112620 0.112620
0.117896 0.117896 0.117896
0.126123 0.126123 0.126123
0.131599 0.131599 0.131599
0.140056 0.140056 0.140056
0.146234 0.146234 0.146234
0.154560 0.154560 0.154560
0.162838 0.162838 0.162838
0.171740 0.171740 0.171740
0.181264 0.181264 0.181264
0.190741 0.190741 0.190741
0.202365 0.202365 0.202365
0.211889 0.211889 0.211889
0.224037 0.224037 0.224037
0.233149 0.233149 0.233149
0.245814 0.245814 0.245814
0.255209 0.255209 0.255209
0.267538 0.267538 0.267538
0.278162 0.278162 0.278162
0.289638 0.289638 0.289638
0.302629 0.302629 0.302629
0.315468 0.315468 0.315468
0.327988 0.327988 0.327988
0.340979 0.340979 0.340979
0.353377 0.353377 0.353377
0.367555 0.367555 0.367555
0.381269 0.381269 0.381269
0.395767 0.395767 0.395767
0.409317 0.409317 0.409317
0.425522 0.425522 0.425522
0.440398 0.440398 0.440398
0.454902 0.454902 0.454902
0.472082 0.472082 0.472082
0.485963 0.485963 0.485963
0.503361 0.503361 0.503361
0.517647 0.517647 0.517647
0.534199 0.534199 0.534199
0.549331 0.549331 0.549331
0.564102 0.564102 0.564102
0.581015 0.581015 0.581015
0.044818 0.044818 0.044818
0.048739 0.048739 0.048739
0.048739 0.048739 0.048739
0.052234 0.052234 0.052234
0.052661 0.052661 0.052661
0.054031 0.054031 0.054031
0.056583 0.056583 0.056583
0.060068 0.060068 0.060068
0.060504 0.060504 0.060504
0.064426 0.064426 0.064426
0.064426 0.064426 0.064426
0.068347 0.068347 0.068347
0.072269 0.072269 0.072269
0.075088 0.075088 0.075088
0.079241 0.079241 0.079241
0.080299 0.080299 0.080299
0.085279 0.085279 0.085279
0.090258 0.090258 0.090258
0.093317 0.093317 0.093317
0.097764 0.097764 0.097764
0.103641 0.103641 0.103641
0.108683 0.108683 0.108683
0.113059 0.113059 0.113059
0.119675 0.119675 0.119675
0.125117 0.125117 0.125117
0.130523 0.130523 0.130523
0.138962 0.138962 0.138962
0.145178 0.145178 0.145178
0.152879 0.152879 0.152879
0.159539 0.159539 0.159539
0.168441 0.168441 0.168441
0.175661 0.175661 0.175661
0.184563 0.184563 0.184563
0.194985 0.194985 0.194985
0.204046 0.204046 0.204046
0.215188 0.215188 0.215188
0.225290 0.225290 0.225290
0.234672 0.234672 0.234672
0.245814 0.245814 0.245814
0.256396 0.256396 0.256396
0.267538 0.267538 0.267538
0.280361 0.280361 0.280361
0.289823 0.289823 0.289823
0.302085 0.302085 0.302085
0.314624 0.314624 0.314624
0.327731 0.327731 0.327731
0.339238 0.339238 0.339238
0.352666 0.352666 0.352666
0.366013 0.366013 0.366013
0.379023 0.379023 0.379023
0.391846 0.391846 0.391846
0.405949 0.405949 0.405949
0.421413 0.421413 0.421413
0.435419 0.435419 0.435419
0.449300 0.449300 0.449300
0.463803 0.463803 0.463803
0.480548 0.480548 0.480548
0.494865 0.494865 0.494865
0.509528 0.509528 0.509528
0.526548 0.526548 0.526548
0.540430 0.540430 0.540430
0.555520 0.555520 0.555520
0.570886 0.570886 0.570886
0.585994 0.585994 0.585994
0.057641 0.057641 0.057641
0.057641 0.057641 0.057641
0.061018 0.061018 0.061018
0.061562 0.061562 0.061562
0.061780 0.061780 0.061780
0.065484 0.065484 0.065484
0.065484 0.065484 0.065484
0.069406 0.069406 0.069406
0.070028 0.070028 0.070028
0.073327 0.073327 0.073327
0.076892 0.076892 0.076892
0.079901 0.079901 0.079901
0.081822 0.081822 0.081822
0.085092 0.085092 0.085092
0.089013 0.089013 0.089013
0.093065 0.093065 0.093065
0.096857 0.096857 0.096857
0.100778 0.100778 0.100778
0.104700 0.104700 0.104700
0.111510 0.111510 0.111510
0.115751 0.115751 0.115751
0.121818 0.121818 0.121818
0.126872 0.126872 0.126872
0.132716 0.132716 0.132716
0.137940 0.137940 0.137940
0.145658 0.145658 0.145658
0.151802 0.151802 0.151802
0.159539 0.159539 0.159539
0.165702 0.165702 0.165702
0.173627 0.173627 0.173627
0.182322 0.182322 0.182322
0.190223 0.190223 0.190223
0.197386 0.197386 0.197386
0.208765 0.208765 0.208765
0.217927 0.217927 0.217927
0.228011 0.228011 0.228011
0.236913 0.236913 0.236913
0.248553 0.248553 0.248553
0.257754 0.257754 0.257754
0.268973 0.268973 0.268973
0.280117 0.280117 0.280117
0.292001 0.292001 0.292001
0.302085 0.302085 0.302085
0.314439 0.314439 0.314439
0.326201 0.326201 0.326201
0.337024 0.337024 0.337024
0.350586 0.350586 0.350586
0.362278 0.362278 0.362278
0.375101 0.375101 0.375101
0.388796 0.388796 0.388796
0.402677 0.402677 0.402677
0.416558 0.416558 0.416558
0.430401 0.430401 0.430401
0.444320 0.444320 0.444320
0.458201 0.458201 0.458201
0.472705 0.472705 0.472705
0.489449 0.489449 0.489449
0.503766 0.503766 0.503766
0.517647 0.517647 0.517647
0.531839 0.531839 0.531839
0.548584 0.548584 0.548584
0.561951 0.561951 0.561951
0.577093 0.577093 0.577093
0.592157 0.592157 0.592157
0.066542 0.066542 0.066542
0.070373 0.070373 0.070373
0.070464 0.070464 0.070464
0.073538 0.073538 0.073538
0.074385 0.074385 0.074385
0.075711 0.075711 0.075711
0.078259 0.078259 0.078259
0.081682 0.081682 0.081682
0.082228 0.082228 0.082228
0.086079 0.086079 0.086079
0.088802 0.088802 0.088802
0.090072 0.090072 0.090072
0.094897 0.094897 0.094897
0.097853 0.097853 0.097853
0.101809 0.101809 0.101809
0.105758 0.105758 0.105758
0.109594 0.109594 0.109594
0.113550 0.113550 0.113550
0.117505 0.117505 0.117505
0.125257 0.125257 0.125257
0.129212 0.129212 0.129212
0.135699 0.135699 0.135699
0.140686 0.140686 0.140686
0.145757 0.145757 0.145757
0.152751 0.152751 0.152751
0.159539 0.159539 0.159539
0.164644 0.164644 0.164644
0.173420 0.173420 0.173420
0.180212 0.180212 0.180212
0.187426 0.187426 0.187426
0.196203 0.196203 0.196203
0.205104 0.205104 0.205104
0.214006 0.214006 0.214006
0.222907 0.222907 0.222907
0.231808 0.231808 0.231808
0.240834 0.240834 0.240834
0.249735 0.249735 0.249735
0.262434 0.262434 0.262434
0.271367 0.271367 0.271367
0.280361 0.280361 0.280361
0.293059 0.293059 0.293059
0.302326 0.302326 0.302326
0.314825 0.314825 0.314825
0.326100 0.326100 0.326100
0.336632 0.336632 0.336632
0.349455 0.349455 0.349455
0.362205 0.362205 0.362205
0.375062 0.375062 0.375062
0.387619 0.387619 0.387619
0.400650 0.400650 0.400650
0.413507 0.413507 0.413507
0.426393 0.426393 0.426393
0.439340 0.439340 0.439340
0.453221 0.453221 0.453221
0.468783 0.468783 0.468783
0.481606 0.481606 0.481606
0.498350 0.498350 0.498350
0.512667 0.512667 0.512667
0.526548 0.526548 0.526548
0.540430 0.540430 0.540430
0.554311 0.554311 0.554311
0.568259 0.568259 0.568259
0.583222 0.583222 0.583222
0.599876 0.599876 0.599876
0.080299 0.080299 0.080299
0.081105 0.081105 0.081105
0.083287 0.083287 0.083287
0.084220 0.084220 0.084220
0.087208 0.087208 0.087208
0.088142 0.088142 0.088142
0.091130 0.091130 0.091130
0.092063 0.092063 0.092063
0.095200 0.095200 0.095200
0.098973 0.098973 0.098973
0.099907 0.099907 0.099907
0.103799 0.103799 0.103799
0.108461 0.108461 0.108461
0.111671 0.111671 0.111671
0.115385 0.115385 0.115385
0.119657 0.119657 0.119657
0.124385 0.124385 0.124385
0.129112 0.129112 0.129112
0.133840 0.133840 0.133840
0.139502 0.139502 0.139502
0.144230 0.144230 0.144230
0.149580 0.149580 0.149580
0.154749 0.154749 0.154749
0.161911 0.161911 0.161911
0.167996 0.167996 0.167996
0.173420 0.173420 0.173420
0.181388 0.181388 0.181388
0.187302 0.187302 0.187302
0.195684 0.195684 0.195684
0.204171 0.204171 0.204171
0.210084 0.210084 0.210084
0.218985 0.218985 0.218985
0.226953 0.226953 0.226953
0.235854 0.235854 0.235854
0.244919 0.244919 0.244919
0.254591 0.254591 0.254591
0.263492 0.263492 0.263492
0.275381 0.275381 0.275381
0.284283 0.284283 0.284283
0.294118 0.294118 0.294118
0.306007 0.306007 0.306007
0.314967 0.314967 0.314967
0.327731 0.327731 0.327731
0.337196 0.337196 0.337196
0.349455 0.349455 0.349455
0.362278 0.362278 0.362278
0.373346 0.373346 0.373346
0.386679 0.386679 0.386679
0.396825 0.396825 0.396825
0.410520 0.410520 0.410520
0.424401 0.424401 0.424401
0.438282 0.438282 0.438282
0.452039 0.452039 0.452039
0.464862 0.464862 0.464862
0.477684 0.477684 0.477684
0.490507 0.490507 0.490507
0.507252 0.507252 0.507252
0.520075 0.520075 0.520075
0.532898 0.532898 0.532898
0.548471 0.548471 0.548471
0.562465 0.562465 0.562465
0.576663 0.576663 0.576663
0.590292 0.590292 0.590292
0.604855 0.604855 0.604855
0.094180 0.094180 0.094180
0.094701 0.094701 0.094701
0.096110 0.096110 0.096110
0.098101 0.098101 0.098101
0.100031 0.100031 0.100031
0.102023 0.102023 0.102023
0.103953 0.103953 0.103953
0.105945 0.105945 0.105945
0.108190 0.108190 0.108190
0.110693 0.110693 0.110693
0.113788 0.113788 0.113788
0.117646 0.117646 0.117646
0.122090 0.122090 0.122090
0.125552 0.125552 0.125552
0.129031 0.129031 0.129031
0.133487 0.133487 0.133487
0.137930 0.137930 0.137930
0.142372 0.142372 0.142372
0.148522 0.148522 0.148522
0.153248 0.153248 0.153248
0.158481 0.158481 0.158481
0.164104 0.164104 0.164104
0.170370 0.170370 0.170370
0.175350 0.175350 0.175350
0.181373 0.181373 0.181373
0.187792 0.187792 0.187792
0.194211 0.194211 0.194211
0.201183 0.201183 0.201183
0.208977 0.208977 0.208977
0.216993 0.216993 0.216993
0.223965 0.223965 0.223965
0.232139 0.232139 0.232139
0.239776 0.239776 0.239776
0.248677 0.248677 0.248677
0.257579 0.257579 0.257579
0.266480 0.266480 0.266480
0.277373 0.277373 0.277373
0.286275 0.286275 0.286275
0.297106 0.297106 0.297106
0.306007 0.306007 0.306007
0.316900 0.316900 0.316900
0.327731 0.327731 0.327731
0.338624 0.338624 0.338624
0.349455 0.349455 0.349455
0.362033 0.362033 0.362033
0.371740 0.371740 0.371740
0.384002 0.384002 0.384002
0.396825 0.396825 0.396825
0.409556 0.409556 0.409556
0.422471 0.422471 0.422471
0.434314 0.434314 0.434314
0.447658 0.447658 0.447658
