films/agfa_apx_25.cube
TITLE "data/luts/rawtherapee/HaldCLUT/Black-and-White/Agfa/Agfa APX 25.png"
LUT_3D_SIZE 8
DOMAIN_MIN 0 0 0
DOMAIN_MAX 1 1 1
0.000000 0.000000 0.000000
0.001681 0.001681 0.001681
0.011204 0.011204 0.011204
0.031373 0.031373 0.031373
0.081232 0.081232 0.081232
0.189356 0.189356 0.189356
0.337815 0.337815 0.337815
0.509804 0.509804 0.509804
0.044818 0.044818 0.044818
0.064426 0.064426 0.064426
0.093317 0.093317 0.093317
0.145178 0.145178 0.145178
0.225290 0.225290 0.225290
0.327731 0.327731 0.327731
0.449300 0.449300 0.449300
0.585994 0.585994 0.585994
0.175350 0.175350 0.175350
0.194638 0.194638 0.194638
0.226331 0.226331 0.226331
0.274910 0.274910 0.274910
0.343417 0.343417 0.343417
0.431853 0.431853 0.431853
0.533333 0.533333 0.533333
0.639216 0.639216 0.639216
0.352381 0.352381 0.352381
0.363025 0.363025 0.363025
0.387515 0.387515 0.387515
0.426891 0.426891 0.426891
0.483473 0.483473 0.483473
0.547899 0.547899 0.547899
0.619048 0.619048 0.619048
0.699160 0.699160 0.699160
0.546779 0.546779 0.546779
0.550700 0.550700 0.550700
0.566387 0.566387 0.566387
0.589916 0.589916 0.589916
0.622089 0.622089 0.622089
0.662025 0.662025 0.662025
0.708683 0.708683 0.708683
0.767507 0.767507 0.767507
0.694678 0.694678 0.694678
0.695238 0.695238 0.695238
0.703081 0.703081 0.703081
0.718207 0.718207 0.718207
0.737815 0.737815 0.737815
0.761425 0.761425 0.761425
0.792717 0.792717 0.792717
0.835294 0.835294 0.835294
0.814006 0.814006 0.814006
0.814006 0.814006 0.814006
0.817927 0.817927 0.817927
0.825770 0.825770 0.825770
0.837535 0.837535 0.837535
0.853221 0.853221 0.853221
0.872829 0.872829 0.872829
0.900280 0.900280 0.900280
0.925490 0.925490 0.925490
0.925490 0.925490 0.925490
0.929412 0.929412 0.929412
0.933333 0.933333 0.933333
0.937255 0.937255 0.937255
0.945098 0.945098 0.945098
0.952941 0.952941 0.952941
0.968627 0.968627 0.968627
0.000000 0.000000 0.000000
0.011765 0.011765 0.011765
0.027451 0.027451 0.027451
0.059304 0.059304 0.059304
0.126050 0.126050 0.126050
0.240336 0.240336 0.240336
0.380952 0.380952 0.380952
0.545098 0.545098 0.545098
0.072269 0.072269 0.072269
0.093009 0.093009 0.093009
0.129538 0.129538 0.129538
0.184600 0.184600 0.184600
0.263305 0.263305 0.263305
0.361104 0.361104 0.361104
0.478980 0.478980 0.478980
0.605602 0.605602 0.605602
0.206723 0.206723 0.206723
0.222512 0.222512 0.222512
0.255222 0.255222 0.255222
0.302132 0.302132 0.302132
0.370548 0.370548 0.370548
0.455108 0.455108 0.455108
0.550700 0.550700 0.550700
0.654342 0.654342 0.654342
0.373189 0.373189 0.373189
0.383628 0.383628 0.383628
0.408220 0.408220 0.408220
0.446499 0.446499 0.446499
0.500955 0.500955 0.500955
0.562465 0.562465 0.562465
0.630812 0.630812 0.630812
0.708203 0.708203 0.708203
0.558543 0.558543 0.558543
0.563185 0.563185 0.563185
0.578151 0.578151 0.578151
0.600537 0.600537 0.600537
0.632596 0.632596 0.632596
0.670028 0.670028 0.670028
0.716527 0.716527 0.716527
0.773749 0.773749 0.773749
0.700600 0.700600 0.700600
0.703081 0.703081 0.703081
0.710879 0.710879 0.710879
0.724678 0.724678 0.724678
0.742137 0.742137 0.742137
0.766032 0.766032 0.766032
0.796639 0.796639 0.796639
0.839456 0.839456 0.839456
0.817927 0.817927 0.817927
0.817927 0.817927 0.817927
0.822672 0.822672 0.822672
0.829692 0.829692 0.829692
0.841457 0.841457 0.841457
0.857143 0.857143 0.857143
0.875790 0.875790 0.875790
0.904202 0.904202 0.904202
0.929412 0.929412 0.929412
0.929412 0.929412 0.929412
0.929412 0.929412 0.929412
0.933333 0.933333 0.933333
0.941176 0.941176 0.941176
0.945098 0.945098 0.945098
0.956863 0.956863 0.956863
0.968627 0.968627 0.968627
0.007843 0.007843 0.007843
0.023529 0.023529 0.023529
0.049940 0.049940 0.049940
0.087235 0.087235 0.087235
0.167347 0.167347 0.167347
0.279472 0.279472 0.279472
0.415686 0.415686 0.415686
0.568627 0.568627 0.568627
0.103321 0.103321 0.103321
0.129435 0.129435 0.129435
0.169222 0.169222 0.169222
0.223438 0.223438 0.223438
0.298599 0.298599 0.298599
0.394672 0.394672 0.394672
0.506980 0.506980 0.506980
0.625210 0.625210 0.625210
0.245378 0.245378 0.245378
0.261099 0.261099 0.261099
0.292094 0.292094 0.292094
0.337598 0.337598 0.337598
0.405122 0.405122 0.405122
0.486206 0.486206 0.486206
0.574230 0.574230 0.574230
0.670028 0.670028 0.670028
0.409524 0.409524 0.409524
0.417927 0.417927 0.417927
0.441377 0.441377 0.441377
0.477711 0.477711 0.477711
0.527297 0.527297 0.527297
0.585594 0.585594 0.585594
0.650100 0.650100 0.650100
0.722689 0.722689 0.722689
0.581513 0.581513 0.581513
0.585994 0.585994 0.585994
0.597759 0.597759 0.597759
0.621003 0.621003 0.621003
0.649814 0.649814 0.649814
0.685691 0.685691 0.685691
0.730212 0.730212 0.730212
0.784154 0.784154 0.784154
0.714286 0.714286 0.714286
0.717727 0.717727 0.717727
0.725159 0.725159 0.725159
0.737815 0.737815 0.737815
0.753844 0.753844 0.753844
0.777099 0.777099 0.777099
0.806723 0.806723 0.806723
0.847539 0.847539 0.847539
0.825770 0.825770 0.825770
0.827691 0.827691 0.827691
0.831613 0.831613 0.831613
0.837535 0.837535 0.837535
0.849300 0.849300 0.849300
0.861625 0.861625 0.861625
0.881495 0.881495 0.881495
0.909804 0.909804 0.909804
0.933333 0.933333 0.933333
0.933333 0.933333 0.933333
0.937255 0.937255 0.937255
0.940776 0.940776 0.940776
0.945098 0.945098 0.945098
0.949020 0.949020 0.949020
0.959104 0.959104 0.959104
0.972549 0.972549 0.972549
0.019608 0.019608 0.019608
0.049380 0.049380 0.049380
0.078431 0.078431 0.078431
0.130532 0.130532 0.130532
0.215686 0.215686 0.215686
0.323249 0.323249 0.323249
0.455462 0.455462 0.455462
0.596078 0.596078 0.596078
0.149580 0.149580 0.149580
0.177442 0.177442 0.177442
0.217550 0.217550 0.217550
0.270588 0.270588 0.270588
0.342857 0.342857 0.342857
0.435134 0.435134 0.435134
0.539084 0.539084 0.539084
0.647539 0.647539 0.647539
0.292997 0.292997 0.292997
0.307083 0.307083 0.307083
0.337461 0.337461 0.337461
0.382027 0.382027 0.382027
0.446339 0.446339 0.446339
0.521569 0.521569 0.521569
0.601681 0.601681 0.601681
0.689796 0.689796 0.689796
0.450420 0.450420 0.450420
0.461202 0.461202 0.461202
0.481793 0.481793 0.481793
0.515623 0.515623 0.515623
0.561562 0.561562 0.561562
0.613160 0.613160 0.613160
0.670508 0.670508 0.670508
0.739176 0.739176 0.739176
0.609844 0.609844 0.609844
0.613766 0.613766 0.613766
0.625530 0.625530 0.625530
0.645595 0.645595 0.645595
0.673161 0.673161 0.673161
0.706008 0.706008 0.706008
0.746699 0.746699 0.746699
0.798880 0.798880 0.798880
0.733894 0.733894 0.733894
0.734865 0.734865 0.734865
0.741897 0.741897 0.741897
0.753661 0.753661 0.753661
0.770320 0.770320 0.770320
0.792717 0.792717 0.792717
0.820168 0.820168 0.820168
0.856423 0.856423 0.856423
0.837535 0.837535 0.837535
0.838175 0.838175 0.838175
0.842097 0.842097 0.842097
0.849300 0.849300 0.849300
0.860264 0.860264 0.860264
0.872829 0.872829 0.872829
0.890962 0.890962 0.890962
0.917647 0.917647 0.917647
0.941176 0.941176 0.941176
0.941176 0.941176 0.941176
0.942137 0.942137 0.942137
0.945098 0.945098 0.945098
0.949020 0.949020 0.949020
0.956863 0.956863 0.956863
0.964706 0.964706 0.964706
0.976471 0.976471 0.976471
0.049860 0.049860 0.049860
0.089556 0.089556 0.089556
0.131653 0.131653 0.131653
0.192157 0.192157 0.192157
0.276190 0.276190 0.276190
0.376471 0.376471 0.376471
0.497959 0.497959 0.497959
0.626331 0.626331 0.626331
0.214006 0.214006 0.214006
0.239982 0.239982 0.239982
0.278671 0.278671 0.278671
0.330452 0.330452 0.330452
0.399440 0.399440 0.399440
0.484823 0.484823 0.484823
0.576265 0.576265 0.576265
0.674510 0.674510 0.674510
0.354622 0.354622 0.354622
0.368159 0.368159 0.368159
0.397416 0.397416 0.397416
0.441056 0.441056 0.441056
0.498874 0.498874 0.498874
0.563585 0.563585 0.563585
0.633453 0.633453 0.633453
0.713565 0.713565 0.713565
0.504202 0.504202 0.504202
0.512902 0.512902 0.512902
0.531218 0.531218 0.531218
0.561562 0.561562 0.561562
0.600229 0.600229 0.600229
0.644818 0.644818 0.644818
0.697479 0.697479 0.697479
0.761585 0.761585 0.761585
0.644018 0.644018 0.644018
0.647939 0.647939 0.647939
0.657657 0.657657 0.657657
0.675847 0.675847 0.675847
0.700520 0.700520 0.700520
0.731253 0.731253 0.731253
0.767164 0.767164 0.767164
0.814566 0.814566 0.814566
0.753902 0.753902 0.753902
0.757423 0.757423 0.757423
0.764283 0.764283 0.764283
0.773224 0.773224 0.773224
0.788796 0.788796 0.788796
0.808403 0.808403 0.808403
0.835203 0.835203 0.835203
0.870988 0.870988 0.870988
0.852741 0.852741 0.852741
0.853221 0.853221 0.853221
0.857143 0.857143 0.857143
0.863008 0.863008 0.863008
0.872829 0.872829 0.872829
0.884594 0.884594 0.884594
0.900966 0.900966 0.900966
0.927091 0.927091 0.927091
0.949020 0.949020 0.949020
0.949020 0.949020 0.949020
0.949020 0.949020 0.949020
0.952941 0.952941 0.952941
0.956863 0.956863 0.956863
0.960784 0.960784 0.960784
0.968627 0.968627 0.968627
0.980392 0.980392 0.980392
0.110364 0.110364 0.110364
0.166947 0.166947 0.166947
0.212805 0.212805 0.212805
0.272269 0.272269 0.272269
0.348459 0.348459 0.348459
0.444258 0.444258 0.444258
0.551581 0.551581 0.551581
0.659384 0.659384 0.659384
0.294118 0.294118 0.294118
0.319888 0.319888 0.319888
0.354908 0.354908 0.354908
0.403361 0.403361 0.403361
0.467787 0.467787 0.467787
0.540056 0.540056 0.540056
0.618167 0.618167 0.618167
0.703962 0.703962 0.703962
0.427451 0.427451 0.427451
0.442577 0.442577 0.442577
0.469136 0.469136 0.469136
0.505825 0.505825 0.505825
0.555342 0.555342 0.555342
0.608403 0.608403 0.608403
0.669388 0.669388 0.669388
0.740696 0.740696 0.740696
0.562065 0.562065 0.562065
0.568536 0.568536 0.568536
0.585228 0.585228 0.585228
0.609238 0.609238 0.609238
0.643297 0.643297 0.643297
0.680592 0.680592 0.680592
0.726931 0.726931 0.726931
0.784474 0.784474 0.784474
0.681232 0.681232 0.681232
0.684605 0.684605 0.684605
0.693340 0.693340 0.693340
0.708844 0.708844 0.708844
0.731253 0.731253 0.731253
0.756783 0.756783 0.756783
0.790007 0.790007 0.790007
0.834174 0.834174 0.834174
0.780952 0.780952 0.780952
0.781513 0.781513 0.781513
0.788796 0.788796 0.788796
0.796799 0.796799 0.796799
0.811365 0.811365 0.811365
0.828091 0.828091 0.828091
0.851815 0.851815 0.851815
0.886275 0.886275 0.886275
0.868908 0.868908 0.868908
0.868908 0.868908 0.868908
0.872829 0.872829 0.872829
0.878271 0.878271 0.878271
0.888515 0.888515 0.888515
0.898634 0.898634 0.898634
0.913291 0.913291 0.913291
0.937255 0.937255 0.937255
0.956863 0.956863 0.956863
0.956863 0.956863 0.956863
0.960784 0.960784 0.960784
0.960784 0.960784 0.960784
0.964706 0.964706 0.964706
0.968627 0.968627 0.968627
0.976471 0.976471 0.976471
0.984314 0.984314 0.984314
0.214006 0.214006 0.214006
0.267947 0.267947 0.267947
0.311485 0.311485 0.311485
0.364146 0.364146 0.364146
0.436415 0.436415 0.436415
0.516527 0.516527 0.516527
0.604482 0.604482 0.604482
0.696359 0.696359 0.696359
0.389196 0.389196 0.389196
0.411216 0.411216 0.411216
0.443960 0.443960 0.443960
0.487395 0.487395 0.487395
0.540056 0.540056 0.540056
0.599314 0.599314 0.599314
0.662882 0.662882 0.662882
0.736295 0.736295 0.736295
0.510924 0.510924 0.510924
0.520768 0.520768 0.520768
0.542857 0.542857 0.542857
0.574230 0.574230 0.574230
0.612805 0.612805 0.612805
0.657349 0.657349 0.657349
0.708809 0.708809 0.708809
0.770548 0.770548 0.770548
0.621369 0.621369 0.621369
0.627097 0.627097 0.627097
0.640165 0.640165 0.640165
0.660584 0.660584 0.660584
0.688996 0.688996 0.688996
0.721248 0.721248 0.721248
0.760636 0.760636 0.760636
0.810564 0.810564 0.810564
0.722689 0.722689 0.722689
0.725056 0.725056 0.725056
0.733585 0.733585 0.733585
0.746699 0.746699 0.746699
0.765369 0.765369 0.765369
0.787984 0.787984 0.787984
0.817081 0.817081 0.817081
0.854902 0.854902 0.854902
0.808403 0.808403 0.808403
0.810644 0.810644 0.810644
0.816246 0.816246 0.816246
0.824090 0.824090 0.824090
0.835854 0.835854 0.835854
0.851815 0.851815 0.851815
0.873069 0.873069 0.873069
0.902521 0.902521 0.902521
0.888515 0.888515 0.888515
0.888515 0.888515 0.888515
0.892437 0.892437 0.892437
0.897685 0.897685 0.897685
0.904888 0.904888 0.904888
0.915966 0.915966 0.915966
0.928280 0.928280 0.928280
0.949020 0.949020 0.949020
0.968627 0.968627 0.968627
0.968627 0.968627 0.968627
0.968627 0.968627 0.968627
0.970868 0.970868 0.970868
0.972549 0.972549 0.972549
0.976471 0.976471 0.976471
0.980392 0.980392 0.980392
0.992157 0.992157 0.992157
0.337255 0.337255 0.337255
0.385994 0.385994 0.385994
0.423529 0.423529 0.423529
0.471709 0.471709 0.471709
0.528291 0.528291 0.528291
0.592717 0.592717 0.592717
0.661064 0.661064 0.661064
0.737255 0.737255 0.737255
0.495798 0.495798 0.495798
0.515406 0.515406 0.515406
0.542297 0.542297 0.542297
0.574230 0.574230 0.574230
0.615046 0.615046 0.615046
0.660824 0.660824 0.660824
0.712045 0.712045 0.712045
0.772549 0.772549 0.772549
0.595518 0.595518 0.595518
0.603361 0.603361 0.603361
0.622409 0.622409 0.622409
0.644098 0.644098 0.644098
0.674350 0.674350 0.674350
0.710284 0.710284 0.710284
0.752701 0.752701 0.752701
0.803922 0.803922 0.803922
0.687395 0.687395 0.687395
0.691317 0.691317 0.691317
0.699160 0.699160 0.699160
0.718768 0.718768 0.718768
0.740376 0.740376 0.740376
0.766226 0.766226 0.766226
0.798800 0.798800 0.798800
0.840336 0.840336 0.840336
0.771429 0.771429 0.771429
0.771429 0.771429 0.771429
0.779272 0.779272 0.779272
0.791036 0.791036 0.791036
0.806723 0.806723 0.806723
0.826331 0.826331 0.826331
0.849860 0.849860 0.849860
0.882353 0.882353 0.882353
0.843697 0.843697 0.843697
0.847619 0.847619 0.847619
0.851541 0.851541 0.851541
0.859384 0.859384 0.859384
0.867227 0.867227 0.867227
0.882913 0.882913 0.882913
0.900520 0.900520 0.900520
0.925490 0.925490 0.925490
0.915966 0.915966 0.915966
0.915966 0.915966 0.915966
0.919888 0.919888 0.919888
0.923810 0.923810 0.923810
0.929412 0.929412 0.929412
0.937575 0.937575 0.937575
0.949020 0.949020 0.949020
0.964706 0.964706 0.964706
0.980392 0.980392 0.980392
0.980392 0.980392 0.980392
0.980392 0.980392 0.980392
0.980392 0.980392 0.980392
0.984314 0.984314 0.984314
0.988235 0.988235 0.988235
0.992157 0.992157 0.992157
1.000000 1.000000 1.000000
