films/fuji_neopan_1600_1_-.cube
TITLE "data/luts/rawtherapee/HaldCLUT/Black-and-White/Fuji/Fuji Neopan 1600 1 -.png"
LUT_3D_SIZE 64
DOMAIN_MIN 0 0 0
DOMAIN_MAX 1 1 1
0.039216 0.039216 0.039216
0.039216 0.039216 0.039216
0.039216 0.039216 0.039216
0.039216 0.039216 0.039216
0.039216 0.039216 0.039216
0.039216 0.039216 0.039216
0.039216 0.039216 0.039216
0.039216 0.039216 0.039216
0.042515 0.042515 0.042515
0.039216 0.039216 0.039216
0.039216 0.039216 0.039216
0.039216 0.039216 0.039216
0.043137 0.043137 0.043137
0.043137 0.043137 0.043137
0.043137 0.043137 0.043137
0.046872 0.046872 0.046872
0.043137 0.043137 0.043137
0.045440 0.045440 0.045440
0.047059 0.047059 0.047059
0.050980 0.050980 0.050980
0.050980 0.050980 0.050980
0.050980 0.050980 0.050980
0.054653 0.054653 0.054653
0.054902 0.054902 0.054902
0.058824 0.058824 0.058824
0.061749 0.061749 0.061749
0.066729 0.066729 0.066729
0.071709 0.071709 0.071709
0.076688 0.076688 0.076688
0.082353 0.082353 0.082353
0.090570 0.090570 0.090570
0.099471 0.099471 0.099471
0.110862 0.110862 0.110862
0.121195 0.121195 0.121195
0.126175 0.126175 0.126175
0.136819 0.136819 0.136819
0.150700 0.150700 0.150700
0.164581 0.164581 0.164581
0.174541 0.174541 0.174541
0.188422 0.188422 0.188422
0.202303 0.202303 0.202303
0.215935 0.215935 0.215935
0.224837 0.224837 0.224837
0.240025 0.240025 0.240025
0.250482 0.250482 0.250482
0.259384 0.259384 0.259384
0.271522 0.271522 0.271522
0.281108 0.281108 0.281108
0.294118 0.294118 0.294118
0.307625 0.307625 0.307625
0.319577 0.319577 0.319577
0.332400 0.332400 0.332400
0.345347 0.345347 0.345347
0.358045 0.358045 0.358045
0.369188 0.369188 0.369188
0.383691 0.383691 0.383691
0.396514 0.396514 0.396514
0.410831 0.410831 0.410831
0.424712 0.424712 0.424712
0.438593 0.438593 0.438593
0.448553 0.448553 0.448553
0.466355 0.466355 0.466355
0.487021 0.487021 0.487021
0.517647 0.517647 0.517647
0.039216 0.039216 0.039216
0.039216 0.039216 0.039216
0.039216 0.039216 0.039216
0.039216 0.039216 0.039216
0.039300 0.039300 0.039300
0.042079 0.042079 0.042079
0.039871 0.039871 0.039871
0.039216 0.039216 0.039216
0.039216 0.039216 0.039216
0.039669 0.039669 0.039669
0.039955 0.039955 0.039955
0.043046 0.043046 0.043046
0.042885 0.042885 0.042885
0.043137 0.043137 0.043137
0.043960 0.043960 0.043960
0.044145 0.044145 0.044145
0.045104 0.045104 0.045104
0.045877 0.045877 0.045877
0.050420 0.050420 0.050420
0.050482 0.050482 0.050482
0.051619 0.051619 0.051619
0.052889 0.052889 0.052889
0.058575 0.058575 0.058575
0.059042 0.059042 0.059042
0.062745 0.062745 0.062745
0.066460 0.066460 0.066460
0.070605 0.070605 0.070605
0.075630 0.075630 0.075630
0.079019 0.079019 0.079019
0.088638 0.088638 0.088638
0.094491 0.094491 0.094491
0.104451 0.104451 0.104451
0.115170 0.115170 0.115170
0.121195 0.121195 0.121195
0.130096 0.130096 0.130096
0.141329 0.141329 0.141329
0.152577 0.152577 0.152577
0.165685 0.165685 0.165685
0.179252 0.179252 0.179252
0.191789 0.191789 0.191789
0.203112 0.203112 0.203112
0.216993 0.216993 0.216993
0.228758 0.228758 0.228758
0.240025 0.240025 0.240025
0.250482 0.250482 0.250482
0.263305 0.263305 0.263305
0.272643 0.272643 0.272643
0.285752 0.285752 0.285752
0.297716 0.297716 0.297716
0.308448 0.308448 0.308448
0.322565 0.322565 0.322565
0.333458 0.333458 0.333458
0.348119 0.348119 0.348119
0.359967 0.359967 0.359967
0.373109 0.373109 0.373109
0.387158 0.387158 0.387158
0.399177 0.399177 0.399177
0.410831 0.410831 0.410831
0.424712 0.424712 0.424712
0.438593 0.438593 0.438593
0.454247 0.454247 0.454247
0.468245 0.468245 0.468245
0.487794 0.487794 0.487794
0.517647 0.517647 0.517647
0.039216 0.039216 0.039216
0.040761 0.040761 0.040761
0.040358 0.040358 0.040358
0.039216 0.039216 0.039216
0.041021 0.041021 0.041021
0.040390 0.040390 0.040390
0.041332 0.041332 0.041332
0.040820 0.040820 0.040820
0.042851 0.042851 0.042851
0.043137 0.043137 0.043137
0.043137 0.043137 0.043137
0.043070 0.043070 0.043070
0.043137 0.043137 0.043137
0.044026 0.044026 0.044026
0.044783 0.044783 0.044783
0.045043 0.045043 0.045043
0.047059 0.047059 0.047059
0.048302 0.048302 0.048302
0.050723 0.050723 0.050723
0.049404 0.049404 0.049404
0.050980 0.050980 0.050980
0.054300 0.054300 0.054300
0.056884 0.056884 0.056884
0.061312 0.061312 0.061312
0.063605 0.063605 0.063605
0.068013 0.068013 0.068013
0.070650 0.070650 0.070650
0.077747 0.077747 0.077747
0.083529 0.083529 0.083529
0.091628 0.091628 0.091628
0.098413 0.098413 0.098413
0.106655 0.106655 0.106655
0.115069 0.115069 0.115069
0.125117 0.125117 0.125117
0.134018 0.134018 0.134018
0.145036 0.145036 0.145036
0.158543 0.158543 0.158543
0.168565 0.168565 0.168565
0.182384 0.182384 0.182384
0.195219 0.195219 0.195219
0.208714 0.208714 0.208714
0.219857 0.219857 0.219857
0.230667 0.230667 0.230667
0.242670 0.242670 0.242670
0.254404 0.254404 0.254404
0.265680 0.265680 0.265680
0.276128 0.276128 0.276128
0.288378 0.288378 0.288378
0.301774 0.301774 0.301774
0.311146 0.311146 0.311146
0.323498 0.323498 0.323498
0.335891 0.335891 0.335891
0.349211 0.349211 0.349211
0.361345 0.361345 0.361345
0.375999 0.375999 0.375999
0.387277 0.387277 0.387277
0.397185 0.397185 0.397185
0.414065 0.414065 0.414065
0.424712 0.424712 0.424712
0.438904 0.438904 0.438904
0.452474 0.452474 0.452474
0.468161 0.468161 0.468161
0.487021 0.487021 0.487021
0.517647 0.517647 0.517647
0.039216 0.039216 0.039216
0.040618 0.040618 0.040618
0.039216 0.039216 0.039216
0.041786 0.041786 0.041786
0.042826 0.042826 0.042826
0.040585 0.040585 0.040585
0.039216 0.039216 0.039216
0.039880 0.039880 0.039880
0.042005 0.042005 0.042005
0.043137 0.043137 0.043137
0.043137 0.043137 0.043137
0.043137 0.043137 0.043137
0.043137 0.043137 0.043137
0.046312 0.046312 0.046312
0.043137 0.043137 0.043137
0.047023 0.047023 0.047023
0.047296 0.047296 0.047296
0.050233 0.050233 0.050233
0.049780 0.049780 0.049780
0.051384 0.051384 0.051384
0.054902 0.054902 0.054902
0.055960 0.055960 0.055960
0.061749 0.061749 0.061749
0.062152 0.062152 0.062152
0.066667 0.066667 0.066667
0.070399 0.070399 0.070399
0.077696 0.077696 0.077696
0.081819 0.081819 0.081819
0.086275 0.086275 0.086275
0.093433 0.093433 0.093433
0.102263 0.102263 0.102263
0.110761 0.110761 0.110761
0.119663 0.119663 0.119663
0.128967 0.128967 0.128967
0.138494 0.138494 0.138494
0.148252 0.148252 0.148252
0.159664 0.159664 0.159664
0.172487 0.172487 0.172487
0.186116 0.186116 0.186116
0.199440 0.199440 0.199440
0.210955 0.210955 0.210955
0.220106 0.220106 0.220106
0.233738 0.233738 0.233738
0.245052 0.245052 0.245052
0.257175 0.257175 0.257175
0.267227 0.267227 0.267227
0.277747 0.277747 0.277747
0.291628 0.291628 0.291628
0.304762 0.304762 0.304762
0.314016 0.314016 0.314016
0.327420 0.327420 0.327420
0.339309 0.339309 0.339309
0.349245 0.349245 0.349245
0.363150 0.363150 0.363150
0.374790 0.374790 0.374790
0.388123 0.388123 0.388123
0.400788 0.400788 0.400788
0.413543 0.413543 0.413543
0.426082 0.426082 0.426082
0.438904 0.438904 0.438904
0.452474 0.452474 0.452474
0.467817 0.467817 0.467817
0.488080 0.488080 0.488080
0.517647 0.517647 0.517647
0.039216 0.039216 0.039216
0.039443 0.039443 0.039443
0.039216 0.039216 0.039216
0.039216 0.039216 0.039216
0.039216 0.039216 0.039216
0.043137 0.043137 0.043137
0.043137 0.043137 0.043137
0.039617 0.039617 0.039617
0.043137 0.043137 0.043137
0.043137 0.043137 0.043137
0.043137 0.043137 0.043137
0.043553 0.043553 0.043553
0.047059 0.047059 0.047059
0.047059 0.047059 0.047059
0.047059 0.047059 0.047059
0.047059 0.047059 0.047059
0.047370 0.047370 0.047370
0.050980 0.050980 0.050980
0.051247 0.051247 0.051247
0.055174 0.055174 0.055174
0.056458 0.056458 0.056458
0.057828 0.057828 0.057828
0.059655 0.059655 0.059655
0.063866 0.063866 0.063866
0.068697 0.068697 0.068697
0.073825 0.073825 0.073825
0.082296 0.082296 0.082296
0.083785 0.083785 0.083785
0.090770 0.090770 0.090770
0.101533 0.101533 0.101533
0.106911 0.106911 0.106911
0.115468 0.115468 0.115468
0.124256 0.124256 0.124256
0.132960 0.132960 0.132960
0.144895 0.144895 0.144895
0.152817 0.152817 0.152817
0.167507 0.167507 0.167507
0.176720 0.176720 0.176720
0.190538 0.190538 0.190538
0.204257 0.204257 0.204257
0.214132 0.214132 0.214132
0.224319 0.224319 0.224319
0.236601 0.236601 0.236601
0.247247 0.247247 0.247247
0.258597 0.258597 0.258597
0.271148 0.271148 0.271148
0.281668 0.281668 0.281668
0.292873 0.292873 0.292873
0.305977 0.305977 0.305977
0.315468 0.315468 0.315468
0.329350 0.329350 0.329350
0.339383 0.339383 0.339383
0.353076 0.353076 0.353076
0.363367 0.363367 0.363367
0.378711 0.378711 0.378711
0.390961 0.390961 0.390961
0.401148 0.401148 0.401148
0.414753 0.414753 0.414753
0.426284 0.426284 0.426284
0.442228 0.442228 0.442228
0.452726 0.452726 0.452726
0.470277 0.470277 0.470277
0.488391 0.488391 0.488391
0.521569 0.521569 0.521569
0.040585 0.040585 0.040585
0.040585 0.040585 0.040585
0.039216 0.039216 0.039216
0.040324 0.040324 0.040324
0.039527 0.039527 0.039527
0.043137 0.043137 0.043137
0.042165 0.042165 0.042165
0.044071 0.044071 0.044071
0.043355 0.043355 0.043355
0.044507 0.044507 0.044507
0.046289 0.046289 0.046289
0.047059 0.047059 0.047059
0.048102 0.048102 0.048102
0.047754 0.047754 0.047754
0.050109 0.050109 0.050109
0.050980 0.050980 0.050980
0.052725 0.052725 0.052725
0.052350 0.052350 0.052350
0.054537 0.054537 0.054537
0.056271 0.056271 0.056271
0.060193 0.060193 0.060193
0.060193 0.060193 0.060193
0.066505 0.066505 0.066505
0.068845 0.068845 0.068845
0.073173 0.073173 0.073173
0.077783 0.077783 0.077783
0.083763 0.083763 0.083763
0.089743 0.089743 0.089743
0.097666 0.097666 0.097666
0.104461 0.104461 0.104461
0.111677 0.111677 0.111677
0.122749 0.122749 0.122749
0.130219 0.130219 0.130219
0.138381 0.138381 0.138381
0.147391 0.147391 0.147391
0.161345 0.161345 0.161345
0.173438 0.173438 0.173438
0.185580 0.185580 0.185580
0.195892 0.195892 0.195892
0.208062 0.208062 0.208062
0.219229 0.219229 0.219229
0.234273 0.234273 0.234273
0.241560 0.241560 0.241560
0.253702 0.253702 0.253702
0.261238 0.261238 0.261238
0.274252 0.274252 0.274252
0.284407 0.284407 0.284407
0.297788 0.297788 0.297788
0.308434 0.308434 0.308434
0.319888 0.319888 0.319888
0.332110 0.332110 0.332110
0.342656 0.342656 0.342656
0.354479 0.354479 0.354479
0.368627 0.368627 0.368627
0.379770 0.379770 0.379770
0.392904 0.392904 0.392904
0.404544 0.404544 0.404544
0.416519 0.416519 0.416519
0.427929 0.427929 0.427929
0.439091 0.439091 0.439091
0.453284 0.453284 0.453284
0.467912 0.467912 0.467912
0.484162 0.484162 0.484162
0.505260 0.505260 0.505260
0.040710 0.040710 0.040710
0.039619 0.039619 0.039619
0.041827 0.041827 0.041827
0.041643 0.041643 0.041643
0.040784 0.040784 0.040784
0.042616 0.042616 0.042616
0.043137 0.043137 0.043137
0.043137 0.043137 0.043137
0.043523 0.043523 0.043523
0.046419 0.046419 0.046419
0.047059 0.047059 0.047059
0.047059 0.047059 0.047059
0.050980 0.050980 0.050980
0.050980 0.050980 0.050980
0.052869 0.052869 0.052869
0.053479 0.053479 0.053479
0.055376 0.055376 0.055376
0.057330 0.057330 0.057330
0.060691 0.060691 0.060691
0.061251 0.061251 0.061251
0.063708 0.063708 0.063708
0.066978 0.066978 0.066978
0.072862 0.072862 0.072862
0.073825 0.073825 0.073825
0.079587 0.079587 0.079587
0.085279 0.085279 0.085279
0.091153 0.091153 0.091153
0.097666 0.097666 0.097666
0.106567 0.106567 0.106567
0.113465 0.113465 0.113465
0.120448 0.120448 0.120448
0.129350 0.129350 0.129350
0.138251 0.138251 0.138251
0.147152 0.147152 0.147152
0.157971 0.157971 0.157971
0.169540 0.169540 0.169540
0.181699 0.181699 0.181699
0.194484 0.194484 0.194484
0.205534 0.205534 0.205534
0.219457 0.219457 0.219457
0.229378 0.229378 0.229378
0.239714 0.239714 0.239714
0.252412 0.252412 0.252412
0.262653 0.262653 0.262653
0.273822 0.273822 0.273822
0.281979 0.281979 0.281979
0.295736 0.295736 0.295736
0.307065 0.307065 0.307065
0.315966 0.315966 0.315966
0.329951 0.329951 0.329951
0.338426 0.338426 0.338426
0.350514 0.350514 0.350514
0.361033 0.361033 0.361033
0.374464 0.374464 0.374464
0.387942 0.387942 0.387942
0.398992 0.398992 0.398992
0.410043 0.410043 0.410043
0.424099 0.424099 0.424099
0.436477 0.436477 0.436477
0.450358 0.450358 0.450358
0.463777 0.463777 0.463777
0.480548 0.480548 0.480548
0.500559 0.500559 0.500559
0.531839 0.531839 0.531839
0.042702 0.042702 0.042702
0.043137 0.043137 0.043137
0.042937 0.042937 0.042937
0.042785 0.042785 0.042785
0.043137 0.043137 0.043137
0.043137 0.043137 0.043137
0.043137 0.043137 0.043137
0.043912 0.043912 0.043912
0.047059 0.047059 0.047059
0.047059 0.047059 0.047059
0.047495 0.047495 0.047495
0.050870 0.050870 0.050870
0.050980 0.050980 0.050980
0.054688 0.054688 0.054688
0.054902 0.054902 0.054902
0.058803 0.058803 0.058803
0.058526 0.058526 0.058526
0.058824 0.058824 0.058824
0.062683 0.062683 0.062683
0.066286 0.066286 0.066286
0.068050 0.068050 0.068050
0.070443 0.070443 0.070443
0.074731 0.074731 0.074731
0.081571 0.081571 0.081571
0.084013 0.084013 0.084013
0.092686 0.092686 0.092686
0.101096 0.101096 0.101096
0.106567 0.106567 0.106567
0.115033 0.115033 0.115033
0.123401 0.123401 0.123401
0.129350 0.129350 0.129350
0.137974 0.137974 0.137974
0.144939 0.144939 0.144939
0.156054 0.156054 0.156054
0.168517 0.168517 0.168517
0.179763 0.179763 0.179763
0.190787 0.190787 0.190787
0.203424 0.203424 0.203424
0.212436 0.212436 0.212436
0.225148 0.225148 0.225148
0.237251 0.237251 0.237251
0.247308 0.247308 0.247308
0.256209 0.256209 0.256209
0.266494 0.266494 0.266494
0.280977 0.280977 0.280977
0.290321 0.290321 0.290321
0.299658 0.299658 0.299658
0.311906 0.311906 0.311906
0.320946 0.320946 0.320946
0.330283 0.330283 0.330283
0.342892 0.342892 0.342892
0.355825 0.355825 0.355825
0.364844 0.364844 0.364844
0.377349 0.377349 0.377349
0.390476 0.390476 0.390476
0.402677 0.402677 0.402677
0.412588 0.412588 0.412588
0.428509 0.428509 0.428509
0.441332 0.441332 0.441332
0.453878 0.453878 0.453878
0.467725 0.467725 0.467725
0.483923 0.483923 0.483923
0.502590 0.502590 0.502590
0.536819 0.536819 0.536819
0.043137 0.043137 0.043137
0.043137 0.043137 0.043137
0.043137 0.043137 0.043137
0.043137 0.043137 0.043137
0.043399 0.043399 0.043399
0.043542 0.043542 0.043542
0.045565 0.045565 0.045565
0.043760 0.043760 0.043760
0.047582 0.047582 0.047582
0.047059 0.047059 0.047059
0.050420 0.050420 0.050420
0.051085 0.051085 0.051085
0.054902 0.054902 0.054902
0.057200 0.057200 0.057200
0.059308 0.059308 0.059308
0.062745 0.062745 0.062745
0.064415 0.064415 0.064415
0.068970 0.068970 0.068970
0.070739 0.070739 0.070739
0.075053 0.075053 0.075053
0.078678 0.078678 0.078678
0.081253 0.081253 0.081253
0.082975 0.082975 0.082975
0.090819 0.090819 0.090819
0.095037 0.095037 0.095037
0.102425 0.102425 0.102425
0.110426 0.110426 0.110426
0.115913 0.115913 0.115913
0.120725 0.120725 0.120725
0.129926 0.129926 0.129926
0.137937 0.137937 0.137937
0.146925 0.146925 0.146925
0.152527 0.152527 0.152527
0.168562 0.168562 0.168562
0.177778 0.177778 0.177778
0.186956 0.186956 0.186956
0.199680 0.199680 0.199680
0.212325 0.212325 0.212325
0.221849 0.221849 0.221849
0.232478 0.232478 0.232478
0.243631 0.243631 0.243631
0.255190 0.255190 0.255190
0.264675 0.264675 0.264675
0.274885 0.274885 0.274885
0.285777 0.285777 0.285777
0.294678 0.294678 0.294678
0.305198 0.305198 0.305198
0.316827 0.316827 0.316827
0.325926 0.325926 0.325926
0.338126 0.338126 0.338126
0.350949 0.350949 0.350949
0.359065 0.359065 0.359065
0.369374 0.369374 0.369374
0.382758 0.382758 0.382758
0.395020 0.395020 0.395020
0.406697 0.406697 0.406697
0.417111 0.417111 0.417111
0.432866 0.432866 0.432866
0.442173 0.442173 0.442173
0.454591 0.454591 0.454591
0.468783 0.468783 0.468783
0.485963 0.485963 0.485963
0.504220 0.504220 0.504220
0.537877 0.537877 0.537877
0.044818 0.044818 0.044818
0.045227 0.045227 0.045227
0.044818 0.044818 0.044818
0.044951 0.044951 0.044951
0.044862 0.044862 0.044862
0.046472 0.046472 0.046472
0.047059 0.047059 0.047059
0.047059 0.047059 0.047059
0.047415 0.047415 0.047415
0.050260 0.050260 0.050260
0.052154 0.052154 0.052154
0.054849 0.054849 0.054849
0.058290 0.058290 0.058290
0.060504 0.060504 0.060504
0.060504 0.060504 0.060504
0.064426 0.064426 0.064426
0.067734 0.067734 0.067734
0.073585 0.073585 0.073585
0.075950 0.075950 0.075950
0.084034 0.084034 0.084034
0.086941 0.086941 0.086941
0.089076 0.089076 0.089076
0.095656 0.095656 0.095656
0.100529 0.100529 0.100529
0.106389 0.106389 0.106389
0.112169 0.112169 0.112169
0.119354 0.119354 0.119354
0.125970 0.125970 0.125970
0.134018 0.134018 0.134018
0.140323 0.140323 0.140323
0.147152 0.147152 0.147152
0.156054 0.156054 0.156054
0.167445 0.167445 0.167445
0.177778 0.177778 0.177778
0.188751 0.188751 0.188751
0.199502 0.199502 0.199502
0.212325 0.212325 0.212325
0.221226 0.221226 0.221226
0.230128 0.230128 0.230128
0.241083 0.241083 0.241083
0.252199 0.252199 0.252199
0.262959 0.262959 0.262959
0.270401 0.270401 0.270401
0.281464 0.281464 0.281464
0.291379 0.291379 0.291379
0.300280 0.300280 0.300280
0.310862 0.310862 0.310862
0.322004 0.322004 0.322004
0.330906 0.330906 0.330906
0.343729 0.343729 0.343729
0.354595 0.354595 0.354595
0.364172 0.364172 0.364172
0.374479 0.374479 0.374479
0.389418 0.389418 0.389418
0.401281 0.401281 0.401281
0.412200 0.412200 0.412200
0.424152 0.424152 0.424152
0.435401 0.435401 0.435401
0.447370 0.447370 0.447370
0.460060 0.460060 0.460060
0.473443 0.473443 0.473443
0.489885 0.489885 0.489885
0.509324 0.509324 0.509324
0.541176 0.541176 0.541176
0.043137 0.043137 0.043137
0.045876 0.045876 0.045876
0.046421 0.046421 0.046421
0.047059 0.047059 0.047059
0.045970 0.045970 0.045970
0.047059 0.047059 0.047059
0.048553 0.048553 0.048553
0.049493 0.049493 0.049493
0.050980 0.050980 0.050980
0.051487 0.051487 0.051487
0.053719 0.053719 0.053719
0.057516 0.057516 0.057516
0.059476 0.059476 0.059476
0.062745 0.062745 0.062745
0.066404 0.066404 0.066404
0.069462 0.069462 0.069462
0.073703 0.073703 0.073703
0.077301 0.077301 0.077301
0.084532 0.084532 0.084532
0.089511 0.089511 0.089511
0.096143 0.096143 0.096143
0.102604 0.102604 0.102604
0.108372 0.108372 0.108372
0.109430 0.109430 0.109430
0.117149 0.117149 0.117149
0.123312 0.123312 0.123312
0.132194 0.132194 0.132194
0.136855 0.136855 0.136855
0.143390 0.143390 0.143390
0.151552 0.151552 0.151552
0.158792 0.158792 0.158792
0.168126 0.168126 0.168126
0.180517 0.180517 0.180517
0.190601 0.190601 0.190601
0.200187 0.200187 0.200187
0.211142 0.211142 0.211142
0.221226 0.221226 0.221226
0.230128 0.230128 0.230128
0.240025 0.240025 0.240025
0.251852 0.251852 0.251852
0.261692 0.261692 0.261692
0.269730 0.269730 0.269730
0.280652 0.280652 0.280652
0.288171 0.288171 0.288171
0.299932 0.299932 0.299932
0.306612 0.306612 0.306612
0.318083 0.318083 0.318083
0.328167 0.328167 0.328167
0.337068 0.337068 0.337068
0.346841 0.346841 0.346841
0.358792 0.358792 0.358792
0.370682 0.370682 0.370682
0.380517 0.380517 0.380517
0.390601 0.390601 0.390601
0.404482 0.404482 0.404482
0.414441 0.414441 0.414441
0.424097 0.424097 0.424097
0.435093 0.435093 0.435093
0.447642 0.447642 0.447642
0.459601 0.459601 0.459601
0.472518 0.472518 0.472518
0.487068 0.487068 0.487068
0.504256 0.504256 0.504256
0.523187 0.523187 0.523187
0.050980 0.050980 0.050980
0.049865 0.049865 0.049865
0.050913 0.050913 0.050913
0.050133 0.050133 0.050133
0.050980 0.050980 0.050980
0.050937 0.050937 0.050937
0.050980 0.050980 0.050980
0.054356 0.054356 0.054356
0.054882 0.054882 0.054882
0.056529 0.056529 0.056529
0.058786 0.058786 0.058786
0.058824 0.058824 0.058824
0.059852 0.059852 0.059852
0.068595 0.068595 0.068595
0.073638 0.073638 0.073638
0.078307 0.078307 0.078307
0.079676 0.079676 0.079676
0.086150 0.086150 0.086150
0.090178 0.090178 0.090178
0.098413 0.098413 0.098413
0.103517 0.103517 0.103517
0.113559 0.113559 0.113559
0.121079 0.121079 0.121079
0.126050 0.126050 0.126050
0.131095 0.131095 0.131095
0.137099 0.137099 0.137099
0.144911 0.144911 0.144911
0.152692 0.152692 0.152692
0.158848 0.158848 0.158848
0.167694 0.167694 0.167694
0.173160 0.173160 0.173160
0.185542 0.185542 0.185542
0.196854 0.196854 0.196854
0.206859 0.206859 0.206859
0.216225 0.216225 0.216225
0.225148 0.225148 0.225148
0.237846 0.237846 0.237846
0.246687 0.246687 0.246687
0.255742 0.255742 0.255742
0.266664 0.266664 0.266664
0.273576 0.273576 0.273576
0.282843 0.282843 0.282843
0.295176 0.295176 0.295176
0.304202 0.304202 0.304202
0.312605 0.312605 0.312605
0.322004 0.322004 0.322004
0.328676 0.328676 0.328676
0.339807 0.339807 0.339807
0.348714 0.348714 0.348714
0.361531 0.361531 0.361531
0.370433 0.370433 0.370433
0.382322 0.382322 0.382322
0.388480 0.388480 0.388480
0.404893 0.404893 0.404893
0.413881 0.413881 0.413881
0.425997 0.425997 0.425997
0.436152 0.436152 0.436152
0.449875 0.449875 0.449875
0.461332 0.461332 0.461332
0.474074 0.474074 0.474074
0.490842 0.490842 0.490842
0.505447 0.505447 0.505447
0.525088 0.525088 0.525088
0.556863 0.556863 0.556863
0.050980 0.050980 0.050980
0.052720 0.052720 0.052720
0.051914 0.051914 0.051914
0.052483 0.052483 0.052483
0.051292 0.051292 0.051292
0.053859 0.053859 0.053859
0.054119 0.054119 0.054119
0.055732 0.055732 0.055732
0.056310 0.056310 0.056310
0.059224 0.059224 0.059224
0.059105 0.059105 0.059105
0.063649 0.063649 0.063649
0.066889 0.066889 0.066889
0.069545 0.069545 0.069545
0.076170 0.076170 0.076170
0.083429 0.083429 0.083429
0.088157 0.088157 0.088157
0.091678 0.091678 0.091678
0.101907 0.101907 0.101907
0.107314 0.107314 0.107314
0.115282 0.115282 0.115282
0.122129 0.122129 0.122129
0.130971 0.130971 0.130971
0.142110 0.142110 0.142110
0.146476 0.146476 0.146476
0.153576 0.153576 0.153576
0.157874 0.157874 0.157874
0.163772 0.163772 0.163772
0.174852 0.174852 0.174852
0.184204 0.184204 0.184204
0.194309 0.194309 0.194309
0.202706 0.202706 0.202706
0.211110 0.211110 0.211110
0.221102 0.221102 0.221102
0.230003 0.230003 0.230003
0.241892 0.241892 0.241892
0.249326 0.249326 0.249326
0.259695 0.259695 0.259695
0.268833 0.268833 0.268833
0.278431 0.278431 0.278431
0.286592 0.286592 0.286592
0.295300 0.295300 0.295300
0.304202 0.304202 0.304202
0.312733 0.312733 0.312733
0.322004 0.322004 0.322004
0.328345 0.328345 0.328345
0.339807 0.339807 0.339807
0.348071 0.348071 0.348071
0.357610 0.357610 0.357610
0.367175 0.367175 0.367175
0.376883 0.376883 0.376883
0.387524 0.387524 0.387524
0.397137 0.397137 0.397137
0.409026 0.409026 0.409026
0.418861 0.418861 0.418861
0.430750 0.430750 0.430750
0.441747 0.441747 0.441747
0.454546 0.454546 0.454546
0.466231 0.466231 0.466231
0.481805 0.481805 0.481805
0.494865 0.494865 0.494865
0.510426 0.510426 0.510426
0.528911 0.528911 0.528911
0.564706 0.564706 0.564706
0.054902 0.054902 0.054902
0.056356 0.056356 0.056356
0.056860 0.056860 0.056860
0.056894 0.056894 0.056894
0.056894 0.056894 0.056894
0.056271 0.056271 0.056271
0.058065 0.058065 0.058065
0.060815 0.060815 0.060815
0.060815 0.060815 0.060815
0.063599 0.063599 0.063599
0.064737 0.064737 0.064737
0.068595 0.068595 0.068595
0.069592 0.069592 0.069592
0.072580 0.072580 0.072580
0.079981 0.079981 0.079981
0.084564 0.084564 0.084564
0.096722 0.096722 0.096722
0.102334 0.102334 0.102334
0.110960 0.110960 0.110960
0.116215 0.116215 0.116215
0.123187 0.123187 0.123187
0.133354 0.133354 0.133354
0.141112 0.141112 0.141112
0.149842 0.149842 0.149842
0.157749 0.157749 0.157749
0.169623 0.169623 0.169623
0.176533 0.176533 0.176533
0.184376 0.184376 0.184376
0.193540 0.193540 0.193540
0.202951 0.202951 0.202951
0.210455 0.210455 0.210455
0.219877 0.219877 0.219877
0.228738 0.228738 0.228738
0.237102 0.237102 0.237102
0.246162 0.246162 0.246162
0.254715 0.254715 0.254715
0.264488 0.264488 0.264488
0.272550 0.272550 0.272550
0.282905 0.282905 0.282905
0.290321 0.290321 0.290321
0.297690 0.297690 0.297690
0.304324 0.304324 0.304324
0.314431 0.314431 0.314431
0.322004 0.322004 0.322004
0.330906 0.330906 0.330906
0.339531 0.339531 0.339531
0.347886 0.347886 0.347886
0.357610 0.357610 0.357610
0.366511 0.366511 0.366511
0.375412 0.375412 0.375412
0.384314 0.384314 0.384314
