films/fuji_neopan_1600_2.cube
TITLE "data/luts/rawtherapee/HaldCLUT/Black-and-White/Fuji/Fuji Neopan 1600 2.png"
LUT_3D_SIZE 64
DOMAIN_MIN 0 0 0
DOMAIN_MAX 1 1 1
0.039216 0.039216 0.039216
0.039216 0.039216 0.039216
0.039216 0.039216 0.039216
0.039216 0.039216 0.039216
0.039216 0.039216 0.039216
0.039216 0.039216 0.039216
0.039216 0.039216 0.039216
0.039216 0.039216 0.039216
0.039216 0.039216 0.039216
0.039216 0.039216 0.039216
0.039216 0.039216 0.039216
0.039216 0.039216 0.039216
0.042204 0.042204 0.042204
0.041145 0.041145 0.041145
0.040087 0.040087 0.040087
0.043137 0.043137 0.043137
0.043137 0.043137 0.043137
0.043137 0.043137 0.043137
0.043697 0.043697 0.043697
0.047059 0.047059 0.047059
0.047059 0.047059 0.047059
0.047059 0.047059 0.047059
0.047059 0.047059 0.047059
0.050980 0.050980 0.050980
0.050980 0.050980 0.050980
0.054902 0.054902 0.054902
0.058824 0.058824 0.058824
0.059944 0.059944 0.059944
0.064924 0.064924 0.064924
0.066667 0.066667 0.066667
0.074883 0.074883 0.074883
0.079863 0.079863 0.079863
0.087333 0.087333 0.087333
0.093744 0.093744 0.093744
0.098039 0.098039 0.098039
0.105447 0.105447 0.105447
0.116527 0.116527 0.116527
0.121506 0.121506 0.121506
0.130408 0.130408 0.130408
0.141363 0.141363 0.141363
0.151323 0.151323 0.151323
0.161033 0.161033 0.161033
0.166013 0.166013 0.166013
0.178836 0.178836 0.178836
0.187737 0.187737 0.187737
0.196639 0.196639 0.196639
0.207158 0.207158 0.207158
0.214441 0.214441 0.214441
0.227264 0.227264 0.227264
0.237037 0.237037 0.237037
0.248988 0.248988 0.248988
0.261811 0.261811 0.261811
0.274759 0.274759 0.274759
0.288640 0.288640 0.288640
0.302521 0.302521 0.302521
0.317025 0.317025 0.317025
0.333769 0.333769 0.333769
0.349580 0.349580 0.349580
0.365889 0.365889 0.365889
0.384002 0.384002 0.384002
0.401494 0.401494 0.401494
0.423218 0.423218 0.423218
0.450669 0.450669 0.450669
0.490196 0.490196 0.490196
0.039216 0.039216 0.039216
0.039216 0.039216 0.039216
0.039216 0.039216 0.039216
0.039216 0.039216 0.039216
0.039300 0.039300 0.039300
0.042079 0.042079 0.042079
0.039871 0.039871 0.039871
0.039216 0.039216 0.039216
0.039216 0.039216 0.039216
0.039216 0.039216 0.039216
0.039955 0.039955 0.039955
0.040240 0.040240 0.040240
0.042885 0.042885 0.042885
0.041208 0.041208 0.041208
0.042266 0.042266 0.042266
0.040410 0.040410 0.040410
0.043473 0.043473 0.043473
0.043137 0.043137 0.043137
0.046499 0.046499 0.046499
0.046561 0.046561 0.046561
0.047059 0.047059 0.047059
0.048968 0.048968 0.048968
0.050980 0.050980 0.050980
0.051790 0.051790 0.051790
0.054902 0.054902 0.054902
0.057828 0.057828 0.057828
0.058840 0.058840 0.058840
0.062745 0.062745 0.062745
0.065982 0.065982 0.065982
0.072952 0.072952 0.072952
0.074883 0.074883 0.074883
0.082739 0.082739 0.082739
0.088764 0.088764 0.088764
0.093744 0.093744 0.093744
0.099597 0.099597 0.099597
0.107625 0.107625 0.107625
0.114481 0.114481 0.114481
0.125428 0.125428 0.125428
0.134329 0.134329 0.134329
0.143231 0.143231 0.143231
0.152132 0.152132 0.152132
0.162092 0.162092 0.162092
0.169935 0.169935 0.169935
0.179474 0.179474 0.179474
0.187737 0.187737 0.187737
0.197697 0.197697 0.197697
0.205977 0.205977 0.205977
0.218363 0.218363 0.218363
0.230999 0.230999 0.230999
0.240087 0.240087 0.240087
0.251976 0.251976 0.251976
0.262870 0.262870 0.262870
0.278556 0.278556 0.278556
0.289379 0.289379 0.289379
0.306443 0.306443 0.306443
0.320492 0.320492 0.320492
0.334205 0.334205 0.334205
0.352007 0.352007 0.352007
0.367947 0.367947 0.367947
0.384665 0.384665 0.384665
0.404013 0.404013 0.404013
0.425594 0.425594 0.425594
0.450955 0.450955 0.450955
0.490196 0.490196 0.490196
0.039216 0.039216 0.039216
0.040761 0.040761 0.040761
0.039216 0.039216 0.039216
0.039216 0.039216 0.039216
0.040878 0.040878 0.040878
0.040390 0.040390 0.040390
0.040022 0.040022 0.040022
0.040820 0.040820 0.040820
0.042851 0.042851 0.042851
0.041928 0.041928 0.041928
0.039760 0.039760 0.039760
0.043013 0.043013 0.043013
0.041095 0.041095 0.041095
0.042096 0.042096 0.042096
0.040862 0.040862 0.040862
0.044957 0.044957 0.044957
0.043137 0.043137 0.043137
0.045254 0.045254 0.045254
0.046801 0.046801 0.046801
0.045483 0.045483 0.045483
0.047059 0.047059 0.047059
0.049673 0.049673 0.049673
0.050980 0.050980 0.050980
0.053469 0.053469 0.053469
0.055762 0.055762 0.055762
0.058286 0.058286 0.058286
0.060662 0.060662 0.060662
0.064862 0.064862 0.064862
0.067842 0.067842 0.067842
0.073825 0.073825 0.073825
0.078805 0.078805 0.078805
0.084469 0.084469 0.084469
0.088764 0.088764 0.088764
0.096032 0.096032 0.096032
0.102646 0.102646 0.102646
0.108801 0.108801 0.108801
0.119932 0.119932 0.119932
0.127544 0.127544 0.127544
0.138251 0.138251 0.138251
0.145347 0.145347 0.145347
0.155617 0.155617 0.155617
0.164955 0.164955 0.164955
0.171844 0.171844 0.171844
0.182041 0.182041 0.182041
0.190083 0.190083 0.190083
0.200560 0.200560 0.200560
0.209462 0.209462 0.209462
0.221711 0.221711 0.221711
0.231186 0.231186 0.231186
0.240557 0.240557 0.240557
0.252910 0.252910 0.252910
0.265303 0.265303 0.265303
0.278623 0.278623 0.278623
0.292561 0.292561 0.292561
0.309333 0.309333 0.309333
0.320610 0.320610 0.320610
0.334440 0.334440 0.334440
0.354124 0.354124 0.354124
0.369810 0.369810 0.369810
0.387613 0.387613 0.387613
0.405759 0.405759 0.405759
0.425998 0.425998 0.425998
0.450669 0.450669 0.450669
0.490196 0.490196 0.490196
0.039216 0.039216 0.039216
0.040618 0.040618 0.040618
0.039216 0.039216 0.039216
0.039216 0.039216 0.039216
0.039903 0.039903 0.039903
0.039477 0.039477 0.039477
0.039216 0.039216 0.039216
0.039880 0.039880 0.039880
0.042005 0.042005 0.042005
0.042390 0.042390 0.042390
0.040920 0.040920 0.040920
0.039963 0.039963 0.039963
0.042381 0.042381 0.042381
0.042758 0.042758 0.042758
0.043137 0.043137 0.043137
0.046161 0.046161 0.046161
0.043884 0.043884 0.043884
0.046620 0.046620 0.046620
0.046312 0.046312 0.046312
0.047059 0.047059 0.047059
0.050980 0.050980 0.050980
0.050731 0.050731 0.050731
0.054653 0.054653 0.054653
0.054309 0.054309 0.054309
0.056769 0.056769 0.056769
0.059630 0.059630 0.059630
0.065920 0.065920 0.065920
0.066667 0.066667 0.066667
0.070588 0.070588 0.070588
0.077747 0.077747 0.077747
0.081677 0.081677 0.081677
0.086275 0.086275 0.086275
0.092484 0.092484 0.092484
0.098644 0.098644 0.098644
0.106437 0.106437 0.106437
0.111547 0.111547 0.111547
0.121355 0.121355 0.121355
0.129350 0.129350 0.129350
0.138251 0.138251 0.138251
0.148815 0.148815 0.148815
0.159382 0.159382 0.159382
0.164955 0.164955 0.164955
0.174914 0.174914 0.174914
0.185932 0.185932 0.185932
0.191659 0.191659 0.191659
0.203281 0.203281 0.203281
0.211080 0.211080 0.211080
0.222284 0.222284 0.222284
0.234209 0.234209 0.234209
0.243428 0.243428 0.243428
0.256832 0.256832 0.256832
0.268721 0.268721 0.268721
0.282477 0.282477 0.282477
0.293519 0.293519 0.293519
0.307803 0.307803 0.307803
0.324245 0.324245 0.324245
0.338043 0.338043 0.338043
0.354720 0.354720 0.354720
0.370919 0.370919 0.370919
0.387613 0.387613 0.387613
0.405558 0.405558 0.405558
0.425023 0.425023 0.425023
0.451727 0.451727 0.451727
0.490196 0.490196 0.490196
0.039216 0.039216 0.039216
0.039443 0.039443 0.039443
0.039216 0.039216 0.039216
0.039216 0.039216 0.039216
0.039216 0.039216 0.039216
0.039527 0.039527 0.039527
0.040710 0.040710 0.040710
0.039617 0.039617 0.039617
0.043137 0.043137 0.043137
0.041457 0.041457 0.041457
0.043137 0.043137 0.043137
0.043137 0.043137 0.043137
0.046748 0.046748 0.046748
0.043295 0.043295 0.043295
0.043137 0.043137 0.043137
0.043137 0.043137 0.043137
0.045913 0.045913 0.045913
0.047059 0.047059 0.047059
0.047326 0.047326 0.047326
0.050941 0.050941 0.050941
0.050980 0.050980 0.050980
0.051188 0.051188 0.051188
0.051812 0.051812 0.051812
0.055958 0.055958 0.055958
0.058824 0.058824 0.058824
0.061828 0.061828 0.061828
0.066667 0.066667 0.066667
0.068098 0.068098 0.068098
0.074911 0.074911 0.074911
0.081668 0.081668 0.081668
0.086304 0.086304 0.086304
0.090310 0.090310 0.090310
0.096805 0.096805 0.096805
0.101617 0.101617 0.101617
0.109858 0.109858 0.109858
0.115607 0.115607 0.115607
0.127037 0.127037 0.127037
0.133276 0.133276 0.133276
0.142484 0.142484 0.142484
0.153276 0.153276 0.153276
0.159975 0.159975 0.159975
0.168876 0.168876 0.168876
0.175371 0.175371 0.175371
0.184501 0.184501 0.184501
0.195580 0.195580 0.195580
0.204482 0.204482 0.204482
0.214873 0.214873 0.214873
0.225060 0.225060 0.225060
0.235404 0.235404 0.235404
0.245122 0.245122 0.245122
0.258761 0.258761 0.258761
0.268795 0.268795 0.268795
0.282789 0.282789 0.282789
0.295394 0.295394 0.295394
0.310498 0.310498 0.310498
0.327594 0.327594 0.327594
0.338403 0.338403 0.338403
0.356048 0.356048 0.356048
0.370121 0.370121 0.370121
0.387613 0.387613 0.387613
0.405667 0.405667 0.405667
0.427283 0.427283 0.427283
0.452039 0.452039 0.452039
0.494118 0.494118 0.494118
0.039216 0.039216 0.039216
0.040216 0.040216 0.040216
0.039216 0.039216 0.039216
0.040324 0.040324 0.040324
0.039527 0.039527 0.039527
0.041476 0.041476 0.041476
0.042165 0.042165 0.042165
0.040585 0.040585 0.040585
0.040585 0.040585 0.040585
0.043137 0.043137 0.043137
0.043137 0.043137 0.043137
0.046978 0.046978 0.046978
0.046125 0.046125 0.046125
0.044507 0.044507 0.044507
0.046492 0.046492 0.046492
0.047059 0.047059 0.047059
0.048804 0.048804 0.048804
0.048428 0.048428 0.048428
0.050616 0.050616 0.050616
0.052176 0.052176 0.052176
0.054902 0.054902 0.054902
0.052350 0.052350 0.052350
0.058575 0.058575 0.058575
0.059106 0.059106 0.059106
0.061408 0.061408 0.061408
0.065671 0.065671 0.065671
0.068077 0.068077 0.068077
0.072687 0.072687 0.072687
0.078058 0.078058 0.078058
0.083722 0.083722 0.083722
0.088017 0.088017 0.088017
0.095487 0.095487 0.095487
0.101899 0.101899 0.101899
0.105639 0.105639 0.105639
0.111858 0.111858 0.111858
0.121520 0.121520 0.121520
0.130052 0.130052 0.130052
0.138562 0.138562 0.138562
0.146815 0.146815 0.146815
0.153813 0.153813 0.153813
0.163241 0.163241 0.163241
0.174167 0.174167 0.174167
0.180517 0.180517 0.180517
0.190957 0.190957 0.190957
0.198319 0.198319 0.198319
0.207585 0.207585 0.207585
0.217175 0.217175 0.217175
0.228010 0.228010 0.228010
0.237846 0.237846 0.237846
0.249300 0.249300 0.249300
0.261522 0.261522 0.261522
0.272393 0.272393 0.272393
0.285297 0.285297 0.285297
0.300235 0.300235 0.300235
0.313103 0.313103 0.313103
0.327389 0.327389 0.327389
0.341951 0.341951 0.341951
0.356637 0.356637 0.356637
0.371366 0.371366 0.371366
0.389169 0.389169 0.389169
0.404420 0.404420 0.404420
0.424969 0.424969 0.424969
0.445452 0.445452 0.445452
0.474074 0.474074 0.474074
0.040710 0.040710 0.040710
0.039216 0.039216 0.039216
0.041021 0.041021 0.041021
0.041181 0.041181 0.041181
0.040784 0.040784 0.040784
0.041768 0.041768 0.041768
0.042568 0.042568 0.042568
0.042971 0.042971 0.042971
0.043137 0.043137 0.043137
0.044178 0.044178 0.044178
0.044181 0.044181 0.044181
0.043137 0.043137 0.043137
0.047059 0.047059 0.047059
0.047059 0.047059 0.047059
0.048947 0.048947 0.048947
0.049486 0.049486 0.049486
0.049961 0.049961 0.049961
0.051982 0.051982 0.051982
0.053061 0.053061 0.053061
0.054712 0.054712 0.054712
0.054902 0.054902 0.054902
0.058326 0.058326 0.058326
0.061251 0.061251 0.061251
0.062745 0.062745 0.062745
0.065395 0.065395 0.065395
0.069592 0.069592 0.069592
0.073040 0.073040 0.073040
0.077364 0.077364 0.077364
0.083702 0.083702 0.083702
0.089935 0.089935 0.089935
0.092997 0.092997 0.092997
0.097977 0.097977 0.097977
0.104451 0.104451 0.104451
0.112232 0.112232 0.112232
0.118495 0.118495 0.118495
0.127233 0.127233 0.127233
0.136828 0.136828 0.136828
0.143566 0.143566 0.143566
0.152443 0.152443 0.152443
0.162501 0.162501 0.162501
0.171740 0.171740 0.171740
0.179242 0.179242 0.179242
0.189667 0.189667 0.189667
0.197543 0.197543 0.197543
0.207155 0.207155 0.207155
0.215313 0.215313 0.215313
0.225148 0.225148 0.225148
0.236477 0.236477 0.236477
0.245378 0.245378 0.245378
0.259363 0.259363 0.259363
0.267838 0.267838 0.267838
0.280281 0.280281 0.280281
0.292843 0.292843 0.292843
0.307797 0.307797 0.307797
0.322129 0.322129 0.322129
0.336010 0.336010 0.336010
0.349891 0.349891 0.349891
0.367125 0.367125 0.367125
0.385496 0.385496 0.385496
0.401731 0.401731 0.401731
0.421102 0.421102 0.421102
0.442020 0.442020 0.442020
0.465920 0.465920 0.465920
0.508310 0.508310 0.508310
0.042702 0.042702 0.042702
0.040156 0.040156 0.040156
0.041332 0.041332 0.041332
0.042702 0.042702 0.042702
0.042736 0.042736 0.042736
0.040717 0.040717 0.040717
0.043137 0.043137 0.043137
0.043089 0.043089 0.043089
0.043206 0.043206 0.043206
0.043137 0.043137 0.043137
0.043573 0.043573 0.043573
0.046948 0.046948 0.046948
0.047059 0.047059 0.047059
0.048774 0.048774 0.048774
0.050206 0.050206 0.050206
0.050980 0.050980 0.050980
0.050980 0.050980 0.050980
0.050980 0.050980 0.050980
0.054840 0.054840 0.054840
0.058388 0.058388 0.058388
0.060034 0.060034 0.060034
0.058824 0.058824 0.058824
0.062966 0.062966 0.062966
0.066321 0.066321 0.066321
0.068327 0.068327 0.068327
0.074074 0.074074 0.074074
0.081433 0.081433 0.081433
0.083162 0.083162 0.083162
0.089760 0.089760 0.089760
0.095950 0.095950 0.095950
0.098371 0.098371 0.098371
0.104506 0.104506 0.104506
0.109804 0.109804 0.109804
0.117606 0.117606 0.117606
0.125815 0.125815 0.125815
0.134883 0.134883 0.134883
0.141052 0.141052 0.141052
0.152443 0.152443 0.152443
0.157859 0.157859 0.157859
0.170246 0.170246 0.170246
0.178428 0.178428 0.178428
0.184563 0.184563 0.184563
0.193464 0.193464 0.193464
0.202103 0.202103 0.202103
0.211267 0.211267 0.211267
0.219732 0.219732 0.219732
0.229069 0.229069 0.229069
0.241754 0.241754 0.241754
0.250358 0.250358 0.250358
0.259695 0.259695 0.259695
0.272303 0.272303 0.272303
0.285237 0.285237 0.285237
0.297742 0.297742 0.297742
0.310682 0.310682 0.310682
0.327544 0.327544 0.327544
0.339932 0.339932 0.339932
0.354200 0.354200 0.354200
0.373337 0.373337 0.373337
0.388982 0.388982 0.388982
0.406820 0.406820 0.406820
0.424588 0.424588 0.424588
0.444707 0.444707 0.444707
0.469959 0.469959 0.469959
0.513290 0.513290 0.513290
0.042515 0.042515 0.042515
0.042683 0.042683 0.042683
0.039502 0.039502 0.039502
0.039720 0.039720 0.039720
0.040100 0.040100 0.040100
0.043137 0.043137 0.043137
0.043137 0.043137 0.043137
0.043206 0.043206 0.043206
0.043760 0.043760 0.043760
0.043404 0.043404 0.043404
0.046499 0.046499 0.046499
0.047059 0.047059 0.047059
0.050195 0.050195 0.050195
0.050980 0.050980 0.050980
0.052198 0.052198 0.052198
0.054902 0.054902 0.054902
0.055524 0.055524 0.055524
0.057462 0.057462 0.057462
0.059446 0.059446 0.059446
0.063289 0.063289 0.063289
0.064301 0.064301 0.064301
0.066667 0.066667 0.066667
0.067289 0.067289 0.067289
0.074510 0.074510 0.074510
0.075429 0.075429 0.075429
0.081515 0.081515 0.081515
0.086897 0.086897 0.086897
0.088462 0.088462 0.088462
0.093274 0.093274 0.093274
0.098553 0.098553 0.098553
0.106001 0.106001 0.106001
0.111631 0.111631 0.111631
0.116838 0.116838 0.116838
0.125739 0.125739 0.125739
0.134532 0.134532 0.134532
0.139620 0.139620 0.139620
0.148699 0.148699 0.148699
0.157423 0.157423 0.157423
0.166324 0.166324 0.166324
0.175226 0.175226 0.175226
0.183633 0.183633 0.183633
0.192196 0.192196 0.192196
0.199523 0.199523 0.199523
0.208219 0.208219 0.208219
0.216230 0.216230 0.216230
0.228011 0.228011 0.228011
0.237169 0.237169 0.237169
0.246239 0.246239 0.246239
0.255338 0.255338 0.255338
0.267676 0.267676 0.267676
0.280361 0.280361 0.280361
0.289262 0.289262 0.289262
0.302708 0.302708 0.302708
0.316091 0.316091 0.316091
0.330594 0.330594 0.330594
0.347775 0.347775 0.347775
0.361289 0.361289 0.361289
0.375922 0.375922 0.375922
0.391193 0.391193 0.391193
0.408105 0.408105 0.408105
0.426778 0.426778 0.426778
0.450669 0.450669 0.450669
0.475089 0.475089 0.475089
0.514348 0.514348 0.514348
0.043137 0.043137 0.043137
0.043137 0.043137 0.043137
0.043137 0.043137 0.043137
0.043137 0.043137 0.043137
0.043137 0.043137 0.043137
0.044231 0.044231 0.044231
0.046419 0.046419 0.046419
0.045129 0.045129 0.045129
0.043493 0.043493 0.043493
0.046339 0.046339 0.046339
0.047059 0.047059 0.047059
0.049300 0.049300 0.049300
0.052261 0.052261 0.052261
0.053799 0.053799 0.053799
0.054404 0.054404 0.054404
0.054982 0.054982 0.054982
0.059357 0.059357 0.059357
0.061820 0.061820 0.061820
0.064186 0.064186 0.064186
0.068134 0.068134 0.068134
0.070588 0.070588 0.070588
0.072269 0.072269 0.072269
0.076048 0.076048 0.076048
0.080574 0.080574 0.080574
0.084034 0.084034 0.084034
0.088640 0.088640 0.088640
0.091903 0.091903 0.091903
0.096919 0.096919 0.096919
0.102646 0.102646 0.102646
0.107563 0.107563 0.107563
0.111858 0.111858 0.111858
0.118261 0.118261 0.118261
0.125739 0.125739 0.125739
0.132613 0.132613 0.132613
0.141008 0.141008 0.141008
0.149767 0.149767 0.149767
0.157423 0.157423 0.157423
0.164670 0.164670 0.164670
0.171304 0.171304 0.171304
0.181379 0.181379 0.181379
0.189454 0.189454 0.189454
0.198008 0.198008 0.198008
0.206349 0.206349 0.206349
0.214797 0.214797 0.214797
0.221075 0.221075 0.221075
0.229692 0.229692 0.229692
0.241199 0.241199 0.241199
0.252128 0.252128 0.252128
0.260317 0.260317 0.260317
0.273140 0.273140 0.273140
0.284007 0.284007 0.284007
0.296572 0.296572 0.296572
0.307812 0.307812 0.307812
0.323258 0.323258 0.323258
0.338535 0.338535 0.338535
0.351492 0.351492 0.351492
0.367258 0.367258 0.367258
0.381353 0.381353 0.381353
0.398942 0.398942 0.398942
0.415064 0.415064 0.415064
0.434227 0.434227 0.434227
0.454457 0.454457 0.454457
0.479178 0.479178 0.479178
0.517647 0.517647 0.517647
0.043137 0.043137 0.043137
0.043137 0.043137 0.043137
0.044615 0.044615 0.044615
0.043137 0.043137 0.043137
0.043448 0.043448 0.043448
0.045689 0.045689 0.045689
0.045363 0.045363 0.045363
0.045572 0.045572 0.045572
0.047059 0.047059 0.047059
0.047566 0.047566 0.047566
0.049798 0.049798 0.049798
0.049798 0.049798 0.049798
0.051633 0.051633 0.051633
0.054902 0.054902 0.054902
0.058561 0.058561 0.058561
0.061488 0.061488 0.061488
0.061938 0.061938 0.061938
0.065536 0.065536 0.065536
0.070028 0.070028 0.070028
0.073477 0.073477 0.073477
0.077249 0.077249 0.077249
0.080257 0.080257 0.080257
0.085092 0.085092 0.085092
0.085901 0.085901 0.085901
0.090881 0.090881 0.090881
0.095861 0.095861 0.095861
0.100778 0.100778 0.100778
0.105482 0.105482 0.105482
0.109278 0.109278 0.109278
0.113519 0.113519 0.113519
0.119316 0.119316 0.119316
0.125739 0.125739 0.125739
0.134641 0.134641 0.134641
0.143542 0.143542 0.143542
0.148728 0.148728 0.148728
0.158945 0.158945 0.158945
0.164697 0.164697 0.164697
0.172530 0.172530 0.172530
0.180205 0.180205 0.180205
0.189670 0.189670 0.189670
0.198008 0.198008 0.198008
0.206736 0.206736 0.206736
0.212678 0.212678 0.212678
0.219852 0.219852 0.219852
0.229692 0.229692 0.229692
0.238371 0.238371 0.238371
0.247495 0.247495 0.247495
0.257579 0.257579 0.257579
0.266480 0.266480 0.266480
0.277173 0.277173 0.277173
0.288204 0.288204 0.288204
0.303114 0.303114 0.303114
0.313937 0.313937 0.313937
0.327030 0.327030 0.327030
0.341737 0.341737 0.341737
0.355618 0.355618 0.355618
0.369195 0.369195 0.369195
0.384112 0.384112 0.384112
0.398444 0.398444 0.398444
0.413725 0.413725 0.413725
0.431310 0.431310 0.431310
0.450296 0.450296 0.450296
0.473008 0.473008 0.473008
0.496919 0.496919 0.496919
0.047059 0.047059 0.047059
0.046968 0.046968 0.046968
0.046992 0.046992 0.046992
0.046312 0.046312 0.046312
0.047059 0.047059 0.047059
0.047059 0.047059 0.047059
0.047059 0.047059 0.047059
0.050434 0.050434 0.050434
0.050961 0.050961 0.050961
0.050909 0.050909 0.050909
0.050943 0.050943 0.050943
0.051105 0.051105 0.051105
0.052009 0.052009 0.052009
0.058884 0.058884 0.058884
0.061874 0.061874 0.061874
0.062926 0.062926 0.062926
0.066667 0.066667 0.066667
0.070537 0.070537 0.070537
0.074385 0.074385 0.074385
0.078323 0.078323 0.078323
0.082278 0.082278 0.082278
0.090030 0.090030 0.090030
0.093744 0.093744 0.093744
0.097816 0.097816 0.097816
0.099847 0.099847 0.099847
0.105758 0.105758 0.105758
0.109679 0.109679 0.109679
0.116313 0.116313 0.116313
0.119687 0.119687 0.119687
0.124681 0.124681 0.124681
0.130022 0.130022 0.130022
0.138562 0.138562 0.138562
0.147384 0.147384 0.147384
0.152455 0.152455 0.152455
0.161323 0.161323 0.161323
0.168558 0.168558 0.168558
0.179023 0.179023 0.179023
0.187864 0.187864 0.187864
0.192997 0.192997 0.192997
0.201870 0.201870 0.201870
0.206909 0.206909 0.206909
0.215819 0.215819 0.215819
0.228509 0.228509 0.228509
0.233613 0.233613 0.233613
0.242017 0.242017 0.242017
0.251416 0.251416 0.251416
0.258087 0.258087 0.258087
0.269219 0.269219 0.269219
0.278126 0.278126 0.278126
0.291815 0.291815 0.291815
0.301834 0.301834 0.301834
0.315655 0.315655 0.315655
0.325615 0.325615 0.325615
0.342148 0.342148 0.342148
0.353430 0.353430 0.353430
0.370472 0.370472 0.370472
0.381686 0.381686 0.381686
0.400465 0.400465 0.400465
0.416825 0.416825 0.416825
0.431051 0.431051 0.431051
0.452474 0.452474 0.452474
0.472025 0.472025 0.472025
0.497728 0.497728 0.497728
0.541052 0.541052 0.541052
0.047059 0.047059 0.047059
0.047311 0.047311 0.047311
0.047993 0.047993 0.047993
0.048384 0.048384 0.048384
0.047133 0.047133 0.047133
0.047993 0.047993 0.047993
0.047993 0.047993 0.047993
0.048325 0.048325 0.048325
0.051455 0.051455 0.051455
0.051381 0.051381 0.051381
0.053349 0.053349 0.053349
0.054902 0.054902 0.054902
0.055836 0.055836 0.055836
0.059298 0.059298 0.059298
0.065069 0.065069 0.065069
0.070588 0.070588 0.070588
0.072470 0.072470 0.072470
0.075444 0.075444 0.075444
0.078805 0.078805 0.078805
0.083785 0.083785 0.083785
0.088764 0.088764 0.088764
0.094055 0.094055 0.094055
0.102586 0.102586 0.102586
0.107009 0.107009 0.107009
0.110738 0.110738 0.110738
0.117585 0.117585 0.117585
0.118643 0.118643 0.118643
0.123623 0.123623 0.123623
0.132524 0.132524 0.132524
0.137667 0.137667 0.137667
0.146032 0.146032 0.146032
0.151385 0.151385 0.151385
0.159196 0.159196 0.159196
0.162563 0.162563 0.162563
0.171180 0.171180 0.171180
0.180890 0.180890 0.180890
0.186581 0.186581 0.186581
0.196950 0.196950 0.196950
0.202167 0.202167 0.202167
0.211276 0.211276 0.211276
0.219732 0.219732 0.219732
0.228385 0.228385 0.228385
0.233925 0.233925 0.233925
0.242515 0.242515 0.242515
0.251416 0.251416 0.251416
0.257756 0.257756 0.257756
0.269219 0.269219 0.269219
0.278120 0.278120 0.278120
0.289867 0.289867 0.289867
0.299118 0.299118 0.299118
0.310675 0.310675 0.310675
0.323845 0.323845 0.323845
0.334486 0.334486 0.334486
0.348116 0.348116 0.348116
0.360571 0.360571 0.360571
0.376159 0.376159 0.376159
0.390870 0.390870 0.390870
0.407843 0.407843 0.407843
0.423701 0.423701 0.423701
0.442352 0.442352 0.442352
0.460504 0.460504 0.460504
0.479484 0.479484 0.479484
0.504323 0.504323 0.504323
0.549020 0.549020 0.549020
0.050980 0.050980 0.050980
0.050980 0.050980 0.050980
0.050092 0.050092 0.050092
0.049418 0.049418 0.049418
0.052814 0.052814 0.052814
0.051676 0.051676 0.051676
0.050980 0.050980 0.050980
0.052972 0.052972 0.052972
0.054596 0.054596 0.054596
0.054902 0.054902 0.054902
0.054902 0.054902 0.054902
0.058699 0.058699 0.058699
0.059757 0.059757 0.059757
0.060815 0.060815 0.060815
0.066238 0.066238 0.066238
0.068786 0.068786 0.068786
0.078431 0.078431 0.078431
0.080423 0.080423 0.080423
0.087706 0.087706 0.087706
0.088764 0.088764 0.088764
0.094946 0.094946 0.094946
0.101982 0.101982 0.101982
0.105818 0.105818 0.105818
0.114137 0.114137 0.114137
0.119544 0.119544 0.119544
0.127482 0.127482 0.127482
0.131435 0.131435 0.131435
0.137868 0.137868 0.137868
0.143417 0.143417 0.143417
0.150327 0.150327 0.150327
0.157298 0.157298 0.157298
0.162983 0.162983 0.162983
0.170619 0.170619 0.170619
0.178279 0.178279 0.178279
0.183417 0.183417 0.183417
0.191970 0.191970 0.191970
0.198942 0.198942 0.198942
0.205883 0.205883 0.205883
0.213757 0.213757 0.213757
0.221600 0.221600 0.221600
0.227102 0.227102 0.227102
0.237409 0.237409 0.237409
0.243843 0.243843 0.243843
0.251416 0.251416 0.251416
0.260317 0.260317 0.260317
0.268943 0.268943 0.268943
0.278120 0.278120 0.278120
0.287021 0.287021 0.287021
0.297820 0.297820 0.297820
0.308746 0.308746 0.308746
0.319577 0.319577 0.319577
0.330470 0.330470 0.330470
