films/fuji_fp-3000b.cube
# Created by: G'MIC (https://gmic.eu)
TITLE "fuji_fp-3000b"
# LUT size
LUT_3D_SIZE 7
# Data domain
DOMAIN_MIN 0.0 0.0 0.0
DOMAIN_MAX 1.0 1.0 1.0
# LUT data points
0.083674952387809753 0.083674952387809753 0.083674952387809753
0.11675784736871719 0.11675784736871719 0.11675784736871719
0.17760588228702545 0.17760588228702545 0.17760588228702545
0.25835064053535461 0.25835064053535461 0.25835064053535461
0.37794008851051331 0.37794008851051331 0.37794008851051331
0.51178842782974243 0.51178842782974243 0.51178842782974243
0.64758342504501343 0.64758342504501343 0.64758342504501343
0.10857406258583069 0.10857406258583069 0.10857406258583069
0.14457784593105316 0.14457784593105316 0.14457784593105316
0.23055067658424377 0.23055067658424377 0.23055067658424377
0.30881088972091675 0.30881088972091675 0.30881088972091675
0.41779085993766785 0.41779085993766785 0.41779085993766785
0.53736549615859985 0.53736549615859985 0.53736549615859985
0.66243839263916016 0.66243839263916016 0.66243839263916016
0.18094006180763245 0.18094006180763245 0.18094006180763245
0.20766621828079224 0.20766621828079224 0.20766621828079224
0.31164619326591492 0.31164619326591492 0.31164619326591492
0.42416688799858093 0.42416688799858093 0.42416688799858093
0.50875502824783325 0.50875502824783325 0.50875502824783325
0.60539853572845459 0.60539853572845459 0.60539853572845459
0.70865195989608765 0.70865195989608765 0.70865195989608765
0.29237270355224609 0.29237270355224609 0.29237270355224609
0.29597318172454834 0.29597318172454834 0.29597318172454834
0.36112061142921448 0.36112061142921448 0.36112061142921448
0.48484316468238831 0.48484316468238831 0.48484316468238831
0.60911577939987183 0.60911577939987183 0.60911577939987183
0.70485705137252808 0.70485705137252808 0.70485705137252808
0.77779245376586914 0.77779245376586914 0.77779245376586914
0.42271524667739868 0.42271524667739868 0.42271524667739868
0.40189599990844727 0.40189599990844727 0.40189599990844727
0.41027095913887024 0.41027095913887024 0.41027095913887024
0.52855211496353149 0.52855211496353149 0.52855211496353149
0.68184351921081543 0.68184351921081543 0.68184351921081543
0.78465944528579712 0.78465944528579712 0.78465944528579712
0.84300017356872559 0.84300017356872559 0.84300017356872559
0.59233647584915161 0.59233647584915161 0.59233647584915161
0.56669241189956665 0.56669241189956665 0.56669241189956665
0.55648970603942871 0.55648970603942871 0.55648970603942871
0.63168370723724365 0.63168370723724365 0.63168370723724365
0.74599164724349976 0.74599164724349976 0.74599164724349976
0.83624058961868286 0.83624058961868286 0.83624058961868286
0.89517521858215332 0.89517521858215332 0.89517521858215332
0.77865338325500488 0.77865338325500488 0.77865338325500488
0.75766474008560181 0.75766474008560181 0.75766474008560181
0.76404255628585815 0.76404255628585815 0.76404255628585815
0.78123366832733154 0.78123366832733154 0.78123366832733154
0.83892291784286499 0.83892291784286499 0.83892291784286499
0.89863348007202148 0.89863348007202148 0.89863348007202148
0.94533240795135498 0.94533240795135498 0.94533240795135498
0.12662699818611145 0.12662699818611145 0.12662699818611145
0.15339125692844391 0.15339125692844391 0.15339125692844391
0.21080896258354187 0.21080896258354187 0.21080896258354187
0.29132086038589478 0.29132086038589478 0.29132086038589478
0.40503612160682678 0.40503612160682678 0.40503612160682678
0.52378034591674805 0.52378034591674805 0.52378034591674805
0.65328884124755859 0.65328884124755859 0.65328884124755859
0.15562675893306732 0.15562675893306732 0.15562675893306732
0.18283499777317047 0.18283499777317047 0.18283499777317047
0.24845756590366364 0.24845756590366364 0.24845756590366364
0.33054906129837036 0.33054906129837036 0.33054906129837036
0.43587827682495117 0.43587827682495117 0.43587827682495117
0.55236709117889404 0.55236709117889404 0.55236709117889404
0.674305260181427 0.674305260181427 0.674305260181427
0.24784310162067413 0.24784310162067413 0.24784310162067413
0.25262182950973511 0.25262182950973511 0.25262182950973511
0.31721106171607971 0.31721106171607971 0.31721106171607971
0.43208310008049011 0.43208310008049011 0.43208310008049011
0.522785484790802 0.522785484790802 0.522785484790802
0.61957341432571411 0.61957341432571411 0.61957341432571411
0.72074216604232788 0.72074216604232788 0.72074216604232788
0.35837969183921814 0.35837969183921814 0.35837969183921814
0.34524405002593994 0.34524405002593994 0.34524405002593994
0.38204556703567505 0.38204556703567505 0.38204556703567505
0.50538313388824463 0.50538313388824463 0.50538313388824463
0.62707114219665527 0.62707114219665527 0.62707114219665527
0.71472525596618652 0.71472525596618652 0.71472525596618652
0.78860014677047729 0.78860014677047729 0.78860014677047729
0.47929322719573975 0.47929322719573975 0.47929322719573975
0.45477941632270813 0.45477941632270813 0.45477941632270813
0.44221040606498718 0.44221040606498718 0.44221040606498718
0.54538446664810181 0.54538446664810181 0.54538446664810181
0.68887114524841309 0.68887114524841309 0.68887114524841309
0.7886282205581665 0.7886282205581665 0.7886282205581665
0.85301202535629272 0.85301202535629272 0.85301202535629272
0.62799513339996338 0.62799513339996338 0.62799513339996338
0.606190025806427 0.606190025806427 0.606190025806427
0.59007525444030762 0.59007525444030762 0.59007525444030762
0.64029890298843384 0.64029890298843384 0.64029890298843384
0.75061839818954468 0.75061839818954468 0.75061839818954468
0.84420597553253174 0.84420597553253174 0.84420597553253174
0.90563285350799561 0.90563285350799561 0.90563285350799561
0.78665989637374878 0.78665989637374878 0.78665989637374878
0.77459084987640381 0.77459084987640381 0.77459084987640381
0.76665455102920532 0.76665455102920532 0.76665455102920532
0.78555333614349365 0.78555333614349365 0.78555333614349365
0.84783059358596802 0.84783059358596802 0.84783059358596802
0.90841710567474365 0.90841710567474365 0.90841710567474365
0.95535135269165039 0.95535135269165039 0.95535135269165039
0.20535668730735779 0.20535668730735779 0.20535668730735779
0.23519785702228546 0.23519785702228546 0.23519785702228546
0.29264318943023682 0.29264318943023682 0.29264318943023682
0.37655699253082275 0.37655699253082275 0.37655699253082275
0.47139498591423035 0.47139498591423035 0.47139498591423035
0.58102190494537354 0.58102190494537354 0.58102190494537354
0.69359499216079712 0.69359499216079712 0.69359499216079712
0.22855781018733978 0.22855781018733978 0.22855781018733978
0.26513540744781494 0.26513540744781494 0.26513540744781494
0.32042995095252991 0.32042995095252991 0.32042995095252991
0.39571145176887512 0.39571145176887512 0.39571145176887512
0.49634864926338196 0.49634864926338196 0.49634864926338196
0.59480863809585571 0.59480863809585571 0.59480863809585571
0.70830070972442627 0.70830070972442627 0.70830070972442627
0.33142971992492676 0.33142971992492676 0.33142971992492676
0.35001969337463379 0.35001969337463379 0.35001969337463379
0.38702040910720825 0.38702040910720825 0.38702040910720825
0.46815681457519531 0.46815681457519531 0.46815681457519531
0.55677402019500732 0.55677402019500732 0.55677402019500732
0.64284461736679077 0.64284461736679077 0.64284461736679077
0.74287325143814087 0.74287325143814087 0.74287325143814087
0.45483213663101196 0.45483213663101196 0.45483213663101196
0.45695644617080688 0.45695644617080688 0.45695644617080688
0.46817350387573242 0.46817350387573242 0.46817350387573242
0.54560172557830811 0.54560172557830811 0.54560172557830811
0.64561372995376587 0.64561372995376587 0.64561372995376587
0.72443658113479614 0.72443658113479614 0.72443658113479614
0.80014890432357788 0.80014890432357788 0.80014890432357788
0.58405089378356934 0.58405089378356934 0.58405089378356934
0.56557208299636841 0.56557208299636841 0.56557208299636841
0.54898756742477417 0.54898756742477417 0.54898756742477417
0.59363067150115967 0.59363067150115967 0.59363067150115967
0.69872719049453735 0.69872719049453735 0.69872719049453735
0.79160106182098389 0.79160106182098389 0.79160106182098389
0.86048680543899536 0.86048680543899536 0.86048680543899536
0.70063453912734985 0.70063453912734985 0.70063453912734985
0.68649435043334961 0.68649435043334961 0.68649435043334961
0.66045451164245605 0.66045451164245605 0.66045451164245605
0.66235405206680298 0.66235405206680298 0.66235405206680298
0.75394684076309204 0.75394684076309204 0.75394684076309204
0.84764003753662109 0.84764003753662109 0.84764003753662109
0.91264653205871582 0.91264653205871582 0.91264653205871582
0.81985509395599365 0.81985509395599365 0.81985509395599365
0.81426995992660522 0.81426995992660522 0.81426995992660522
0.7987217903137207 0.7987217903137207 0.7987217903137207
0.80033010244369507 0.80033010244369507 0.80033010244369507
0.84765177965164185 0.84765177965164185 0.84765177965164185
0.90892857313156128 0.90892857313156128 0.90892857313156128
0.95931857824325562 0.95931857824325562 0.95931857824325562
0.3302142322063446 0.3302142322063446 0.3302142322063446
0.3617517352104187 0.3617517352104187 0.3617517352104187
0.40796199440956116 0.40796199440956116 0.40796199440956116
0.45619821548461914 0.45619821548461914 0.45619821548461914
0.53711766004562378 0.53711766004562378 0.53711766004562378
0.66544348001480103 0.66544348001480103 0.66544348001480103
0.75619977712631226 0.75619977712631226 0.75619977712631226
0.36115375161170959 0.36115375161170959 0.36115375161170959
0.38635179400444031 0.38635179400444031 0.38635179400444031
0.43229028582572937 0.43229028582572937 0.43229028582572937
0.49577531218528748 0.49577531218528748 0.49577531218528748
0.5725710391998291 0.5725710391998291 0.5725710391998291
0.66174018383026123 0.66174018383026123 0.66174018383026123
0.76488178968429565 0.76488178968429565 0.76488178968429565
0.42433866858482361 0.42433866858482361 0.42433866858482361
0.43994474411010742 0.43994474411010742 0.43994474411010742
0.47899237275123596 0.47899237275123596 0.47899237275123596
0.54642319679260254 0.54642319679260254 0.54642319679260254
0.61842435598373413 0.61842435598373413 0.61842435598373413
0.69203370809555054 0.69203370809555054 0.69203370809555054
0.77923750877380371 0.77923750877380371 0.77923750877380371
0.52543586492538452 0.52543586492538452 0.52543586492538452
0.53335332870483398 0.53335332870483398 0.53335332870483398
0.55423307418823242 0.55423307418823242 0.55423307418823242
0.6051824688911438 0.6051824688911438 0.6051824688911438
0.67332810163497925 0.67332810163497925 0.67332810163497925
0.74455803632736206 0.74455803632736206 0.74455803632736206
0.81726229190826416 0.81726229190826416 0.81726229190826416
0.65132033824920654 0.65132033824920654 0.65132033824920654
0.6559377908706665 0.6559377908706665 0.6559377908706665
0.65890127420425415 0.65890127420425415 0.65890127420425415
0.66422110795974731 0.66422110795974731 0.66422110795974731
0.72024357318878174 0.72024357318878174 0.72024357318878174
0.79960554838180542 0.79960554838180542 0.79960554838180542
0.86716967821121216 0.86716967821121216 0.86716967821121216
0.76599371433258057 0.76599371433258057 0.76599371433258057
0.76611894369125366 0.76611894369125366 0.76611894369125366
0.75142401456832886 0.75142401456832886 0.75142401456832886
0.73439425230026245 0.73439425230026245 0.73439425230026245
0.77369934320449829 0.77369934320449829 0.77369934320449829
0.85288864374160767 0.85288864374160767 0.85288864374160767
0.91476404666900635 0.91476404666900635 0.91476404666900635
0.86373698711395264 0.86373698711395264 0.86373698711395264
0.86660134792327881 0.86660134792327881 0.86660134792327881
0.85411399602890015 0.85411399602890015 0.85411399602890015
0.83987128734588623 0.83987128734588623 0.83987128734588623
0.86356419324874878 0.86356419324874878 0.86356419324874878
0.91207778453826904 0.91207778453826904 0.91207778453826904
0.95906615257263184 0.95906615257263184 0.95906615257263184
0.51055753231048584 0.51055753231048584 0.51055753231048584
0.52827823162078857 0.52827823162078857 0.52827823162078857
0.56011831760406494 0.56011831760406494 0.56011831760406494
0.60481905937194824 0.60481905937194824 0.60481905937194824
0.65190649032592773 0.65190649032592773 0.65190649032592773
0.7109484076499939 0.7109484076499939 0.7109484076499939
0.8014797568321228 0.8014797568321228 0.8014797568321228
0.53314048051834106 0.53314048051834106 0.53314048051834106
0.54578512907028198 0.54578512907028198 0.54578512907028198
0.57748401165008545 0.57748401165008545 0.57748401165008545
0.62565356492996216 0.62565356492996216 0.62565356492996216
0.66242343187332153 0.66242343187332153 0.66242343187332153
0.72434568405151367 0.72434568405151367 0.72434568405151367
0.82096904516220093 0.82096904516220093 0.82096904516220093
0.55163794755935669 0.55163794755935669 0.55163794755935669
0.56548994779586792 0.56548994779586792 0.56548994779586792
0.59887611865997314 0.59887611865997314 0.59887611865997314
0.6535487174987793 0.6535487174987793 0.6535487174987793
0.69949585199356079 0.69949585199356079 0.69949585199356079
0.74459606409072876 0.74459606409072876 0.74459606409072876
0.81588327884674072 0.81588327884674072 0.81588327884674072
0.60013079643249512 0.60013079643249512 0.60013079643249512
0.61173355579376221 0.61173355579376221 0.61173355579376221
0.63914817571640015 0.63914817571640015 0.63914817571640015
0.68621248006820679 0.68621248006820679 0.68621248006820679
0.73304182291030884 0.73304182291030884 0.73304182291030884
0.78208595514297485 0.78208595514297485 0.78208595514297485
0.84189164638519287 0.84189164638519287 0.84189164638519287
0.70942825078964233 0.70942825078964233 0.70942825078964233
0.70973670482635498 0.70973670482635498 0.70973670482635498
0.71805703639984131 0.71805703639984131 0.71805703639984131
0.73637455701828003 0.73637455701828003 0.73637455701828003
0.77260881662368774 0.77260881662368774 0.77260881662368774
0.82503366470336914 0.82503366470336914 0.82503366470336914
0.87972033023834229 0.87972033023834229 0.87972033023834229
0.81758135557174683 0.81758135557174683 0.81758135557174683
0.81171053647994995 0.81171053647994995 0.81171053647994995
0.80615913867950439 0.80615913867950439 0.80615913867950439
0.80473238229751587 0.80473238229751587 0.80473238229751587
0.82594144344329834 0.82594144344329834 0.82594144344329834
0.87074762582778931 0.87074762582778931 0.87074762582778931
0.91782456636428833 0.91782456636428833 0.91782456636428833
0.89769810438156128 0.89769810438156128 0.89769810438156128
0.89617973566055298 0.89617973566055298 0.89617973566055298
0.88986837863922119 0.88986837863922119 0.88986837863922119
0.88759565353393555 0.88759565353393555 0.88759565353393555
0.89951008558273315 0.89951008558273315 0.89951008558273315
0.92476791143417358 0.92476791143417358 0.92476791143417358
0.9596327543258667 0.9596327543258667 0.9596327543258667
0.69634914398193359 0.69634914398193359 0.69634914398193359
0.70301645994186401 0.70301645994186401 0.70301645994186401
0.71930086612701416 0.71930086612701416 0.71930086612701416
0.74982893466949463 0.74982893466949463 0.74982893466949463
0.77720969915390015 0.77720969915390015 0.77720969915390015
0.79730111360549927 0.79730111360549927 0.79730111360549927
0.85362696647644043 0.85362696647644043 0.85362696647644043
0.70724260807037354 0.70724260807037354 0.70724260807037354
0.71790951490402222 0.71790951490402222 0.71790951490402222
0.73460489511489868 0.73460489511489868 0.73460489511489868
0.76431536674499512 0.76431536674499512 0.76431536674499512
0.78918552398681641 0.78918552398681641 0.78918552398681641
0.81622231006622314 0.81622231006622314 0.81622231006622314
0.86624437570571899 0.86624437570571899 0.86624437570571899
0.71750420331954956 0.71750420331954956 0.71750420331954956
0.73395371437072754 0.73395371437072754 0.73395371437072754
0.74588608741760254 0.74588608741760254 0.74588608741760254
0.77653205394744873 0.77653205394744873 0.77653205394744873
0.80108416080474854 0.80108416080474854 0.80108416080474854
0.81901651620864868 0.81901651620864868 0.81901651620864868
0.86471098661422729 0.86471098661422729 0.86471098661422729
0.73754966259002686 0.73754966259002686 0.73754966259002686
0.73845839500427246 0.73845839500427246 0.73845839500427246
0.75195658206939697 0.75195658206939697 0.75195658206939697
0.78732293844223022 0.78732293844223022 0.78732293844223022
0.81689518690109253 0.81689518690109253 0.81689518690109253
0.84392201900482178 0.84392201900482178 0.84392201900482178
0.88486135005950928 0.88486135005950928 0.88486135005950928
0.78961771726608276 0.78961771726608276 0.78961771726608276
0.78124153614044189 0.78124153614044189 0.78124153614044189
0.78821712732315063 0.78821712732315063 0.78821712732315063
0.81562978029251099 0.81562978029251099 0.81562978029251099
0.84384357929229736 0.84384357929229736 0.84384357929229736
0.87367069721221924 0.87367069721221924 0.87367069721221924
0.91006577014923096 0.91006577014923096 0.91006577014923096
0.85696172714233398 0.85696172714233398 0.85696172714233398
0.85034185647964478 0.85034185647964478 0.85034185647964478
0.85174518823623657 0.85174518823623657 0.85174518823623657
0.86738818883895874 0.86738818883895874 0.86738818883895874
0.88586056232452393 0.88586056232452393 0.88586056232452393
0.90468096733093262 0.90468096733093262 0.90468096733093262
0.93331950902938843 0.93331950902938843 0.93331950902938843
0.91788721084594727 0.91788721084594727 0.91788721084594727
0.91462582349777222 0.91462582349777222 0.91462582349777222
0.91401749849319458 0.91401749849319458 0.91401749849319458
0.92650580406188965 0.92650580406188965 0.92650580406188965
0.93746846914291382 0.93746846914291382 0.93746846914291382
0.94425743818283081 0.94425743818283081 0.94425743818283081
0.96422815322875977 0.96422815322875977 0.96422815322875977
0.86127907037734985 0.86127907037734985 0.86127907037734985
0.85339999198913574 0.85339999198913574 0.85339999198913574
0.85453718900680542 0.85453718900680542 0.85453718900680542
0.86757194995880127 0.86757194995880127 0.86757194995880127
0.88443732261657715 0.88443732261657715 0.88443732261657715
0.90397775173187256 0.90397775173187256 0.90397775173187256
0.93155902624130249 0.93155902624130249 0.93155902624130249
0.86136841773986816 0.86136841773986816 0.86136841773986816
0.86453568935394287 0.86453568935394287 0.86453568935394287
0.86907637119293213 0.86907637119293213 0.86907637119293213
0.88266563415527344 0.88266563415527344 0.88266563415527344
0.89910209178924561 0.89910209178924561 0.89910209178924561
0.9186708927154541 0.9186708927154541 0.9186708927154541
0.93961155414581299 0.93961155414581299 0.93961155414581299
0.87012964487075806 0.87012964487075806 0.87012964487075806
0.87063145637512207 0.87063145637512207 0.87063145637512207
0.87593758106231689 0.87593758106231689 0.87593758106231689
0.89333617687225342 0.89333617687225342 0.89333617687225342
0.90351408720016479 0.90351408720016479 0.90351408720016479
0.91596329212188721 0.91596329212188721 0.91596329212188721
0.94068962335586548 0.94068962335586548 0.94068962335586548
0.87497377395629883 0.87497377395629883 0.87497377395629883
0.86724257469177246 0.86724257469177246 0.86724257469177246
0.87272125482559204 0.87272125482559204 0.87272125482559204
0.89242470264434814 0.89242470264434814 0.89242470264434814
0.90762209892272949 0.90762209892272949 0.90762209892272949
0.92337119579315186 0.92337119579315186 0.92337119579315186
0.94739776849746704 0.94739776849746704 0.94739776849746704
0.88248747587203979 0.88248747587203979 0.88248747587203979
0.87604886293411255 0.87604886293411255 0.87604886293411255
0.88046085834503174 0.88046085834503174 0.88046085834503174
0.89832371473312378 0.89832371473312378 0.89832371473312378
0.9175146222114563 0.9175146222114563 0.9175146222114563
0.93620234727859497 0.93620234727859497 0.93620234727859497
0.95737868547439575 0.95737868547439575 0.95737868547439575
0.90894889831542969 0.90894889831542969 0.90894889831542969
0.90471428632736206 0.90471428632736206 0.90471428632736206
0.90797233581542969 0.90797233581542969 0.90797233581542969
0.92245858907699585 0.92245858907699585 0.92245858907699585
0.93730741739273071 0.93730741739273071 0.93730741739273071
0.94758564233779907 0.94758564233779907 0.94758564233779907
0.96480083465576172 0.96480083465576172 0.96480083465576172
0.94426167011260986 0.94426167011260986 0.94426167011260986
0.94495654106140137 0.94495654106140137 0.94495654106140137
0.94472438097000122 0.94472438097000122 0.94472438097000122
0.95875799655914307 0.95875799655914307 0.95875799655914307
0.96901732683181763 0.96901732683181763 0.96901732683181763
0.97279411554336548 0.97279411554336548 0.97279411554336548
0.97799128293991089 0.97799128293991089 0.97799128293991089
