films/fuji_velvia_50.cube
# Created by: G'MIC (https://gmic.eu)
TITLE "fuji_velvia_50"
# LUT size
LUT_3D_SIZE 7
# Data domain
DOMAIN_MIN 0.0 0.0 0.0
DOMAIN_MAX 1.0 1.0 1.0
# LUT data points
0.014850002713501453 0.009794856421649456 0.0044753877446055412
0.095558568835258484 0.0061071207746863365 0.0065747429616749287
0.27974548935890198 0 0.0026765710208564997
0.46503022313117981 0 0.00075073243351653218
0.63935774564743042 0 4.5237822632770985e-05
0.80586642026901245 0 0
0.95669597387313843 0 0
0.023688970133662224 0.11731362342834473 0.021054152399301529
0.10769882053136826 0.10488566756248474 0.021538782864809036
0.30137118697166443 0.078444868326187134 0.023227602243423462
0.47517579793930054 0.049280472099781036 0.022111525759100914
0.64843970537185669 0.025598548352718353 0.017601611092686653
0.81649577617645264 0.012249007821083069 0.0079381754621863365
0.97356927394866943 0.0011645747581496835 0.0033899045083671808
0.020849937573075294 0.33394435048103333 0.048498578369617462
0.11297803372144699 0.31524503231048584 0.044513419270515442
0.29562473297119141 0.29966303706169128 0.046040300279855728
0.47534659504890442 0.27432543039321899 0.044672213494777679
0.64832299947738647 0.23239634931087494 0.038155291229486465
0.81394660472869873 0.20311485230922699 0.029918147251009941
0.97553831338882446 0.15433216094970703 0.016365006566047668
0.0037946812808513641 0.52002567052841187 0.0806756392121315
0.085208490490913391 0.50830888748168945 0.073341622948646545
0.26777735352516174 0.49245420098304749 0.073477275669574738
0.46739482879638672 0.47159063816070557 0.078755304217338562
0.64767074584960938 0.447092205286026 0.072650030255317688
0.81455802917480469 0.41750183701515198 0.055048041045665741
0.97485858201980591 0.38043627142906189 0.033004701137542725
0 0.69751763343811035 0.11966558545827866
0.050080690532922745 0.69253218173980713 0.10937676578760147
0.2253316342830658 0.67883771657943726 0.10203561186790466
0.45420300960540771 0.65957874059677124 0.098693132400512695
0.6411251425743103 0.64250212907791138 0.097584635019302368
0.81420791149139404 0.61632430553436279 0.085007280111312866
0.97774237394332886 0.5859532356262207 0.064582809805870056
0 0.86704665422439575 0.15749062597751617
0.0029315424617379904 0.86995834112167358 0.14754213392734528
0.14984016120433807 0.86069792509078979 0.13860200345516205
0.40917119383811951 0.84484487771987915 0.13042257726192474
0.6220165491104126 0.83047151565551758 0.12476009130477905
0.80696171522140503 0.80745041370391846 0.10118993371725082
0.97566747665405273 0.78106182813644409 0.068209990859031677
0 0.99770522117614746 0.19579914212226868
0.0002500945411156863 0.999500572681427 0.18655405938625336
0.11655696481466293 0.99889272451400757 0.17868098616600037
0.3682195246219635 0.99705988168716431 0.17078167200088501
0.59576630592346191 0.99198329448699951 0.14934247732162476
0.79025769233703613 0.98073172569274902 0.099133558571338654
0.96676063537597656 0.96665424108505249 0.036995023488998413
0.011036158539354801 0.0076630236580967903 0.069088876247406006
0.1031910628080368 0.005132084246724844 0.072113305330276489
0.2925262451171875 0.0011286716908216476 0.07060636579990387
0.47219863533973694 0 0.067420080304145813
0.6456228494644165 0 0.058922097086906433
0.81651073694229126 0 0.043516676872968674
0.97361862659454346 0 0.029791230335831642
0.026645271107554436 0.11527363210916519 0.10504404455423355
0.11242140084505081 0.1090344712138176 0.10510164499282837
0.30144628882408142 0.087925434112548828 0.11154130101203918
0.47878456115722656 0.057201102375984192 0.10879227519035339
0.6516997218132019 0.04224039614200592 0.10058838874101639
0.82122534513473511 0.022173220291733742 0.084733374416828156
0.97843801975250244 0.013631708920001984 0.065268255770206451
0.015976356342434883 0.33619090914726257 0.14349013566970825
0.10047441720962524 0.31858143210411072 0.14577122032642365
0.29335561394691467 0.30165603756904602 0.14671476185321808
0.47976663708686829 0.27256020903587341 0.1412891298532486
0.65404409170150757 0.23623561859130859 0.13376155495643616
0.82069551944732666 0.1980583518743515 0.11915113031864166
0.98044288158416748 0.1663908064365387 0.089384369552135468
0 0.52183574438095093 0.18792390823364258
0.059645619243383408 0.51127111911773682 0.18495796620845795
0.26001784205436707 0.49893784523010254 0.18415048718452454
0.46954759955406189 0.474671870470047 0.18738512694835663
0.6494746208190918 0.45054864883422852 0.17809319496154785
0.8142513632774353 0.42176097631454468 0.16129735112190247
0.97954714298248291 0.38775673508644104 0.1335294246673584
0 0.70314103364944458 0.22829726338386536
0.035458970814943314 0.69618904590606689 0.22317920625209808
0.21429140865802765 0.68207073211669922 0.2185090035200119
0.44925126433372498 0.66229254007339478 0.21831707656383514
0.64066821336746216 0.64623308181762695 0.21486096084117889
0.80974346399307251 0.62122887372970581 0.20262624323368073
0.97952604293823242 0.59176230430603027 0.17378582060337067
0 0.87895292043685913 0.26112180948257446
0.010791748762130737 0.87325441837310791 0.25950005650520325
0.15747477114200592 0.85802346467971802 0.25716307759284973
0.40805679559707642 0.84090769290924072 0.25308027863502502
0.62265831232070923 0.82723593711853027 0.25361281633377075
0.80018657445907593 0.80604058504104614 0.24252574145793915
0.97373414039611816 0.77968621253967285 0.20680756866931915
0.0001995311031350866 1 0.29571551084518433
0.021078117191791534 1 0.29561808705329895
0.15137937664985657 0.99830573797225952 0.29216578602790833
0.38258069753646851 0.99331659078598022 0.28387925028800964
0.5998915433883667 0.98810374736785889 0.27512609958648682
0.78457772731781006 0.97930282354354858 0.25129759311676025
0.95963239669799805 0.95868349075317383 0.21034729480743408
0.013371530920267105 0.0048317406326532364 0.2079339474439621
0.097208820283412933 0.0050888508558273315 0.21400392055511475
0.29019829630851746 0.0031428318470716476 0.21139951050281525
0.47548282146453857 3.6621095205191523e-05 0.21200892329216003
0.6497003436088562 0 0.19832070171833038
0.82033836841583252 0 0.18136690557003021
0.97976869344711304 0 0.14614236354827881
0.026297325268387794 0.11400453001260757 0.25335848331451416
0.1142069473862648 0.10211920738220215 0.25607442855834961
0.30583477020263672 0.08151930570602417 0.26040971279144287
0.48287266492843628 0.053822968155145645 0.25712704658508301
0.65469390153884888 0.031511958688497543 0.24822397530078888
0.82012981176376343 0.014396338723599911 0.23474292457103729
0.97542315721511841 0.020835412666201591 0.20955069363117218
0.0061433082446455956 0.32602474093437195 0.28841406106948853
0.098823994398117065 0.32302305102348328 0.29371738433837891
0.29470545053482056 0.29839646816253662 0.29757755994796753
0.48220589756965637 0.27037152647972107 0.29716688394546509
0.6585838794708252 0.2377677708864212 0.29315683245658875
0.81983369588851929 0.19896697998046875 0.2779599130153656
0.9784926176071167 0.1769653856754303 0.24997851252555847
0 0.52043277025222778 0.32750475406646729
0.059150338172912598 0.51410293579101562 0.33072468638420105
0.25660696625709534 0.49928069114685059 0.33025142550468445
0.47004887461662292 0.47263380885124207 0.3343927264213562
0.65122109651565552 0.4520011842250824 0.33417874574661255
0.81757122278213501 0.42260074615478516 0.3222653865814209
0.9803541898727417 0.38809904456138611 0.29710724949836731
0 0.70327693223953247 0.36234325170516968
0.037189468741416931 0.6958191990852356 0.36363232135772705
0.2068631649017334 0.68209922313690186 0.36407381296157837
0.45054429769515991 0.66250211000442505 0.36669012904167175
0.64257121086120605 0.64623004198074341 0.36855664849281311
0.81426209211349487 0.62071675062179565 0.35984039306640625
0.98161178827285767 0.58844786882400513 0.33691522479057312
0 0.8808821439743042 0.39151278138160706
0.025453200563788414 0.87192553281784058 0.39566934108734131
0.14826233685016632 0.85505115985870361 0.40078979730606079
0.40438911318778992 0.842509925365448 0.39910241961479187
0.6218382716178894 0.82868713140487671 0.40023577213287354
0.80363398790359497 0.80715727806091309 0.39421135187149048
0.97699135541915894 0.77719712257385254 0.3694579005241394
0.011086317710578442 1 0.42073208093643188
0.051191966980695724 1 0.42455935478210449
0.17235767841339111 0.99853229522705078 0.42673021554946899
0.38678458333015442 0.99444478750228882 0.42151018977165222
0.59921181201934814 0.98974913358688354 0.41857162117958069
0.78470385074615479 0.98095005750656128 0.40845403075218201
0.95868879556655884 0.95644867420196533 0.38137030601501465
0.022188372910022736 0.00066636031260713935 0.35281863808631897
0.11444332450628281 0.00021829044271726161 0.35477942228317261
0.29038515686988831 0.0019631329923868179 0.35609963536262512
0.478666752576828 6.247127748792991e-05 0.35975223779678345
0.65276056528091431 0 0.35578072071075439
0.81779652833938599 0 0.35092329978942871
0.96959429979324341 0 0.32031553983688354
0.028951233252882957 0.11050217598676682 0.39187034964561462
0.11442086845636368 0.093772485852241516 0.39247280359268188
0.2972044050693512 0.079915590584278107 0.39795652031898499
0.48737415671348572 0.061324115842580795 0.40306663513183594
0.65994632244110107 0.035075467079877853 0.40190243721008301
0.8227425217628479 0.023254739120602608 0.39361080527305603
0.97543656826019287 0.038071397691965103 0.36821433901786804
0.0052303988486528397 0.32768380641937256 0.42585110664367676
0.085042752325534821 0.32037991285324097 0.42971378564834595
0.29172569513320923 0.29046139121055603 0.43586105108261108
0.48617294430732727 0.26149290800094604 0.4397834837436676
0.66199064254760742 0.22952449321746826 0.44077569246292114
0.82533174753189087 0.19631887972354889 0.4318310022354126
0.97910255193710327 0.18211124837398529 0.41023600101470947
0 0.52195793390274048 0.46466919779777527
0.057758167386054993 0.51482069492340088 0.47010213136672974
0.25482839345932007 0.49675899744033813 0.47128972411155701
0.47061857581138611 0.47342726588249207 0.47158390283584595
0.65488523244857788 0.44968244433403015 0.47578424215316772
0.82284253835678101 0.42077890038490295 0.47012105584144592
0.98178589344024658 0.38747566938400269 0.45154964923858643
0 0.70145082473754883 0.50222420692443848
0.04167899489402771 0.69546735286712646 0.50417184829711914
0.21400547027587891 0.68496453762054443 0.50427579879760742
0.45020127296447754 0.66514211893081665 0.50617820024490356
0.64205265045166016 0.64460331201553345 0.51036292314529419
0.81863605976104736 0.62225842475891113 0.5068163275718689
0.98407351970672607 0.58843004703521729 0.49124756455421448
1.1488970812933985e-05 0.8799012303352356 0.53326719999313354
0.038297750055789948 0.87190216779708862 0.53544121980667114
0.17889513075351715 0.86357748508453369 0.53882014751434326
0.40469357371330261 0.85230523347854614 0.54092711210250854
0.61683928966522217 0.83569717407226562 0.54197674989700317
0.80752503871917725 0.81241190433502197 0.53876960277557373
0.98145210742950439 0.77961856126785278 0.52281647920608521
0.01406396646052599 1 0.56038743257522583
0.06230633333325386 1 0.56301498413085938
0.18429563939571381 1 0.56651884317398071
0.3787190318107605 0.99885505437850952 0.56710207462310791
0.59014099836349487 0.99568718671798706 0.56487858295440674
0.78596335649490356 0.98759728670120239 0.55900430679321289
0.9641842246055603 0.96276253461837769 0.53939604759216309
0.024740166962146759 0 0.48703852295875549
0.11433625966310501 0 0.48771139979362488
0.28048872947692871 0 0.48902314901351929
0.47353073954582214 0 0.49341669678688049
0.65173614025115967 0 0.49479955434799194
0.81407666206359863 0 0.48729631304740906
0.96074759960174561 0 0.46714168787002563
0.023472132161259651 0.095597289502620697 0.52565449476242065
0.099305137991905212 0.079848393797874451 0.52564072608947754
0.27982401847839355 0.065973512828350067 0.52941775321960449
0.48256009817123413 0.038673833012580872 0.5353359580039978
0.66136139631271362 0.02614104375243187 0.53819113969802856
0.82463347911834717 0.010165075771510601 0.53236931562423706
0.97456276416778564 0.024481948465108871 0.51372057199478149
0.0072327107191085815 0.31792908906936646 0.55843275785446167
0.085347898304462433 0.3050447404384613 0.56184828281402588
0.27999633550643921 0.27716800570487976 0.56669497489929199
0.48216971755027771 0.24844762682914734 0.57131880521774292
0.66395813226699829 0.21242465078830719 0.57381504774093628
0.8298301100730896 0.17399771511554718 0.56984055042266846
0.98200184106826782 0.16912713646888733 0.55598807334899902
0 0.51987123489379883 0.59565180540084839
0.031454708427190781 0.51072591543197632 0.59849309921264648
0.24669057130813599 0.49003970623016357 0.60207480192184448
0.46911108493804932 0.46908387541770935 0.6035500168800354
0.65731871128082275 0.44084340333938599 0.60602468252182007
0.82828855514526367 0.40937718749046326 0.60403066873550415
0.98483759164810181 0.37793627381324768 0.59479260444641113
0 0.70400422811508179 0.63454133272171021
0.013173645362257957 0.69588607549667358 0.63427132368087769
0.20018003880977631 0.68245232105255127 0.63571959733963013
0.43724918365478516 0.66427332162857056 0.63767087459564209
0.64001768827438354 0.64174580574035645 0.64041256904602051
0.82166141271591187 0.61652791500091553 0.64020156860351562
0.98639661073684692 0.58457881212234497 0.63316535949707031
0 0.8818817138671875 0.66991519927978516
0.014402576722204685 0.87119388580322266 0.66772246360778809
0.17579574882984161 0.86471086740493774 0.67073875665664673
0.40026593208312988 0.85286366939544678 0.67256999015808105
0.61161494255065918 0.83510130643844604 0.67345160245895386
0.80875706672668457 0.80999654531478882 0.67425656318664551
0.98552536964416504 0.78093481063842773 0.66700857877731323
0.0058198967017233372 1 0.6975824236869812
0.053511898964643478 1 0.69951862096786499
0.18261753022670746 1 0.70123624801635742
0.37620499730110168 0.99926471710205078 0.70150589942932129
0.58459669351577759 0.99690872430801392 0.70047110319137573
0.7887839674949646 0.98984265327453613 0.69958639144897461
0.97238332033157349 0.97353368997573853 0.68780875205993652
0.019489139318466187 0 0.61257410049438477
0.094839252531528473 0 0.61657798290252686
0.25141313672065735 0 0.62076056003570557
0.45931941270828247 0 0.62472641468048096
0.64742672443389893 0 0.62351357936859131
0.80908823013305664 0 0.61442428827285767
0.95223879814147949 0 0.59749394655227661
0.015952436253428459 0.080638036131858826 0.65230494737625122
0.084057435393333435 0.071050964295864105 0.65366244316101074
0.25098669528961182 0.064780920743942261 0.65816432237625122
0.46572396159172058 0.050208073109388351 0.66343164443969727
0.65786409378051758 0.011906178668141365 0.66604864597320557
0.82434475421905518 0.00025850185193121433 0.66155517101287842
0.97237324714660645 0.0088951559737324715 0.6476142406463623
0.009006500244140625 0.30391836166381836 0.68532824516296387
0.058914631605148315 0.29083588719367981 0.68647199869155884
0.2573484480381012 0.26418378949165344 0.69060820341110229
0.47550132870674133 0.24094486236572266 0.69576704502105713
0.66355609893798828 0.1894545704126358 0.69980806112289429
0.83270281553268433 0.14818300306797028 0.70012229681015015
0.98445111513137817 0.14766508340835571 0.69385278224945068
0 0.51746845245361328 0.72326785326004028
0.020520035177469254 0.50657278299331665 0.72443920373916626
0.23481625318527222 0.48400071263313293 0.72730976343154907
0.46347004175186157 0.46165293455123901 0.72883319854736328
0.65872395038604736 0.43155333399772644 0.7322084903717041
0.83156472444534302 0.39967465400695801 0.73319500684738159
0.9880635142326355 0.36150452494621277 0.73270422220230103
0 0.70447301864624023 0.7649223804473877
0.0021847144234925508 0.69697052240371704 0.76561450958251953
0.16935086250305176 0.67948055267333984 0.7657005786895752
0.43157041072845459 0.6577613353729248 0.76694673299789429
0.64272058010101318 0.63621068000793457 0.77026689052581787
0.82454335689544678 0.61193704605102539 0.77293574810028076
0.98786765336990356 0.57924962043762207 0.7710498571395874
0 0.88673597574234009 0.8054003119468689
0.0014181399019435048 0.87939298152923584 0.8054734468460083
0.14455428719520569 0.86491721868515015 0.80387187004089355
0.39202868938446045 0.8493049144744873 0.80457472801208496
0.60873377323150635 0.83287578821182251 0.80809324979782104
0.8099246621131897 0.81173849105834961 0.81331402063369751
0.98661559820175171 0.78784787654876709 0.80997592210769653
0.00091830984456464648 1 0.8311234712600708
0.033193010836839676 1 0.83491569757461548
0.16069309413433075 1 0.83464694023132324
0.36271843314170837 0.99947220087051392 0.83554661273956299
0.57634562253952026 0.99744462966918945 0.83822888135910034
0.78867644071578979 0.99204981327056885 0.8437613844871521
0.97779518365859985 0.98019880056381226 0.83805388212203979
0.021964667364954948 0 0.72619295120239258
0.079059287905693054 0 0.73444497585296631
0.22670958936214447 0.0050103580579161644 0.74122351408004761
0.45397105813026428 0.0045084934681653976 0.74574863910675049
0.64035540819168091 0 0.74122685194015503
0.79928672313690186 0 0.73026973009109497
0.9397779107093811 0 0.71380794048309326
0.017204703763127327 0.060667645186185837 0.77065539360046387
0.070707656443119049 0.047557979822158813 0.77335631847381592
0.22772860527038574 0.059794962406158447 0.77911484241485596
0.44832217693328857 0.058265388011932373 0.78373658657073975
0.64784258604049683 0.0057386811822652817 0.78555375337600708
0.81701111793518066 3.8894954741408583e-06 0.78109449148178101
0.96334028244018555 0.010036857798695564 0.76779800653457642
0.0075193964876234531 0.27725949883460999 0.80686277151107788
0.048258539289236069 0.26348361372947693 0.80684173107147217
0.22605171799659729 0.2454981803894043 0.811481773853302
0.45311477780342102 0.22368735074996948 0.81714779138565063
0.65282422304153442 0.16476728022098541 0.82217174768447876
0.82806587219238281 0.13163861632347107 0.82525646686553955
0.98242700099945068 0.13544417917728424 0.82213956117630005
0 0.5042722225189209 0.84489685297012329
0.0099845286458730698 0.49414277076721191 0.84817039966583252
0.17803339660167694 0.47335869073867798 0.85067009925842285
0.43551096320152283 0.44485121965408325 0.8546263575553894
0.64664232730865479 0.41626378893852234 0.85927760601043701
0.82615864276885986 0.38147258758544922 0.86382037401199341
0.98689514398574829 0.33948791027069092 0.86564671993255615
0 0.69440412521362305 0.88614070415496826
0 0.69023603200912476 0.89153647422790527
0.10741856694221497 0.67328721284866333 0.89244598150253296
0.41200482845306396 0.64801990985870361 0.89783346652984619
0.63240170478820801 0.62870299816131592 0.90201073884963989
0.81782221794128418 0.60114729404449463 0.90550917387008667
0.98360311985015869 0.56799066066741943 0.90096455812454224
0 0.8848235011100769 0.93028348684310913
0 0.87871390581130981 0.9331246018409729
0.07973702996969223 0.86070805788040161 0.93110281229019165
0.35532006621360779 0.84789055585861206 0.93722552061080933
0.59411430358886719 0.83100676536560059 0.94189190864562988
0.80382829904556274 0.80564588308334351 0.94641315937042236
0.98277533054351807 0.78154981136322021 0.94289594888687134
0.0068628201261162758 1 0.95202994346618652
0.022626182064414024 1 0.95820742845535278
0.13939274847507477 1 0.95795285701751709
0.34449341893196106 0.99878972768783569 0.9621204137802124
0.56219041347503662 0.99730712175369263 0.97024351358413696
0.7801743745803833 0.99058932065963745 0.9784814715385437
0.97813445329666138 0.97809916734695435 0.97991394996643066
