films/fuji_sensia_100.cube
# Created by: G'MIC (https://gmic.eu)
TITLE "fuji_sensia_100"
# LUT size
LUT_3D_SIZE 5
# Data domain
DOMAIN_MIN 0.0 0.0 0.0
DOMAIN_MAX 1.0 1.0 1.0
# LUT data points
0.051896218210458755 0.047336593270301819 0.045897867530584335
0.2445896714925766 0.049403008073568344 0.028919428586959839
0.46410086750984192 0.040522154420614243 0.010560727678239346
0.73161357641220093 0.052074089646339417 0.0019577625207602978
0.88661521673202515 0.073451235890388489 0.039793815463781357
0.15162648260593414 0.31118291616439819 0.16227442026138306
0.29789787530899048 0.30757796764373779 0.14809519052505493
0.54466873407363892 0.29771283268928528 0.10953161120414734
0.82377147674560547 0.28649124503135681 0.085972681641578674
0.98191243410110474 0.28689718246459961 0.1355859786272049
0.1997876912355423 0.61570924520492554 0.26979705691337585
0.36703923344612122 0.61316156387329102 0.24942973256111145
0.63861793279647827 0.60851311683654785 0.22062960267066956
0.90172630548477173 0.60116738080978394 0.20252874493598938
0.99963921308517456 0.60598468780517578 0.2644411027431488
0.30458939075469971 0.85194581747055054 0.29119077324867249
0.46790504455566406 0.84602749347686768 0.28576487302780151
0.74532949924468994 0.83807933330535889 0.25123170018196106
0.98675709962844849 0.83135014772415161 0.23815165460109711
1 0.82526940107345581 0.29316487908363342
0.41299238801002502 0.96968519687652588 0.13619643449783325
0.57454317808151245 0.9664350152015686 0.086590833961963654
0.85797208547592163 0.95745980739593506 0.034850042313337326
1 0.94934147596359253 0.025093751028180122
1 0.94450682401657104 0.18317832052707672
0.048140611499547958 0.034883715212345123 0.19886444509029388
0.21690857410430908 0.022971613332629204 0.17058984935283661
0.44614148139953613 0.017562955617904663 0.13721200823783875
0.6982002854347229 0.024478254839777946 0.11039907485246658
0.85523748397827148 0.033799473196268082 0.15196019411087036
0.14089666306972504 0.28630214929580688 0.30095866322517395
0.28249770402908325 0.28123331069946289 0.28285223245620728
0.52392452955245972 0.27000665664672852 0.24407701194286346
0.7872740626335144 0.26357194781303406 0.21908088028430939
0.93690598011016846 0.26228055357933044 0.26618877053260803
0.16547547280788422 0.61414700746536255 0.41259244084358215
0.33940717577934265 0.60885614156723022 0.39641985297203064
0.61473459005355835 0.6069907546043396 0.36688414216041565
0.87695205211639404 0.5992092490196228 0.34756845235824585
0.99348580837249756 0.59060096740722656 0.39645686745643616
0.25933358073234558 0.85404187440872192 0.45638939738273621
0.43064031004905701 0.85510784387588501 0.45513156056404114
0.71007728576660156 0.84568864107131958 0.42226478457450867
0.95503765344619751 0.84015935659408569 0.42191126942634583
1 0.83480483293533325 0.47757250070571899
0.39517971873283386 0.97776591777801514 0.29289832711219788
0.54946470260620117 0.97705793380737305 0.31159380078315735
0.81519883871078491 0.96605223417282104 0.25439825654029846
0.9997708797454834 0.95955520868301392 0.26157060265541077
1 0.96315377950668335 0.40987861156463623
0.026915008202195168 0.0046858992427587509 0.36156189441680908
0.19144816696643829 0.0026567946188151836 0.34158384799957275
0.41685014963150024 0.0034829382784664631 0.30669146776199341
0.64803570508956909 0.012477635405957699 0.2805229127407074
0.79556000232696533 0.018544215708971024 0.31138592958450317
0.1184300109744072 0.23644889891147614 0.4773637056350708
0.26048290729522705 0.23512516915798187 0.46260172128677368
0.49064576625823975 0.22231891751289368 0.42732492089271545
0.71816480159759521 0.21327967941761017 0.4038236141204834
0.86458754539489746 0.21292744576931 0.42856672406196594
0.16031420230865479 0.58530616760253906 0.62475180625915527
0.31957390904426575 0.58455789089202881 0.61169493198394775
0.58366096019744873 0.57868248224258423 0.57892286777496338
0.80959665775299072 0.57203203439712524 0.55863219499588013
0.94605273008346558 0.56380140781402588 0.57285982370376587
0.22384779155254364 0.85344761610031128 0.70918744802474976
0.39580437541007996 0.85576891899108887 0.71061927080154419
0.65940350294113159 0.84971582889556885 0.67920702695846558
0.87955445051193237 0.84562617540359497 0.66872316598892212
0.99531954526901245 0.833732008934021 0.68389034271240234
0.31166520714759827 0.99239861965179443 0.67974656820297241
0.49621313810348511 0.99246561527252197 0.66816681623458862
0.73241877555847168 0.98449110984802246 0.63820832967758179
0.93174171447753906 0.97904330492019653 0.63417881727218628
0.99990308284759521 0.97563892602920532 0.68935185670852661
0.037034682929515839 0.00075728475349023938 0.56629186868667603
0.19716005027294159 0 0.53167033195495605
0.40546748042106628 0 0.49052238464355469
0.59444612264633179 0 0.44422969222068787
0.73042207956314087 0 0.4374372661113739
0.14506770670413971 0.13415433466434479 0.64040946960449219
0.26659977436065674 0.13090945780277252 0.62001150846481323
0.46458286046981812 0.11599908024072647 0.57753676176071167
0.65337866544723511 0.11242224276065826 0.54199802875518799
0.78408879041671753 0.11555790901184082 0.53533792495727539
0.26311853528022766 0.52461767196655273 0.79207581281661987
0.38347658514976501 0.51959282159805298 0.77314019203186035
0.58709228038787842 0.51361775398254395 0.73617774248123169
0.76733875274658203 0.50161021947860718 0.70400381088256836
0.89548248052597046 0.50207763910293579 0.69277489185333252
0.35190969705581665 0.84546554088592529 0.90007799863815308
0.47736355662345886 0.84607845544815063 0.89302664995193481
0.66889709234237671 0.84111851453781128 0.86150068044662476
0.8378833532333374 0.83559608459472656 0.83679544925689697
0.96509617567062378 0.82068312168121338 0.82216668128967285
0.38111159205436707 0.99563753604888916 0.93634450435638428
0.52223759889602661 0.99624085426330566 0.92280977964401245
0.71056199073791504 0.99455153942108154 0.89560836553573608
0.87635934352874756 0.99052995443344116 0.8758159875869751
0.99806582927703857 0.98296612501144409 0.86040693521499634
0.15453118085861206 0 0.6456713080406189
0.28839260339736938 0 0.64538431167602539
0.45298117399215698 0 0.60920560359954834
0.59890127182006836 0 0.56892484426498413
0.69966953992843628 0 0.53063851594924927
0.25203594565391541 0.0021725075785070658 0.68772029876708984
0.33894041180610657 0.0024456847459077835 0.67230057716369629
0.48086827993392944 0.00046480965102091432 0.63527745008468628
0.61066097021102905 0.00064131792169064283 0.60339879989624023
0.7119867205619812 8.4013096056878567e-05 0.57473838329315186
0.43117117881774902 0.36111530661582947 0.81692099571228027
0.49607521295547485 0.36339974403381348 0.80703377723693848
0.6150851845741272 0.34462037682533264 0.77343612909317017
0.72848325967788696 0.33894115686416626 0.74614644050598145
0.82540464401245117 0.33644366264343262 0.72523266077041626
0.56679689884185791 0.77132982015609741 0.95865058898925781
0.63099700212478638 0.77861422300338745 0.95219343900680542
0.73290151357650757 0.77710902690887451 0.93139827251434326
0.83467960357666016 0.7723279595375061 0.91450363397598267
0.93416637182235718 0.76070457696914673 0.89034372568130493
0.64747101068496704 0.98994749784469604 0.99990397691726685
0.684978187084198 0.98825705051422119 1
0.77463138103485107 0.98261302709579468 0.99971169233322144
0.87358254194259644 0.98079979419708252 0.99520963430404663
0.98555588722229004 0.98234724998474121 0.98266887664794922
