films/fuji_velvia_50.cube
# Created by: G'MIC (https://gmic.eu)
TITLE "fuji_velvia_50"
# LUT size
LUT_3D_SIZE 13
# Data domain
DOMAIN_MIN 0.0 0.0 0.0
DOMAIN_MAX 1.0 1.0 1.0
# LUT data points
0.014850002713501453 0.009794856421649456 0.0044753877446055412
0.043266776949167252 0.0086818765848875046 0.0051447697915136814
0.095558568835258484 0.0061071207746863365 0.0065747429616749287
0.18170841038227081 0.00064399570692330599 0.0044767493382096291
0.27974548935890198 0 0.0026765710208564997
0.3746454119682312 0 0.0015598371392115951
0.46503022313117981 0 0.00075073243351653218
0.55296486616134644 0 0.00025796328554861248
0.63935774564743042 0 4.5237822632770985e-05
0.72394311428070068 0 0
0.80586642026901245 0 0
0.88414877653121948 0 0
0.95669597387313843 0 0
0.018616171553730965 0.045430995523929596 0.010343020781874657
0.046746615320444107 0.04366016760468483 0.010513185523450375
0.10253695398569107 0.036571323871612549 0.011877037584781647
0.19218875467777252 0.023200718685984612 0.011283770203590393
0.29059535264968872 0.013128018938004971 0.010699582286179066
0.38252192735671997 0.0061118481680750847 0.00978113804012537
0.47073587775230408 0.0015835182275623083 0.0081888837739825249
0.55807232856750488 0.00029932658071629703 0.0059771072119474411
0.6446382999420166 0 0.0042404923588037491
0.72975277900695801 0 0.002313337055966258
0.81260013580322266 0 0.00073276594048365951
0.89218229055404663 0 0.00015007467300165445
0.96636068820953369 0 0
0.023688970133662224 0.11731362342834473 0.021054152399301529
0.052248068153858185 0.1145591139793396 0.020404800772666931
0.10769882053136826 0.10488566756248474 0.021538782864809036
0.2023673802614212 0.090156227350234985 0.02223784476518631
0.30137118697166443 0.078444868326187134 0.023227602243423462
0.38959115743637085 0.065258368849754333 0.023258000612258911
0.47517579793930054 0.049280472099781036 0.022111525759100914
0.56157410144805908 0.039832741022109985 0.018940376117825508
0.64843970537185669 0.025598548352718353 0.017601611092686653
0.73350811004638672 0.016486538574099541 0.014091297052800655
0.81649577617645264 0.012249007821083069 0.0079381754621863365
0.89788287878036499 0.0047739665023982525 0.0044727101922035217
0.97356927394866943 0.0011645747581496835 0.0033899045083671808
0.025620225816965103 0.22576262056827545 0.03434404730796814
0.057517752051353455 0.21918874979019165 0.03238697350025177
0.11521562933921814 0.20798958837985992 0.032319821417331696
0.20476272702217102 0.19683262705802917 0.033604670315980911
0.30229014158248901 0.18665948510169983 0.034452013671398163
0.39119914174079895 0.17277844250202179 0.034078724682331085
0.47676879167556763 0.15605275332927704 0.032709188759326935
0.56274080276489258 0.13712365925312042 0.029982518404722214
0.64910602569580078 0.1165706142783165 0.028789101168513298
0.73332083225250244 0.1026124507188797 0.025886759161949158
0.81661176681518555 0.090058647096157074 0.019319750368595123
0.89978384971618652 0.067412734031677246 0.013711502775549889
0.97685438394546509 0.04968363419175148 0.011734427884221077
0.020849937573075294 0.33394435048103333 0.048498578369617462
0.054039839655160904 0.32634738087654114 0.045114748179912567
0.11297803372144699 0.31524503231048584 0.044513419270515442
0.19900807738304138 0.30730167031288147 0.045390348881483078
0.29562473297119141 0.29966303706169128 0.046040300279855728
0.38755086064338684 0.28809940814971924 0.045930840075016022
0.47534659504890442 0.27432543039321899 0.044672213494777679
0.56252336502075195 0.25218662619590759 0.041297223418951035
0.64832299947738647 0.23239634931087494 0.038155291229486465
0.73122125864028931 0.21938310563564301 0.035544302314519882
0.81394660472869873 0.20311485230922699 0.029918147251009941
0.89779990911483765 0.17413021624088287 0.021918995305895805
0.97553831338882446 0.15433216094970703 0.016365006566047668
0.01039301510900259 0.42924290895462036 0.063499271869659424
0.040723927319049835 0.42229366302490234 0.058841824531555176
0.09986693412065506 0.41413107514381409 0.05799020454287529
0.18533317744731903 0.40706738829612732 0.058543097227811813
0.28286883234977722 0.39823660254478455 0.05933811143040657
0.38047659397125244 0.38654768466949463 0.060423519462347031
0.47272962331771851 0.37549149990081787 0.06103331595659256
0.56187629699707031 0.36011478304862976 0.058363880962133408
0.64835137128829956 0.34417819976806641 0.053745478391647339
0.73146599531173706 0.33111295104026794 0.049441903829574585
0.81365394592285156 0.31400671601295471 0.041846092790365219
0.89662277698516846 0.28839030861854553 0.031597975641489029
0.97426050901412964 0.26869291067123413 0.023483995348215103
0.0037946812808513641 0.52002567052841187 0.0806756392121315
0.028429502621293068 0.5143129825592041 0.075424849987030029
0.085208490490913391 0.50830888748168945 0.073341622948646545
0.16910985112190247 0.50164538621902466 0.072966903448104858
0.26777735352516174 0.49245420098304749 0.073477275669574738
0.36995810270309448 0.48113995790481567 0.075369037687778473
0.46739482879638672 0.47159063816070557 0.078755304217338562
0.55943220853805542 0.46075925230979919 0.077581636607646942
0.64767074584960938 0.447092205286026 0.072650030255317688
0.7320476770401001 0.43346109986305237 0.065816633403301239
0.81455802917480469 0.41750183701515198 0.055048041045665741
0.89720076322555542 0.39777585864067078 0.042991280555725098
0.97485858201980591 0.38043627142906189 0.033004701137542725
0.00041403676732443273 0.60949802398681641 0.099986255168914795
0.017767304554581642 0.60576295852661133 0.094487316906452179
0.070421747863292694 0.60103410482406616 0.090895712375640869
0.15031413733959198 0.59489494562149048 0.088696211576461792
0.24951839447021484 0.58652371168136597 0.08741866797208786
0.35682466626167297 0.57644438743591309 0.088213719427585602
0.46078181266784668 0.56727474927902222 0.0911736860871315
0.55584323406219482 0.5580146312713623 0.090990044176578522
0.64470070600509644 0.54659849405288696 0.085977651178836823
0.73020988702774048 0.53353214263916016 0.078974120318889618
0.81461381912231445 0.51850336790084839 0.069372422993183136
0.8982200026512146 0.50191080570220947 0.057615227997303009
0.97647237777709961 0.48650908470153809 0.04633038118481636
0 0.69751763343811035 0.11966558545827866
0.0061541087925434113 0.69595909118652344 0.11387493461370468
0.050080690532922745 0.69253218173980713 0.10937676578760147
0.12500226497650146 0.68693232536315918 0.10557928681373596
0.2253316342830658 0.67883771657943726 0.10203561186790466
0.34117096662521362 0.66895729303359985 0.09918627142906189
0.45420300960540771 0.65957874059677124 0.098693132400512695
0.55181950330734253 0.6518217921257019 0.099803030490875244
0.6411251425743103 0.64250212907791138 0.097584635019302368
0.72778409719467163 0.63062787055969238 0.09237748384475708
0.81420791149139404 0.61632430553436279 0.085007280111312866
0.89954549074172974 0.600494384765625 0.075902171432971954
0.97774237394332886 0.5859532356262207 0.064582809805870056
0 0.78392106294631958 0.13861563801765442
0.00030578911537304521 0.78427499532699585 0.13292165100574493
0.023279916495084763 0.78249549865722656 0.12832000851631165
0.090600945055484772 0.77793782949447632 0.12395913898944855
0.19114433228969574 0.77031385898590088 0.11888376623392105
0.31635743379592896 0.76024162769317627 0.11302708834409714
0.44017338752746582 0.75102311372756958 0.10961095988750458
0.54178285598754883 0.74488925933837891 0.1117565706372261
0.6341138482093811 0.73695749044418335 0.11073555797338486
0.72348803281784058 0.725932776927948 0.1053973063826561
0.81206697225570679 0.71230459213256836 0.097261212766170502
0.8993346095085144 0.6967739462852478 0.088788293302059174
0.97815757989883423 0.68265914916992188 0.076624669134616852
0 0.86704665422439575 0.15749062597751617
0 0.86948561668395996 0.1520158052444458
0.0029315424617379904 0.86995834112167358 0.14754213392734528
0.049085713922977448 0.86734521389007568 0.14345431327819824
0.14984016120433807 0.86069792509078979 0.13860200345516205
0.27930191159248352 0.85223734378814697 0.1334761381149292
0.40917119383811951 0.84484487771987915 0.13042257726192474
0.52208751440048218 0.83870160579681396 0.12946708500385284
0.6220165491104126 0.83047151565551758 0.12476009130477905
0.71564710140228271 0.81966298818588257 0.11515752971172333
0.80696171522140503 0.80745041370391846 0.10118993371725082
0.89541220664978027 0.79428017139434814 0.084466330707073212
0.97566747665405273 0.78106182813644409 0.068209990859031677
0 0.94516551494598389 0.17638389766216278
0 0.94945681095123291 0.17094582319259644
0 0.95250344276428223 0.16716371476650238
0.016725966706871986 0.95281332731246948 0.16336862742900848
0.11567031592130661 0.9471631646156311 0.15921832621097565
0.24886749684810638 0.9401862621307373 0.15533138811588287
0.38187557458877563 0.93517380952835083 0.15277503430843353
0.50237375497817993 0.93040108680725098 0.14898714423179626
0.60824644565582275 0.92103534936904907 0.1384633332490921
0.70573592185974121 0.90993762016296387 0.12171994149684906
0.79924356937408447 0.8995208740234375 0.098949640989303589
0.89011949300765991 0.88939923048019409 0.071878917515277863
0.97258657217025757 0.87785643339157104 0.049442876130342484
0 0.99770522117614746 0.19579914212226868
0 0.99876797199249268 0.19050984084606171
0.0002500945411156863 0.999500572681427 0.18655405938625336
0.024281864985823631 0.9997822642326355 0.18270887434482574
0.11655696481466293 0.99889272451400757 0.17868098616600037
0.24035795032978058 0.9978644847869873 0.17460502684116364
0.3682195246219635 0.99705988168716431 0.17078167200088501
0.48827597498893738 0.99591350555419922 0.16442561149597168
0.59576630592346191 0.99198329448699951 0.14934247732162476
0.69507831335067749 0.98625123500823975 0.12745535373687744
0.79025769233703613 0.98073172569274902 0.099133558571338654
0.88232868909835815 0.97467082738876343 0.065179623663425446
0.96676063537597656 0.96665424108505249 0.036995023488998413
0.011127755977213383 0.0070782382972538471 0.028643889352679253
0.041557282209396362 0.0068689831532537937 0.028155561536550522
0.097223244607448578 0.0057113645598292351 0.028306085616350174
0.18538512289524078 0.00070331047754734755 0.028700750321149826
0.28434345126152039 0 0.028187351301312447
0.37894147634506226 0 0.026537472382187843
0.46854397654533386 0 0.02279612235724926
0.55611860752105713 0 0.018760023638606071
0.64290255308151245 0 0.015035278163850307
0.72851133346557617 0 0.01062876358628273
0.81198728084564209 0 0.0062920963391661644
0.89192241430282593 0 0.0033412857446819544
0.9658617377281189 0 0.0021348241716623306
0.017170386388897896 0.042824253439903259 0.037395134568214417
0.047324985265731812 0.04190044105052948 0.038272678852081299
0.10637624561786652 0.034899350255727768 0.039226636290550232
0.19595025479793549 0.022406633943319321 0.040090300142765045
0.29298198223114014 0.016690436750650406 0.042352311313152313
0.38553908467292786 0.010454185307025909 0.042547907680273056
0.47368571162223816 0.0050889705307781696 0.040574632585048676
0.56060492992401123 0.0022819817531853914 0.037029534578323364
0.6474650502204895 0.00061329861637204885 0.033288620412349701
0.7333827018737793 3.9822447433834895e-05 0.028004709631204605
0.81741893291473389 0 0.021056545898318291
0.89842844009399414 0 0.014586101286113262
0.97302150726318359 0 0.01153977308422327
0.023872615769505501 0.11584717780351639 0.052635326981544495
0.053381137549877167 0.11477520316839218 0.052216354757547379
0.11220505833625793 0.10809489339590073 0.052397545427083969
0.2030031830072403 0.092870660126209259 0.054660603404045105
0.30043533444404602 0.083611555397510529 0.057919759303331375
0.39108628034591675 0.072312556207180023 0.058453459292650223
0.4775727391242981 0.058961052447557449 0.056149709969758987
0.56366688013076782 0.047959674149751663 0.053019832819700241
0.6503252387046814 0.036387678235769272 0.05059438943862915
0.73616725206375122 0.025930711999535561 0.045949418097734451
0.82037448883056641 0.016809456050395966 0.037717930972576141
0.902263343334198 0.0085872272029519081 0.029395816847681999
0.97730857133865356 0.0059508229605853558 0.024926474317908287
0.025076473131775856 0.22364762425422668 0.070773616433143616
0.054470181465148926 0.21883665025234222 0.069165386259555817
0.11240695416927338 0.2121979296207428 0.069624237716197968
0.20193907618522644 0.20095118880271912 0.071588881313800812
0.30055961012840271 0.18920727074146271 0.072212159633636475
0.39257872104644775 0.1754814088344574 0.070692159235477448
0.4789072573184967 0.16001927852630615 0.067182444036006927
0.56495267152786255 0.14311198890209198 0.063485942780971527
0.65125876665115356 0.12415463477373123 0.062769271433353424
0.73635369539260864 0.10816363245248795 0.059461243450641632
0.82055413722991943 0.091995567083358765 0.051115460693836212
0.90337806940078735 0.073346711695194244 0.039576899260282516
0.97910934686660767 0.062988817691802979 0.033662218600511551
0.016089105978608131 0.33436501026153564 0.088706925511360168
0.044085618108510971 0.32584157586097717 0.086448073387145996
0.10322286933660507 0.31721359491348267 0.087004639208316803
0.19267360866069794 0.30966043472290039 0.088673532009124756
0.29297897219657898 0.30133727192878723 0.087005108594894409
0.38890480995178223 0.2894102931022644 0.084802798926830292
0.47799801826477051 0.27429622411727905 0.082061052322387695
0.56491768360137939 0.25582066178321838 0.077062748372554779
0.65108764171600342 0.2362888902425766 0.073323406279087067
0.73521268367767334 0.21830104291439056 0.071380674839019775
0.81888425350189209 0.19814027845859528 0.064568780362606049
0.90226906538009644 0.17484587430953979 0.052003372460603714
0.97882413864135742 0.15913473069667816 0.044040050357580185
0.0014993705553933978 0.43070852756500244 0.10761824995279312
0.020368883386254311 0.42231893539428711 0.10382013022899628
0.083283506333827972 0.41546779870986938 0.10397825390100479
0.17604266107082367 0.40963655710220337 0.10472464561462402
0.27945184707641602 0.40175768733024597 0.10465093702077866
0.3807564377784729 0.39030689001083374 0.10466031730175018
0.47489306330680847 0.37714815139770508 0.10407671332359314
0.56430280208587646 0.36246326565742493 0.09943283349275589
0.65051203966140747 0.34709760546684265 0.091312810778617859
0.7341543436050415 0.33067160844802856 0.087881423532962799
0.81708109378814697 0.31114071607589722 0.08133920282125473
0.90052789449691772 0.28847086429595947 0.069162972271442413
0.97844475507736206 0.27105438709259033 0.059807915240526199
1.0770910421342705e-06 0.52137976884841919 0.12846837937831879
0.0082475552335381508 0.51464384794235229 0.12333308160305023
0.066979005932807922 0.50977063179016113 0.12233076244592667
0.15856170654296875 0.5046505331993103 0.12246653437614441
0.26366600394248962 0.49661391973495483 0.12204323709011078
0.36962354183197021 0.4855256974697113 0.12310614436864853
0.46915605664253235 0.47436344623565674 0.12437332421541214
0.56114858388900757 0.46302476525306702 0.12111316621303558
0.64780980348587036 0.45085713267326355 0.11404883861541748
0.73141080141067505 0.43677037954330444 0.10796694457530975
0.8148810863494873 0.42002630233764648 0.098528273403644562
0.89925813674926758 0.40137910842895508 0.085064694285392761
0.97852975130081177 0.38468006253242493 0.072694890201091766
0 0.61157965660095215 0.149714395403862
0.0055094249546527863 0.6077309250831604 0.14491139352321625
0.056098565459251404 0.60318827629089355 0.14178423583507538
0.14068035781383514 0.59782689809799194 0.13982219994068146
0.24576883018016815 0.5903664231300354 0.13763511180877686
0.3564431369304657 0.57983660697937012 0.13802365958690643
0.46204474568367004 0.56945657730102539 0.13938391208648682
0.55687969923019409 0.56045377254486084 0.13666433095932007
0.64362615346908569 0.55059844255447388 0.13079707324504852
0.72771400213241577 0.53815734386444092 0.12538504600524902
0.81225264072418213 0.52336090803146362 0.11594232171773911
0.89907807111740112 0.50723624229431152 0.10149916261434555
0.97937321662902832 0.49263563752174377 0.08630640059709549
0 0.70130068063735962 0.16996957361698151
0.001730750547721982 0.69902253150939941 0.16530719399452209
0.040516018867492676 0.69513899087905884 0.16141757369041443
0.11758838593959808 0.68945717811584473 0.15823210775852203
0.2211744636297226 0.68132448196411133 0.15453340113162994
0.33979970216751099 0.67106097936630249 0.15185636281967163
0.45482346415519714 0.66122537851333618 0.15129977464675903
0.55339187383651733 0.65362441539764404 0.15130394697189331
0.64129489660263062 0.64549040794372559 0.14919364452362061
0.72617709636688232 0.63427454233169556 0.1448451429605484
0.81211328506469727 0.62016540765762329 0.13705657422542572
0.89935517311096191 0.60482668876647949 0.12461621314287186
0.97891116142272949 0.59068077802658081 0.1102391853928566
0 0.78909307718276978 0.18855907022953033
2.0734001736855134e-05 0.78841555118560791 0.18444104492664337
0.020130202174186707 0.78528153896331787 0.18076705932617188
0.087972171604633331 0.77958488464355469 0.17754349112510681
0.18940886855125427 0.77127784490585327 0.17328763008117676
0.31535542011260986 0.76080387830734253 0.16798736155033112
0.44041717052459717 0.75145822763442993 0.16576525568962097
0.54357904195785522 0.74518406391143799 0.16811268031597137
0.63548767566680908 0.73794621229171753 0.16828522086143494
0.72285169363021851 0.72745674848556519 0.16408863663673401
0.81030339002609253 0.71397548913955688 0.15586990118026733
0.89790374040603638 0.69946831464767456 0.14378400146961212
0.97826051712036133 0.6856003999710083 0.12888728082180023
0 0.87390190362930298 0.20622241497039795
0 0.8746877908706665 0.20254932343959808
0.0049269134178757668 0.87289994955062866 0.19986116886138916
0.056834530085325241 0.8682246208190918 0.19731208682060242
0.15488608181476593 0.86042636632919312 0.1935422271490097
0.28176862001419067 0.85125291347503662 0.18904823064804077
0.41139918565750122 0.84323126077651978 0.18656323850154877
0.52457106113433838 0.83696085214614868 0.18679007887840271
0.62348514795303345 0.82962781190872192 0.18503557145595551
0.71470314264297485 0.81977385282516479 0.17899715900421143
0.80443704128265381 0.80795192718505859 0.16695584356784821
0.89347010850906372 0.79487127065658569 0.14966638386249542
0.97536981105804443 0.78168565034866333 0.13188536465167999
0 0.95360648632049561 0.22398489713668823
0 0.95603275299072266 0.22060392796993256
0.00093817617744207382 0.95535761117935181 0.21905121207237244
0.037554796785116196 0.95260971784591675 0.21668565273284912
0.13124196231365204 0.94616091251373291 0.21370422840118408
0.25603589415550232 0.9383586049079895 0.21036282181739807
0.38628515601158142 0.9316563606262207 0.2071545273065567
0.50538617372512817 0.92583894729614258 0.20501363277435303
0.60963553190231323 0.91845095157623291 0.19907361268997192
0.70441609621047974 0.9093635082244873 0.18822211027145386
0.79633909463882446 0.89933902025222778 0.17008861899375916
0.88721978664398193 0.88858652114868164 0.14607861638069153
0.9710506796836853 0.87608498334884644 0.12488668411970139
0 0.99946576356887817 0.24318835139274597
0 0.99992513656616211 0.23982197046279907
0.0043447907082736492 1 0.23811697959899902
0.04524090513586998 0.99984061717987061 0.23526068031787872
0.13265447318553925 0.99878591299057007 0.2325177937746048
0.24918074905872345 0.99749445915222168 0.22875590622425079
0.37384715676307678 0.99573183059692383 0.2247236967086792
0.49186885356903076 0.99361366033554077 0.21913401782512665
0.59789115190505981 0.99073225259780884 0.20931945741176605
0.69508922100067139 0.98610544204711914 0.19381631910800934
0.78845840692520142 0.98076081275939941 0.17118436098098755
0.87935543060302734 0.97364383935928345 0.14352551102638245
0.96361535787582397 0.96288537979125977 0.12144970148801804
0.011036158539354801 0.0076630236580967903 0.069088876247406006
0.04418652132153511 0.0060943900607526302 0.070967219769954681
0.1031910628080368 0.005132084246724844 0.072113305330276489
0.19255927205085754 0.0026565850712358952 0.071550212800502777
0.2925262451171875 0.0011286716908216476 0.07060636579990387
0.38479235768318176 0.00011904847633559257 0.07120203971862793
0.47219863533973694 0 0.067420080304145813
0.55881845951080322 0 0.062447700649499893
0.6456228494644165 0 0.058922097086906433
0.7317969799041748 0 0.051696434617042542
0.81651073694229126 0 0.043516676872968674
0.89852076768875122 0 0.035061284899711609
0.97361862659454346 0 0.029791230335831642
0.019310027360916138 0.043224677443504333 0.084854289889335632
0.049909256398677826 0.041636582463979721 0.086305491626262665
0.10918984562158585 0.036345090717077255 0.087783098220825195
0.19838115572929382 0.028344009071588516 0.088687732815742493
0.29670846462249756 0.023671124130487442 0.091200746595859528
0.38901123404502869 0.015478410758078098 0.091856099665164948
0.47604221105575562 0.0071116727776825428 0.089469730854034424
0.5623895525932312 0.0039387722499668598 0.085094764828681946
0.64927369356155396 0.0026030745357275009 0.080191276967525482
0.73551154136657715 0.00098013784736394882 0.073577031493186951
0.8202318549156189 3.784778164117597e-05 0.064703784883022308
0.90211254358291626 0 0.055395971983671188
0.97714638710021973 0 0.048774193972349167
0.026645271107554436 0.11527363210916519 0.10504404455423355
0.055041473358869553 0.11439695209264755 0.10495737195014954
0.11242140084505081 0.1090344712138176 0.10510164499282837
0.20299233496189117 0.097275756299495697 0.10806813091039658
0.30144628882408142 0.087925434112548828 0.11154130101203918
0.39279979467391968 0.073965497314929962 0.11148130893707275
0.47878456115722656 0.057201102375984192 0.10879227519035339
0.56479465961456299 0.048374805599451065 0.10466329753398895
0.6516997218132019 0.04224039614200592 0.10058838874101639
0.73744350671768188 0.033138785511255264 0.094479687511920929
0.82122534513473511 0.022173220291733742 0.084733374416828156
0.90350490808486938 0.013690903782844543 0.073136076331138611
0.97843801975250244 0.013631708920001984 0.065268255770206451
0.026918867602944374 0.22323887050151825 0.12501032650470734
0.054367437958717346 0.21816334128379822 0.12448874115943909
0.11151036620140076 0.21260246634483337 0.12515288591384888
0.20182745158672333 0.20313979685306549 0.12830814719200134
0.30166935920715332 0.19120761752128601 0.12902264297008514
0.39367276430130005 0.17487031221389771 0.12726554274559021
0.48025330901145935 0.15743950009346008 0.12279444932937622
0.56638401746749878 0.14259068667888641 0.11840403079986572
0.65299731492996216 0.126996248960495 0.11682043969631195
0.73797643184661865 0.11141436547040939 0.11203418672084808
0.82125955820083618 0.094556756317615509 0.10096877068281174
0.90414303541183472 0.079522781074047089 0.083643577992916107
0.97992098331451416 0.074181333184242249 0.07357083261013031
0.015976356342434883 0.33619090914726257 0.14349013566970825
0.041113477200269699 0.32608458399772644 0.14409962296485901
0.10047441720962524 0.31858143210411072 0.14577122032642365
0.19101548194885254 0.31120982766151428 0.14787226915359497
0.29335561394691467 0.30165603756904602 0.14671476185321808
0.39035812020301819 0.2886107861995697 0.14471745491027832
0.47976663708686829 0.27256020903587341 0.1412891298532486
0.56750380992889404 0.25514695048332214 0.13656891882419586
0.65404409170150757 0.23623561859130859 0.13376155495643616
0.73798930644989014 0.21778526902198792 0.12971301376819611
0.82069551944732666 0.1980583518743515 0.11915113031864166
0.90334522724151611 0.17810696363449097 0.10088348388671875
0.98044288158416748 0.1663908064365387 0.089384369552135468
0.0006414076779037714 0.43164050579071045 0.16549772024154663
0.016515634953975677 0.42344397306442261 0.1639954000711441
0.078065671026706696 0.4171442985534668 0.16522863507270813
0.17200790345668793 0.41158637404441833 0.16631485521793365
0.27778357267379761 0.40306037664413452 0.16603189706802368
0.38097015023231506 0.39111945033073425 0.16659131646156311
