films/fuji_superia_1600.cube
# Created by: G'MIC (https://gmic.eu)
TITLE "fuji_superia_1600"
# LUT size
LUT_3D_SIZE 7
# Data domain
DOMAIN_MIN 0.0 0.0 0.0
DOMAIN_MAX 1.0 1.0 1.0
# LUT data points
0.062341172248125076 0.097798243165016174 0.10257958620786667
0.11980261653661728 0.10516802966594696 0.10304496437311172
0.26984512805938721 0.11609260737895966 0.097289890050888062
0.49982580542564392 0.11159303039312363 0.085468769073486328
0.71372294425964355 0.1130744069814682 0.063440881669521332
0.86904340982437134 0.17240466177463531 0.030645018443465233
0.99171507358551025 0.25870925188064575 0.0092738578096032143
0.023420969024300575 0.17036953568458557 0.10836471617221832
0.11262466013431549 0.18835388123989105 0.099139943718910217
0.31841766834259033 0.20667146146297455 0.084308892488479614
0.55630367994308472 0.21145103871822357 0.066072888672351837
0.74144750833511353 0.22386986017227173 0.040463078767061234
0.8881145715713501 0.2614244818687439 0.013713940978050232
0.99668258428573608 0.32302480936050415 0.013976152986288071
0 0.3533785343170166 0.11933258920907974
0.023208079859614372 0.36025920510292053 0.11503099650144577
0.31410732865333557 0.41563332080841064 0.056842610239982605
0.61616557836532593 0.42400148510932922 0.010876000858843327
0.78009164333343506 0.39715307950973511 0.01305052824318409
0.90399211645126343 0.40663421154022217 0.0045002955012023449
0.99531698226928711 0.44583675265312195 0.021532768383622169
0.022213146090507507 0.55193310976028442 0.19059248268604279
0.024682242423295975 0.55249446630477905 0.18130724132061005
0.23654434084892273 0.56704831123352051 0.14985595643520355
0.55889624357223511 0.61771631240844727 0.071353554725646973
0.78898805379867554 0.63387477397918701 0.012753594666719437
0.92058372497558594 0.59829807281494141 0.043256677687168121
0.99887359142303467 0.59343522787094116 0.10339762270450592
0.15780213475227356 0.71031177043914795 0.3215445876121521
0.17393957078456879 0.70785337686538696 0.30777719616889954
0.30105432868003845 0.70336580276489258 0.2991340160369873
0.50574964284896851 0.7277711033821106 0.27685844898223877
0.71167844533920288 0.76542758941650391 0.2346997857093811
0.89171791076660156 0.78720325231552124 0.21340729296207428
0.99713307619094849 0.77277123928070068 0.25863078236579895
0.38357824087142944 0.84785401821136475 0.48960793018341064
0.39876934885978699 0.84847712516784668 0.48220705986022949
0.46378898620605469 0.83988398313522339 0.47948974370956421
0.56458324193954468 0.84644997119903564 0.47130760550498962
0.68959909677505493 0.86485046148300171 0.46683564782142639
0.83285170793533325 0.88711708784103394 0.45189687609672546
0.97416740655899048 0.90716838836669922 0.45617896318435669
0.62146735191345215 0.95266252756118774 0.68628984689712524
0.63120406866073608 0.95230728387832642 0.68672269582748413
0.64886301755905151 0.94729101657867432 0.68266016244888306
0.69333195686340332 0.94760507345199585 0.68835639953613281
0.75134110450744629 0.953224778175354 0.68178468942642212
0.83240729570388794 0.96318507194519043 0.68329524993896484
0.92309474945068359 0.97239094972610474 0.68120330572128296
0.06410718709230423 0.10206865519285202 0.15310715138912201
0.13096889853477478 0.10294413566589355 0.15596677362918854
0.28373730182647705 0.10172419995069504 0.16011224687099457
0.51392066478729248 0.096033178269863129 0.1614871621131897
0.71126818656921387 0.078679345548152924 0.1489625871181488
0.86027902364730835 0.16383056342601776 0.14192536473274231
0.98888570070266724 0.25529599189758301 0.13703012466430664
0.024363603442907333 0.18249067664146423 0.17018221318721771
0.1320408433675766 0.19075426459312439 0.17455597221851349
0.32463499903678894 0.20390401780605316 0.17204555869102478
0.55131703615188599 0.20242521166801453 0.1621689647436142
0.72958016395568848 0.22513964772224426 0.15489585697650909
0.87643724679946899 0.26271343231201172 0.14361247420310974
0.99224507808685303 0.32747182250022888 0.14367793500423431
0.014851394109427929 0.37644726037979126 0.21874794363975525
0.089200101792812347 0.3808988630771637 0.21720497310161591
0.34948861598968506 0.40980476140975952 0.19320937991142273
0.61287063360214233 0.40903070569038391 0.16961430013179779
0.7682463526725769 0.39013928174972534 0.16596896946430206
0.89485561847686768 0.40784385800361633 0.15625756978988647
0.99388319253921509 0.45208403468132019 0.17176468670368195
0.065448582172393799 0.56884241104125977 0.29496172070503235
0.11893699318170547 0.56343168020248413 0.28554251790046692
0.30965229868888855 0.56510746479034424 0.26989319920539856
0.5694655179977417 0.61197876930236816 0.23244012892246246
0.7787049412727356 0.61640280485153198 0.20458416640758514
0.91537213325500488 0.59629666805267334 0.21102143824100494
0.9963342547416687 0.5958099365234375 0.24045915901660919
0.20219838619232178 0.72164416313171387 0.38847628235816956
0.2550446093082428 0.71689611673355103 0.38329526782035828
0.36747482419013977 0.71054929494857788 0.37699970602989197
0.52280455827713013 0.72565340995788574 0.36419254541397095
0.71943658590316772 0.7668803334236145 0.34259790182113647
0.89658313989639282 0.79149597883224487 0.3312930166721344
0.99530535936355591 0.77145481109619141 0.35829249024391174
0.41737926006317139 0.85318624973297119 0.52797454595565796
0.44365832209587097 0.85114198923110962 0.52660709619522095
0.49600258469581604 0.84377944469451904 0.52366238832473755
0.57742011547088623 0.84655916690826416 0.51678884029388428
0.69551926851272583 0.86593508720397949 0.51058012247085571
0.84324920177459717 0.89278429746627808 0.50798100233078003
0.97890663146972656 0.91016888618469238 0.51020932197570801
0.63203448057174683 0.95159673690795898 0.70359903573989868
0.6438944935798645 0.95206469297409058 0.70455431938171387
0.66395092010498047 0.94865810871124268 0.70336776971817017
0.70060771703720093 0.94769316911697388 0.70346242189407349
0.75171220302581787 0.95344644784927368 0.69824153184890747
0.83396857976913452 0.96277862787246704 0.70344322919845581
0.92723757028579712 0.97140246629714966 0.70192515850067139
0.038100685924291611 0.10192010551691055 0.30388009548187256
0.14650556445121765 0.10459205508232117 0.3097069263458252
0.32368731498718262 0.11450842767953873 0.32500985264778137
0.556956946849823 0.10992008447647095 0.34346774220466614
0.75549423694610596 0.073725052177906036 0.3201751708984375
0.88394522666931152 0.089315034449100494 0.28323614597320557
0.98988103866577148 0.23315735161304474 0.29159688949584961
0.001612435095012188 0.17755602300167084 0.32712039351463318
0.12916359305381775 0.19213753938674927 0.3349514901638031
0.35152292251586914 0.21976388990879059 0.34782510995864868
0.57721221446990967 0.21979591250419617 0.34753313660621643
0.74655324220657349 0.21711908280849457 0.32616439461708069
0.87593412399291992 0.24694445729255676 0.30664792656898499
0.98707407712936401 0.32290980219841003 0.3086276650428772
0.012551595456898212 0.39458924531936646 0.38293036818504333
0.14375816285610199 0.39511340856552124 0.38704809546470642
0.38979768753051758 0.40016061067581177 0.38618522882461548
0.5978667140007019 0.40068113803863525 0.3727739155292511
0.74538791179656982 0.39502754807472229 0.35056978464126587
0.87464451789855957 0.41166207194328308 0.33544653654098511
0.98994487524032593 0.4558684229850769 0.3402647078037262
0.27646651864051819 0.59613180160522461 0.46573266386985779
0.35862001776695251 0.59295195341110229 0.46171966195106506
0.4381428062915802 0.57937276363372803 0.44245868921279907
0.58896481990814209 0.59858763217926025 0.41938158869743347
0.77198159694671631 0.60213589668273926 0.40478900074958801
0.89685934782028198 0.58596664667129517 0.39490786194801331
0.99288934469223022 0.60208404064178467 0.39908936619758606
0.40258133411407471 0.73537284135818481 0.52696895599365234
0.41888871788978577 0.73504835367202759 0.51979416608810425
0.46686944365501404 0.72154313325881958 0.50295025110244751
0.55672991275787354 0.7201647162437439 0.48620277643203735
0.727866530418396 0.76113021373748779 0.48577037453651428
0.89276587963104248 0.78369444608688354 0.48062536120414734
0.99434065818786621 0.76604902744293213 0.48481416702270508
0.51266109943389893 0.8576626181602478 0.61711162328720093
0.52533620595932007 0.85443711280822754 0.61329066753387451
0.5552024245262146 0.84824305772781372 0.60580641031265259
0.6107444167137146 0.8455277681350708 0.59674990177154541
0.70941638946533203 0.85989522933959961 0.59373766183853149
0.84231919050216675 0.88482898473739624 0.59744846820831299
0.9753231406211853 0.90802460908889771 0.60396504402160645
0.66511261463165283 0.95147413015365601 0.74254286289215088
0.66843229532241821 0.95154297351837158 0.73961442708969116
0.68747073411941528 0.94874709844589233 0.74044430255889893
0.72199118137359619 0.94676393270492554 0.74333411455154419
0.76644748449325562 0.95079082250595093 0.73716884851455688
0.84224677085876465 0.95970278978347778 0.74320721626281738
0.93033754825592041 0.96965819597244263 0.74439150094985962
0.023868067190051079 0.10440051555633545 0.49619093537330627
0.15171405673027039 0.10908613353967667 0.50655800104141235
0.36826828122138977 0.12387979775667191 0.51822251081466675
0.56666308641433716 0.14230848848819733 0.52611267566680908
0.75038826465606689 0.20290675759315491 0.53905403614044189
0.90412896871566772 0.26753473281860352 0.53702276945114136
0.9964795708656311 0.29030090570449829 0.50622332096099854
0.00014163747255224735 0.18972991406917572 0.51460826396942139
0.15118314325809479 0.20294290781021118 0.52810811996459961
0.39369454979896545 0.22751297056674957 0.53705328702926636
0.58669215440750122 0.25777477025985718 0.54371809959411621
0.75671684741973877 0.30704545974731445 0.55009841918945312
0.89873355627059937 0.34472694993019104 0.53902095556259155
0.99496400356292725 0.34467390179634094 0.50305759906768799
0 0.35180652141571045 0.5362929105758667
0.080439895391464233 0.3582230806350708 0.54130595922470093
0.39857074618339539 0.38871714472770691 0.54899191856384277
0.59912419319152832 0.42712342739105225 0.55724549293518066
0.75137138366699219 0.44805648922920227 0.55871737003326416
0.88531321287155151 0.44012939929962158 0.52862435579299927
0.98973554372787476 0.44287851452827454 0.50235211849212646
0.21163703501224518 0.59484362602233887 0.59169179201126099
0.32872441411018372 0.58996021747589111 0.59070843458175659
0.46525469422340393 0.5825042724609375 0.58264988660812378
0.60557079315185547 0.58064860105514526 0.57514828443527222
0.74804079532623291 0.58076053857803345 0.56213998794555664
0.87369656562805176 0.57253187894821167 0.53882396221160889
0.9843822717666626 0.5923885703086853 0.53149044513702393
0.50736314058303833 0.76028215885162354 0.66117984056472778
0.5416557788848877 0.76094132661819458 0.66152900457382202
0.58854413032531738 0.75126510858535767 0.65033155679702759
0.6275639533996582 0.73019981384277344 0.6259305477142334
0.74516028165817261 0.75542062520980835 0.6206853985786438
0.88560891151428223 0.76579028367996216 0.61479276418685913
0.9860042929649353 0.74766004085540771 0.60283946990966797
0.62742704153060913 0.87024390697479248 0.72986441850662231
0.63367116451263428 0.86540365219116211 0.72831690311431885
0.65099573135375977 0.86115145683288574 0.71825963258743286
0.66527312994003296 0.85440576076507568 0.69266992807388306
0.72970736026763916 0.85714000463485718 0.68479818105697632
0.85487562417984009 0.88921922445297241 0.6966741681098938
0.9650113582611084 0.89071822166442871 0.69693809747695923
0.72973078489303589 0.95435047149658203 0.8074687123298645
0.73073744773864746 0.9531862735748291 0.80592888593673706
0.7356114387512207 0.95276087522506714 0.80095922946929932
0.75227028131484985 0.94873213768005371 0.7944144606590271
0.78519213199615479 0.95039969682693481 0.78779894113540649
0.85021543502807617 0.95942062139511108 0.79094719886779785
0.93512743711471558 0.96850734949111938 0.79497486352920532
0.10775177925825119 0.11246810853481293 0.67400443553924561
0.22379425168037415 0.11658003926277161 0.68132340908050537
0.41537940502166748 0.13134270906448364 0.68486875295639038
0.59908574819564819 0.17972461879253387 0.68717706203460693
0.75076651573181152 0.24273735284805298 0.68910568952560425
0.88623529672622681 0.33176043629646301 0.70696192979812622
0.9921412467956543 0.46461373567581177 0.72164338827133179
0.067603074014186859 0.20535925030708313 0.68358463048934937
0.23616917431354523 0.21336330473423004 0.6905556321144104
0.43537607789039612 0.22986261546611786 0.69240695238113403
0.61487358808517456 0.28494429588317871 0.69606459140777588
0.75917500257492065 0.33696421980857849 0.69850748777389526
0.88264298439025879 0.40689167380332947 0.7084919810295105
0.98998701572418213 0.51537197828292847 0.72785681486129761
0.020277958363294601 0.33923837542533875 0.68201518058776855
0.20580171048641205 0.35604780912399292 0.68841075897216797
0.43574559688568115 0.38216465711593628 0.69329196214675903
0.6158110499382019 0.42352709174156189 0.70109927654266357
0.75586247444152832 0.47298157215118408 0.71149057149887085
0.87855398654937744 0.53218263387680054 0.7271878719329834
0.98479866981506348 0.58355468511581421 0.72374248504638672
0.055316939949989319 0.52518570423126221 0.69013810157775879
0.16674202680587769 0.52403753995895386 0.69180816411972046
0.38993337750434875 0.52618664503097534 0.69150829315185547
0.59474003314971924 0.55720174312591553 0.70217376947402954
0.75050795078277588 0.60503458976745605 0.71524703502655029
0.87385368347167969 0.64788156747817993 0.73091632127761841
0.98193454742431641 0.63586008548736572 0.70453506708145142
0.43358740210533142 0.74420362710952759 0.74996298551559448
0.48505297303199768 0.74801516532897949 0.74985718727111816
0.55242794752120972 0.7428596019744873 0.74377173185348511
0.64529269933700562 0.73595893383026123 0.7406848669052124
0.75043904781341553 0.73830437660217285 0.73506844043731689
0.86839711666107178 0.74581927061080933 0.7308880090713501
0.97321462631225586 0.73385196924209595 0.70890146493911743
0.6698564887046814 0.88306611776351929 0.8152930736541748
0.68759024143218994 0.88542664051055908 0.81703752279281616
0.72577285766601562 0.88461029529571533 0.81941723823547363
0.75383502244949341 0.87672191858291626 0.80806195735931396
0.77941840887069702 0.86145371198654175 0.78790158033370972
0.86268854141235352 0.87830561399459839 0.78466969728469849
0.96851670742034912 0.88390523195266724 0.78607916831970215
0.7866356372833252 0.95985442399978638 0.87280833721160889
0.79032903909683228 0.95625501871109009 0.87414729595184326
0.80004465579986572 0.95562458038330078 0.87280416488647461
0.81379657983779907 0.9558870792388916 0.86652481555938721
0.8267022967338562 0.95338565111160278 0.85459321737289429
0.86767292022705078 0.95736050605773926 0.84910750389099121
0.94667172431945801 0.9693867564201355 0.85495865345001221
0.28520447015762329 0.1433551162481308 0.83248472213745117
0.36642163991928101 0.15413931012153625 0.83278506994247437
0.49951410293579102 0.17281389236450195 0.83167791366577148
0.65074515342712402 0.23570786416530609 0.83461201190948486
0.7864990234375 0.33814465999603271 0.83672255277633667
0.89473354816436768 0.40947467088699341 0.83653932809829712
0.98331105709075928 0.4816630482673645 0.83554255962371826
0.28473973274230957 0.23365923762321472 0.83286899328231812
0.37735053896903992 0.24211025238037109 0.83459615707397461
0.51068991422653198 0.26763263344764709 0.83473420143127441
0.65445762872695923 0.31726637482643127 0.83615171909332275
0.783363938331604 0.39432996511459351 0.83677655458450317
0.89267325401306152 0.45984041690826416 0.83924341201782227
0.98680317401885986 0.52947723865509033 0.84782058000564575
0.26188921928405762 0.36674794554710388 0.82965856790542603
0.35906389355659485 0.37257471680641174 0.83009922504425049
0.50866019725799561 0.39629271626472473 0.8331262469291687
0.64984214305877686 0.43676289916038513 0.83494746685028076
0.78032791614532471 0.50576341152191162 0.83786940574645996
0.88309669494628906 0.56187349557876587 0.84033775329589844
0.97262585163116455 0.61299127340316772 0.84653711318969727
0.068613998591899872 0.48706358671188354 0.82149523496627808
0.20481348037719727 0.49263870716094971 0.82310456037521362
0.41819706559181213 0.51117205619812012 0.82474642992019653
0.6142507791519165 0.55123144388198853 0.83100384473800659
0.76973927021026611 0.61335223913192749 0.83955532312393188
0.87706083059310913 0.66795343160629272 0.84995859861373901
0.96662783622741699 0.71056407690048218 0.85994958877563477
0.27088245749473572 0.69387495517730713 0.83613842725753784
0.31732237339019775 0.68958330154418945 0.8370850682258606
0.41541159152984619 0.67700284719467163 0.83320087194442749
0.55434912443161011 0.67297458648681641 0.82892686128616333
0.73523789644241333 0.71422678232192993 0.83767855167388916
0.8663029670715332 0.76976341009140015 0.8535493016242981
0.95797735452651978 0.80080687999725342 0.86180061101913452
0.59758597612380981 0.86925435066223145 0.87406808137893677
0.62167501449584961 0.8711962103843689 0.87843042612075806
0.66134285926818848 0.8705134391784668 0.87864238023757935
0.72340911626815796 0.87043923139572144 0.87699377536773682
0.7872803807258606 0.86443853378295898 0.8722192645072937
0.87073624134063721 0.86830383539199829 0.87073510885238647
0.95966875553131104 0.86841970682144165 0.86349445581436157
0.81395262479782104 0.96566450595855713 0.92394006252288818
0.8183625340461731 0.96309316158294678 0.92154574394226074
0.83482480049133301 0.96350002288818359 0.92420631647109985
0.86123943328857422 0.96287983655929565 0.92564952373504639
0.88479006290435791 0.96348005533218384 0.92258661985397339
0.90036958456039429 0.96065276861190796 0.91289651393890381
0.95951741933822632 0.97159105539321899 0.91636085510253906
0.50255304574966431 0.28977280855178833 0.96294426918029785
0.54570460319519043 0.30156821012496948 0.96269339323043823
0.62356758117675781 0.32472139596939087 0.95744436979293823
0.7270958423614502 0.38013544678688049 0.95583349466323853
0.82707846164703369 0.458049476146698 0.95262128114700317
0.91360920667648315 0.55999481678009033 0.9504770040512085
0.99004632234573364 0.61438536643981934 0.95029991865158081
0.4974118173122406 0.34782740473747253 0.95867407321929932
0.54734581708908081 0.35662418603897095 0.96115195751190186
0.62518316507339478 0.38797417283058167 0.95939189195632935
0.72552269697189331 0.43382632732391357 0.95673191547393799
0.82248580455780029 0.49600651860237122 0.95247781276702881
0.9117361307144165 0.59087234735488892 0.94833391904830933
0.9917176365852356 0.63429594039916992 0.95109611749649048
0.48416221141815186 0.44314119219779968 0.95688658952713013
0.53542125225067139 0.45261207222938538 0.95750653743743896
0.61547309160232544 0.47494757175445557 0.95739853382110596
0.71698415279388428 0.51167052984237671 0.9563407301902771
0.81606942415237427 0.56988590955734253 0.95197337865829468
0.90405774116516113 0.65168493986129761 0.94786655902862549
0.98490804433822632 0.6881411075592041 0.94992107152938843
0.3768000602722168 0.53661066293716431 0.95855438709259033
0.44658356904983521 0.54483789205551147 0.95766717195510864
0.56425195932388306 0.56836473941802979 0.95723038911819458
0.68804490566253662 0.60162842273712158 0.95722341537475586
0.80310744047164917 0.65367323160171509 0.95298105478286743
0.89672321081161499 0.7171749472618103 0.94869178533554077
0.97761893272399902 0.7491004467010498 0.95144528150558472
0.27920413017272949 0.6678459644317627 0.95336836576461792
0.30642059445381165 0.66417443752288818 0.9541441798210144
0.43140682578086853 0.66216665506362915 0.95466780662536621
0.60970622301101685 0.68689239025115967 0.95467555522918701
0.77157431840896606 0.73490673303604126 0.95308715105056763
0.88622212409973145 0.78762978315353394 0.95075887441635132
0.96949571371078491 0.82595086097717285 0.95231956243515015
0.53674888610839844 0.84406161308288574 0.95303463935852051
0.5473858118057251 0.84533584117889404 0.95542258024215698
0.584644615650177 0.83952391147613525 0.95338314771652222
0.64212512969970703 0.83734071254730225 0.9563632607460022
0.73831367492675781 0.83531695604324341 0.95245587825775146
0.85497140884399414 0.85375458002090454 0.95351463556289673
0.96404629945755005 0.89948374032974243 0.9604303240776062
0.75561553239822388 0.96260231733322144 0.96410542726516724
0.76703512668609619 0.96276509761810303 0.96549993753433228
0.79010766744613647 0.96404522657394409 0.96814095973968506
0.82128524780273438 0.96386611461639404 0.96808147430419922
0.86469066143035889 0.96476095914840698 0.97108989953994751
0.91155582666397095 0.96428269147872925 0.96969574689865112
0.98046457767486572 0.9759981632232666 0.98037570714950562
