films/fuji_astia_100f.cube
# Created by: G'MIC (https://gmic.eu)
TITLE "fuji_astia_100f"
# LUT size
LUT_3D_SIZE 5
# Data domain
DOMAIN_MIN 0.0 0.0 0.0
DOMAIN_MAX 1.0 1.0 1.0
# LUT data points
0.042250197380781174 0.040831308811903 0.03519134595990181
0.2510426938533783 0.029815748333930969 0.023672500625252724
0.49411395192146301 0.026728462427854538 0.028212379664182663
0.74420797824859619 0.050774160772562027 0.068175248801708221
0.96781504154205322 0.084653414785861969 0.13181139528751373
0.13286489248275757 0.2756589949131012 0.15144439041614532
0.3138653039932251 0.27207177877426147 0.1387404203414917
0.55074578523635864 0.24555808305740356 0.12412600219249725
0.78404128551483154 0.157469242811203 0.1005631685256958
0.98171955347061157 0.085356570780277252 0.11334177851676941
0.26628148555755615 0.51993691921234131 0.24490860104560852
0.41709312796592712 0.52354133129119873 0.22866784036159515
0.64696264266967773 0.52161037921905518 0.21017259359359741
0.87877380847930908 0.4963400661945343 0.22686274349689484
0.99998599290847778 0.38158255815505981 0.24722525477409363
0.399740070104599 0.73911553621292114 0.36591103672981262
0.52051472663879395 0.74447691440582275 0.34867867827415466
0.73346614837646484 0.75705099105834961 0.31844475865364075
0.98607879877090454 0.76239770650863647 0.27093732357025146
1 0.73332434892654419 0.30199867486953735
0.55576401948928833 0.8976980447769165 0.42191797494888306
0.65535056591033936 0.91498780250549316 0.42722812294960022
0.82447928190231323 0.93785750865936279 0.42238086462020874
0.9820442795753479 0.94435101747512817 0.37777858972549438
1 0.93779498338699341 0.31290674209594727
0.0096916798502206802 0.027234096080064774 0.16060653328895569
0.21440510451793671 0.019397033378481865 0.14534276723861694
0.45530247688293457 0.021842656657099724 0.1405026912689209
0.70976388454437256 0.037827242165803909 0.15287631750106812
0.93276900053024292 0.063787288963794708 0.18917600810527802
0.085338175296783447 0.26835009455680847 0.27203211188316345
0.26226410269737244 0.26084774732589722 0.25997355580329895
0.4990260899066925 0.22748404741287231 0.23700396716594696
0.74329447746276855 0.15603066980838776 0.19862550497055054
0.95808935165405273 0.088184967637062073 0.18594564497470856
0.24117583036422729 0.52038085460662842 0.32585227489471436
0.37770336866378784 0.52236473560333252 0.32392549514770508
0.58984494209289551 0.5196911096572876 0.34099704027175903
0.82009649276733398 0.49412369728088379 0.34995841979980469
0.99481314420700073 0.37020754814147949 0.32735684514045715
0.45405134558677673 0.74206733703613281 0.36068224906921387
0.55698347091674805 0.74924290180206299 0.34958928823471069
0.76003289222717285 0.75981408357620239 0.32381466031074524
0.94867199659347534 0.76050043106079102 0.341513991355896
1 0.72947078943252563 0.43814268708229065
0.60075217485427856 0.91884660720825195 0.44461521506309509
0.69595468044281006 0.92656755447387695 0.42808923125267029
0.86174929141998291 0.9411618709564209 0.40408074855804443
0.99982011318206787 0.9554750919342041 0.38025277853012085
0.99992460012435913 0.96079689264297485 0.3366798460483551
0.0096942530944943428 0.019552821293473244 0.27120533585548401
0.19070379436016083 0.014314599335193634 0.25344064831733704
0.43109151721000671 0.016381537541747093 0.23874601721763611
0.68571841716766357 0.048706129193305969 0.24746416509151459
0.91460889577865601 0.083974190056324005 0.27136147022247314
0.070117011666297913 0.25142541527748108 0.39959606528282166
0.22736570239067078 0.23793543875217438 0.38237804174423218
0.46290117502212524 0.20448076725006104 0.34542378783226013
0.70297884941101074 0.11957491934299469 0.28036051988601685
0.92409992218017578 0.085054911673069 0.26828911900520325
0.11726652830839157 0.51521211862564087 0.52023059129714966
0.26855337619781494 0.51388347148895264 0.52171701192855835
0.50911879539489746 0.50760173797607422 0.50869005918502808
0.74963760375976562 0.47877109050750732 0.48599043488502502
0.95678699016571045 0.34294527769088745 0.41707733273506165
0.37775325775146484 0.74595850706100464 0.5169445276260376
0.46576935052871704 0.7489011287689209 0.53369331359863281
0.64280420541763306 0.75568193197250366 0.54396051168441772
0.83590090274810791 0.75601983070373535 0.5857928991317749
0.99217492341995239 0.72004437446594238 0.60932481288909912
0.6868443489074707 0.9302254319190979 0.42686963081359863
0.76774626970291138 0.93581581115722656 0.40723633766174316
0.89997941255569458 0.94735264778137207 0.40946534276008606
0.99988728761672974 0.96343165636062622 0.37570568919181824
0.9997592568397522 0.9690934419631958 0.39414766430854797
0.055390916764736176 0.002881726948544383 0.35958060622215271
0.20800232887268066 0.0050456775352358818 0.34902405738830566
0.42266342043876648 0.028312832117080688 0.3451811671257019
0.66572093963623047 0.054206877946853638 0.33753785490989685
0.8778412938117981 0.073908291757106781 0.33873960375785828
0.1056867241859436 0.21473023295402527 0.49546509981155396
0.23539465665817261 0.19715321063995361 0.4717860221862793
0.45112600922584534 0.15272796154022217 0.42423316836357117
0.68576455116271973 0.090482898056507111 0.36453738808631897
0.90032601356506348 0.084828801453113556 0.34511786699295044
0.085851170122623444 0.50226819515228271 0.65765541791915894
0.25275909900665283 0.5005912184715271 0.6505705714225769
0.48227602243423462 0.49151203036308289 0.62603294849395752
0.71583086252212524 0.44133415818214417 0.57761520147323608
0.92617422342300415 0.29402065277099609 0.4719480574131012
0.21201752126216888 0.740436851978302 0.76530426740646362
0.32747694849967957 0.7447856068611145 0.76664072275161743
0.53055387735366821 0.74939048290252686 0.75972288846969604
0.74425780773162842 0.74586600065231323 0.75079476833343506
0.94901615381240845 0.6948542594909668 0.72379493713378906
0.66635280847549438 0.93987244367599487 0.5683361291885376
0.71810424327850342 0.94196635484695435 0.57209807634353638
0.82386869192123413 0.95092153549194336 0.59806853532791138
0.93327683210372925 0.96199733018875122 0.64513367414474487
0.99950623512268066 0.96138912439346313 0.74446266889572144
0.14123654365539551 0 0.42196470499038696
0.2576795220375061 0.012666260823607445 0.43104973435401917
0.44633567333221436 0.022942770272493362 0.41747909784317017
0.65710413455963135 0.054472457617521286 0.41063284873962402
0.8457944393157959 0.061792336404323578 0.39993485808372498
0.18725864589214325 0.14760203659534454 0.53560853004455566
0.30120766162872314 0.13686253130435944 0.51626014709472656
0.48264771699905396 0.082021035254001617 0.45818823575973511
0.68829846382141113 0.062138874083757401 0.41770780086517334
0.88439333438873291 0.084961622953414917 0.41070351004600525
0.24250128865242004 0.46994116902351379 0.72726857662200928
0.34276619553565979 0.46238890290260315 0.71491652727127075
0.52016866207122803 0.43715208768844604 0.68022894859313965
0.72200697660446167 0.36247232556343079 0.61007678508758545
0.91193991899490356 0.17927005887031555 0.46946865320205688
0.2898222804069519 0.72687572240829468 0.87668395042419434
0.38798487186431885 0.73193109035491943 0.8732532262802124
0.54682248830795288 0.72800576686859131 0.86138945817947388
0.73356032371520996 0.71725624799728394 0.83740746974945068
0.92501717805862427 0.6564558744430542 0.78027462959289551
0.45590224862098694 0.93969374895095825 0.95890349149703979
0.51160383224487305 0.94491064548492432 0.95965540409088135
0.63227880001068115 0.94880133867263794 0.95503038167953491
0.78183287382125854 0.9543185830116272 0.94343084096908569
0.96238052845001221 0.95952516794204712 0.95571684837341309
