films/fuji_neopan_acros_100.cube
# Created by: G'MIC (https://gmic.eu)
TITLE "fuji_neopan_acros_100"
# LUT size
LUT_3D_SIZE 5
# Data domain
DOMAIN_MIN 0.0 0.0 0.0
DOMAIN_MAX 1.0 1.0 1.0
# LUT data points
0.019125292077660561 0.019125292077660561 0.019125292077660561
0.038978606462478638 0.038978606462478638 0.038978606462478638
0.077025063335895538 0.077025063335895538 0.077025063335895538
0.14873164892196655 0.14873164892196655 0.14873164892196655
0.273519366979599 0.273519366979599 0.273519366979599
0.1730973869562149 0.1730973869562149 0.1730973869562149
0.19018800556659698 0.19018800556659698 0.19018800556659698
0.22744289040565491 0.22744289040565491 0.22744289040565491
0.29483702778816223 0.29483702778816223 0.29483702778816223
0.39101532101631165 0.39101532101631165 0.39101532101631165
0.39131373167037964 0.39131373167037964 0.39131373167037964
0.40086454153060913 0.40086454153060913 0.40086454153060913
0.42822521924972534 0.42822521924972534 0.42822521924972534
0.47488301992416382 0.47488301992416382 0.47488301992416382
0.54137051105499268 0.54137051105499268 0.54137051105499268
0.63805204629898071 0.63805204629898071 0.63805204629898071
0.63553923368453979 0.63553923368453979 0.63553923368453979
0.64622223377227783 0.64622223377227783 0.64622223377227783
0.67828667163848877 0.67828667163848877 0.67828667163848877
0.72804915904998779 0.72804915904998779 0.72804915904998779
0.87106657028198242 0.87106657028198242 0.87106657028198242
0.85196280479431152 0.85196280479431152 0.85196280479431152
0.85044944286346436 0.85044944286346436 0.85044944286346436
0.87280005216598511 0.87280005216598511 0.87280005216598511
0.91334730386734009 0.91334730386734009 0.91334730386734009
0.036270543932914734 0.036270543932914734 0.036270543932914734
0.049124773591756821 0.049124773591756821 0.049124773591756821
0.091905243694782257 0.091905243694782257 0.091905243694782257
0.17525012791156769 0.17525012791156769 0.17525012791156769
0.29338005185127258 0.29338005185127258 0.29338005185127258
0.19071073830127716 0.19071073830127716 0.19071073830127716
0.20220761001110077 0.20220761001110077 0.20220761001110077
0.2414400726556778 0.2414400726556778 0.2414400726556778
0.31272172927856445 0.31272172927856445 0.31272172927856445
0.41094720363616943 0.41094720363616943 0.41094720363616943
0.40183702111244202 0.40183702111244202 0.40183702111244202
0.40975311398506165 0.40975311398506165 0.40975311398506165
0.43831330537796021 0.43831330537796021 0.43831330537796021
0.48920366168022156 0.48920366168022156 0.48920366168022156
0.56086605787277222 0.56086605787277222 0.56086605787277222
0.63901174068450928 0.63901174068450928 0.63901174068450928
0.64002048969268799 0.64002048969268799 0.64002048969268799
0.65433239936828613 0.65433239936828613 0.65433239936828613
0.68774133920669556 0.68774133920669556 0.68774133920669556
0.73749691247940063 0.73749691247940063 0.73749691247940063
0.85618871450424194 0.85618871450424194 0.85618871450424194
0.8545340895652771 0.8545340895652771 0.8545340895652771
0.85846388339996338 0.85846388339996338 0.85846388339996338
0.87949424982070923 0.87949424982070923 0.87949424982070923
0.91290837526321411 0.91290837526321411 0.91290837526321411
0.062190592288970947 0.062190592288970947 0.062190592288970947
0.078213393688201904 0.078213393688201904 0.078213393688201904
0.11566919088363647 0.11566919088363647 0.11566919088363647
0.20083364844322205 0.20083364844322205 0.20083364844322205
0.33005887269973755 0.33005887269973755 0.33005887269973755
0.21827369928359985 0.21827369928359985 0.21827369928359985
0.22871164977550507 0.22871164977550507 0.22871164977550507
0.26532566547393799 0.26532566547393799 0.26532566547393799
0.33738267421722412 0.33738267421722412 0.33738267421722412
0.4383867084980011 0.4383867084980011 0.4383867084980011
0.42360797524452209 0.42360797524452209 0.42360797524452209
0.43057951331138611 0.43057951331138611 0.43057951331138611
0.45863023400306702 0.45863023400306702 0.45863023400306702
0.50981718301773071 0.50981718301773071 0.50981718301773071
0.58278399705886841 0.58278399705886841 0.58278399705886841
0.6493372917175293 0.6493372917175293 0.6493372917175293
0.65331202745437622 0.65331202745437622 0.65331202745437622
0.66860687732696533 0.66860687732696533 0.66860687732696533
0.70227217674255371 0.70227217674255371 0.70227217674255371
0.75205647945404053 0.75205647945404053 0.75205647945404053
0.85896283388137817 0.85896283388137817 0.85896283388137817
0.86211812496185303 0.86211812496185303 0.86211812496185303
0.86920034885406494 0.86920034885406494 0.86920034885406494
0.88973438739776611 0.88973438739776611 0.88973438739776611
0.9216386079788208 0.9216386079788208 0.9216386079788208
0.075522616505622864 0.075522616505622864 0.075522616505622864
0.089986316859722137 0.089986316859722137 0.089986316859722137
0.13116483390331268 0.13116483390331268 0.13116483390331268
0.20957586169242859 0.20957586169242859 0.20957586169242859
0.34065264463424683 0.34065264463424683 0.34065264463424683
0.23995624482631683 0.23995624482631683 0.23995624482631683
0.24908480048179626 0.24908480048179626 0.24908480048179626
0.28423601388931274 0.28423601388931274 0.28423601388931274
0.35466033220291138 0.35466033220291138 0.35466033220291138
0.45717179775238037 0.45717179775238037 0.45717179775238037
0.44932436943054199 0.44932436943054199 0.44932436943054199
0.45389395952224731 0.45389395952224731 0.45389395952224731
0.47730815410614014 0.47730815410614014 0.47730815410614014
0.5263095498085022 0.5263095498085022 0.5263095498085022
0.60156720876693726 0.60156720876693726 0.60156720876693726
0.67494189739227295 0.67494189739227295 0.67494189739227295
0.67549294233322144 0.67549294233322144 0.67549294233322144
0.68673235177993774 0.68673235177993774 0.68673235177993774
0.71905851364135742 0.71905851364135742 0.71905851364135742
0.77063685655593872 0.77063685655593872 0.77063685655593872
0.8832736611366272 0.8832736611366272 0.8832736611366272
0.88152956962585449 0.88152956962585449 0.88152956962585449
0.88479655981063843 0.88479655981063843 0.88479655981063843
0.90557831525802612 0.90557831525802612 0.90557831525802612
0.93963664770126343 0.93963664770126343 0.93963664770126343
0.094345316290855408 0.094345316290855408 0.094345316290855408
0.12067870795726776 0.12067870795726776 0.12067870795726776
0.16571691632270813 0.16571691632270813 0.16571691632270813
0.26029184460639954 0.26029184460639954 0.26029184460639954
0.38138690590858459 0.38138690590858459 0.38138690590858459
0.27182638645172119 0.27182638645172119 0.27182638645172119
0.28187358379364014 0.28187358379364014 0.28187358379364014
0.31824049353599548 0.31824049353599548 0.31824049353599548
0.38799881935119629 0.38799881935119629 0.38799881935119629
0.48659256100654602 0.48659256100654602 0.48659256100654602
0.48190248012542725 0.48190248012542725 0.48190248012542725
0.48513677716255188 0.48513677716255188 0.48513677716255188
0.50534635782241821 0.50534635782241821 0.50534635782241821
0.54615521430969238 0.54615521430969238 0.54615521430969238
0.62475252151489258 0.62475252151489258 0.62475252151489258
0.70539158582687378 0.70539158582687378 0.70539158582687378
0.70211422443389893 0.70211422443389893 0.70211422443389893
0.70940417051315308 0.70940417051315308 0.70940417051315308
0.73993867635726929 0.73993867635726929 0.73993867635726929
0.79260152578353882 0.79260152578353882 0.79260152578353882
0.91890466213226318 0.91890466213226318 0.91890466213226318
0.90274506807327271 0.90274506807327271 0.90274506807327271
0.90196293592453003 0.90196293592453003 0.90196293592453003
0.92386764287948608 0.92386764287948608 0.92386764287948608
0.96384602785110474 0.96384602785110474 0.96384602785110474
