films/fuji_neopan_1600_1_-.cube
TITLE "data/luts/rawtherapee/HaldCLUT/Black-and-White/Fuji/Fuji Neopan 1600 1 -.png"
LUT_3D_SIZE 4
DOMAIN_MIN 0 0 0
DOMAIN_MAX 1 1 1
0.039216 0.039216 0.039216
0.050980 0.050980 0.050980
0.224837 0.224837 0.224837
0.517647 0.517647 0.517647
0.138562 0.138562 0.138562
0.221351 0.221351 0.221351
0.416122 0.416122 0.416122
0.641830 0.641830 0.641830
0.460131 0.460131 0.460131
0.481046 0.481046 0.481046
0.606536 0.606536 0.606536
0.843137 0.843137 0.843137
0.921569 0.921569 0.921569
0.928105 0.928105 0.928105
0.956863 0.956863 0.956863
0.996078 0.996078 0.996078
0.058824 0.058824 0.058824
0.154248 0.154248 0.154248
0.298039 0.298039 0.298039
0.513725 0.513725 0.513725
0.209150 0.209150 0.209150
0.339143 0.339143 0.339143
0.436166 0.436166 0.436166
0.650980 0.650980 0.650980
0.547712 0.547712 0.547712
0.567466 0.567466 0.567466
0.657081 0.657081 0.657081
0.862745 0.862745 0.862745
0.932026 0.932026 0.932026
0.941176 0.941176 0.941176
0.960784 0.960784 0.960784
0.996078 0.996078 0.996078
0.307190 0.307190 0.307190
0.390414 0.390414 0.390414
0.512418 0.512418 0.512418
0.678431 0.678431 0.678431
0.431808 0.431808 0.431808
0.492520 0.492520 0.492520
0.610458 0.610458 0.610458
0.744227 0.744227 0.744227
0.572985 0.572985 0.572985
0.635585 0.635585 0.635585
0.771823 0.771823 0.771823
0.873203 0.873203 0.873203
0.952941 0.952941 0.952941
0.964706 0.964706 0.964706
0.979085 0.979085 0.979085
1.000000 1.000000 1.000000
0.772549 0.772549 0.772549
0.803922 0.803922 0.803922
0.882353 0.882353 0.882353
0.941176 0.941176 0.941176
0.806536 0.806536 0.806536
0.833987 0.833987 0.833987
0.900654 0.900654 0.900654
0.952941 0.952941 0.952941
0.767320 0.767320 0.767320
0.826580 0.826580 0.826580
0.928976 0.928976 0.928976
0.985621 0.985621 0.985621
0.964706 0.964706 0.964706
0.972549 0.972549 0.972549
0.989542 0.989542 0.989542
1.000000 1.000000 1.000000
