films/fuji_fp-100c.cube
# Created by: G'MIC (https://gmic.eu)
TITLE "fuji_fp-100c"
# LUT size
LUT_3D_SIZE 7
# Data domain
DOMAIN_MIN 0.0 0.0 0.0
DOMAIN_MAX 1.0 1.0 1.0
# LUT data points
0.045733433216810226 0.065497666597366333 0.077331200242042542
0.14206266403198242 0.061366166919469833 0.075078986585140228
0.33175283670425415 0.039328526705503464 0.08311278373003006
0.53277993202209473 0.014092538505792618 0.083728224039077759
0.72399824857711792 0.014735711738467216 0.08339410275220871
0.87325888872146606 0.032890170812606812 0.088585808873176575
0.99018019437789917 0.11869270354509354 0.098737142980098724
0.043987199664115906 0.14777861535549164 0.084946334362030029
0.17009361088275909 0.15164269506931305 0.077239230275154114
0.37216529250144958 0.15808539092540741 0.0723700150847435
0.57499760389328003 0.15157558023929596 0.080753996968269348
0.75045406818389893 0.14688976109027863 0.080819644033908844
0.88775801658630371 0.1887909322977066 0.089719973504543304
0.99068647623062134 0.24750961363315582 0.10443127155303955
0.0063707390800118446 0.33596697449684143 0.099341824650764465
0.16935504972934723 0.3386417031288147 0.086514309048652649
0.38306969404220581 0.365692138671875 0.028898231685161591
0.59683287143707275 0.37496241927146912 0.024261459708213806
0.77598762512207031 0.38505110144615173 0.068792931735515594
0.9001808762550354 0.39399251341819763 0.097364060580730438
0.99165636301040649 0.4169401228427887 0.1307055652141571
0.0054822885431349277 0.5039408802986145 0.10299444943666458
0.13052627444267273 0.49683403968811035 0.10626745969057083
0.34235277771949768 0.50829088687896729 0.064430072903633118
0.54596686363220215 0.53167116641998291 0.0098151415586471558
0.74000954627990723 0.54266679286956787 0.0040525849908590317
0.89425754547119141 0.55706143379211426 0.05784282460808754
0.9938347339630127 0.57545709609985352 0.16730180382728577
0.037460312247276306 0.63895601034164429 0.14594066143035889
0.11836474388837814 0.63750439882278442 0.13216604292392731
0.33640018105506897 0.63041627407073975 0.11479967832565308
0.49857178330421448 0.64927393198013306 0.040483273565769196
0.69096416234970093 0.67241692543029785 0.0097015528008341789
0.85645425319671631 0.68127256631851196 0.004314168356359005
0.98375970125198364 0.70196348428726196 0.053937125951051712
0.12561653554439545 0.77460628747940063 0.20430925488471985
0.22707043588161469 0.76897841691970825 0.20077715814113617
0.38885819911956787 0.7630731463432312 0.20101670920848846
0.52392315864562988 0.77044165134429932 0.16798828542232513
0.68169957399368286 0.78924518823623657 0.093168623745441437
0.83798724412918091 0.8049653172492981 0.030059156939387321
0.97545391321182251 0.81445133686065674 0.0062020695768296719
0.43616595864295959 0.91817766427993774 0.40409734845161438
0.48193198442459106 0.9197542667388916 0.40521469712257385
0.56186044216156006 0.91522479057312012 0.40811040997505188
0.66637754440307617 0.91664993762969971 0.41979345679283142
0.77305430173873901 0.92619955539703369 0.39847958087921143
0.88308453559875488 0.93661117553710938 0.35240665078163147
0.98822039365768433 0.9423755407333374 0.23358184099197388
0.054633017629384995 0.062554724514484406 0.16664326190948486
0.17958395183086395 0.041448570787906647 0.17729857563972473
0.3277372419834137 0.054051835089921951 0.18336062133312225
0.5339539647102356 0.014822043478488922 0.19011443853378296
0.72482132911682129 0.012189214117825031 0.19084906578063965
0.86977899074554443 0.042167123407125473 0.18700000643730164
0.99103820323944092 0.13933572173118591 0.19430464506149292
0.060720779001712799 0.1596037894487381 0.19019521772861481
0.19928021728992462 0.17188218235969543 0.20096318423748016
0.39329749345779419 0.1822819858789444 0.20330838859081268
0.58419418334960938 0.17392630875110626 0.20078659057617188
0.74705588817596436 0.18064278364181519 0.20710177719593048
0.88256895542144775 0.20137597620487213 0.20055347681045532
0.9923548698425293 0.25794863700866699 0.20347835123538971
0.012790724635124207 0.37704762816429138 0.22745606303215027
0.19366583228111267 0.37404659390449524 0.21695943176746368
0.40945294499397278 0.38855671882629395 0.18865117430686951
0.61352401971817017 0.39349445700645447 0.19112648069858551
0.77642309665679932 0.39991813898086548 0.22034579515457153
0.89793092012405396 0.40565279126167297 0.22310847043991089
0.99154520034790039 0.4280318021774292 0.23442894220352173
0.013322718441486359 0.54030627012252808 0.23725935816764832
0.15485507249832153 0.53102689981460571 0.22491072118282318
0.37006509304046631 0.52787065505981445 0.20819787681102753
0.56475549936294556 0.54801362752914429 0.14734119176864624
0.75481122732162476 0.55457824468612671 0.14114569127559662
0.89487111568450928 0.56950122117996216 0.20988379418849945
0.99044495820999146 0.58808821439743042 0.27692544460296631
0.018995007500052452 0.66374850273132324 0.23507164418697357
0.17580777406692505 0.65475201606750488 0.24105736613273621
0.35785079002380371 0.64619368314743042 0.23109221458435059
0.51606088876724243 0.66136497259140015 0.18699294328689575
0.69713723659515381 0.67893809080123901 0.10445384681224823
0.86157351732254028 0.6889345645904541 0.060180183500051498
0.98904335498809814 0.71244186162948608 0.21458730101585388
0.12539732456207275 0.78520816564559937 0.27851712703704834
0.25068977475166321 0.78135937452316284 0.2857092022895813
0.39681476354598999 0.77247291803359985 0.27464833855628967
0.53285306692123413 0.77724707126617432 0.25716090202331543
0.68356674909591675 0.79323983192443848 0.20197317004203796
0.83637064695358276 0.80330848693847656 0.098596923053264618
0.97709959745407104 0.81737565994262695 0.038620997220277786
0.44020754098892212 0.92333626747131348 0.44400206208229065
0.47866016626358032 0.92333090305328369 0.44259411096572876
0.56132793426513672 0.91835653781890869 0.4463779628276825
0.66452854871749878 0.91858500242233276 0.45522934198379517
0.76941412687301636 0.92621350288391113 0.43247371912002563
0.88233417272567749 0.93697679042816162 0.4003070592880249
0.97754758596420288 0.94430387020111084 0.32641744613647461
0.076799310743808746 0.053931053727865219 0.34137701988220215
0.23672196269035339 0.014354122802615166 0.37440359592437744
0.4599553644657135 0.0088603300973773003 0.40817224979400635
0.54058778285980225 0.07089562714099884 0.3681226372718811
0.69737386703491211 0.077504925429821014 0.35924112796783447
0.85779023170471191 0.046211421489715576 0.34196382761001587
0.9846651554107666 0.09081624448299408 0.32829824090003967
0.069125093519687653 0.16679973900318146 0.35086652636528015
0.23219896852970123 0.16648417711257935 0.38202419877052307
0.47062593698501587 0.15216358006000519 0.42437982559204102
0.56612658500671387 0.22175547480583191 0.3905479907989502
0.72797262668609619 0.21751964092254639 0.37519863247871399
0.87046396732330322 0.19692377746105194 0.35397195816040039
0.98867857456207275 0.25330984592437744 0.34512495994567871
0.070992998778820038 0.3810431957244873 0.41063514351844788
0.23388828337192535 0.396564781665802 0.41773366928100586
0.45355260372161865 0.4287753701210022 0.43546447157859802
0.61846941709518433 0.43064048886299133 0.4236808717250824
0.76293230056762695 0.42168799042701721 0.40607640147209167
0.88441795110702515 0.41773992776870728 0.38664013147354126
0.99091005325317383 0.43229618668556213 0.37409859895706177
0.072610728442668915 0.58470457792282104 0.44906657934188843
0.2521965503692627 0.58257657289505005 0.44156098365783691
0.42861652374267578 0.57863688468933105 0.42406028509140015
0.59690457582473755 0.58090668916702271 0.39424282312393188
0.77046388387680054 0.58509373664855957 0.40455880761146545
0.89162564277648926 0.58982235193252563 0.4210420548915863
0.98294538259506226 0.5944901704788208 0.4235537052154541
0.14150179922580719 0.70264351367950439 0.42654013633728027
0.23825304210186005 0.69706565141677856 0.4150356650352478
0.39868664741516113 0.68368285894393921 0.40341773629188538
0.54995447397232056 0.68144553899765015 0.38436579704284668
0.71714317798614502 0.69455039501190186 0.34662625193595886
0.86856973171234131 0.70353645086288452 0.34096014499664307
0.98219454288482666 0.72331744432449341 0.40920740365982056
0.16654853522777557 0.80714839696884155 0.41924282908439636
0.25907531380653381 0.80061733722686768 0.41553327441215515
0.40968808531761169 0.79234534502029419 0.40963301062583923
0.55100417137145996 0.79004114866256714 0.40433153510093689
0.69909286499023438 0.79816454648971558 0.36816662549972534
0.84238570928573608 0.80959451198577881 0.31769850850105286
0.97925668954849243 0.82171469926834106 0.27807095646858215
0.42945048213005066 0.93270695209503174 0.52603530883789062
0.47064286470413208 0.92948788404464722 0.52197122573852539
0.55631482601165771 0.92590975761413574 0.52284711599349976
0.65947574377059937 0.92328393459320068 0.53075671195983887
0.77141714096069336 0.92771446704864502 0.51968646049499512
0.87762302160263062 0.93526279926300049 0.48656964302062988
0.98966830968856812 0.94985747337341309 0.43879285454750061
0.11873795837163925 0.02961437776684761 0.51976311206817627
0.26967927813529968 0.0072604757733643055 0.54611963033676147
0.53425067663192749 0.0042026443406939507 0.61018949747085571
0.7219463586807251 0.0062727537006139755 0.62415808439254761
0.74538236856460571 0.11473524570465088 0.54900670051574707
0.82110273838043213 0.24736560881137848 0.53156906366348267
0.95961743593215942 0.25086283683776855 0.52339750528335571
0.12416320294141769 0.15762557089328766 0.52217334508895874
0.27749282121658325 0.14323531091213226 0.55437707901000977
0.51634180545806885 0.12973104417324066 0.60685175657272339
0.71507209539413452 0.11614550650119781 0.62764114141464233
0.73997747898101807 0.27063000202178955 0.55385047197341919
0.83465969562530518 0.32393717765808105 0.53973597288131714
0.96763497591018677 0.31141853332519531 0.52371090650558472
0.11079616099596024 0.34123769402503967 0.51621550321578979
0.24160827696323395 0.35975027084350586 0.53394359350204468
0.46982482075691223 0.40041571855545044 0.58787268400192261
0.68052881956100464 0.42885118722915649 0.62532711029052734
0.738872230052948 0.46279782056808472 0.5777972936630249
0.85591912269592285 0.44864094257354736 0.55182391405105591
0.97745382785797119 0.41772720217704773 0.51588821411132812
0.17111819982528687 0.55160301923751831 0.57574033737182617
0.28734681010246277 0.56272417306900024 0.58206212520599365
0.46152722835540771 0.59106874465942383 0.59745496511459351
0.63450050354003906 0.62058806419372559 0.615772545337677
0.76579815149307251 0.61535918712615967 0.59859532117843628
0.87523692846298218 0.59625911712646484 0.575458824634552
0.96283125877380371 0.58410340547561646 0.55563312768936157
0.24001650512218475 0.72761684656143188 0.61674785614013672
0.33063414692878723 0.72540056705474854 0.61163967847824097
0.46508347988128662 0.72788143157958984 0.60065162181854248
0.5970337986946106 0.72240793704986572 0.5881229043006897
0.74110215902328491 0.7263370156288147 0.56155592203140259
0.87437433004379272 0.73171591758728027 0.56680589914321899
0.98156511783599854 0.74377846717834473 0.59529507160186768
0.31768032908439636 0.82724499702453613 0.60204362869262695
0.35631024837493896 0.82315987348556519 0.5906262993812561
0.44427281618118286 0.81991046667098999 0.56991672515869141
0.56521415710449219 0.81040686368942261 0.55381649732589722
0.70498812198638916 0.80964672565460205 0.53710222244262695
0.84906238317489624 0.82196909189224243 0.50743985176086426
0.98036116361618042 0.83355879783630371 0.49394619464874268
0.40362542867660522 0.93304479122161865 0.61992752552032471
0.45221808552742004 0.93737363815307617 0.61959528923034668
0.52752721309661865 0.93222713470458984 0.6147458553314209
0.64513880014419556 0.93216270208358765 0.61887049674987793
0.75219613313674927 0.91883748769760132 0.60576075315475464
0.86510705947875977 0.93291217088699341 0.59164011478424072
0.98416590690612793 0.95291745662689209 0.56606012582778931
0.22103071212768555 0.0092981820926070213 0.68828630447387695
0.35360491275787354 0.0084512894973158836 0.70911431312561035
0.53413611650466919 0.0093025211244821548 0.73906391859054565
0.75848633050918579 0.0034087386447936296 0.78169625997543335
0.90015679597854614 0.014869495294988155 0.7805558443069458
0.90267229080200195 0.19893497228622437 0.70868784189224243
0.94601202011108398 0.39157295227050781 0.6967507004737854
0.23464043438434601 0.14701071381568909 0.69044983386993408
0.343147873878479 0.13968828320503235 0.70278704166412354
0.52300620079040527 0.12814843654632568 0.7330315113067627
0.74274784326553345 0.059370405972003937 0.78007674217224121
0.89605343341827393 0.14996461570262909 0.7862555980682373
0.89875781536102295 0.32850956916809082 0.71725517511367798
0.93961846828460693 0.45067161321640015 0.70204281806945801
0.16104760766029358 0.32390305399894714 0.65965074300765991
0.29141414165496826 0.34316053986549377 0.68041771650314331
0.48308014869689941 0.36388912796974182 0.71541506052017212
0.6987956166267395 0.38900226354598999 0.76303976774215698
0.86513108015060425 0.43461284041404724 0.78015404939651489
0.87458264827728271 0.49628600478172302 0.72257333993911743
0.93409824371337891 0.53570723533630371 0.70769858360290527
0.16352313756942749 0.49125736951828003 0.65116328001022339
0.26303255558013916 0.50084549188613892 0.65560036897659302
0.41503468155860901 0.52325707674026489 0.67640519142150879
0.6260218620300293 0.57861530780792236 0.7306067943572998
0.814686119556427 0.62587887048721313 0.76978564262390137
0.85476183891296387 0.63478326797485352 0.73029905557632446
0.95197588205337524 0.61121976375579834 0.70226562023162842
0.29559475183486938 0.68760478496551514 0.71134531497955322
0.35882988572120667 0.69101691246032715 0.71231919527053833
0.48280760645866394 0.70646166801452637 0.72055739164352417
0.62457627058029175 0.73230946063995361 0.73978465795516968
0.77198725938796997 0.76171386241912842 0.75796800851821899
0.86849492788314819 0.75655448436737061 0.74336683750152588
0.96840280294418335 0.73286259174346924 0.71590191125869751
0.37141761183738708 0.84448802471160889 0.7627643346786499
0.42231270670890808 0.8405495285987854 0.75853371620178223
0.51737189292907715 0.8444979190826416 0.75708115100860596
0.6292760968208313 0.84283983707427979 0.74785172939300537
0.73977053165435791 0.83606600761413574 0.72709715366363525
0.8573836088180542 0.84283769130706787 0.71082162857055664
0.97163289785385132 0.85338175296783447 0.71992039680480957
0.50237137079238892 0.94798821210861206 0.78539544343948364
0.52623903751373291 0.9431951642036438 0.77884221076965332
0.58129340410232544 0.94493007659912109 0.7687339186668396
0.64476782083511353 0.94277739524841309 0.74749284982681274
0.75132882595062256 0.93735063076019287 0.73645341396331787
0.86466085910797119 0.93975508213043213 0.72466850280761719
0.97606998682022095 0.95307779312133789 0.70081692934036255
0.37683373689651489 0.01377532072365284 0.83397996425628662
0.44458737969398499 0.0052437577396631241 0.84207034111022949
0.58767920732498169 0.0079066110774874687 0.85786384344100952
0.75072658061981201 0.004764945711940527 0.88001370429992676
0.9368167519569397 0.0031523311045020819 0.9076048731803894
0.99619787931442261 0.040168926119804382 0.89556229114532471
0.99826359748840332 0.34116199612617493 0.83687376976013184
0.36293360590934753 0.15885135531425476 0.82917779684066772
0.43359699845314026 0.13772876560688019 0.83376061916351318
0.5692562460899353 0.096279695630073547 0.85204839706420898
0.74847006797790527 0.083453834056854248 0.8770759105682373
0.92130380868911743 0.078862957656383514 0.90334016084671021
0.99438190460205078 0.21602551639080048 0.89751744270324707
0.99489223957061768 0.42484691739082336 0.84012734889984131
0.30060729384422302 0.33976095914840698 0.80906546115875244
0.38325190544128418 0.34033340215682983 0.81550276279449463
0.53577041625976562 0.35558134317398071 0.83347290754318237
0.70294356346130371 0.36390945315361023 0.86093640327453613
0.8869931697845459 0.39759764075279236 0.89174532890319824
0.9797855019569397 0.46379241347312927 0.88709032535552979
0.9825785756111145 0.54797196388244629 0.83989942073822021
0.11249971389770508 0.4637729823589325 0.76799166202545166
0.23606909811496735 0.46803858876228333 0.77766013145446777
0.42389589548110962 0.4969731867313385 0.79657691717147827
0.63113665580749512 0.5387645959854126 0.83383846282958984
0.83043390512466431 0.58669060468673706 0.87436681985855103
0.94483274221420288 0.62953996658325195 0.87722885608673096
0.96562331914901733 0.66397768259048462 0.84285694360733032
0.18235723674297333 0.63411217927932739 0.78165382146835327
0.26477426290512085 0.63386893272399902 0.7794029712677002
0.38359013199806213 0.64111137390136719 0.78161096572875977
0.53595685958862305 0.6605525016784668 0.79339605569839478
0.75592482089996338 0.71941971778869629 0.84324890375137329
0.91198611259460449 0.77251845598220825 0.87956851720809937
0.94573807716369629 0.7707023024559021 0.84655076265335083
0.37561124563217163 0.79900789260864258 0.82853454351425171
0.42124626040458679 0.80035340785980225 0.82566845417022705
0.5124010443687439 0.80908358097076416 0.83170115947723389
0.62960612773895264 0.82083070278167725 0.83914279937744141
0.75548791885375977 0.84361916780471802 0.85365837812423706
0.88159573078155518 0.87288856506347656 0.87397563457489014
0.96100562810897827 0.8621712327003479 0.85549771785736084
0.5341077446937561 0.94998180866241455 0.89299142360687256
0.54278564453125 0.93605142831802368 0.88437485694885254
0.60999763011932373 0.94746923446655273 0.89231771230697632
0.68934762477874756 0.95226508378982544 0.88744133710861206
0.77673465013504028 0.9535452127456665 0.87591499090194702
0.86377841234207153 0.95029968023300171 0.85482561588287354
0.96705442667007446 0.95526719093322754 0.84162837266921997
0.57357674837112427 0.17156742513179779 0.97030025720596313
0.61112231016159058 0.15507312119007111 0.97051435708999634
0.69119423627853394 0.10563619434833527 0.97214037179946899
0.80594229698181152 0.062412664294242859 0.97631210088729858
0.94816988706588745 0.022688517346978188 0.99065977334976196
0.99690395593643188 0.018134862184524536 0.98785006999969482
1 0.28504770994186401 0.98049932718276978
0.56869566440582275 0.2974294126033783 0.96841347217559814
0.60646921396255493 0.2808590829372406 0.97019654512405396
0.68936145305633545 0.25652459263801575 0.97172969579696655
0.80036216974258423 0.22478704154491425 0.97612226009368896
0.93310010433197021 0.17950898408889771 0.98539727926254272
0.99987894296646118 0.20504958927631378 0.98930740356445312
1 0.3876768946647644 0.98474925756454468
0.53068059682846069 0.43646839261054993 0.95911222696304321
0.56858789920806885 0.42881965637207031 0.96053832769393921
0.64623349905014038 0.41646930575370789 0.95745843648910522
0.77231860160827637 0.42040398716926575 0.97214514017105103
0.90776532888412476 0.42284548282623291 0.97826576232910156
0.99353229999542236 0.44140267372131348 0.9879688024520874
1 0.53045928478240967 0.9824448823928833
0.41306835412979126 0.54867327213287354 0.94474995136260986
0.47226634621620178 0.55099260807037354 0.94600808620452881
0.573569655418396 0.5550156831741333 0.94984465837478638
0.71346211433410645 0.56559997797012329 0.95610779523849487
0.8625214695930481 0.58265119791030884 0.96753698587417603
0.98149943351745605 0.61038726568222046 0.98041677474975586
0.99824005365371704 0.66483443975448608 0.97710400819778442
0.3174293041229248 0.68633186817169189 0.9264405369758606
0.3440399169921875 0.67671531438827515 0.92015910148620605
0.44778302311897278 0.67558974027633667 0.92762500047683716
0.5925743579864502 0.67994946241378784 0.93542259931564331
0.79117774963378906 0.71082174777984619 0.95536589622497559
0.93950724601745605 0.74761247634887695 0.96879184246063232
0.99099153280258179 0.78320455551147461 0.97197192907333374
0.41909340023994446 0.81458556652069092 0.93374180793762207
0.45074012875556946 0.81636554002761841 0.9327508807182312
0.50796610116958618 0.81310784816741943 0.93193626403808594
0.59050470590591431 0.81411081552505493 0.93211287260055542
0.70951217412948608 0.81440776586532593 0.93653076887130737
0.87712943553924561 0.8464769721031189 0.95843505859375
0.98298221826553345 0.88270479440689087 0.9700884222984314
0.59535187482833862 0.93962240219116211 0.960865318775177
0.59174883365631104 0.93082213401794434 0.95071852207183838
0.64863181114196777 0.93965399265289307 0.95768409967422485
0.71445685625076294 0.9440578818321228 0.96021407842636108
0.79585278034210205 0.94919615983963013 0.96364098787307739
0.87872129678726196 0.95410734415054321 0.96406775712966919
0.96636807918548584 0.96599006652832031 0.95020765066146851
