films/fuji_fp-100c.cube
# Created by: G'MIC (https://gmic.eu)
TITLE "fuji_fp-100c"
# LUT size
LUT_3D_SIZE 13
# Data domain
DOMAIN_MIN 0.0 0.0 0.0
DOMAIN_MAX 1.0 1.0 1.0
# LUT data points
0.045733433216810226 0.065497666597366333 0.077331200242042542
0.074973911046981812 0.06614290177822113 0.075197421014308929
0.14206266403198242 0.061366166919469833 0.075078986585140228
0.23171822726726532 0.049687791615724564 0.077428825199604034
0.33175283670425415 0.039328526705503464 0.08311278373003006
0.43568888306617737 0.022611970081925392 0.087393879890441895
0.53277993202209473 0.014092538505792618 0.083728224039077759
0.62804263830184937 0.013975255191326141 0.082320302724838257
0.72399824857711792 0.014735711738467216 0.08339410275220871
0.80066156387329102 0.021001106128096581 0.086765170097351074
0.87325888872146606 0.032890170812606812 0.088585808873176575
0.94447976350784302 0.077321313321590424 0.093658655881881714
0.99018019437789917 0.11869270354509354 0.098737142980098724
0.050405435264110565 0.087220229208469391 0.079861678183078766
0.091051734983921051 0.090054668486118317 0.079967662692070007
0.15625055134296417 0.087953247129917145 0.077132701873779297
0.24941600859165192 0.084218479692935944 0.077548116445541382
0.34581777453422546 0.077147208154201508 0.081583894789218903
0.44587314128875732 0.055036254227161407 0.083957165479660034
0.54651552438735962 0.044152054935693741 0.083418808877468109
0.6494181752204895 0.049153435975313187 0.083237439393997192
0.73470354080200195 0.055788647383451462 0.08326885849237442
0.80824422836303711 0.077381685376167297 0.087477423250675201
0.87786412239074707 0.1037663146853447 0.091234080493450165
0.94826453924179077 0.13503921031951904 0.093818128108978271
0.99140363931655884 0.16272091865539551 0.098745308816432953
0.043987199664115906 0.14777861535549164 0.084946334362030029
0.092779941856861115 0.14736804366111755 0.085034042596817017
0.17009361088275909 0.15164269506931305 0.077239230275154114
0.27117329835891724 0.15614067018032074 0.074020743370056152
0.37216529250144958 0.15808539092540741 0.0723700150847435
0.47375118732452393 0.15479406714439392 0.077865093946456909
0.57499760389328003 0.15157558023929596 0.080753996968269348
0.67057400941848755 0.14509320259094238 0.081025414168834686
0.75045406818389893 0.14688976109027863 0.080819644033908844
0.82028520107269287 0.16940158605575562 0.085773840546607971
0.88775801658630371 0.1887909322977066 0.089719973504543304
0.94917428493499756 0.21300281584262848 0.093565501272678375
0.99068647623062134 0.24750961363315582 0.10443127155303955
0.022143704816699028 0.23762187361717224 0.090460807085037231
0.085152268409729004 0.23619356751441956 0.090593047440052032
0.17635613679885864 0.24474999308586121 0.08007870614528656
0.28106772899627686 0.25736892223358154 0.061773292720317841
0.39050945639610291 0.26672908663749695 0.042611889541149139
0.50138574838638306 0.27439647912979126 0.056612171232700348
0.5989609956741333 0.27703911066055298 0.066425919532775879
0.69050848484039307 0.2762790322303772 0.075802460312843323
0.7675592303276062 0.2773435115814209 0.080361306667327881
0.83295601606369019 0.2853468656539917 0.083959035575389862
0.89707428216934204 0.29403626918792725 0.091561563313007355
0.95480084419250488 0.31034132838249207 0.099478192627429962
0.98641324043273926 0.3288331925868988 0.11068260669708252
0.0063707390800118446 0.33596697449684143 0.099341824650764465
0.06306380033493042 0.33241194486618042 0.095473088324069977
0.16935504972934723 0.3386417031288147 0.086514309048652649
0.27420881390571594 0.35192134976387024 0.06023692712187767
0.38306969404220581 0.365692138671875 0.028898231685161591
0.49628499150276184 0.37412667274475098 0.023524878546595573
0.59683287143707275 0.37496241927146912 0.024261459708213806
0.69658493995666504 0.37915715575218201 0.045858107507228851
0.77598762512207031 0.38505110144615173 0.068792931735515594
0.8400956392288208 0.38876980543136597 0.079238191246986389
0.9001808762550354 0.39399251341819763 0.097364060580730438
0.95686858892440796 0.40389248728752136 0.11262205243110657
0.99165636301040649 0.4169401228427887 0.1307055652141571
0.005228125024586916 0.4276365339756012 0.10081849992275238
0.046581882983446121 0.42339879274368286 0.10032925754785538
0.15783606469631195 0.42121300101280212 0.096145838499069214
0.26159745454788208 0.43075764179229736 0.072629325091838837
0.36029398441314697 0.44318127632141113 0.038716889917850494
0.4688970148563385 0.45631334185600281 0.010861250571906567
0.57612591981887817 0.4609890878200531 0.0075638415291905403
0.67927789688110352 0.46393346786499023 0.010389769449830055
0.76668268442153931 0.47023046016693115 0.026253778487443924
0.84079992771148682 0.47691228985786438 0.060178555548191071
0.90340805053710938 0.48319104313850403 0.10130634903907776
0.95879542827606201 0.49073177576065063 0.13026830554008484
0.99495214223861694 0.49979320168495178 0.15085063874721527
0.0054822885431349277 0.5039408802986145 0.10299444943666458
0.038750097155570984 0.50264161825180054 0.10724931955337524
0.13052627444267273 0.49683403968811035 0.10626745969057083
0.24338015913963318 0.49835067987442017 0.092999570071697235
0.34235277771949768 0.50829088687896729 0.064430072903633118
0.44299072027206421 0.52203726768493652 0.026875978335738182
0.54596686363220215 0.53167116641998291 0.0098151415586471558
0.64387553930282593 0.53816729784011841 0.0037778369151055813
0.74000954627990723 0.54266679286956787 0.0040525849908590317
0.82310503721237183 0.54762858152389526 0.01520964689552784
0.89425754547119141 0.55706143379211426 0.05784282460808754
0.95722371339797974 0.56768226623535156 0.12703122198581696
0.9938347339630127 0.57545709609985352 0.16730180382728577
0.01765836775302887 0.57210272550582886 0.12028709799051285
0.030315279960632324 0.57246631383895874 0.11856704205274582
0.1064089760184288 0.56837767362594604 0.11760462075471878
0.23823416233062744 0.56367838382720947 0.11241115629673004
0.33359411358833313 0.5699041485786438 0.087357446551322937
0.42063254117965698 0.58268231153488159 0.052923507988452911
0.5188220739364624 0.59244394302368164 0.022711630910634995
0.61849242448806763 0.60343664884567261 0.0062020993791520596
0.7135242223739624 0.61180639266967773 0.0030479282140731812
0.79680585861206055 0.61428737640380859 0.0053046583198010921
0.87267374992370605 0.62032055854797363 0.013883598148822784
0.94368582963943481 0.63256359100341797 0.05337199941277504
0.99149942398071289 0.6481441855430603 0.14352917671203613
0.037460312247276306 0.63895601034164429 0.14594066143035889
0.045491911470890045 0.64092028141021729 0.13974772393703461
0.11836474388837814 0.63750439882278442 0.13216604292392731
0.24253933131694794 0.62950968742370605 0.12620370090007782
0.33640018105506897 0.63041627407073975 0.11479967832565308
0.41786709427833557 0.63992160558700562 0.084067277610301971
0.49857178330421448 0.64927393198013306 0.040483273565769196
0.59457838535308838 0.66105073690414429 0.018068606033921242
0.69096416234970093 0.67241692543029785 0.0097015528008341789
0.77476680278778076 0.67843359708786011 0.0047678481787443161
0.85645425319671631 0.68127256631851196 0.004314168356359005
0.9324454665184021 0.69109690189361572 0.013395077548921108
0.98375970125198364 0.70196348428726196 0.053937125951051712
0.063561186194419861 0.70559525489807129 0.16865533590316772
0.086517572402954102 0.70585060119628906 0.16424031555652618
0.16410568356513977 0.70137572288513184 0.15778225660324097
0.26284879446029663 0.69552308320999146 0.15559858083724976
0.35018491744995117 0.69424992799758911 0.15153266489505768
0.42870926856994629 0.69918400049209595 0.13054399192333221
0.5034211277961731 0.70767104625701904 0.095378592610359192
0.58841860294342041 0.71924513578414917 0.047566864639520645
0.67655450105667114 0.7289544939994812 0.021890213713049889
0.7630196213722229 0.73772943019866943 0.022164288908243179
0.84432238340377808 0.74174535274505615 0.0116258654743433
0.92115622758865356 0.74811094999313354 0.0082229766994714737
0.97759264707565308 0.75626122951507568 0.013707688078284264
0.12561653554439545 0.77460628747940063 0.20430925488471985
0.153211310505867 0.77344566583633423 0.20150978863239288
0.22707043588161469 0.76897841691970825 0.20077715814113617
0.3078010082244873 0.7649986743927002 0.20034180581569672
0.38885819911956787 0.7630731463432312 0.20101670920848846
0.46101170778274536 0.7642865777015686 0.19322434067726135
0.52392315864562988 0.77044165134429932 0.16798828542232513
0.60123801231384277 0.77994149923324585 0.13040977716445923
0.68169957399368286 0.78924518823623657 0.093168623745441437
0.76371639966964722 0.79857867956161499 0.076499983668327332
0.83798724412918091 0.8049653172492981 0.030059156939387321
0.91395854949951172 0.81004369258880615 0.011357281357049942
0.97545391321182251 0.81445133686065674 0.0062020695768296719
0.26320070028305054 0.84677755832672119 0.28052425384521484
0.28616368770599365 0.84452956914901733 0.2784787118434906
0.33638957142829895 0.84290772676467896 0.27854084968566895
0.39588937163352966 0.84073036909103394 0.28072017431259155
0.4528348445892334 0.83788073062896729 0.27915501594543457
0.51619213819503784 0.83733916282653809 0.27792167663574219
0.57471847534179688 0.84125196933746338 0.26879680156707764
0.64418262243270874 0.84936243295669556 0.25606295466423035
0.712726891040802 0.85746824741363525 0.22838357090950012
0.78279376029968262 0.8651701807975769 0.19796961545944214
0.85139369964599609 0.87138408422470093 0.14190244674682617
0.91669470071792603 0.87518137693405151 0.065481044352054596
0.97856676578521729 0.87859082221984863 0.01867980882525444
0.43616595864295959 0.91817766427993774 0.40409734845161438
0.45326891541481018 0.91966986656188965 0.40470743179321289
0.48193198442459106 0.9197542667388916 0.40521469712257385
0.52050888538360596 0.91862910985946655 0.40802019834518433
0.56186044216156006 0.91522479057312012 0.40811040997505188
0.61143761873245239 0.91396081447601318 0.41403329372406006
0.66637754440307617 0.91664993762969971 0.41979345679283142
0.71856480836868286 0.92070716619491577 0.41200700402259827
0.77305430173873901 0.92619955539703369 0.39847958087921143
0.827170729637146 0.93205791711807251 0.38127347826957703
0.88308453559875488 0.93661117553710938 0.35240665078163147
0.94276005029678345 0.94264507293701172 0.31220829486846924
0.98822039365768433 0.9423755407333374 0.23358184099197388
0.048613157123327255 0.064042992889881134 0.10280414670705795
0.085804805159568787 0.060876898467540741 0.10655453056097031
0.14037156105041504 0.061327975243330002 0.10567212849855423
0.23425404727458954 0.052247710525989532 0.11080467700958252
0.33501416444778442 0.035021539777517319 0.11603646725416183
0.43534934520721436 0.016119055449962616 0.11960712820291519
0.53725165128707886 0.011176614090800285 0.12234136462211609
0.63359659910202026 0.011018461547791958 0.12336959689855576
0.72448956966400146 0.011161190457642078 0.12567611038684845
0.80191504955291748 0.019913917407393456 0.12578959763050079
0.87284982204437256 0.033379960805177689 0.12742502987384796
0.93959701061248779 0.078060701489448547 0.13127386569976807
0.99069178104400635 0.13099458813667297 0.13655668497085571
0.051337298005819321 0.088960714638233185 0.10944945365190506
0.095442570745944977 0.090737886726856232 0.11368077248334885
0.16072706878185272 0.091512285172939301 0.11360089480876923
0.25652971863746643 0.089386090636253357 0.11514557152986526
0.35335105657577515 0.081330195069313049 0.11874545365571976
0.45326992869377136 0.06410294771194458 0.12676382064819336
0.55367660522460938 0.048214361071586609 0.12691181898117065
0.65365135669708252 0.043843783438205719 0.1263945996761322
0.73643368482589722 0.061416670680046082 0.12860791385173798
0.80838280916213989 0.088305003941059113 0.12928847968578339
0.8783639669418335 0.10461026430130005 0.12977255880832672
0.94506281614303589 0.13682124018669128 0.13283504545688629
0.99098193645477295 0.17472073435783386 0.13860541582107544
0.049339205026626587 0.15514141321182251 0.12373039126396179
0.10147446393966675 0.154473677277565 0.1234172135591507
0.17918643355369568 0.15819808840751648 0.11777263134717941
0.28268119692802429 0.16872398555278778 0.11722500622272491
0.38543438911437988 0.17395447194576263 0.12076233327388763
0.48328855633735657 0.16609121859073639 0.12777015566825867
0.58011728525161743 0.15838418900966644 0.1287505179643631
0.6707233190536499 0.15498858690261841 0.1294921487569809
0.75058060884475708 0.15915639698505402 0.13057368993759155
0.82093453407287598 0.17951783537864685 0.13139051198959351
0.8873753547668457 0.19333291053771973 0.13210560381412506
0.94774383306503296 0.2207714319229126 0.13687452673912048
0.9928823709487915 0.25360938906669617 0.14510916173458099
0.026238923892378807 0.25245225429534912 0.13541805744171143
0.089777715504169464 0.25369817018508911 0.13435004651546478
0.1834656298160553 0.25567948818206787 0.12659560143947601
0.29288122057914734 0.27042010426521301 0.11148056387901306
0.4019814133644104 0.27697071433067322 0.10328608751296997
0.50918591022491455 0.28150445222854614 0.11156357079744339
0.6051027774810791 0.28270873427391052 0.12559102475643158
0.69052350521087646 0.28274214267730713 0.13221828639507294
0.76799565553665161 0.28290322422981262 0.13539408147335052
0.83397519588470459 0.29162275791168213 0.13599193096160889
0.89579063653945923 0.30011889338493347 0.13861803710460663
0.95270073413848877 0.31732824444770813 0.14457720518112183
0.99223589897155762 0.33812400698661804 0.154433473944664
0.010744311846792698 0.3514254093170166 0.14130261540412903
0.072852835059165955 0.35075774788856506 0.14131379127502441
0.17798528075218201 0.35054007172584534 0.13425813615322113
0.28787493705749512 0.36298254132270813 0.11573977023363113
0.39115121960639954 0.37206068634986877 0.087480045855045319
0.50295525789260864 0.37900334596633911 0.068306088447570801
0.60420101881027222 0.38118839263916016 0.08132973313331604
0.6982232928276062 0.38561365008354187 0.1113688126206398
0.77951580286026001 0.38980814814567566 0.13308119773864746
0.84138727188110352 0.39551937580108643 0.14215885102748871
0.90047174692153931 0.39908680319786072 0.14912967383861542
0.95431941747665405 0.40850040316581726 0.15886972844600677
0.99253624677658081 0.42239469289779663 0.17049594223499298
0.0066349999979138374 0.44088432192802429 0.14568434655666351
0.052736081182956696 0.43899756669998169 0.14742550253868103
0.15651042759418488 0.43535226583480835 0.14454133808612823
0.27209764719009399 0.44250309467315674 0.1294437050819397
0.37047022581100464 0.45149552822113037 0.10010331124067307
0.47826915979385376 0.46245411038398743 0.056314252316951752
0.58292287588119507 0.46582081913948059 0.036848537623882294
0.68490713834762573 0.46732568740844727 0.055881604552268982
0.77014708518981934 0.47476646304130554 0.087958075106143951
0.84286749362945557 0.48332962393760681 0.12989300489425659
0.90423524379730225 0.48781910538673401 0.15586748719215393
0.95603042840957642 0.49530443549156189 0.1754135936498642
0.99311810731887817 0.50402319431304932 0.19176718592643738
0.0054403119720518589 0.51961058378219604 0.15589383244514465
0.028153229504823685 0.51561927795410156 0.15291713178157806
0.13407234847545624 0.51139122247695923 0.1521880030632019
0.25772207975387573 0.51066166162490845 0.14043374359607697
0.34948357939720154 0.51565444469451904 0.11763977259397507
0.44956570863723755 0.52700024843215942 0.078057698905467987
0.55175477266311646 0.5370786190032959 0.034528441727161407
0.65330594778060913 0.54129266738891602 0.017859155312180519
0.74720138311386108 0.54421305656433105 0.026418574154376984
0.82559651136398315 0.55167454481124878 0.06516101211309433
0.89675986766815186 0.56197476387023926 0.12414702028036118
0.95681142807006836 0.57186770439147949 0.17961345613002777
0.99296391010284424 0.58126580715179443 0.21705368161201477
0.0082096327096223831 0.58608675003051758 0.16468602418899536
0.035944454371929169 0.5834730863571167 0.16249629855155945
0.13776442408561707 0.57788479328155518 0.16201435029506683
0.25424414873123169 0.57284283638000488 0.15421654284000397
0.34410545229911804 0.57606840133666992 0.13717146217823029
0.42975008487701416 0.58645147085189819 0.10698702931404114
0.51913189888000488 0.59759843349456787 0.057723954319953918
0.62121713161468506 0.60820090770721436 0.024172600358724594
0.71913772821426392 0.61321890354156494 0.012694789096713066
0.80369812250137329 0.61461633443832397 0.014850527048110962
0.87637484073638916 0.62584173679351807 0.040863335132598877
0.94574946165084839 0.63681524991989136 0.11263785511255264
0.99068218469619751 0.64921444654464722 0.19194470345973969
0.016847617924213409 0.64921122789382935 0.17706449329853058
0.0522017702460289 0.64746785163879395 0.17421075701713562
0.15217675268650055 0.64224028587341309 0.1718333512544632
0.25416874885559082 0.63729357719421387 0.16676200926303864
0.34056299924850464 0.63492023944854736 0.15872839093208313
0.42310407757759094 0.64261633157730103 0.13457372784614563
0.5029570460319519 0.65365457534790039 0.10043158382177353
0.59803241491317749 0.66558182239532471 0.064711175858974457
0.69320094585418701 0.67524665594100952 0.028127692639827728
0.77747833728790283 0.67851060628890991 0.014638549648225307
0.85680466890335083 0.68420082330703735 0.014361288398504257
0.93205535411834717 0.69426596164703369 0.037876654416322708
0.98665636777877808 0.7062075138092041 0.1256527453660965
0.046191643923521042 0.71199190616607666 0.19840836524963379
0.10005689412355423 0.71089160442352295 0.20082037150859833
0.1941569596529007 0.70581048727035522 0.19933614134788513
0.28156101703643799 0.70089054107666016 0.19432875514030457
0.3618316650390625 0.69800871610641479 0.18914654850959778
0.43383225798606873 0.70196837186813354 0.17279154062271118
0.5066184401512146 0.71112233400344849 0.14583957195281982
0.59173977375030518 0.722095787525177 0.11055046319961548
0.67827671766281128 0.73145467042922974 0.058354083448648453
0.76137787103652954 0.73821085691452026 0.015453234314918518
0.8419346809387207 0.74185866117477417 0.014290289953351021
0.91887795925140381 0.74915605783462524 0.016578793525695801
0.98129141330718994 0.76023954153060913 0.036916125565767288
0.11384773999452591 0.7774009108543396 0.2335675060749054
0.17490096390247345 0.77573686838150024 0.23686584830284119
0.24833449721336365 0.77403324842453003 0.23469477891921997
0.32562988996505737 0.76885485649108887 0.23242604732513428
0.39434832334518433 0.76559662818908691 0.230335533618927
0.46181052923202515 0.76708412170410156 0.2214808315038681
0.52931457757949829 0.77294528484344482 0.20598544180393219
0.60558384656906128 0.78201901912689209 0.17992965877056122
0.68176382780075073 0.79029017686843872 0.13595835864543915
0.75926440954208374 0.79853606224060059 0.080847658216953278
0.83540993928909302 0.80516338348388672 0.034917838871479034
0.91131442785263062 0.80924689769744873 0.014154337346553802
0.97914183139801025 0.81656002998352051 0.0051904264837503433
0.26435336470603943 0.84820318222045898 0.30260810256004333
0.3004438579082489 0.84752053022384644 0.30304703116416931
0.342437744140625 0.84701824188232422 0.30010533332824707
0.39542216062545776 0.84313398599624634 0.29774415493011475
0.45594152808189392 0.83976292610168457 0.29982304573059082
0.51679462194442749 0.83908760547637939 0.29974144697189331
0.57818210124969482 0.84399718046188354 0.29537862539291382
0.65261971950531006 0.85267448425292969 0.29394376277923584
0.71691954135894775 0.85894805192947388 0.26830181479454041
0.78376787900924683 0.86652183532714844 0.22526934742927551
0.85010582208633423 0.87098819017410278 0.16521535813808441
0.91708004474639893 0.87395334243774414 0.091678008437156677
0.97994005680084229 0.87892049551010132 0.033015664666891098
0.43690869212150574 0.91953915357589722 0.4135800302028656
0.45683342218399048 0.92193913459777832 0.41853123903274536
0.48364654183387756 0.92164039611816406 0.41969108581542969
0.51910161972045898 0.9187658429145813 0.41818130016326904
0.56031835079193115 0.91452741622924805 0.41837272047996521
0.61027717590332031 0.91284716129302979 0.42479428648948669
0.66762149333953857 0.91829973459243774 0.43531858921051025
0.72034287452697754 0.92235785722732544 0.42789778113365173
0.77291053533554077 0.9271094799041748 0.41394108533859253
0.82983589172363281 0.93414086103439331 0.39953643083572388
0.88455122709274292 0.93779855966567993 0.36959114670753479
0.93960452079772949 0.94062316417694092 0.32326230406761169
0.98746514320373535 0.94348186254501343 0.25899198651313782
0.054633017629384995 0.062554724514484406 0.16664326190948486
0.10928169637918472 0.052865751087665558 0.17464432120323181
0.17958395183086395 0.041448570787906647 0.17729857563972473
0.24756684899330139 0.049688450992107391 0.17810907959938049
0.3277372419834137 0.054051835089921951 0.18336062133312225
0.4250851571559906 0.0297202467918396 0.18864573538303375
0.5339539647102356 0.014822043478488922 0.19011443853378296
0.6374855637550354 0.0075421053916215897 0.18706035614013672
0.72482132911682129 0.012189214117825031 0.19084906578063965
0.79904437065124512 0.027536310255527496 0.18924219906330109
0.86977899074554443 0.042167123407125473 0.18700000643730164
0.93743765354156494 0.084757737815380096 0.18676629662513733
0.99103820323944092 0.13933572173118591 0.19430464506149292
0.057670548558235168 0.092210777103900909 0.17168602347373962
0.10970514267683029 0.091144353151321411 0.1812388151884079
0.18570901453495026 0.08663119375705719 0.18886362016201019
0.26434186100959778 0.094131216406822205 0.18890188634395599
0.35222113132476807 0.094519399106502533 0.1893870085477829
0.45130488276481628 0.072101965546607971 0.19391334056854248
0.55383622646331787 0.05383593961596489 0.19261981546878815
0.65159952640533447 0.058079004287719727 0.19153328239917755
0.73366183042526245 0.072516605257987976 0.19750024378299713
0.80630487203598022 0.09741152822971344 0.19770623743534088
0.87519711256027222 0.11410985887050629 0.19288073480129242
0.93974679708480835 0.14237318933010101 0.19178876280784607
0.99131238460540771 0.18635725975036621 0.19590164721012115
0.060720779001712799 0.1596037894487381 0.19019521772861481
0.11511626839637756 0.16762134432792664 0.19483707845211029
0.19928021728992462 0.17188218235969543 0.20096318423748016
0.29120171070098877 0.17662477493286133 0.19872073829174042
0.39329749345779419 0.1822819858789444 0.20330838859081268
0.49083417654037476 0.17675106227397919 0.20272824168205261
0.58419418334960938 0.17392630875110626 0.20078659057617188
0.66895204782485962 0.17352765798568726 0.20100884139537811
0.74705588817596436 0.18064278364181519 0.20710177719593048
0.81752634048461914 0.19096976518630981 0.20362542569637299
0.88256895542144775 0.20137597620487213 0.20055347681045532
0.9460330605506897 0.22674435377120972 0.19905218482017517
0.9923548698425293 0.25794863700866699 0.20347835123538971
0.031915865838527679 0.27004197239875793 0.21816061437129974
0.10373017191886902 0.27250701189041138 0.21243645250797272
0.20123057067394257 0.2766546905040741 0.20951661467552185
0.30997657775878906 0.28641107678413391 0.20295867323875427
0.41843977570533752 0.29190865159034729 0.19884699583053589
0.52018266916275024 0.29627034068107605 0.20730787515640259
0.6083376407623291 0.29562276601791382 0.21036431193351746
0.6897280216217041 0.29541116952896118 0.21545101702213287
0.76440262794494629 0.29776012897491455 0.21613982319831848
0.83184230327606201 0.29935786128044128 0.21393603086471558
0.89128571748733521 0.30791887640953064 0.2119937539100647
0.95320206880569458 0.32469636201858521 0.20924727618694305
0.99303907155990601 0.34122154116630554 0.21287809312343597
0.012790724635124207 0.37704762816429138 0.22745606303215027
0.074085906147956848 0.37665563821792603 0.22230991721153259
0.19366583228111267 0.37404659390449524 0.21695943176746368
0.30540457367897034 0.3801402747631073 0.20417197048664093
0.40945294499397278 0.38855671882629395 0.18865117430686951
