films/fuji_160c.cube
# Created by: G'MIC (https://gmic.eu)
TITLE "fuji_160c"
# LUT size
LUT_3D_SIZE 13
# Data domain
DOMAIN_MIN 0.0 0.0 0.0
DOMAIN_MAX 1.0 1.0 1.0
# LUT data points
0.040036894381046295 0.040624596178531647 0.032284770160913467
0.089061528444290161 0.039367090910673141 0.028132958337664604
0.16944393515586853 0.030416151508688927 0.028656424954533577
0.27327144145965576 0.011007256805896759 0.029485888779163361
0.38751506805419922 0.0023726071231067181 0.028448950499296188
0.5063822865486145 0.0014705882640555501 0.024725237861275673
0.62020373344421387 0.0024256387259811163 0.017760451883077621
0.7209240198135376 0.005536442156881094 0.011694919317960739
0.8040650486946106 0.0019180447561666369 0.013530462048947811
0.87780451774597168 0.0098843146115541458 0.012300902977585793
0.94305640459060669 0.071196973323822021 0.0056108660064637661
0.98936569690704346 0.1480671614408493 0.0073717306368052959
1 0.2116445004940033 0.023308457806706429
0.019273390993475914 0.091066561639308929 0.029402488842606544
0.076253421604633331 0.093273237347602844 0.027742812409996986
0.16833874583244324 0.09127497673034668 0.025449326261878014
0.27374908328056335 0.076560541987419128 0.021245904266834259
0.38767728209495544 0.061106797307729721 0.018435908481478691
0.50585061311721802 0.049575325101613998 0.01678771898150444
0.61874985694885254 0.04390227422118187 0.015686469152569771
0.71680432558059692 0.050014317035675049 0.011885564774274826
0.80067408084869385 0.050455641001462936 0.010090024210512638
0.87526911497116089 0.065204456448554993 0.0081979790702462196
0.94147515296936035 0.13316847383975983 0.0068952972069382668
0.98770320415496826 0.20618081092834473 0.0074101467616856098
0.99987131357192993 0.26083901524543762 0.0079731065779924393
0.0019688175525516272 0.17029067873954773 0.020068209618330002
0.045530460774898529 0.17015187442302704 0.021643364802002907
0.14888375997543335 0.17329739034175873 0.018599342554807663
0.26619675755500793 0.17224900424480438 0.010873906314373016
0.38553711771965027 0.16651096940040588 0.0058553656563162804
0.50253456830978394 0.15262681245803833 0.0032532785553485155
0.61297571659088135 0.13879694044589996 0.0039131166413426399
0.70925164222717285 0.14422906935214996 0.0040932600386440754
0.79247820377349854 0.15985628962516785 0.0036640390753746033
0.86736869812011719 0.18865905702114105 0.0022768655326217413
0.93250876665115356 0.22980658710002899 0.0010240293340757489
0.97744935750961304 0.27726241946220398 0.00065514061134308577
0.99831879138946533 0.31831863522529602 0.0017805062234401703
0.00010393928096164018 0.26601991057395935 0.0059962254017591476
0.024479525163769722 0.26447734236717224 0.0097499024122953415
0.10731256753206253 0.26599812507629395 0.010327463038265705
0.23477031290531158 0.26841071248054504 0.0054387408308684826
0.3703944981098175 0.27440968155860901 0.0026018330827355385
0.49388745427131653 0.27257212996482849 0.00029153263312764466
0.60227882862091064 0.26282671093940735 3.2312730127159739e-06
0.69771641492843628 0.26143613457679749 0.00015384449216071516
0.78092801570892334 0.27312010526657104 0.00035889568971469998
0.85584437847137451 0.29712212085723877 0.00025823255418799818
0.92036831378936768 0.32299691438674927 0
0.96830594539642334 0.35154777765274048 0
0.99719130992889404 0.38003954291343689 0.0026685826014727354
0 0.36581090092658997 0.0017634073738008738
0.0044428505934774876 0.36303159594535828 0.0027501871809363365
0.048083674162626266 0.36235728859901428 0.0042298710905015469
0.18004462122917175 0.364755779504776 0.00090626737801358104
0.3368624746799469 0.37223827838897705 0.00064374139765277505
0.46683666110038757 0.37697884440422058 8.5449217294808477e-05
0.581523597240448 0.37772095203399658 0
0.68174022436141968 0.37513229250907898 0
0.76586794853210449 0.37468460202217102 0
0.84136778116226196 0.3889707624912262 0
0.90694648027420044 0.4060361385345459 0
0.96027845144271851 0.42429983615875244 0
0.99653398990631104 0.44394117593765259 0.003092148806899786
0 0.46268662810325623 0.0020836773328483105
5.2657782362075523e-05 0.45726215839385986 9.298885561292991e-05
0.027456918731331825 0.45440754294395447 0.00046922272304072976
0.14567400515079498 0.45460045337677002 0.00017107794701587409
0.29995128512382507 0.45772597193717957 0.00060182460583746433
0.43028125166893005 0.46074721217155457 0.0016609341837465763
0.55216711759567261 0.46990352869033813 3.7877700378885493e-05
0.65886515378952026 0.47379305958747864 0
0.74769902229309082 0.47430771589279175 0
0.82501679658889771 0.47888925671577454 0
0.89297932386398315 0.48456877470016479 0
0.95191735029220581 0.49503719806671143 4.6673944780195598e-06
0.99520981311798096 0.50822073221206665 0.0035783357452601194
0 0.54780250787734985 0.00038992188638076186
0.00055230833822861314 0.54225081205368042 0
0.031329404562711716 0.53788942098617554 0
0.13292078673839569 0.53592872619628906 0
0.27249905467033386 0.53685665130615234 4.1288487409474328e-05
0.40420815348625183 0.54021263122558594 0.00098568783141672611
0.52534657716751099 0.54816603660583496 0.00025850185193121433
0.63363867998123169 0.55569183826446533 0
0.72719287872314453 0.56206023693084717 0
0.80738306045532227 0.5657351016998291 0
0.87684214115142822 0.56582260131835938 0
0.94120573997497559 0.56899410486221313 0
0.99295341968536377 0.57486838102340698 0.0014951219782233238
0 0.62187981605529785 0
0.001397301210090518 0.61796504259109497 0
0.035337604582309723 0.61365747451782227 0
0.12888504564762115 0.6108245849609375 0
0.25834661722183228 0.61040604114532471 0
0.38774654269218445 0.61264961957931519 0
0.50535821914672852 0.61802929639816284 0
0.61055839061737061 0.62499731779098511 0
0.70389693975448608 0.63285261392593384 0
0.78492772579193115 0.63909316062927246 0
0.8561590313911438 0.64358937740325928 0
0.92535644769668579 0.64505928754806519 0
0.98583698272705078 0.6459277868270874 0
0 0.6903458833694458 0.00063973222859203815
0.0038346233777701855 0.68774306774139404 0.0016772251110523939
0.045576386153697968 0.68432456254959106 0.0034280815161764622
0.13456527888774872 0.68089443445205688 0.0025955201126635075
0.25325611233711243 0.67921185493469238 0.0010632084449753165
0.37838032841682434 0.68033879995346069 0.00072691676905378699
0.49275249242782593 0.68346774578094482 0.00063970230985432863
0.59190315008163452 0.68738746643066406 0.0026060217060148716
0.67979490756988525 0.69119000434875488 0.0010692820651456714
0.75989782810211182 0.69706904888153076 7.3242190410383046e-05
0.83400899171829224 0.70586735010147095 0.00030727012199349701
0.90698480606079102 0.71162623167037964 7.7371034421958029e-05
0.97448748350143433 0.71518301963806152 7.9345700214616954e-05
0.00066659966250881553 0.75683677196502686 0.021438179537653923
0.020472044125199318 0.75574517250061035 0.031219482421875
0.075554728507995605 0.75349152088165283 0.039875511080026627
0.15919837355613708 0.74994027614593506 0.03676190972328186
0.26420140266418457 0.74731767177581787 0.030175976455211639
0.37936803698539734 0.7478293776512146 0.031388826668262482
0.48629602789878845 0.74954015016555786 0.033940903842449188
0.57901471853256226 0.75069588422775269 0.041365306824445724
0.66226303577423096 0.75144028663635254 0.031353071331977844
0.7399364709854126 0.75378841161727905 0.015752978622913361
0.81323921680450439 0.76062911748886108 0.016466926783323288
0.88727939128875732 0.76883924007415771 0.012383090332150459
0.9586518406867981 0.77849173545837402 0.021791854873299599
0.034864850342273712 0.82507646083831787 0.097055427730083466
0.07501666247844696 0.82504498958587646 0.11211478710174561
0.13313966989517212 0.82335501909255981 0.12372244894504547
0.20890939235687256 0.82034808397293091 0.12533251941204071
0.2986086905002594 0.81770014762878418 0.12412137538194656
0.39489081501960754 0.81725811958312988 0.12913587689399719
0.48756605386734009 0.81815284490585327 0.13516427576541901
0.57240486145019531 0.81833469867706299 0.13666877150535583
0.65118789672851562 0.81779247522354126 0.12542372941970825
0.72490876913070679 0.81825584173202515 0.10813441872596741
0.79669272899627686 0.821635901927948 0.10089556872844696
0.86862999200820923 0.82790565490722656 0.096292369067668915
0.93957740068435669 0.83812218904495239 0.12046215683221817
0.12979191541671753 0.89552831649780273 0.21932683885097504
0.16151866316795349 0.89488881826400757 0.22441548109054565
0.21080766618251801 0.89296448230743408 0.23374453186988831
0.2740732729434967 0.89045321941375732 0.23950356245040894
0.34562355279922485 0.88803577423095703 0.24275630712509155
0.42184251546859741 0.88699054718017578 0.25187641382217407
0.498594731092453 0.8873746395111084 0.26070329546928406
0.57351815700531006 0.88748079538345337 0.2606026828289032
0.64629578590393066 0.88778209686279297 0.25674989819526672
0.71633952856063843 0.88898593187332153 0.25119811296463013
0.78650456666946411 0.8900800347328186 0.24439260363578796
0.85667937994003296 0.8939216136932373 0.24756938219070435
0.9244915246963501 0.90028029680252075 0.2674749493598938
0.22991740703582764 0.96100747585296631 0.34123104810714722
0.25228589773178101 0.96014070510864258 0.33869686722755432
0.29034101963043213 0.95865470170974731 0.34652280807495117
0.34020557999610901 0.95644807815551758 0.3549157977104187
0.39450779557228088 0.95383983850479126 0.35885301232337952
0.45412027835845947 0.95279115438461304 0.37180829048156738
0.51694780588150024 0.95319819450378418 0.38451021909713745
0.58303695917129517 0.95329117774963379 0.38416120409965515
0.64892631769180298 0.95512014627456665 0.38779231905937195
0.71462798118591309 0.9563603401184082 0.39377889037132263
0.78223210573196411 0.95627260208129883 0.38881206512451172
0.84980767965316772 0.95770919322967529 0.39513447880744934
0.91451084613800049 0.96109592914581299 0.41235923767089844
0.049392536282539368 0.040437091141939163 0.075584158301353455
0.10067643970251083 0.039830885827541351 0.075438015162944794
0.18034450709819794 0.033430781215429306 0.078025013208389282
0.2839755117893219 0.017730968073010445 0.078300163149833679
0.39857786893844604 0.005042640957981348 0.080184131860733032
0.51685816049575806 0.0015539879677817225 0.082641288638114929
0.62897974252700806 0.0029312432743608952 0.080832310020923615
0.72677600383758545 0.0064134038984775543 0.079100742936134338
0.80874377489089966 0.01068267785012722 0.081149846315383911
0.88022208213806152 0.036744404584169388 0.079222992062568665
0.94374126195907593 0.1002594456076622 0.07230619341135025
0.98894411325454712 0.17302283644676208 0.077540978789329529
1 0.23212680220603943 0.096826754510402679
0.033860150724649429 0.097222574055194855 0.07839183509349823
0.094994761049747467 0.09675230085849762 0.079130731523036957
0.18147070705890656 0.095887728035449982 0.079414486885070801
0.28617751598358154 0.083803348243236542 0.077764265239238739
0.39971217513084412 0.066576726734638214 0.07743341475725174
0.51646912097930908 0.055172055959701538 0.078082531690597534
0.627113938331604 0.053257692605257034 0.076299585402011871
0.72294336557388306 0.060370083898305893 0.074306949973106384
0.80409830808639526 0.075196117162704468 0.069992423057556152
0.87637662887573242 0.10824842005968094 0.064404353499412537
0.9401702880859375 0.16301752626895905 0.069467760622501373
0.98297154903411865 0.2235603928565979 0.072853580117225647
0.99958950281143188 0.27472743391990662 0.079436466097831726
0.01110738143324852 0.18182696402072906 0.073876745998859406
0.074059732258319855 0.17990191280841827 0.077147528529167175
0.17176789045333862 0.18026436865329742 0.077200226485729218
0.28241091966629028 0.17752380669116974 0.071420647203922272
0.39864832162857056 0.17276023328304291 0.064214266836643219
0.5131533145904541 0.16365888714790344 0.054890457540750504
0.62156587839126587 0.15346887707710266 0.050488118082284927
0.71552711725234985 0.15864035487174988 0.052078291773796082
0.79581320285797119 0.17915189266204834 0.049399595707654953
0.86797076463699341 0.21014513075351715 0.048427358269691467
0.93271523714065552 0.24786356091499329 0.051129717379808426
0.97561907768249512 0.28920406103134155 0.053270153701305389
0.99754959344863892 0.32775130867958069 0.06573408842086792
0.0029159695841372013 0.27781692147254944 0.059862863272428513
0.047891430556774139 0.27647820115089417 0.067293174564838409
0.13964377343654633 0.27458339929580688 0.068034708499908447
0.25872549414634705 0.27538183331489563 0.058919928967952728
0.38552820682525635 0.27959975600242615 0.049477268010377884
0.50440281629562378 0.27788367867469788 0.033268872648477554
0.61176079511642456 0.26979836821556091 0.025648454204201698
0.7045518159866333 0.27006277441978455 0.031737592071294785
0.78506600856781006 0.28378579020500183 0.032985806465148926
0.85813385248184204 0.3053133487701416 0.035664964467287064
0.92380046844482422 0.33165439963340759 0.031094135716557503
0.97042286396026611 0.35950496792793274 0.037106800824403763
0.996895432472229 0.38721257448196411 0.062542364001274109
0.00067565019708126783 0.37685087323188782 0.0511295385658741
0.019342685118317604 0.37397915124893188 0.053587924689054489
0.086419321596622467 0.37090441584587097 0.053539052605628967
0.21476677060127258 0.37098494172096252 0.039800263941287994
0.35561507940292358 0.37675118446350098 0.035277020186185837
0.48048931360244751 0.38335549831390381 0.021623244509100914
0.59318250417709351 0.38245260715484619 0.014808580279350281
0.68904197216033936 0.3774476945400238 0.021049275994300842
0.7703203558921814 0.38022118806838989 0.020231569185853004
0.84426677227020264 0.39443287253379822 0.016720177605748177
0.9104994535446167 0.41287451982498169 0.012301396578550339
0.96273505687713623 0.43127530813217163 0.020930929109454155
0.99689710140228271 0.44953480362892151 0.053735770285129547
0 0.4707942008972168 0.042491313070058823
0.0039650262333452702 0.46636292338371277 0.031496204435825348
0.043283648788928986 0.46252122521400452 0.039502747356891632
0.16287042200565338 0.45991396903991699 0.035116367042064667
0.31669142842292786 0.46141237020492554 0.029251322150230408
0.44737815856933594 0.46851995587348938 0.028816582635045052
0.56669908761978149 0.47673735022544861 0.016395553946495056
0.6675989031791687 0.47724312543869019 0.011614825576543808
0.75163310766220093 0.47776731848716736 0.0050438228063285351
0.82689410448074341 0.48275861144065857 0.0040157842449843884
0.89504462480545044 0.48914289474487305 0.011439050547778606
0.9538114070892334 0.4995695948600769 0.021098775789141655
0.99560928344726562 0.51243162155151367 0.042501457035541534
6.8455119617283344e-05 0.55459773540496826 0.031164895743131638
0.00010942944936687127 0.5501779317855835 0.022972136735916138
0.019959153607487679 0.54563808441162109 0.033328965306282043
0.12764459848403931 0.54121822118759155 0.034730125218629837
0.28070524334907532 0.54000133275985718 0.031206198036670685
0.41726821660995483 0.54417842626571655 0.036421310156583786
0.53645819425582886 0.5524100661277771 0.031438745558261871
0.64030462503433228 0.55861103534698486 0.020755065605044365
0.72898095846176147 0.56360387802124023 0.0078439600765705109
0.80672919750213623 0.56731212139129639 0.0023834228049963713
0.87786287069320679 0.56837671995162964 0.0062952078878879547
0.9428023099899292 0.57189482450485229 0.010848789475858212
0.9933968186378479 0.57781904935836792 0.018987109884619713
7.0594338467344642e-05 0.62854164838790894 0.026881437748670578
0 0.62481504678726196 0.030496904626488686
0.017313998192548752 0.62013721466064453 0.039042767137289047
0.11731529980897903 0.6154627799987793 0.03822002187371254
0.26218727231025696 0.61310648918151855 0.031545046716928482
0.39767289161682129 0.61437034606933594 0.037433445453643799
0.51317757368087769 0.61917978525161743 0.041659753769636154
0.61473739147186279 0.62535494565963745 0.036305788904428482
0.70404434204101562 0.63124805688858032 0.020902043208479881
0.78321629762649536 0.638560950756073 0.0057164658792316914
0.85713833570480347 0.64545661211013794 0.0024116216227412224
0.92804116010665894 0.64591288566589355 0.0026569440960884094
0.98808509111404419 0.64712846279144287 0.0011201297165825963
0 0.69606512784957886 0.044430691748857498
1.3448678146232851e-05 0.69320160150527954 0.052606020122766495
0.021859291940927505 0.68936538696289062 0.06123829260468483
0.12034185230731964 0.68490982055664062 0.058556992560625076
0.25460299849510193 0.68178606033325195 0.053090609610080719
0.3860352635383606 0.68116885423660278 0.054006241261959076
0.4989963173866272 0.68317133188247681 0.053735215216875076
0.59510868787765503 0.68606734275817871 0.054129745811223984
0.67956948280334473 0.68764644861221313 0.038476832211017609
0.7592771053314209 0.69539922475814819 0.024473870173096657
0.83617764711380005 0.70734202861785889 0.027680400758981705
0.91106802225112915 0.71342092752456665 0.019469227641820908
0.97929215431213379 0.71721470355987549 0.010896480642259121
0.00032918594661168754 0.76132208108901978 0.092988274991512299
0.008170153945684433 0.75953191518783569 0.098966516554355621
0.05371958389878273 0.75691342353820801 0.10474419593811035
0.14751754701137543 0.75290608406066895 0.10243023186922073
0.26587513089179993 0.74959200620651245 0.098428614437580109
0.38535621762275696 0.74818700551986694 0.09766446053981781
0.49097314476966858 0.74874705076217651 0.096919640898704529
0.58170360326766968 0.74981820583343506 0.10152076184749603
0.66334414482116699 0.75034934282302856 0.092999294400215149
0.74021416902542114 0.75436317920684814 0.080252610146999359
0.8142896294593811 0.76224350929260254 0.084563761949539185
0.89090406894683838 0.77143198251724243 0.071990221738815308
0.96521222591400146 0.78210192918777466 0.059072159230709076
0.036922980099916458 0.82883918285369873 0.16447651386260986
0.064936541020870209 0.82747989892959595 0.16962055861949921
0.11943472921848297 0.82513701915740967 0.1742769181728363
0.20181404054164886 0.82162761688232422 0.17369405925273895
0.2999483048915863 0.8185461163520813 0.17289015650749207
0.39901280403137207 0.8175244927406311 0.1772196888923645
0.49084585905075073 0.81753075122833252 0.18204802274703979
0.5747063159942627 0.81753093004226685 0.18446081876754761
0.65177291631698608 0.81754159927368164 0.17797809839248657
0.72483563423156738 0.81891036033630371 0.16880755126476288
0.79685747623443604 0.82273179292678833 0.16847822070121765
0.87148314714431763 0.83042186498641968 0.16297566890716553
0.94329112768173218 0.84076595306396484 0.16507486999034882
0.13011707365512848 0.89737236499786377 0.26163396239280701
0.15548916161060333 0.89611124992370605 0.2629554271697998
0.20216724276542664 0.89349520206451416 0.26605623960494995
0.26907184720039368 0.8902239203453064 0.26784098148345947
0.34654900431632996 0.88761216402053833 0.27117228507995605
0.42475137114524841 0.88694947957992554 0.28062805533409119
0.50130349397659302 0.88695728778839111 0.28905719518661499
0.57531553506851196 0.88697487115859985 0.29031598567962646
0.64667946100234985 0.88736510276794434 0.28822684288024902
0.71624213457107544 0.88818305730819702 0.28688746690750122
0.7859569787979126 0.89015299081802368 0.28645068407058716
0.85680973529815674 0.8945465087890625 0.28744065761566162
0.92576462030410767 0.90095359086990356 0.29633548855781555
0.23084545135498047 0.96115195751190186 0.36283928155899048
0.24981650710105896 0.96073621511459351 0.36204972863197327
0.28413864970207214 0.95841872692108154 0.36534503102302551
0.33468377590179443 0.95581841468811035 0.36983102560043335
0.39377251267433167 0.95354628562927246 0.37625133991241455
0.45563700795173645 0.95282870531082153 0.38851755857467651
0.51903897523880005 0.95322579145431519 0.39919716119766235
0.58389186859130859 0.95344662666320801 0.40226003527641296
0.64879578351974487 0.95461511611938477 0.40486389398574829
0.71447944641113281 0.9555509090423584 0.40964573621749878
0.78109097480773926 0.95615261793136597 0.41155159473419189
0.84875231981277466 0.95775085687637329 0.4153047502040863
0.91406011581420898 0.96101856231689453 0.42230585217475891
0.063243702054023743 0.043830409646034241 0.14499044418334961
0.11953998357057571 0.043846715241670609 0.14834296703338623
0.19751162827014923 0.038703154772520065 0.15197578072547913
0.29717707633972168 0.023614127188920975 0.14993084967136383
0.41148993372917175 0.0071841818280518055 0.14554506540298462
0.52893257141113281 0.002995659364387393 0.15173842012882233
0.63844794034957886 0.0061911488883197308 0.15785367786884308
0.73272347450256348 0.0097750946879386902 0.16568420827388763
0.81131410598754883 0.021976711228489876 0.17342519760131836
0.87972241640090942 0.060578979551792145 0.17930291593074799
0.94212764501571655 0.13488973677158356 0.18390439450740814
0.9876822829246521 0.21082678437232971 0.19411581754684448
1 0.26163145899772644 0.20401924848556519
0.053223360329866409 0.09818866103887558 0.15217059850692749
0.11875861883163452 0.10318782925605774 0.15466128289699554
0.20209251344203949 0.1045982837677002 0.15755629539489746
0.30256876349449158 0.091615326702594757 0.15681804716587067
0.41438037157058716 0.068790256977081299 0.1557195782661438
0.52900713682174683 0.061203572899103165 0.16041386127471924
0.63679021596908569 0.064097970724105835 0.16179361939430237
0.72873115539550781 0.072198294103145599 0.16742648184299469
0.80703920125961304 0.096322648227214813 0.17054659128189087
0.87655919790267944 0.13800390064716339 0.17249515652656555
0.93753033876419067 0.19404126703739166 0.18233974277973175
0.98161536455154419 0.25005868077278137 0.19066773355007172
0.999828040599823 0.29483631253242493 0.19755618274211884
0.023334413766860962 0.18426541984081268 0.1568320244550705
0.10016964375972748 0.18653866648674011 0.15956319868564606
0.2010938823223114 0.18942669034004211 0.16189377009868622
0.30408206582069397 0.1868181973695755 0.1612224280834198
0.41487407684326172 0.1833680272102356 0.16111926734447479
0.52651131153106689 0.17738886177539825 0.15823933482170105
0.63164025545120239 0.16711190342903137 0.14962947368621826
0.72215127944946289 0.17554202675819397 0.15181411802768707
0.79932922124862671 0.20181232690811157 0.15894347429275513
0.86786031723022461 0.23437786102294922 0.16581736505031586
0.93005478382110596 0.27040308713912964 0.17480692267417908
0.97493582963943481 0.30667498707771301 0.17994509637355804
0.99851995706558228 0.34167051315307617 0.18791177868843079
0.0018641153583303094 0.29173615574836731 0.15957297384738922
0.066734790802001953 0.28975731134414673 0.16120037436485291
0.18004761636257172 0.28593778610229492 0.16074764728546143
0.28783479332923889 0.28557625412940979 0.15807430446147919
0.40356484055519104 0.28840887546539307 0.15236520767211914
0.51799798011779785 0.28250259160995483 0.14138242602348328
0.62153416872024536 0.27508345246315002 0.13326732814311981
0.71119946241378784 0.28091704845428467 0.1353389173746109
0.78901410102844238 0.2987467348575592 0.14228357374668121
0.85794717073440552 0.32051274180412292 0.14846284687519073
0.92237836122512817 0.34457850456237793 0.15348994731903076
0.97059762477874756 0.37036097049713135 0.16191370785236359
0.996867835521698 0.397239089012146 0.17874652147293091
0.00082912069046869874 0.39242905378341675 0.16066105663776398
0.038548577576875687 0.38848632574081421 0.15933576226234436
0.13688565790653229 0.38373002409934998 0.15411287546157837
0.2529086172580719 0.38088935613632202 0.14724278450012207
0.3749811053276062 0.38399291038513184 0.14242856204509735
0.49476596713066101 0.3851238489151001 0.12821082770824432
0.60382390022277832 0.38237938284873962 0.11597622185945511
0.69565683603286743 0.38250112533569336 0.1153128370642662
0.77429944276809692 0.39000797271728516 0.11419302225112915
0.84535080194473267 0.4032135009765625 0.1156696230173111
0.91078919172286987 0.41946431994438171 0.11993317306041718
0.96373039484024048 0.43735143542289734 0.13325761258602142
0.99702674150466919 0.45674771070480347 0.15877149999141693
0.0047579449601471424 0.48483589291572571 0.14821058511734009
