films/fuji_astia_100f.cube
# Created by: G'MIC (https://gmic.eu)
TITLE "fuji_astia_100f"
# LUT size
LUT_3D_SIZE 13
# Data domain
DOMAIN_MIN 0.0 0.0 0.0
DOMAIN_MAX 1.0 1.0 1.0
# LUT data points
0.042250197380781174 0.040831308811903 0.03519134595990181
0.09788888692855835 0.03044230118393898 0.028431432321667671
0.17198158800601959 0.027508052065968513 0.026206087321043015
0.2510426938533783 0.029815748333930969 0.023672500625252724
0.3311564028263092 0.028498405590653419 0.02145824022591114
0.41113388538360596 0.025109024718403816 0.022952914237976074
0.49411395192146301 0.026728462427854538 0.028212379664182663
0.57914680242538452 0.028849015012383461 0.033068504184484482
0.6630246639251709 0.036007359623908997 0.044696193188428879
0.74420797824859619 0.050774160772562027 0.068175248801708221
0.82387089729309082 0.059844791889190674 0.08833574503660202
0.90054792165756226 0.071874372661113739 0.11037889122962952
0.96781504154205322 0.084653414785861969 0.13181139528751373
0.073423035442829132 0.11311694979667664 0.070368781685829163
0.11850885301828384 0.10714012384414673 0.063504822552204132
0.18895907700061798 0.10390319675207138 0.059904433786869049
0.26946768164634705 0.10127227008342743 0.051317296922206879
0.34995630383491516 0.095603808760643005 0.045945603400468826
0.42892894148826599 0.087334528565406799 0.045611903071403503
0.51076591014862061 0.078272528946399689 0.044799715280532837
0.59474647045135498 0.065824083983898163 0.03979785367846489
0.67748540639877319 0.054793190211057663 0.039899803698062897
0.75638633966445923 0.055110469460487366 0.05566743016242981
0.83358705043792725 0.058361470699310303 0.074922822415828705
0.9072309136390686 0.069272749125957489 0.099275283515453339
0.97158205509185791 0.083613358438014984 0.12454061955213547
0.11153851449489594 0.1942608654499054 0.11478088796138763
0.14613956212997437 0.19296002388000488 0.10900948941707611
0.210474893450737 0.19061359763145447 0.10427941381931305
0.29047539830207825 0.18537929654121399 0.096106387674808502
0.36969748139381409 0.17827363312244415 0.089721396565437317
0.44860869646072388 0.16835752129554749 0.08509662002325058
0.52923375368118286 0.15390448272228241 0.080303043127059937
0.61065858602523804 0.13288635015487671 0.07346661388874054
0.69090330600738525 0.1085074171423912 0.066588923335075378
0.76809751987457275 0.086785666644573212 0.06555628776550293
0.84221172332763672 0.069603428244590759 0.070991605520248413
0.9128679633140564 0.070375464856624603 0.09105326235294342
0.97521054744720459 0.087051630020141602 0.1207621842622757
0.13286489248275757 0.2756589949131012 0.15144439041614532
0.16955149173736572 0.27601778507232666 0.14728227257728577
0.23567093908786774 0.27536106109619141 0.14302273094654083
0.3138653039932251 0.27207177877426147 0.1387404203414917
0.39247748255729675 0.26715794205665588 0.13447073101997375
0.47103282809257507 0.25929763913154602 0.12845399975776672
0.55074578523635864 0.24555808305740356 0.12412600219249725
0.63046073913574219 0.22256159782409668 0.12028038501739502
0.70864778757095337 0.19269154965877533 0.11152240633964539
0.78404128551483154 0.157469242811203 0.1005631685256958
0.85587579011917114 0.11852586269378662 0.091738730669021606
0.92340785264968872 0.091464713215827942 0.095976889133453369
0.98171955347061157 0.085356570780277252 0.11334177851676941
0.16765260696411133 0.35677498579025269 0.17944793403148651
0.20521843433380127 0.35765013098716736 0.17712457478046417
0.26948338747024536 0.35787749290466309 0.1731162816286087
0.34428101778030396 0.35720747709274292 0.16951707005500793
0.42091721296310425 0.35507452487945557 0.16693159937858582
0.49864107370376587 0.34997078776359558 0.16383258998394012
0.57778656482696533 0.33900421857833862 0.16138251125812531
0.65687090158462524 0.32038861513137817 0.15971316397190094
0.73370277881622314 0.29569917917251587 0.15625365078449249
0.8072274923324585 0.26370841264724731 0.1510402113199234
0.87771499156951904 0.22095060348510742 0.1435360312461853
0.94216328859329224 0.16514337062835693 0.13135330379009247
0.99094301462173462 0.11386460065841675 0.12159356474876404
0.2214958667755127 0.43827873468399048 0.2064506858587265
0.25390824675559998 0.43981429934501648 0.20654056966304779
0.31164997816085815 0.44049748778343201 0.20109069347381592
0.38250505924224854 0.44071942567825317 0.19564928114414215
0.45488741993904114 0.44100287556648254 0.19383424520492554
0.53124362230300903 0.43859493732452393 0.19146369397640228
0.61074632406234741 0.43139049410820007 0.18874739110469818
0.69052964448928833 0.41967535018920898 0.18840205669403076
0.76712000370025635 0.40429207682609558 0.19194848835468292
0.8384438157081604 0.3841831386089325 0.19875870645046234
0.90542489290237427 0.35253050923347473 0.20316311717033386
0.96524876356124878 0.29712992906570435 0.19405871629714966
0.99818384647369385 0.23040427267551422 0.17692683637142181
0.26628148555755615 0.51993691921234131 0.24490860104560852
0.2957230806350708 0.52192109823226929 0.24518924951553345
0.34953358769416809 0.52265125513076782 0.23736944794654846
0.41709312796592712 0.52354133129119873 0.22866784036159515
0.48795747756958008 0.52560281753540039 0.22413894534111023
0.56492060422897339 0.52548092603683472 0.21797820925712585
0.64696264266967773 0.52161037921905518 0.21017259359359741
0.72941666841506958 0.51553153991699219 0.20799563825130463
0.80765730142593384 0.50776189565658569 0.21484933793544769
0.87877380847930908 0.4963400661945343 0.22686274349689484
0.93803864717483521 0.47479093074798584 0.24129459261894226
0.98304224014282227 0.43509382009506226 0.24961011111736298
0.99998599290847778 0.38158255815505981 0.24722525477409363
0.30728945136070251 0.59890657663345337 0.28909623622894287
0.3343454897403717 0.60188335180282593 0.28873986005783081
0.38363677263259888 0.60255122184753418 0.2802920937538147
0.44685453176498413 0.60360556840896606 0.27016198635101318
0.51681643724441528 0.60730767250061035 0.26227685809135437
0.59452760219573975 0.60943508148193359 0.25192183256149292
0.68025678396224976 0.60770469903945923 0.23769655823707581
0.76664555072784424 0.60537815093994141 0.22954973578453064
0.85044068098068237 0.60237342119216919 0.23046243190765381
0.92379796504974365 0.59557187557220459 0.23683181405067444
0.97188514471054077 0.58078128099441528 0.2562229335308075
0.99525552988052368 0.55408912897109985 0.28404337167739868
1 0.51610875129699707 0.30277422070503235
0.35099366307258606 0.67358356714248657 0.33194586634635925
0.37879711389541626 0.67427921295166016 0.3289373517036438
0.42303672432899475 0.67512029409408569 0.3210042417049408
0.48038151860237122 0.67772054672241211 0.31167086958885193
0.54742026329040527 0.68182158470153809 0.30242586135864258
0.62336939573287964 0.68541568517684937 0.29077011346817017
0.70752471685409546 0.68675166368484497 0.27623319625854492
0.79517084360122681 0.68755513429641724 0.26475730538368225
0.88650631904602051 0.68735939264297485 0.25302356481552124
0.96594786643981934 0.68492913246154785 0.2422516793012619
0.99739551544189453 0.67572247982025146 0.25621086359024048
0.99998289346694946 0.65883922576904297 0.29239249229431152
1 0.63252514600753784 0.32500681281089783
0.399740070104599 0.73911553621292114 0.36591103672981262
0.42739114165306091 0.73997020721435547 0.36284896731376648
0.46790945529937744 0.74146586656570435 0.35640129446983337
0.52051472663879395 0.74447691440582275 0.34867867827415466
0.58317184448242188 0.7488105297088623 0.34024426341056824
0.65471470355987549 0.75317686796188354 0.32986876368522644
0.73346614837646484 0.75705099105834961 0.31844475865364075
0.81769734621047974 0.76076215505599976 0.30761253833770752
0.91071575880050659 0.76269829273223877 0.29119351506233215
0.98607879877090454 0.76239770650863647 0.27093732357025146
1 0.75905239582061768 0.26478579640388489
1 0.75074374675750732 0.28018924593925476
1 0.73332434892654419 0.30199867486953735
0.45224255323410034 0.79538005590438843 0.38878646492958069
0.47877821326255798 0.7984316349029541 0.38949230313301086
0.51572304964065552 0.80109649896621704 0.38640257716178894
0.56377977132797241 0.80505770444869995 0.3811095654964447
0.62229692935943604 0.81056040525436401 0.37480026483535767
0.68859636783599854 0.81588900089263916 0.36739116907119751
0.76209151744842529 0.82091015577316284 0.35900077223777771
0.84308892488479614 0.82540249824523926 0.34864220023155212
0.92721861600875854 0.82827544212341309 0.3334561288356781
0.98958027362823486 0.82970762252807617 0.31423693895339966
1 0.83007943630218506 0.29197373986244202
1 0.82866424322128296 0.27852770686149597
1 0.81941014528274536 0.27613964676856995
0.50472569465637207 0.84784144163131714 0.4074435830116272
0.53054660558700562 0.85225003957748413 0.41036206483840942
0.56403696537017822 0.8559107780456543 0.41057676076889038
0.60863715410232544 0.86129528284072876 0.40815597772598267
0.66343003511428833 0.86824238300323486 0.40441924333572388
0.72516804933547974 0.87515890598297119 0.40068280696868896
0.79367899894714355 0.88128161430358887 0.39535766839981079
0.86711740493774414 0.88527101278305054 0.38487508893013
0.93657445907592773 0.88765084743499756 0.36973398923873901
0.98407411575317383 0.88953512907028198 0.3507896363735199
0.99940198659896851 0.89044433832168579 0.32902058959007263
1 0.8903498649597168 0.30439147353172302
1 0.88427406549453735 0.28694730997085571
0.55576401948928833 0.8976980447769165 0.42191797494888306
0.58173978328704834 0.90349626541137695 0.42603737115859985
0.61380118131637573 0.90854024887084961 0.4277254045009613
0.65535056591033936 0.91498780250549316 0.42722812294960022
0.70584779977798462 0.92269164323806763 0.42575132846832275
0.76301306486129761 0.93061202764511108 0.42459112405776978
0.82447928190231323 0.93785750865936279 0.42238086462020874
0.88807624578475952 0.94134813547134399 0.41167095303535461
0.94445115327835083 0.94301706552505493 0.39539381861686707
0.9820442795753479 0.94435101747512817 0.37777858972549438
0.99811947345733643 0.94524437189102173 0.35808232426643372
1 0.94447058439254761 0.33408445119857788
1 0.93779498338699341 0.31290674209594727
0.023384677246212959 0.031338248401880264 0.0730118528008461
0.083305701613426208 0.026003384962677956 0.070659130811691284
0.15794534981250763 0.024972189217805862 0.067598216235637665
0.23623590171337128 0.025333404541015625 0.064135953783988953
0.3151792585849762 0.024560486897826195 0.062139548361301422
0.39513763785362244 0.021149728447198868 0.061677910387516022
0.47883614897727966 0.026493117213249207 0.0682806596159935
0.56439518928527832 0.031830132007598877 0.074551388621330261
0.64945358037948608 0.037331108003854752 0.082567252218723297
0.73273694515228271 0.047557216137647629 0.09797203540802002
0.81397342681884766 0.054513130336999893 0.11337488144636154
0.89034134149551392 0.063912637531757355 0.1308099776506424
0.95652741193771362 0.073425665497779846 0.14856916666030884
0.059484086930751801 0.10689800232648849 0.10866081714630127
0.10650006681680679 0.10393844544887543 0.1051439642906189
0.17615732550621033 0.1001155748963356 0.10039376467466354
0.25450626015663147 0.096322841942310333 0.093617171049118042
0.33318591117858887 0.0903281569480896 0.087280452251434326
0.41259860992431641 0.081604965031147003 0.083212897181510925
0.4948064386844635 0.073898300528526306 0.081953652203083038
0.57892447710037231 0.064115859568119049 0.078734740614891052
0.66239625215530396 0.053232394158840179 0.076861947774887085
0.74395608901977539 0.048717349767684937 0.084338247776031494
0.82357895374298096 0.052351228892803192 0.10008156299591064
0.89853346347808838 0.062324881553649902 0.1211404874920845
0.96381527185440063 0.073324345052242279 0.14205580949783325
0.099598214030265808 0.19071404635906219 0.14848560094833374
0.13696973025798798 0.18898288905620575 0.14449772238731384
0.19954565167427063 0.18619982898235321 0.14061321318149567
0.2766907811164856 0.18120940029621124 0.13452734053134918
0.35400199890136719 0.17378461360931396 0.12671416997909546
0.43220809102058411 0.16275545954704285 0.12061508744955063
0.51290947198867798 0.14735157787799835 0.11449670046567917
0.594826340675354 0.1261928528547287 0.10643817484378815
0.67586487531661987 0.10023131966590881 0.096413180232048035
0.75524663925170898 0.077230565249919891 0.091186031699180603
0.83302420377731323 0.066918045282363892 0.098993457853794098
0.90586334466934204 0.067253202199935913 0.11568225175142288
0.96946936845779419 0.073278017342090607 0.13601945340633392
0.12499941885471344 0.27365249395370483 0.18240997195243835
0.16145095229148865 0.27396443486213684 0.17853426933288574
0.22380951046943665 0.27288818359375 0.17577637732028961
0.29975688457489014 0.26983380317687988 0.17253017425537109
0.37590596079826355 0.26518481969833374 0.16746732592582703
0.45404189825057983 0.25528764724731445 0.16277928650379181
0.53429818153381348 0.23883624374866486 0.15809383988380432
0.61459541320800781 0.2160211056470871 0.15135101974010468
0.69401180744171143 0.18607126176357269 0.14032664895057678
0.77139174938201904 0.15317876636981964 0.12937392294406891
0.84714829921722412 0.12096349895000458 0.12316308170557022
0.91740357875823975 0.092658206820487976 0.12313737720251083
0.97754842042922974 0.076398231089115143 0.13066302239894867
0.16084770858287811 0.35624495148658752 0.20684336125850677
0.19795267283916473 0.3572753369808197 0.20459841191768646
0.25854706764221191 0.35726216435432434 0.20211209356784821
0.3312472403049469 0.35616651177406311 0.20039579272270203
0.40588539838790894 0.35406914353370667 0.1991802304983139
0.48268845677375793 0.34803196787834167 0.19813910126686096
0.56154054403305054 0.33618509769439697 0.19729390740394592
0.64088177680969238 0.31812021136283875 0.19501465559005737
0.71889442205429077 0.29413929581642151 0.18977737426757812
0.79498046636581421 0.26290193200111389 0.1826295405626297
0.86881476640701294 0.21978621184825897 0.17130269110202789
0.93566930294036865 0.16385713219642639 0.15553593635559082
0.9879574179649353 0.11405988037586212 0.1438201367855072
0.21587318181991577 0.43842828273773193 0.22756297886371613
0.25009700655937195 0.43958559632301331 0.22657623887062073
0.30603545904159546 0.43983981013298035 0.2226286381483078
0.37375536561012268 0.44000566005706787 0.21969093382358551
0.44426262378692627 0.44053807854652405 0.22102172672748566
0.51920914649963379 0.43800210952758789 0.2221803218126297
0.59690606594085693 0.43115302920341492 0.22470270097255707
0.67441862821578979 0.42004019021987915 0.22656077146530151
0.75175350904464722 0.40516990423202515 0.22869446873664856
0.82748222351074219 0.38355407118797302 0.230741947889328
0.89795225858688354 0.34847703576087952 0.2284475564956665
0.95930743217468262 0.29431387782096863 0.2165137380361557
0.99700742959976196 0.23076839745044708 0.19938291609287262
0.27064234018325806 0.52051079273223877 0.25534769892692566
0.30337890982627869 0.52173322439193726 0.25198298692703247
0.35395237803459167 0.52261894941329956 0.24628449976444244
0.41640153527259827 0.52378076314926147 0.24216146767139435
0.48601201176643372 0.52577215433120728 0.2391839474439621
0.5604928731918335 0.52588403224945068 0.238226518034935
0.63738566637039185 0.52277880907058716 0.24039304256439209
0.71581512689590454 0.51694804430007935 0.24447770416736603
0.7945132851600647 0.50922298431396484 0.25058391690254211
0.86825203895568848 0.49724704027175903 0.26013404130935669
0.93178057670593262 0.47531485557556152 0.27191215753555298
0.98130995035171509 0.44016554951667786 0.27824801206588745
0.99993449449539185 0.3837769627571106 0.2726815938949585
0.31958302855491638 0.59925037622451782 0.28989425301551819
0.34916901588439941 0.60224354267120361 0.28651082515716553
0.39404338598251343 0.60269606113433838 0.28049245476722717
0.4519532322883606 0.60437160730361938 0.27429169416427612
0.52431881427764893 0.60747700929641724 0.26395678520202637
0.60144346952438354 0.60994070768356323 0.25617340207099915
0.67857235670089722 0.60915708541870117 0.25560978055000305
0.75924056768417358 0.60740303993225098 0.25611194968223572
0.84040647745132446 0.60436075925827026 0.25940540432929993
0.91378563642501831 0.59672379493713379 0.26920667290687561
0.96644657850265503 0.58213061094284058 0.29036456346511841
0.99502575397491455 0.55747973918914795 0.31374362111091614
1 0.51734483242034912 0.32716658711433411
0.36279204487800598 0.6733282208442688 0.3298896849155426
0.38925373554229736 0.67449486255645752 0.32703155279159546
0.43176192045211792 0.67620742321014404 0.32033452391624451
0.48657429218292236 0.67881077527999878 0.31261405348777771
0.55645447969436646 0.68263930082321167 0.30087172985076904
0.63295841217041016 0.68619048595428467 0.28976854681968689
0.71344441175460815 0.68758797645568848 0.28112098574638367
0.79761606454849243 0.68929743766784668 0.27428808808326721
0.88421636819839478 0.68876093626022339 0.26770177483558655
0.95811086893081665 0.68490499258041382 0.26579141616821289
0.99348574876785278 0.67593365907669067 0.28248381614685059
0.99987906217575073 0.66041398048400879 0.31718087196350098
1 0.63248437643051147 0.35057541728019714
0.41136318445205688 0.73926746845245361 0.36415562033653259
0.43677949905395508 0.74144947528839111 0.36263751983642578
0.47685986757278442 0.74326950311660767 0.35611876845359802
0.52841877937316895 0.74634712934494019 0.34844878315925598
0.59089982509613037 0.75032401084899902 0.33976596593856812
0.66261476278305054 0.7543984055519104 0.32888537645339966
0.74165040254592896 0.75824564695358276 0.31676146388053894
0.8269575834274292 0.76180541515350342 0.30557814240455627
0.91636824607849121 0.7630842924118042 0.29058539867401123
0.98641288280487061 0.76247268915176392 0.2728695273399353
0.99998515844345093 0.75994753837585449 0.26850458979606628
1 0.75176602602005005 0.29388853907585144
1 0.73307961225509644 0.33642572164535522
0.46455761790275574 0.79838550090789795 0.3910318911075592
0.48950201272964478 0.80170035362243652 0.39138069748878479
0.52555155754089355 0.80390948057174683 0.38769561052322388
0.57278639078140259 0.8077893853187561 0.38178488612174988
0.63033461570739746 0.812328040599823 0.37486469745635986
0.69597667455673218 0.81717008352279663 0.36641281843185425
0.76885360479354858 0.82149863243103027 0.35639485716819763
0.85087436437606812 0.82618075609207153 0.34550338983535767
0.93328583240509033 0.82916688919067383 0.32967010140419006
0.9906623363494873 0.8308868408203125 0.30838599801063538
1 0.83169811964035034 0.28830799460411072
1 0.82998913526535034 0.28413456678390503
1 0.81858164072036743 0.30235099792480469
0.51763308048248291 0.85335487127304077 0.41321244835853577
0.54267662763595581 0.85672050714492798 0.41568034887313843
0.574482262134552 0.86015385389328003 0.41460737586021423
0.61806845664978027 0.86499041318893433 0.4104970395565033
0.67225337028503418 0.87081277370452881 0.40536689758300781
0.73391544818878174 0.87693160772323608 0.39962917566299438
0.80278635025024414 0.88190799951553345 0.39273232221603394
0.87832963466644287 0.88619887828826904 0.38299340009689331
0.94882690906524658 0.88853156566619873 0.36907640099525452
0.99139297008514404 0.89149409532546997 0.35217291116714478
0.99999791383743286 0.89310193061828613 0.33418005704879761
1 0.89485746622085571 0.31211799383163452
1 0.88880437612533569 0.30157065391540527
0.56860446929931641 0.90507066249847412 0.43023896217346191
0.59378558397293091 0.91005825996398926 0.43305709958076477
0.62457031011581421 0.91437870264053345 0.4332369863986969
0.66546422243118286 0.92002439498901367 0.43101051449775696
0.71573835611343384 0.92666298151016235 0.42751520872116089
0.77319663763046265 0.93353837728500366 0.42395737767219543
0.83670985698699951 0.93942832946777344 0.41885316371917725
0.90330463647842407 0.94304364919662476 0.41010349988937378
0.96140134334564209 0.94532501697540283 0.39786207675933838
0.9932820200920105 0.94825351238250732 0.38404056429862976
0.99999040365219116 0.95098817348480225 0.36860570311546326
1 0.95249038934707642 0.3465569019317627
1 0.94730043411254883 0.32624763250350952
0.016719488427042961 0.030306737869977951 0.11720262467861176
0.070809565484523773 0.025850048288702965 0.11438976973295212
0.14506116509437561 0.023418141528964043 0.11013862490653992
0.22406691312789917 0.023472176864743233 0.10700447112321854
0.30194181203842163 0.026649938896298409 0.10815668851137161
0.38183876872062683 0.027955343946814537 0.10945101082324982
0.46535539627075195 0.030070152133703232 0.11144373565912247
0.5507163405418396 0.033875558525323868 0.11502575129270554
0.6363213062286377 0.034644406288862228 0.1162116676568985
0.72068864107131958 0.039884813129901886 0.12423849850893021
0.8021354079246521 0.048111423850059509 0.13703753054141998
0.87764114141464233 0.057645894587039948 0.15244884788990021
0.94381976127624512 0.065442882478237152 0.16696684062480927
0.049896061420440674 0.10525071620941162 0.15187692642211914
0.096048586070537567 0.1022956371307373 0.14914166927337646
0.16412657499313354 0.096943169832229614 0.14358985424041748
0.24069258570671082 0.092256151139736176 0.13696196675300598
0.31833985447883606 0.087214529514312744 0.13109929859638214
0.39778444170951843 0.079394742846488953 0.12548087537288666
0.48001447319984436 0.070862837135791779 0.12093620747327805
0.56354779005050659 0.060877092182636261 0.11594858765602112
0.6474263072013855 0.049684248864650726 0.11134982854127884
0.73053574562072754 0.044800344854593277 0.11444456875324249
0.81151014566421509 0.04980405792593956 0.12759645283222198
0.8868597149848938 0.058734878897666931 0.14479799568653107
0.95283907651901245 0.065964564681053162 0.16122676432132721
0.089416727423667908 0.18769720196723938 0.19070936739444733
0.12782579660415649 0.18592023849487305 0.18704530596733093
0.18644033372402191 0.1821027547121048 0.18184502422809601
0.25918588042259216 0.17622250318527222 0.17547985911369324
0.33604305982589722 0.16819740831851959 0.16770391166210175
0.41524961590766907 0.15651652216911316 0.15988637506961823
0.4964873194694519 0.14070990681648254 0.15153543651103973
0.57857596874237061 0.11979193240404129 0.14074419438838959
0.6602972149848938 0.095290377736091614 0.12895749509334564
0.74146091938018799 0.075834758579730988 0.12297835946083069
0.82124841213226318 0.069888606667518616 0.1308906078338623
0.89530801773071289 0.068329766392707825 0.14297355711460114
0.96005380153656006 0.067771300673484802 0.1561816930770874
0.10824301093816757 0.27171128988265991 0.22400684654712677
0.14655555784702301 0.27194741368293762 0.21985332667827606
0.20733283460140228 0.26987305283546448 0.21696780622005463
0.28108114004135132 0.26559543609619141 0.21349857747554779
0.35679352283477783 0.25931641459465027 0.20859003067016602
0.43561077117919922 0.2490256130695343 0.20358234643936157
0.51615071296691895 0.23351815342903137 0.19740180671215057
0.5972905158996582 0.21068301796913147 0.18679343163967133
0.67754471302032471 0.18268674612045288 0.1739250123500824
0.75727266073226929 0.15411895513534546 0.16325423121452332
0.83506947755813599 0.12641972303390503 0.15705974400043488
0.90682524442672729 0.097599431872367859 0.15282498300075531
0.96886259317398071 0.075500532984733582 0.15332025289535522
0.13801240921020508 0.35522341728210449 0.24921469390392303
0.17876765131950378 0.35627350211143494 0.24593868851661682
0.23987281322479248 0.35556909441947937 0.24404279887676239
0.31137821078300476 0.35335946083068848 0.24295063316822052
0.38514292240142822 0.34971523284912109 0.24258896708488464
0.46186113357543945 0.34372633695602417 0.24268414080142975
0.5414767861366272 0.33384659886360168 0.24176757037639618
0.62155830860137939 0.3158901035785675 0.23620711266994476
0.70091074705123901 0.29328063130378723 0.22806951403617859
0.77840304374694824 0.26510050892829895 0.21912559866905212
0.85487264394760132 0.22222542762756348 0.2041277140378952
0.92389696836471558 0.16473683714866638 0.1831703782081604
0.980632483959198 0.10710678249597549 0.16277338564395905
