films/fuji_800z.cube
# Created by: G'MIC (https://gmic.eu)
TITLE "fuji_800z"
# LUT size
LUT_3D_SIZE 7
# Data domain
DOMAIN_MIN 0.0 0.0 0.0
DOMAIN_MAX 1.0 1.0 1.0
# LUT data points
0.059151533991098404 0.060300491750240326 0.05031483992934227
0.18582090735435486 0.058842930942773819 0.047016561031341553
0.38314208388328552 0.021112734451889992 0.043708816170692444
0.60574346780776978 0.0018454159144312143 0.03165251761674881
0.809131920337677 0.0020193213131278753 0.012377286329865456
0.94916033744812012 0.0072387396357953548 0.010106689296662807
0.99987614154815674 0.10514646023511887 0.0047897039912641048
0.064549721777439117 0.16179263591766357 0.067099764943122864
0.16361966729164124 0.17934733629226685 0.056606650352478027
0.37024068832397461 0.19367595016956329 0.025919506326317787
0.59772467613220215 0.1805286705493927 0.011274853721261024
0.79602867364883423 0.17456546425819397 0.002479747636243701
0.93650615215301514 0.19730374217033386 0.00019058526959270239
0.99952751398086548 0.2614046037197113 4.6673944780195598e-06
0.065014258027076721 0.30693450570106506 0.09606577455997467
0.14815071225166321 0.30256962776184082 0.091966710984706879
0.34002229571342468 0.36873850226402283 0.036296319216489792
0.5870252251625061 0.41027286648750305 0.00031062107882462442
0.76540780067443848 0.40218296647071838 0
0.90599864721298218 0.40434390306472778 0
0.99447351694107056 0.42748761177062988 0
0.087463840842247009 0.45319309830665588 0.13689936697483063
0.15534625947475433 0.43988463282585144 0.1343345046043396
0.29123938083648682 0.46518069505691528 0.11952009052038193
0.52403491735458374 0.54870522022247314 0.052773613482713699
0.75409567356109619 0.59865754842758179 0.0013891481794416904
0.88743871450424194 0.58100706338882446 0
0.99025493860244751 0.57610201835632324 0
0.16560979187488556 0.59170609712600708 0.19110436737537384
0.21078233420848846 0.57364630699157715 0.18518546223640442
0.30309131741523743 0.57121455669403076 0.18756730854511261
0.46887949109077454 0.62187623977661133 0.17955158650875092
0.67338895797729492 0.6850929856300354 0.15578942000865936
0.86125797033309937 0.73489230871200562 0.10862142592668533
0.98328042030334473 0.7322007417678833 0.061106737703084946
0.32479548454284668 0.73397266864776611 0.30835402011871338
0.34923595190048218 0.72371828556060791 0.30240121483802795
0.40278223156929016 0.70827251672744751 0.3043915331363678
0.50428813695907593 0.72635114192962646 0.30670157074928284
0.65239810943603516 0.77298253774642944 0.32239577174186707
0.80923914909362793 0.8237919807434082 0.34624746441841125
0.95894539356231689 0.86492365598678589 0.35408118367195129
0.56447482109069824 0.89070379734039307 0.55293923616409302
0.57195085287094116 0.88672679662704468 0.5482860803604126
0.60947287082672119 0.88307344913482666 0.56704056262969971
0.66226154565811157 0.88725155591964722 0.58029317855834961
0.73719918727874756 0.90767323970794678 0.59114623069763184
0.82802587747573853 0.93194365501403809 0.60482692718505859
0.93142372369766235 0.95141488313674927 0.61501437425613403
0.082999162375926971 0.073619410395622253 0.15268902480602264
0.19911979138851166 0.072391241788864136 0.15632995963096619
0.41384664177894592 0.020547904074192047 0.16026464104652405
0.64150500297546387 0.0017942092381417751 0.1716047078371048
0.82730305194854736 1.4361213516167481e-06 0.16643194854259491
0.95263832807540894 0.0078228823840618134 0.15672247111797333
1 0.10681986808776855 0.15688461065292358
0.083544395864009857 0.18908892571926117 0.16194944083690643
0.20290951430797577 0.19827936589717865 0.16855959594249725
0.403097003698349 0.19647029042243958 0.16403394937515259
0.62693411111831665 0.16596598923206329 0.15776322782039642
0.80812859535217285 0.1557900458574295 0.14988173544406891
0.94618105888366699 0.20165741443634033 0.14782881736755371
1 0.26492345333099365 0.1513979434967041
0.11514448374509811 0.35632938146591187 0.18864567577838898
0.2039932906627655 0.34183871746063232 0.19423311948776245
0.37299448251724243 0.37954196333885193 0.1799420565366745
0.60001939535140991 0.40406453609466553 0.14048272371292114
0.77547234296798706 0.40009921789169312 0.1159236952662468
0.9162898063659668 0.40817081928253174 0.10774338990449905
0.99721193313598633 0.42815381288528442 0.11649385094642639
0.16769032180309296 0.49464806914329529 0.22133384644985199
0.22492954134941101 0.47862419486045837 0.22332280874252319
0.32830098271369934 0.47747257351875305 0.21509811282157898
0.54837065935134888 0.55962717533111572 0.19363948702812195
0.75251168012619019 0.59580224752426147 0.14323511719703674
0.88581013679504395 0.57779639959335327 0.10060643404722214
0.99272173643112183 0.57787090539932251 0.088345274329185486
0.23363006114959717 0.61875545978546143 0.26769724488258362
0.27111834287643433 0.60397237539291382 0.26227715611457825
0.33801448345184326 0.5889887809753418 0.25428274273872375
0.48603576421737671 0.62797516584396362 0.25765302777290344
0.68278497457504272 0.69025129079818726 0.26500782370567322
0.86345195770263672 0.73356455564498901 0.24919328093528748
0.98277771472930908 0.72977679967880249 0.21515485644340515
0.35691091418266296 0.74277198314666748 0.35822811722755432
0.38210204243659973 0.7358095645904541 0.35864454507827759
0.42260304093360901 0.71800810098648071 0.35210910439491272
0.51498711109161377 0.72822779417037964 0.35764339566230774
0.65341746807098389 0.77087044715881348 0.37214657664299011
0.81082415580749512 0.82465136051177979 0.40108314156532288
0.94998264312744141 0.8595396876335144 0.41996908187866211
0.56306713819503784 0.8903573751449585 0.56846314668655396
0.57865399122238159 0.88906800746917725 0.5709158182144165
0.60538703203201294 0.88299202919006348 0.57727313041687012
0.66438859701156616 0.88758307695388794 0.59593158960342407
0.73730993270874023 0.90709453821182251 0.60676556825637817
0.82667404413223267 0.92934596538543701 0.6148688793182373
0.93054139614105225 0.95247596502304077 0.63199210166931152
0.11281558871269226 0.085202567279338837 0.31999132037162781
0.23299731314182281 0.090908750891685486 0.32752710580825806
0.41298079490661621 0.054337326437234879 0.34701359272003174
0.67053133249282837 0.00422693882137537 0.36514380574226379
0.87011301517486572 0.001310251303948462 0.37128752470016479
0.96439510583877563 0.01668994314968586 0.36051911115646362
0.99960094690322876 0.1562379002571106 0.36687973141670227
0.093099422752857208 0.19410906732082367 0.33151060342788696
0.22896742820739746 0.20557934045791626 0.34130021929740906
0.43368050456047058 0.220054030418396 0.35930821299552917
0.67054009437561035 0.1752120703458786 0.37446492910385132
0.84472739696502686 0.17554199695587158 0.37755247950553894
0.95738226175308228 0.22126415371894836 0.36920842528343201
0.99960559606552124 0.29319366812705994 0.38035380840301514
0.089469030499458313 0.39915728569030762 0.35681390762329102
0.23873849213123322 0.40209609270095825 0.36499473452568054
0.42352122068405151 0.40802004933357239 0.37465342879295349
0.63484543561935425 0.4129636287689209 0.37421193718910217
0.7991178035736084 0.40838029980659485 0.36499753594398499
0.9269060492515564 0.42021992802619934 0.36349833011627197
0.99928408861160278 0.44537144899368286 0.36618882417678833
0.22740331292152405 0.57598602771759033 0.39215171337127686
0.31703269481658936 0.56825661659240723 0.39490541815757751
0.4108273983001709 0.53379815816879272 0.38290613889694214
0.57980805635452271 0.57182252407073975 0.38003981113433838
0.75638586282730103 0.58707946538925171 0.36344298720359802
0.88716000318527222 0.57367050647735596 0.3405449390411377
0.99084818363189697 0.58020144701004028 0.34004175662994385
0.35587003827095032 0.66895586252212524 0.42048966884613037
0.38644346594810486 0.66225200891494751 0.4150393009185791
0.42154192924499512 0.63174664974212646 0.39523035287857056
0.51880741119384766 0.63431316614151001 0.38616299629211426
0.70577442646026611 0.70513397455215454 0.42018181085586548
0.85955464839935303 0.72680580615997314 0.40975069999694824
0.98064333200454712 0.72571182250976562 0.3866112232208252
0.43688032031059265 0.77046006917953491 0.47537404298782349
0.4562627375125885 0.76284444332122803 0.46855273842811584
0.47964155673980713 0.74403125047683716 0.45398291945457458
0.53088945150375366 0.72939056158065796 0.43639430403709412
0.66173624992370605 0.76956218481063843 0.46769589185714722
0.81270778179168701 0.82427436113357544 0.50080043077468872
0.9541584849357605 0.86580359935760498 0.52655762434005737
0.58134829998016357 0.9004286527633667 0.62129312753677368
0.59417635202407837 0.89596790075302124 0.61584347486495972
0.62540721893310547 0.89537841081619263 0.6229286789894104
0.66842269897460938 0.89203357696533203 0.62774932384490967
0.73692411184310913 0.90576004981994629 0.64087730646133423
0.82766783237457275 0.92922759056091309 0.64991050958633423
0.93861150741577148 0.95916807651519775 0.67443734407424927
0.18189683556556702 0.10190519690513611 0.51619738340377808
0.28380867838859558 0.10551021993160248 0.52149391174316406
0.45568335056304932 0.11211297661066055 0.53829514980316162
0.65107160806655884 0.067672088742256165 0.56278401613235474
0.85124450922012329 0.024959804490208626 0.57935017347335815
0.98743444681167603 0.06779981404542923 0.56483548879623413
1 0.22793865203857422 0.5555538535118103
0.17888955771923065 0.21500962972640991 0.52300012111663818
0.2962171733379364 0.22231060266494751 0.53172653913497925
0.46309080719947815 0.23920236527919769 0.54822111129760742
0.6522713303565979 0.24530842900276184 0.56825870275497437
0.8385424017906189 0.22953455150127411 0.58187186717987061
0.9742618203163147 0.27422034740447998 0.56939065456390381
1 0.35083407163619995 0.56988871097564697
0.08387099951505661 0.37079682946205139 0.52992886304855347
0.25029873847961426 0.38481432199478149 0.53898519277572632
0.44349867105484009 0.40587875247001648 0.553993821144104
0.64660346508026123 0.43848815560340881 0.57834511995315552
0.81698501110076904 0.44369879364967346 0.58885222673416138
0.94358807802200317 0.46606850624084473 0.58475923538208008
0.99891126155853271 0.48928174376487732 0.58236807584762573
0.20448406040668488 0.59315186738967896 0.5600048303604126
0.31886327266693115 0.59423667192459106 0.56398576498031616
0.46694236993789673 0.5929378867149353 0.57286590337753296
0.61757433414459229 0.59585690498352051 0.58000785112380981
0.7713310718536377 0.6021844744682312 0.58152270317077637
0.89322412014007568 0.59686774015426636 0.56994462013244629
0.99063622951507568 0.60150939226150513 0.56338262557983398
0.43064028024673462 0.73345178365707397 0.59401994943618774
0.47292575240135193 0.72671842575073242 0.59455221891403198
0.5301862359046936 0.70530688762664795 0.58744174242019653
0.6041528582572937 0.68105947971343994 0.57046961784362793
0.71915954351425171 0.70906764268875122 0.57810825109481812
0.86039835214614868 0.72653234004974365 0.57072943449020386
0.97827398777008057 0.72375226020812988 0.56013137102127075
0.52323818206787109 0.81401324272155762 0.61996185779571533
0.53990286588668823 0.80479884147644043 0.6128881573677063
0.56339460611343384 0.78988319635391235 0.59852010011672974
0.59520441293716431 0.76233077049255371 0.57228827476501465
0.67322689294815063 0.76952707767486572 0.57345306873321533
0.82472598552703857 0.83509624004364014 0.62533295154571533
0.95671451091766357 0.86450105905532837 0.63359934091567993
0.60661453008651733 0.91786187887191772 0.68933790922164917
0.61930608749389648 0.91013944149017334 0.68545234203338623
0.64124685525894165 0.90808576345443726 0.68252760171890259
0.68528401851654053 0.90601396560668945 0.68638598918914795
0.73365706205368042 0.9019044041633606 0.68193596601486206
0.82771068811416626 0.93071985244750977 0.70118790864944458
0.94260978698730469 0.95938915014266968 0.72735309600830078
0.28917708992958069 0.12796825170516968 0.68890565633773804
0.37033745646476746 0.13257452845573425 0.69129425287246704
0.50799465179443359 0.14783370494842529 0.69863516092300415
0.66669535636901855 0.18741673231124878 0.71213209629058838
0.81658828258514404 0.19874699413776398 0.72994369268417358
0.9510074257850647 0.22312408685684204 0.73465853929519653
0.99970483779907227 0.30685055255889893 0.72081881761550903
0.30132198333740234 0.24053654074668884 0.69099724292755127
0.38590672612190247 0.24351002275943756 0.69729584455490112
0.51471048593521118 0.25785341858863831 0.70376294851303101
0.66434049606323242 0.29380816221237183 0.71502107381820679
0.80461007356643677 0.32767340540885925 0.72925800085067749
0.94607609510421753 0.34532579779624939 0.73374301195144653
1 0.40593627095222473 0.72850948572158813
0.22579178214073181 0.37923321127891541 0.68624109029769897
0.32960548996925354 0.38426181674003601 0.692970871925354
0.49795934557914734 0.41658303141593933 0.70107150077819824
0.65133452415466309 0.45145916938781738 0.7156183123588562
0.7933165431022644 0.48880639672279358 0.72961366176605225
0.92245501279830933 0.50450658798217773 0.73942744731903076
0.99764817953109741 0.54176372289657593 0.73791658878326416
0.2061208188533783 0.54556500911712646 0.68716377019882202
0.29710519313812256 0.54767793416976929 0.68948948383331299
0.44899860024452209 0.55703902244567871 0.69362860918045044
0.6247323751449585 0.58954668045043945 0.70985424518585205
0.77747750282287598 0.62560254335403442 0.73072582483291626
0.90440666675567627 0.63775646686553955 0.74365729093551636
0.99814802408218384 0.65164405107498169 0.74094963073730469
0.39811691641807556 0.73082506656646729 0.71862584352493286
0.45232874155044556 0.73369014263153076 0.72080451250076294
0.53505855798721313 0.72907727956771851 0.71982800960540771
0.64671826362609863 0.73051029443740845 0.72531193494796753
0.75296527147293091 0.73251581192016602 0.73138505220413208
0.87186086177825928 0.73929756879806519 0.72782200574874878
0.98252350091934204 0.74186497926712036 0.72455775737762451
0.56874704360961914 0.85173171758651733 0.74293786287307739
0.58938437700271606 0.85046690702438354 0.74165278673171997
0.62523376941680908 0.84210348129272461 0.74045699834823608
0.68587213754653931 0.83223104476928711 0.73786097764968872
0.7194209098815918 0.79561448097229004 0.70472252368927002
0.83022207021713257 0.83579927682876587 0.73379772901535034
0.95789754390716553 0.86000174283981323 0.73786485195159912
0.64923655986785889 0.93802398443222046 0.77882909774780273
0.66755986213684082 0.9375801682472229 0.77870774269104004
0.68926846981048584 0.93621009588241577 0.77660059928894043
0.72103840112686157 0.93000119924545288 0.76841843128204346
0.75012403726577759 0.90911883115768433 0.74810034036636353
0.82389295101165771 0.92393571138381958 0.76188844442367554
0.94160014390945435 0.95551919937133789 0.79000240564346313
0.4372313916683197 0.20611968636512756 0.82650387287139893
0.48560601472854614 0.21306256949901581 0.82835894823074341
0.58235877752304077 0.23514120280742645 0.82952231168746948
0.70008927583694458 0.27357521653175354 0.833548903465271
0.81809395551681519 0.34315013885498047 0.83825469017028809
0.92908710241317749 0.38206902146339417 0.84842079877853394
0.99891215562820435 0.40268552303314209 0.85148674249649048
0.43840166926383972 0.29202306270599365 0.82423496246337891
0.49061459302902222 0.29835277795791626 0.82899326086044312
0.57999205589294434 0.31842240691184998 0.82965683937072754
0.69554692506790161 0.35893535614013672 0.83282530307769775
0.81249654293060303 0.41651666164398193 0.83800274133682251
0.92362684011459351 0.45351359248161316 0.84818869829177856
0.99808454513549805 0.47033533453941345 0.85135304927825928
0.41212946176528931 0.42381611466407776 0.8180277943611145
0.46582236886024475 0.42711380124092102 0.82296293973922729
0.56890088319778442 0.44779735803604126 0.82475656270980835
0.68275958299636841 0.47822847962379456 0.829914391040802
0.79999017715454102 0.52935254573822021 0.83589965105056763
0.90904361009597778 0.56022614240646362 0.84710657596588135
0.99659055471420288 0.57189369201660156 0.85659784078598022
0.30728954076766968 0.53012460470199585 0.80928367376327515
0.37525960803031921 0.53963369131088257 0.80946767330169678
0.50512152910232544 0.55756407976150513 0.81209659576416016
0.65298223495483398 0.58971762657165527 0.81999945640563965
0.78266531229019165 0.63317131996154785 0.83144664764404297
0.8974718451499939 0.66208100318908691 0.84890824556350708
0.99462485313415527 0.67689687013626099 0.85927200317382812
0.36346974968910217 0.69429218769073486 0.81425011157989502
0.40362647175788879 0.69152522087097168 0.81506907939910889
0.49176451563835144 0.68825322389602661 0.81391626596450806
0.61548733711242676 0.69600075483322144 0.81647002696990967
0.74847948551177979 0.71805256605148315 0.82539385557174683
0.87705636024475098 0.76154619455337524 0.84776383638381958
0.98457151651382446 0.77768784761428833 0.85485672950744629
0.54263222217559814 0.85224777460098267 0.83561915159225464
0.5584685206413269 0.85135382413864136 0.8363337516784668
0.6024666428565979 0.84825634956359863 0.8371700644493103
0.6822548508644104 0.85162997245788574 0.84171175956726074
0.76415461301803589 0.84853613376617432 0.84232068061828613
0.85748434066772461 0.85228008031845093 0.84456938505172729
0.96754127740859985 0.86218500137329102 0.84542983770370483
0.68840932846069336 0.96022588014602661 0.86375290155410767
0.7037888765335083 0.96309345960617065 0.86683452129364014
0.72481822967529297 0.96084749698638916 0.86825478076934814
0.77420520782470703 0.95578163862228394 0.86698156595230103
0.81565004587173462 0.95244300365447998 0.86145162582397461
0.85798549652099609 0.94291484355926514 0.85291075706481934
0.94884902238845825 0.95942217111587524 0.86495256423950195
0.60602235794067383 0.39170250296592712 0.94638007879257202
0.63058829307556152 0.39806273579597473 0.94501346349716187
0.69029426574707031 0.41829288005828857 0.94278955459594727
0.76742362976074219 0.44747179746627808 0.94231867790222168
0.85265034437179565 0.50111997127532959 0.94197410345077515
0.93656593561172485 0.55505049228668213 0.93995952606201172
0.99669694900512695 0.5698133111000061 0.94611930847167969
0.60436451435089111 0.44750741124153137 0.94158774614334106
0.62933266162872314 0.44544690847396851 0.94163793325424194
0.68717396259307861 0.46813619136810303 0.94249314069747925
0.76493000984191895 0.49852862954139709 0.94135379791259766
0.84850656986236572 0.53812462091445923 0.93858128786087036
0.93371707201004028 0.59416550397872925 0.93873077630996704
0.99808615446090698 0.60344123840332031 0.94329226016998291
0.59768730401992798 0.53743827342987061 0.93830287456512451
0.62339997291564941 0.53954339027404785 0.93964570760726929
0.67956990003585815 0.5512622594833374 0.93865782022476196
0.75652152299880981 0.57204782962799072 0.93919450044631958
0.84315913915634155 0.60756909847259521 0.9381367564201355
0.92736506462097168 0.64525538682937622 0.93917018175125122
0.99720114469528198 0.6506800651550293 0.94534313678741455
0.54232871532440186 0.6165580153465271 0.93721973896026611
0.5716090202331543 0.61568546295166016 0.93749439716339111
0.64684194326400757 0.62995845079421997 0.9376225471496582
0.73928701877593994 0.65048712491989136 0.93762898445129395
0.82925564050674438 0.67367208003997803 0.93755501508712769
0.91645890474319458 0.71259409189224243 0.93858522176742554
0.99273169040679932 0.72497904300689697 0.94408571720123291
0.47419527173042297 0.70651179552078247 0.93356096744537354
0.51133960485458374 0.70930814743041992 0.93386900424957275
0.56376534700393677 0.70740634202957153 0.93251001834869385
0.67207711935043335 0.72053885459899902 0.93370097875595093
0.78671962022781372 0.73933237791061401 0.93400543928146362
0.90003311634063721 0.78299587965011597 0.93968367576599121
0.98469096422195435 0.80884271860122681 0.94551628828048706
0.54609894752502441 0.84840118885040283 0.93350636959075928
0.56133252382278442 0.85015749931335449 0.93694567680358887
0.59531408548355103 0.84434050321578979 0.93574315309524536
0.66339898109436035 0.84029167890548706 0.93644893169403076
0.74908804893493652 0.8380579948425293 0.93740123510360718
0.86432236433029175 0.85554307699203491 0.94169521331787109
0.97504335641860962 0.88804095983505249 0.95006150007247925
0.660411536693573 0.96661782264709473 0.94685405492782593
0.6755642294883728 0.97009038925170898 0.95071512460708618
0.70507872104644775 0.96905505657196045 0.95206612348556519
0.75315564870834351 0.96542632579803467 0.94901597499847412
0.81613373756408691 0.96621918678283691 0.95128655433654785
0.88502633571624756 0.96415901184082031 0.95333725214004517
0.96947324275970459 0.97036075592041016 0.95569789409637451
