films/fuji_400h.cube
# Created by: G'MIC (https://gmic.eu)
TITLE "fuji_400h"
# LUT size
LUT_3D_SIZE 7
# Data domain
DOMAIN_MIN 0.0 0.0 0.0
DOMAIN_MAX 1.0 1.0 1.0
# LUT data points
0.043377581983804703 0.048464622348546982 0.037953693419694901
0.16284768283367157 0.045975133776664734 0.030518939718604088
0.37474772334098816 0.02484608069062233 0.027268294245004654
0.62136602401733398 0.011270022019743919 0.017764925956726074
0.81648898124694824 0.025049440562725067 0.0062667997553944588
0.94718718528747559 0.1026141569018364 0.0072112740017473698
0.99965870380401611 0.23529140651226044 0.019678197801113129
0.005862935446202755 0.16603006422519684 0.029048904776573181
0.13412655889987946 0.17176418006420135 0.026241542771458626
0.37375789880752563 0.17904843389987946 0.0082727018743753433
0.61925607919692993 0.16938577592372894 0.0029037175700068474
0.80897903442382812 0.19415666162967682 0.00095593323931097984
0.93889820575714111 0.24734562635421753 0.00083754298975691199
0.99946218729019165 0.32572656869888306 0.0010693419026210904
0 0.35215723514556885 0.017967822030186653
0.074823372066020966 0.35113134980201721 0.015872027724981308
0.3356177806854248 0.37106046080589294 0.0001035802488331683
0.58885902166366577 0.38157784938812256 0
0.78110116720199585 0.39572986960411072 0
0.9177095890045166 0.42022949457168579 0
0.99887245893478394 0.45100867748260498 0.00014002183161210269
0 0.54111915826797485 0.012171352282166481
0.049249373376369476 0.53195697069168091 0.029659973457455635
0.28549793362617493 0.53368782997131348 0.0065356236882507801
0.53913342952728271 0.54724752902984619 0.00030481675639748573
0.73784995079040527 0.56548738479614258 0
0.88572657108306885 0.56909632682800293 0
0.99453943967819214 0.57464933395385742 6.3204301113728434e-05
9.8015283583663404e-05 0.68625169992446899 0.087783008813858032
0.072056695818901062 0.67673736810684204 0.11040839552879333
0.29215428233146667 0.67156654596328735 0.12047572433948517
0.51088100671768188 0.67594879865646362 0.06501421332359314
0.68967735767364502 0.68526321649551392 0.023998454213142395
0.84497493505477905 0.69459128379821777 0.0011347302934154868
0.98290365934371948 0.70180219411849976 0.0013733807718381286
0.1212393045425415 0.81091445684432983 0.26478150486946106
0.226448655128479 0.8050837516784668 0.26460817456245422
0.3893338143825531 0.80106574296951294 0.28754213452339172
0.53214198350906372 0.80289697647094727 0.28182229399681091
0.6689874529838562 0.80642801523208618 0.24465607106685638
0.81025207042694092 0.81199663877487183 0.20153693854808807
0.96607047319412231 0.82815074920654297 0.18170581758022308
0.40877172350883484 0.9367985725402832 0.47865772247314453
0.43338626623153687 0.93173998594284058 0.46747905015945435
0.50743591785430908 0.92984867095947266 0.48985269665718079
0.59352046251296997 0.93302518129348755 0.52263516187667847
0.68861949443817139 0.93679803609848022 0.51394617557525635
0.80694550275802612 0.94175052642822266 0.48868945240974426
0.93976002931594849 0.94498026371002197 0.43588364124298096
0.06131318211555481 0.050550259649753571 0.14885605871677399
0.18005050718784332 0.048705935478210449 0.15406471490859985
0.38584274053573608 0.014209612272679806 0.16082972288131714
0.64329695701599121 0.0053495368920266628 0.1653401255607605
0.82622957229614258 0.0098070036619901657 0.17970512807369232
0.95142686367034912 0.13466490805149078 0.17926453053951263
0.99997198581695557 0.26244574785232544 0.20079891383647919
0.014090848155319691 0.18651624023914337 0.16194240748882294
0.18019026517868042 0.19014663994312286 0.16643773019313812
0.40524530410766602 0.1832028329372406 0.16219678521156311
0.64443063735961914 0.17467030882835388 0.1593620777130127
0.81517302989959717 0.20041798055171967 0.15549500286579132
0.93986892700195312 0.2687319815158844 0.16367539763450623
0.99922794103622437 0.33814260363578796 0.17590485513210297
0.00058952783001586795 0.39100828766822815 0.17082127928733826
0.13076227903366089 0.38241258263587952 0.17556607723236084
0.37664172053337097 0.38795182108879089 0.15563879907131195
0.61973845958709717 0.39113274216651917 0.11109384149312973
0.79149967432022095 0.40099313855171204 0.10857551544904709
0.9182811975479126 0.42500278353691101 0.10641391575336456
0.99685674905776978 0.45403501391410828 0.13051213324069977
0.00011488970631035045 0.56385129690170288 0.18250560760498047
0.074978724122047424 0.55414068698883057 0.19319237768650055
0.31779161095619202 0.54797208309173584 0.18359071016311646
0.56160348653793335 0.55709171295166016 0.14249484241008759
0.7483898401260376 0.56653791666030884 0.081155009567737579
0.88725954294204712 0.56964778900146484 0.040583204478025436
0.9939873218536377 0.57519543170928955 0.058532610535621643
0.03812326118350029 0.69744378328323364 0.22837120294570923
0.084382392466068268 0.68818539381027222 0.23539808392524719
0.32079628109931946 0.67778772115707397 0.24273961782455444
0.52451914548873901 0.67885750532150269 0.22773255407810211
0.69707882404327393 0.68920409679412842 0.17850032448768616
0.85138803720474243 0.70201784372329712 0.13589118421077728
0.98447954654693604 0.70308130979537964 0.10209836810827255
0.21011875569820404 0.81442570686340332 0.33789488673210144
0.26724526286125183 0.810413658618927 0.34556806087493896
0.40626925230026245 0.80202430486679077 0.35920253396034241
0.53635382652282715 0.7990039587020874 0.3569340705871582
0.66729474067687988 0.80319666862487793 0.33781006932258606
0.81376379728317261 0.81685805320739746 0.31587928533554077
0.95995217561721802 0.8259769082069397 0.27857935428619385
0.42449256777763367 0.93486177921295166 0.50754642486572266
0.45827454328536987 0.9372856616973877 0.51800763607025146
0.51809585094451904 0.93228065967559814 0.53002440929412842
0.59300380945205688 0.92836856842041016 0.53893864154815674
0.68656998872756958 0.93257409334182739 0.5384899377822876
0.80447173118591309 0.94376999139785767 0.54102218151092529
0.93520891666412354 0.94802272319793701 0.50192803144454956
0.078263118863105774 0.063994571566581726 0.35019508004188538
0.22440958023071289 0.057077355682849884 0.3589632511138916
0.42389309406280518 0.025415142998099327 0.36621764302253723
0.64848113059997559 0.0011435116175562143 0.37191778421401978
0.83450716733932495 0.0073106954805552959 0.3783104419708252
0.95125985145568848 0.10355644673109055 0.39168626070022583
1 0.27838817238807678 0.40727138519287109
0.041229218244552612 0.18809510767459869 0.3583739697933197
0.21802744269371033 0.19807572662830353 0.37019675970077515
0.44391071796417236 0.19472922384738922 0.38526222109794617
0.66299384832382202 0.16254372894763947 0.39191511273384094
0.82465487718582153 0.20921605825424194 0.3946831226348877
0.93883383274078369 0.30462631583213806 0.40888357162475586
1 0.3732110857963562 0.41190555691719055
0.0011784123489633203 0.40440660715103149 0.38995411992073059
0.15660218894481659 0.41318517923355103 0.39562720060348511
0.43828094005584717 0.41642403602600098 0.40089881420135498
0.64757233858108521 0.41781806945800781 0.39650598168373108
0.79709833860397339 0.42662486433982849 0.39066731929779053
0.91539639234542847 0.45712742209434509 0.40063267946243286
0.99704635143280029 0.48604324460029602 0.40992891788482666
0.060217838734388351 0.60499483346939087 0.42023834586143494
0.23021693527698517 0.5992046594619751 0.41575175523757935
0.42006266117095947 0.58361583948135376 0.41223448514938354
0.59656298160552979 0.5770336389541626 0.39395132660865784
0.75958573818206787 0.58090770244598389 0.36693373322486877
0.89042514562606812 0.57620429992675781 0.34884470701217651
0.99143105745315552 0.59027260541915894 0.36500832438468933
0.21825800836086273 0.7158927321434021 0.43094548583030701
0.28838855028152466 0.7097930908203125 0.42415794730186462
0.41409391164779663 0.69898581504821777 0.41863870620727539
0.55086499452590942 0.6887248158454895 0.41457459330558777
0.70518600940704346 0.69697749614715576 0.39460280537605286
0.85476219654083252 0.70535695552825928 0.37011688947677612
0.98213154077529907 0.70598167181015015 0.35267788171768188
0.32130041718482971 0.82323449850082397 0.47004795074462891
0.35319477319717407 0.81732696294784546 0.46630942821502686
0.44295528531074524 0.80863791704177856 0.46718320250511169
0.55132722854614258 0.80173957347869873 0.47079622745513916
0.67598336935043335 0.80554074048995972 0.46110159158706665
0.81755328178405762 0.81957238912582397 0.4508364200592041
0.95736896991729736 0.82536524534225464 0.42926475405693054
0.4394589364528656 0.93856841325759888 0.56825995445251465
0.46903622150421143 0.93725097179412842 0.57206499576568604
0.52442020177841187 0.93229633569717407 0.57900768518447876
0.60242676734924316 0.93075400590896606 0.59464627504348755
0.69771641492843628 0.93542623519897461 0.60227620601654053
0.80888760089874268 0.94502407312393188 0.59517920017242432
0.93768572807312012 0.94546568393707275 0.56224101781845093
0.16028045117855072 0.075235314667224884 0.54982548952102661
0.29067030549049377 0.064689159393310547 0.55979543924331665
0.47895744442939758 0.064403027296066284 0.56928062438964844
0.66543817520141602 0.041626200079917908 0.57818162441253662
0.81239384412765503 0.015574466437101364 0.57096642255783081
0.93921399116516113 0.11815498024225235 0.56190890073776245
1 0.25473678112030029 0.56296515464782715
0.1545933336019516 0.20938389003276825 0.55758905410766602
0.2962871789932251 0.21225939691066742 0.56654328107833862
0.49041327834129333 0.22075207531452179 0.58114612102508545
0.66998970508575439 0.22288575768470764 0.59446817636489868
0.81459754705429077 0.22276699542999268 0.58093929290771484
0.93440788984298706 0.28319641947746277 0.57348555326461792
1 0.36918330192565918 0.57894951105117798
0.063816413283348083 0.38348981738090515 0.56487536430358887
0.24256134033203125 0.38885346055030823 0.56741583347320557
0.47156280279159546 0.41205582022666931 0.58040118217468262
0.65751439332962036 0.44145235419273376 0.59260213375091553
0.79378312826156616 0.4421142041683197 0.59116452932357788
0.91117411851882935 0.474232017993927 0.5912168025970459
0.99565720558166504 0.52108883857727051 0.60440915822982788
0.025346718728542328 0.59475839138031006 0.58325362205505371
0.23730236291885376 0.59829449653625488 0.58736056089401245
0.45827475190162659 0.59451019763946533 0.58961623907089233
0.63300156593322754 0.60397088527679443 0.59492212533950806
0.77059024572372437 0.60010397434234619 0.58693766593933105
0.88650017976760864 0.61087322235107422 0.5885424017906189
0.99020123481750488 0.62214469909667969 0.59379738569259644
0.27214780449867249 0.74095767736434937 0.60117053985595703
0.37593868374824524 0.74205654859542847 0.60508912801742554
0.49161821603775024 0.73128336668014526 0.59735387563705444
0.60010594129562378 0.71174651384353638 0.59099751710891724
0.72285062074661255 0.70886009931564331 0.57801753282546997
0.86070293188095093 0.71420586109161377 0.56326687335968018
0.9835008978843689 0.71410644054412842 0.55646592378616333
0.41605782508850098 0.83789306879043579 0.60959303379058838
0.45798510313034058 0.83253699541091919 0.61193406581878662
0.51215231418609619 0.82676035165786743 0.6018974781036377
0.58962482213973999 0.81306588649749756 0.59802675247192383
0.68779242038726807 0.8101915717124939 0.59174227714538574
0.81591248512268066 0.82123702764511108 0.58072704076766968
0.95937031507492065 0.82563382387161255 0.57172536849975586
0.49032071232795715 0.94483572244644165 0.6508299708366394
0.51737082004547119 0.94068902730941772 0.65420186519622803
0.55165785551071167 0.94033986330032349 0.65063273906707764
0.61873608827590942 0.93589878082275391 0.65884160995483398
0.703216552734375 0.9358222484588623 0.66527801752090454
0.81152629852294922 0.9409288763999939 0.65989083051681519
0.94163459539413452 0.94790393114089966 0.65018337965011597
0.32963314652442932 0.10228432714939117 0.70559805631637573
0.4126339852809906 0.09842228889465332 0.71299910545349121
0.55015027523040771 0.12354182451963425 0.71753758192062378
0.70123761892318726 0.16356024146080017 0.72539913654327393
0.82321053743362427 0.20005451142787933 0.72658079862594604
0.92032736539840698 0.21083185076713562 0.71061152219772339
1 0.28613731265068054 0.70388376712799072
0.330222487449646 0.23349715769290924 0.70859932899475098
0.41512349247932434 0.2331165075302124 0.71429473161697388
0.55160963535308838 0.24703963100910187 0.717864990234375
0.69681215286254883 0.29554575681686401 0.72745072841644287
0.81712484359741211 0.32935485243797302 0.72847974300384521
0.92073571681976318 0.32704052329063416 0.71622359752655029
0.99999284744262695 0.37166276574134827 0.70519334077835083
0.25333595275878906 0.38058024644851685 0.70080262422561646
0.3603668212890625 0.39017057418823242 0.70335835218429565
0.53302305936813354 0.41911447048187256 0.71117144823074341
0.67616540193557739 0.45609226822853088 0.72241240739822388
0.79600328207015991 0.48590391874313354 0.72905278205871582
0.90447115898132324 0.4851250946521759 0.71846240758895874
0.99751991033554077 0.50172865390777588 0.70966261625289917
0.1779148131608963 0.54663312435150146 0.69534766674041748
0.30385866761207581 0.55254411697387695 0.69501578807830811
0.47040945291519165 0.56090527772903442 0.70071309804916382
0.63750165700912476 0.59008568525314331 0.71372383832931519
0.77750867605209351 0.62686234712600708 0.7263873815536499
0.88161516189575195 0.6272200345993042 0.72751790285110474
0.98941373825073242 0.63957566022872925 0.72994029521942139
0.28696334362030029 0.72255861759185791 0.71507984399795532
0.36604541540145874 0.72621601819992065 0.71713840961456299
0.48671168088912964 0.72249478101730347 0.71830105781555176
0.62630641460418701 0.72669166326522827 0.72346574068069458
0.74839574098587036 0.72693604230880737 0.72202324867248535
0.86999005079269409 0.7296522855758667 0.71907824277877808
0.98473352193832397 0.73753386735916138 0.72133451700210571
0.41725462675094604 0.85452413558959961 0.73042845726013184
0.46657523512840271 0.85419374704360962 0.73417943716049194
0.54578667879104614 0.8532443642616272 0.73322492837905884
0.64873874187469482 0.84322208166122437 0.73415708541870117
0.73435282707214355 0.83042216300964355 0.72543603181838989
0.83317196369171143 0.8297763466835022 0.71236443519592285
0.97262167930603027 0.82727301120758057 0.7022475004196167
0.52164632081985474 0.95991706848144531 0.75829184055328369
0.55057054758071899 0.95823639631271362 0.7585863471031189
0.59654814004898071 0.95700740814208984 0.75475502014160156
0.66784840822219849 0.94986259937286377 0.75263303518295288
0.73468184471130371 0.94465905427932739 0.74914300441741943
0.82593339681625366 0.9418940544128418 0.74503380060195923
0.95485949516296387 0.9555661678314209 0.74543768167495728
0.49477621912956238 0.19632962346076965 0.83352029323577881
0.54219710826873779 0.20518876612186432 0.83563435077667236
0.62413305044174194 0.23516984283924103 0.83584576845169067
0.72741842269897461 0.28470802307128906 0.83856558799743652
0.83224731683731079 0.36176964640617371 0.84241610765457153
0.92501163482666016 0.38635900616645813 0.84055066108703613
0.99910169839859009 0.38541105389595032 0.83847689628601074
0.49274915456771851 0.29694455862045288 0.8300057053565979
0.54079335927963257 0.30799233913421631 0.83364349603652954
0.62026089429855347 0.32417148351669312 0.83303618431091309
0.7207634449005127 0.36603191494941711 0.83574199676513672
0.82468259334564209 0.4311600923538208 0.8419729471206665
0.91676932573318481 0.45212098956108093 0.84195148944854736
0.99677103757858276 0.45144331455230713 0.83497089147567749
0.46066993474960327 0.43442758917808533 0.82186245918273926
0.50991511344909668 0.43970212340354919 0.8253176212310791
0.60230964422225952 0.45832112431526184 0.82596570253372192
0.70523351430892944 0.48939844965934753 0.83094674348831177
0.80692243576049805 0.53799080848693848 0.8385128378868103
0.90518879890441895 0.55803364515304565 0.83748972415924072
0.99464958906173706 0.55437338352203369 0.8334539532661438
0.33966583013534546 0.53785055875778198 0.8108212947845459
0.41276726126670837 0.54691916704177856 0.81181073188781738
0.53386479616165161 0.56602364778518677 0.81456637382507324
0.67047250270843506 0.60014086961746216 0.8225981593132019
0.78636914491653442 0.63990503549575806 0.83257830142974854
0.89324694871902466 0.65860509872436523 0.83687686920166016
0.99115854501724243 0.65308719873428345 0.83746480941772461
0.33123558759689331 0.68347007036209106 0.81395769119262695
0.38815760612487793 0.68343722820281982 0.81627357006072998
0.48453277349472046 0.68354243040084839 0.81565886735916138
0.61515730619430542 0.69347023963928223 0.81660014390945435
0.74762332439422607 0.71738153696060181 0.82158744335174561
0.88178902864456177 0.74795991182327271 0.83565753698348999
0.98877537250518799 0.75477027893066406 0.84230649471282959
0.41178596019744873 0.837566077709198 0.831767737865448
0.45246872305870056 0.83811616897583008 0.83474498987197876
0.52833724021911621 0.84081912040710449 0.83552563190460205
0.63242644071578979 0.83608990907669067 0.83419674634933472
0.74434369802474976 0.83763009309768677 0.83299446105957031
0.86905181407928467 0.84769058227539062 0.84053009748458862
0.98390787839889526 0.84834194183349609 0.83743637800216675
0.48414403200149536 0.96946960687637329 0.85269767045974731
0.5166434645652771 0.96885436773300171 0.85037499666213989
0.57992011308670044 0.96843540668487549 0.85094696283340454
0.66522949934005737 0.96580964326858521 0.85056257247924805
0.76349955797195435 0.95523715019226074 0.84963709115982056
0.85247492790222168 0.94944536685943604 0.84726303815841675
0.97269254922866821 0.95991772413253784 0.84399926662445068
0.63041388988494873 0.40957626700401306 0.94657802581787109
0.65320843458175659 0.41550040245056152 0.94626516103744507
0.70071530342102051 0.4281158447265625 0.94457048177719116
0.76870781183242798 0.46621677279472351 0.94555109739303589
0.84778779745101929 0.5102507472038269 0.94384348392486572
0.93128156661987305 0.56776183843612671 0.94385027885437012
0.99590909481048584 0.56626784801483154 0.94673371315002441
0.62385022640228271 0.46491929888725281 0.94348788261413574
0.65066409111022949 0.47109463810920715 0.9452933669090271
0.69687062501907349 0.48154968023300171 0.94323432445526123
0.76451796293258667 0.51300889253616333 0.94328385591506958
0.84388637542724609 0.55003494024276733 0.943595290184021
0.92683994770050049 0.5927155613899231 0.94583964347839355
0.99648416042327881 0.59033209085464478 0.94491124153137207
0.61181080341339111 0.54525697231292725 0.93925648927688599
0.63561356067657471 0.55439943075180054 0.94154411554336548
0.68431550264358521 0.56556552648544312 0.94017577171325684
0.75544273853302002 0.58389431238174438 0.93955713510513306
0.83590960502624512 0.61224019527435303 0.94021487236022949
0.92423045635223389 0.65239346027374268 0.94201725721359253
0.99781173467636108 0.65248692035675049 0.94272452592849731
0.56029653549194336 0.62054276466369629 0.93985182046890259
0.59518492221832275 0.62953096628189087 0.94102185964584351
0.6488921046257019 0.63873517513275146 0.93738090991973877
0.73732370138168335 0.65921944379806519 0.93762898445129395
0.8243592381477356 0.68113201856613159 0.93910568952560425
0.91727405786514282 0.70980161428451538 0.94087821245193481
0.99691897630691528 0.71336871385574341 0.94439423084259033
0.48318204283714294 0.70301514863967896 0.9362800121307373
0.51486021280288696 0.70534861087799072 0.93629938364028931
0.57029068470001221 0.7068336009979248 0.93264061212539673
0.67409360408782959 0.7219652533531189 0.93392831087112427
0.79890912771224976 0.74799269437789917 0.94091570377349854
0.90748047828674316 0.77908074855804443 0.94244217872619629
0.99560362100601196 0.78937667608261108 0.94908666610717773
0.48718225955963135 0.82916224002838135 0.94521939754486084
0.51193451881408691 0.82687890529632568 0.94686615467071533
0.56612199544906616 0.82712596654891968 0.94578588008880615
0.64724433422088623 0.82775259017944336 0.94487351179122925
0.75622409582138062 0.83222788572311401 0.93902081251144409
0.88367480039596558 0.84988176822662354 0.9458770751953125
0.99165278673171997 0.87340813875198364 0.95158833265304565
0.49373340606689453 0.96115195751190186 0.95731091499328613
0.53231704235076904 0.96128964424133301 0.95353347063064575
0.5898253321647644 0.96191507577896118 0.9529731273651123
0.66531831026077271 0.9612310528755188 0.95274597406387329
0.76456189155578613 0.9551810622215271 0.95294755697250366
0.86832600831985474 0.95934075117111206 0.95665186643600464
0.98818075656890869 0.97017967700958252 0.96075564622879028
