films/fuji_superia_1600.cube
# Created by: G'MIC (https://gmic.eu)
TITLE "fuji_superia_1600"
# LUT size
LUT_3D_SIZE 5
# Data domain
DOMAIN_MIN 0.0 0.0 0.0
DOMAIN_MAX 1.0 1.0 1.0
# LUT data points
0.062341172248125076 0.097798243165016174 0.10257958620786667
0.18459689617156982 0.10989008843898773 0.10100245475769043
0.49982580542564392 0.11159303039312363 0.085468769073486328
0.79560017585754395 0.13719628751277924 0.047526475042104721
0.99171507358551025 0.25870925188064575 0.0092738578096032143
0.0013591691385954618 0.25056201219558716 0.11375510692596436
0.18238259851932526 0.28827089071273804 0.085975006222724915
0.59432655572891235 0.30033460259437561 0.043148338794708252
0.83041477203369141 0.31302419304847717 0.013181319460272789
0.99628251791000366 0.37969088554382324 0.017192631959915161
0.022213146090507507 0.55193310976028442 0.19059248268604279
0.089882314205169678 0.55512207746505737 0.17327441275119781
0.55889624357223511 0.61771631240844727 0.071353554725646973
0.86047899723052979 0.61671525239944458 0.023767255246639252
0.99887359142303467 0.59343522787094116 0.10339762270450592
0.26395612955093384 0.78263908624649048 0.39975219964981079
0.3178068995475769 0.77618086338043213 0.38640663027763367
0.52215445041656494 0.78765100240707397 0.37148526310920715
0.77235490083694458 0.82789820432662964 0.34490010142326355
0.99269485473632812 0.85160607099533081 0.35133612155914307
0.62146735191345215 0.95266252756118774 0.68628984689712524
0.63805758953094482 0.94992613792419434 0.68438071012496948
0.69333195686340332 0.94760507345199585 0.68835639953613281
0.79032564163208008 0.9578593373298645 0.68522274494171143
0.92309474945068359 0.97239094972610474 0.68120330572128296
0.058555305004119873 0.10277560353279114 0.21582470834255219
0.2026134580373764 0.11085589230060577 0.22435328364372253
0.53711909055709839 0.087344929575920105 0.24095262587070465
0.80043667554855347 0.065865717828273773 0.20526678860187531
0.98848748207092285 0.25730463862419128 0.21396803855895996
0.0020855921320617199 0.27704736590385437 0.25928279757499695
0.2434934675693512 0.29191893339157104 0.26599773764610291
0.57832413911819458 0.29417598247528076 0.25338470935821533
0.80955731868743896 0.31503298878669739 0.23509630560874939
0.99076706171035767 0.38872644305229187 0.2401711642742157
0.18843761086463928 0.58055037260055542 0.38209700584411621
0.29530662298202515 0.56776672601699829 0.36215561628341675
0.57984000444412231 0.6062692403793335 0.32891863584518433
0.85036081075668335 0.60235732793807983 0.30550596117973328
0.99458086490631104 0.60117232799530029 0.32115483283996582
0.36784979701042175 0.79497462511062622 0.50060206651687622
0.42516756057739258 0.78748977184295654 0.49561551213264465
0.55449819564819336 0.78584128618240356 0.48342171311378479
0.78934741020202637 0.83538365364074707 0.47481101751327515
0.99135780334472656 0.85114073753356934 0.48303636908531189
0.64518904685974121 0.95063036680221558 0.71998691558837891
0.66077136993408203 0.95038861036300659 0.71778100728988647
0.71170628070831299 0.94687891006469727 0.72114413976669312
0.79604792594909668 0.95608949661254883 0.71855741739273071
0.92923188209533691 0.97065621614456177 0.72099781036376953
0.023868067190051079 0.10440051555633545 0.49619093537330627
0.25764584541320801 0.11388606578111649 0.51177608966827393
0.56666308641433716 0.14230848848819733 0.52611267566680908
0.83527350425720215 0.25220054388046265 0.54744011163711548
0.9964795708656311 0.29030090570449829 0.50622332096099854
0 0.25837993621826172 0.52401447296142578
0.27676919102668762 0.28780102729797363 0.54162400960922241
0.59422010183334351 0.3409251868724823 0.55276286602020264
0.82742154598236084 0.38355717062950134 0.54479742050170898
0.9934425950050354 0.39384081959724426 0.50393378734588623
0.21163703501224518 0.59484362602233887 0.59169179201126099
0.39514854550361633 0.58491891622543335 0.58757477998733521
0.60557079315185547 0.58064860105514526 0.57514828443527222
0.81183606386184692 0.57382643222808838 0.54928821325302124
0.9843822717666626 0.5923885703086853 0.53149044513702393
0.5792696475982666 0.82001906633377075 0.69715577363967896
0.60919690132141113 0.81358712911605835 0.69312590360641479
0.64514631032943726 0.79725092649459839 0.65765202045440674
0.80285966396331787 0.82894802093505859 0.65564960241317749
0.98031055927276611 0.82726776599884033 0.64889132976531982
0.72973078489303589 0.95435047149658203 0.8074687123298645
0.73035454750061035 0.9531862735748291 0.80240178108215332
0.75227028131484985 0.94873213768005371 0.7944144606590271
0.81387436389923096 0.95441585779190063 0.78848165273666382
0.93512743711471558 0.96850734949111938 0.79497486352920532
0.19014155864715576 0.12104792892932892 0.75549060106277466
0.36806222796440125 0.13061469793319702 0.75957179069519043
0.62199634313583374 0.20251785218715668 0.76349306106567383
0.83047735691070557 0.32201772928237915 0.76923739910125732
0.98647820949554443 0.4657454788684845 0.782024085521698
0.15335488319396973 0.28317123651504517 0.76092129945755005
0.38838717341423035 0.29996398091316223 0.76362150907516479
0.63220417499542236 0.35859152674674988 0.76883774995803833
0.82524764537811279 0.44439122080802917 0.77223509550094604
0.98088544607162476 0.56916457414627075 0.79061615467071533
0.03881429135799408 0.49677380919456482 0.75134223699569702
0.2717738151550293 0.50277966260910034 0.75345206260681152
0.59983867406845093 0.54865473508834839 0.76489710807800293
0.81803160905838013 0.63866019248962402 0.78883320093154907
0.97250628471374512 0.6925622820854187 0.79864370822906494
0.51690816879272461 0.81064116954803467 0.81474912166595459
0.5777929425239563 0.81495988368988037 0.81671321392059326
0.67921572923660278 0.80950760841369629 0.81301921606063843
0.80602210760116577 0.80102217197418213 0.80114370584487915
0.96484768390655518 0.80088776350021362 0.78630250692367554
0.80450630187988281 0.96237248182296753 0.89999872446060181
0.81172084808349609 0.95898997783660889 0.90004158020019531
0.83969086408615112 0.95953452587127686 0.89925748109817505
0.86405342817306519 0.95851272344589233 0.88275545835494995
0.95418113470077515 0.97174590826034546 0.88723611831665039
0.50255304574966431 0.28977280855178833 0.96294426918029785
0.58057355880737305 0.31152763962745667 0.96082562208175659
0.7270958423614502 0.38013544678688049 0.95583349466323853
0.87233465909957886 0.50560438632965088 0.95119041204452515
0.99004632234573364 0.61438536643981934 0.95029991865158081
0.49236574769020081 0.39042967557907104 0.95693141222000122
0.5774121880531311 0.41116610169410706 0.96077448129653931
0.72269237041473389 0.47094500064849854 0.95639300346374512
0.86690324544906616 0.5740056037902832 0.95117580890655518
0.98862802982330322 0.65910369157791138 0.95039969682693481
0.3768000602722168 0.53661066293716431 0.95855438709259033
0.50316667556762695 0.55712199211120605 0.95720237493515015
0.68804490566253662 0.60162842273712158 0.95722341537475586
0.85289222002029419 0.68630373477935791 0.95057719945907593
0.97761893272399902 0.7491004467010498 0.95144528150558472
0.39619994163513184 0.76136362552642822 0.95251226425170898
0.44137784838676453 0.75324010848999023 0.95326262712478638
0.58492958545684814 0.74927955865859985 0.95446527004241943
0.81628412008285522 0.79769712686538696 0.952545166015625
0.96613740921020508 0.86258602142333984 0.95591020584106445
0.75561553239822388 0.96260231733322144 0.96410542726516724
0.77769613265991211 0.96377319097518921 0.96800112724304199
0.82128524780273438 0.96386611461639404 0.96808147430419922
0.88641488552093506 0.96379387378692627 0.97152280807495117
0.98046457767486572 0.9759981632232666 0.98037570714950562
