films/fuji_astia_100f.cube
# Created by: G'MIC (https://gmic.eu)
TITLE "fuji_astia_100f"
# LUT size
LUT_3D_SIZE 7
# Data domain
DOMAIN_MIN 0.0 0.0 0.0
DOMAIN_MAX 1.0 1.0 1.0
# LUT data points
0.042250197380781174 0.040831308811903 0.03519134595990181
0.17198158800601959 0.027508052065968513 0.026206087321043015
0.3311564028263092 0.028498405590653419 0.02145824022591114
0.49411395192146301 0.026728462427854538 0.028212379664182663
0.6630246639251709 0.036007359623908997 0.044696193188428879
0.82387089729309082 0.059844791889190674 0.08833574503660202
0.96781504154205322 0.084653414785861969 0.13181139528751373
0.11153851449489594 0.1942608654499054 0.11478088796138763
0.210474893450737 0.19061359763145447 0.10427941381931305
0.36969748139381409 0.17827363312244415 0.089721396565437317
0.52923375368118286 0.15390448272228241 0.080303043127059937
0.69090330600738525 0.1085074171423912 0.066588923335075378
0.84221172332763672 0.069603428244590759 0.070991605520248413
0.97521054744720459 0.087051630020141602 0.1207621842622757
0.16765260696411133 0.35677498579025269 0.17944793403148651
0.26948338747024536 0.35787749290466309 0.1731162816286087
0.42091721296310425 0.35507452487945557 0.16693159937858582
0.57778656482696533 0.33900421857833862 0.16138251125812531
0.73370277881622314 0.29569917917251587 0.15625365078449249
0.87771499156951904 0.22095060348510742 0.1435360312461853
0.99094301462173462 0.11386460065841675 0.12159356474876404
0.26628148555755615 0.51993691921234131 0.24490860104560852
0.34953358769416809 0.52265125513076782 0.23736944794654846
0.48795747756958008 0.52560281753540039 0.22413894534111023
0.64696264266967773 0.52161037921905518 0.21017259359359741
0.80765730142593384 0.50776189565658569 0.21484933793544769
0.93803864717483521 0.47479093074798584 0.24129459261894226
0.99998599290847778 0.38158255815505981 0.24722525477409363
0.35099366307258606 0.67358356714248657 0.33194586634635925
0.42303672432899475 0.67512029409408569 0.3210042417049408
0.54742026329040527 0.68182158470153809 0.30242586135864258
0.70752471685409546 0.68675166368484497 0.27623319625854492
0.88650631904602051 0.68735939264297485 0.25302356481552124
0.99739551544189453 0.67572247982025146 0.25621086359024048
1 0.63252514600753784 0.32500681281089783
0.45224255323410034 0.79538005590438843 0.38878646492958069
0.51572304964065552 0.80109649896621704 0.38640257716178894
0.62229692935943604 0.81056040525436401 0.37480026483535767
0.76209151744842529 0.82091015577316284 0.35900077223777771
0.92721861600875854 0.82827544212341309 0.3334561288356781
1 0.83007943630218506 0.29197373986244202
1 0.81941014528274536 0.27613964676856995
0.55576401948928833 0.8976980447769165 0.42191797494888306
0.61380118131637573 0.90854024887084961 0.4277254045009613
0.70584779977798462 0.92269164323806763 0.42575132846832275
0.82447928190231323 0.93785750865936279 0.42238086462020874
0.94445115327835083 0.94301706552505493 0.39539381861686707
0.99811947345733643 0.94524437189102173 0.35808232426643372
1 0.93779498338699341 0.31290674209594727
0.016719488427042961 0.030306737869977951 0.11720262467861176
0.14506116509437561 0.023418141528964043 0.11013862490653992
0.30194181203842163 0.026649938896298409 0.10815668851137161
0.46535539627075195 0.030070152133703232 0.11144373565912247
0.6363213062286377 0.034644406288862228 0.1162116676568985
0.8021354079246521 0.048111423850059509 0.13703753054141998
0.94381976127624512 0.065442882478237152 0.16696684062480927
0.089416727423667908 0.18769720196723938 0.19070936739444733
0.18644033372402191 0.1821027547121048 0.18184502422809601
0.33604305982589722 0.16819740831851959 0.16770391166210175
0.4964873194694519 0.14070990681648254 0.15153543651103973
0.6602972149848938 0.095290377736091614 0.12895749509334564
0.82124841213226318 0.069888606667518616 0.1308906078338623
0.96005380153656006 0.067771300673484802 0.1561816930770874
0.13801240921020508 0.35522341728210449 0.24921469390392303
0.23987281322479248 0.35556909441947937 0.24404279887676239
0.38514292240142822 0.34971523284912109 0.24258896708488464
0.5414767861366272 0.33384659886360168 0.24176757037639618
0.70091074705123901 0.29328063130378723 0.22806951403617859
0.85487264394760132 0.22222542762756348 0.2041277140378952
0.980632483959198 0.10710678249597549 0.16277338564395905
0.26521283388137817 0.52085858583450317 0.27932059764862061
0.34798154234886169 0.52232474088668823 0.27132335305213928
0.47157743573188782 0.52468174695968628 0.27327322959899902
0.61786222457885742 0.52138352394104004 0.28485029935836792
0.77152758836746216 0.5085635781288147 0.29622694849967957
0.9146733283996582 0.47390010952949524 0.30946230888366699
0.99878841638565063 0.3796730637550354 0.29986277222633362
0.38507404923439026 0.6739467978477478 0.32599043846130371
0.44754287600517273 0.67750257253646851 0.31830155849456787
0.56346482038497925 0.68291926383972168 0.30684572458267212
0.71542966365814209 0.68788367509841919 0.29356896877288818
0.86637032032012939 0.68779611587524414 0.29559993743896484
0.98038172721862793 0.67422324419021606 0.3252137303352356
1 0.62994694709777832 0.38737207651138306
0.48253878951072693 0.80081957578659058 0.39029243588447571
0.54205530881881714 0.80615150928497314 0.38504230976104736
0.64401143789291382 0.81336337327957153 0.37149563431739807
0.78118723630905151 0.82226121425628662 0.35217335820198059
0.93294388055801392 0.82905608415603638 0.32934120297431946
0.99994611740112305 0.83106797933578491 0.2998594343662262
1 0.81804245710372925 0.32626995444297791
0.58376246690750122 0.91206836700439453 0.43759781122207642
0.63959389925003052 0.91963845491409302 0.43525201082229614
0.72897124290466309 0.9291616678237915 0.42506593465805054
0.84968823194503784 0.94006389379501343 0.41173833608627319
0.97675520181655884 0.94629883766174316 0.39338955283164978
1 0.95694869756698608 0.37115013599395752
1 0.95560497045516968 0.33839583396911621
0.0054442910477519035 0.022365840151906013 0.20080634951591492
0.12051351368427277 0.019248275086283684 0.18768234550952911
0.28188955783843994 0.016064781695604324 0.17718885838985443
0.44679275155067444 0.01531569566577673 0.16878806054592133
0.61669075489044189 0.034688044339418411 0.17826990783214569
0.78197449445724487 0.050467383116483688 0.19305510818958282
0.92450302839279175 0.067774452269077301 0.21502344310283661
0.062664955854415894 0.17727784812450409 0.27813413739204407
0.15891902148723602 0.17207106947898865 0.26735684275627136
0.3079620897769928 0.15469250082969666 0.24658979475498199
0.46950137615203857 0.12451907992362976 0.22048602998256683
0.63448309898376465 0.08932042121887207 0.19485443830490112
0.79752367734909058 0.078313343226909637 0.1965947300195694
0.93937373161315918 0.08042474091053009 0.21367737650871277
0.081755906343460083 0.35053220391273499 0.35245943069458008
0.19090880453586578 0.34967514872550964 0.35055792331695557
0.34213778376579285 0.34462293982505798 0.34192246198654175
0.50319004058837891 0.32471618056297302 0.32875338196754456
0.66794276237487793 0.28607809543609619 0.30293974280357361
0.8238489031791687 0.21592690050601959 0.26700052618980408
0.95808988809585571 0.1062716618180275 0.21757455170154572
0.19918915629386902 0.51908034086227417 0.39033624529838562
0.27779731154441833 0.51967746019363403 0.39244246482849121
0.4046795666217804 0.52012449502944946 0.39715394377708435
0.55965781211853027 0.51664596796035767 0.40118703246116638
0.71717417240142822 0.50403028726577759 0.40017023682594299
0.86715692281723022 0.46681565046310425 0.39387524127960205
0.98738086223602295 0.35492038726806641 0.35234010219573975
0.37678119540214539 0.67652815580368042 0.38351944088935852
0.42874619364738464 0.67903697490692139 0.38616234064102173
0.53271538019180298 0.68262499570846558 0.38989073038101196
0.66729247570037842 0.68754315376281738 0.3987978994846344
0.79817038774490356 0.68339598178863525 0.42354562878608704
0.92825329303741455 0.67218303680419922 0.45931488275527954
0.99888497591018677 0.62349504232406616 0.48436260223388672
0.53757810592651367 0.80613386631011963 0.38294652104377747
0.58167099952697754 0.80992960929870605 0.38476595282554626
0.6741098165512085 0.81426280736923218 0.37411382794380188
0.80332916975021362 0.82232475280761719 0.35723781585693359
0.93735247850418091 0.82846343517303467 0.349365234375
0.99698948860168457 0.83099204301834106 0.37537062168121338
1 0.81571853160858154 0.47855639457702637
0.62645268440246582 0.92300152778625488 0.44070872664451599
0.67868977785110474 0.92624717950820923 0.42884618043899536
0.76034951210021973 0.93223708868026733 0.41680261492729187
0.87285476922988892 0.94268298149108887 0.39987426996231079
0.98686856031417847 0.95350098609924316 0.37003478407859802
1 0.96399170160293579 0.35951024293899536
0.99986213445663452 0.96213853359222412 0.32359641790390015
0.0096942530944943428 0.019552821293473244 0.27120533585548401
0.11589581519365311 0.015998750925064087 0.25843274593353271
0.26879584789276123 0.014205318875610828 0.24867652356624603
0.43109151721000671 0.016381537541747093 0.23874601721763611
0.60158294439315796 0.039158392697572708 0.24389733374118805
0.76735442876815796 0.059247035533189774 0.25332507491111755
0.91460889577865601 0.083974190056324005 0.27136147022247314
0.060749158263206482 0.16334053874015808 0.35353934764862061
0.15166692435741425 0.15239709615707397 0.33920300006866455
0.29292243719100952 0.13864599168300629 0.31944003701210022
0.45013284683227539 0.10810733586549759 0.28874510526657104
0.61418312788009644 0.077371738851070404 0.26040026545524597
0.7747809886932373 0.062724873423576355 0.24888065457344055
0.91981285810470581 0.084095686674118042 0.26968026161193848
0.072317548096179962 0.34069409966468811 0.44452577829360962
0.16338585317134857 0.33716940879821777 0.44140860438346863
0.31483784317970276 0.32892093062400818 0.42849797010421753
0.4763946533203125 0.3101942241191864 0.40648084878921509
0.63854968547821045 0.25965532660484314 0.36603105068206787
0.79300343990325928 0.18696179986000061 0.31819185614585876
0.93193960189819336 0.10480602830648422 0.27795550227165222
0.11726652830839157 0.51521211862564087 0.52023059129714966
0.19879283010959625 0.51535463333129883 0.52285224199295044
0.3462626039981842 0.51328426599502563 0.5188860297203064
0.50911879539489746 0.50760173797607422 0.50869005918502808
0.67124277353286743 0.49205824732780457 0.49460804462432861
0.82630747556686401 0.45287364721298218 0.47195091843605042
0.95678699016571045 0.34294527769088745 0.41707733273506165
0.25007617473602295 0.67472833395004272 0.55273395776748657
0.31573522090911865 0.67626273632049561 0.55649846792221069
0.43997806310653687 0.67971920967102051 0.5505443811416626
0.57735222578048706 0.680614173412323 0.5583532452583313
0.72083932161331177 0.67661023139953613 0.56964313983917236
0.86578261852264404 0.66526228189468384 0.57636153697967529
0.98021012544631958 0.61228668689727783 0.56630295515060425
0.52678906917572021 0.80992460250854492 0.45353814959526062
0.56067359447479248 0.81180757284164429 0.4628385603427887
0.64184927940368652 0.8169434666633606 0.46828198432922363
0.73487991094589233 0.82236975431442261 0.49498453736305237
0.84942710399627686 0.82642179727554321 0.5254865288734436
0.95278918743133545 0.82645589113235474 0.57145458459854126
0.9983832836151123 0.81175881624221802 0.61377722024917603
0.6868443489074707 0.9302254319190979 0.42686963081359863
0.73757922649383545 0.93294399976730347 0.40799310803413391
0.80135571956634521 0.93925374746322632 0.41142100095748901
0.89997941255569458 0.94735264778137207 0.40946534276008606
0.99705177545547485 0.95762163400650024 0.38449245691299438
1 0.96787291765213013 0.37940573692321777
0.9997592568397522 0.9690934419631958 0.39414766430854797
0.035066194832324982 0.0079541224986314774 0.33384153246879578
0.13397899270057678 0.0071585560217499733 0.32351851463317871
0.26852470636367798 0.013088122010231018 0.31817543506622314
0.42222940921783447 0.028001328930258751 0.31430879235267639
0.58962130546569824 0.043396115303039551 0.30885624885559082
0.75096416473388672 0.06171022355556488 0.31034117937088013
0.89189761877059937 0.079692676663398743 0.3184870183467865
0.063908584415912628 0.13634523749351501 0.41743093729019165
0.15480989217758179 0.12852866947650909 0.40223053097724915
0.28746399283409119 0.11341820657253265 0.38089287281036377
0.43920981884002686 0.090957507491111755 0.35343149304389954
0.60091876983642578 0.056592408567667007 0.31926485896110535
0.75986015796661377 0.058250024914741516 0.30837905406951904
0.90170550346374512 0.079851903021335602 0.31824836134910583
0.095185026526451111 0.32523316144943237 0.52258819341659546
0.1665414571762085 0.32131367921829224 0.51574182510375977
0.30489575862884521 0.30953779816627502 0.49870982766151428
0.46316114068031311 0.28311318159103394 0.46905285120010376
0.6216728687286377 0.22625960409641266 0.42150598764419556
0.77526307106018066 0.1717403382062912 0.3765658438205719
0.91350513696670532 0.12283942848443985 0.34319892525672913
0.083388291299343109 0.50748449563980103 0.61990839242935181
0.17489279806613922 0.50741636753082275 0.61860930919647217
0.32266092300415039 0.50526809692382812 0.60942941904067993
0.4835054874420166 0.49879124760627747 0.59382075071334839
0.64386230707168579 0.4743286669254303 0.56817978620529175
0.79735445976257324 0.42654898762702942 0.53027117252349854
0.93307548761367798 0.33167767524719238 0.46964588761329651
0.15510213375091553 0.67174619436264038 0.69050490856170654
0.23163969814777374 0.67395544052124023 0.69321155548095703
0.36908689141273499 0.67572206258773804 0.68331819772720337
0.51779848337173462 0.67563974857330322 0.68122094869613647
0.66951847076416016 0.67082369327545166 0.67552053928375244
0.8190455436706543 0.65456259250640869 0.66486525535583496
0.95184344053268433 0.59540259838104248 0.63375937938690186
0.3589482307434082 0.80720078945159912 0.68830162286758423
0.39892074465751648 0.80900388956069946 0.69625777006149292
0.4902006983757019 0.81361949443817139 0.70223772525787354
0.61108309030532837 0.82028710842132568 0.70162653923034668
0.73044860363006592 0.82121759653091431 0.72023612260818481
0.86640942096710205 0.82194644212722778 0.72139596939086914
0.9799191951751709 0.79968345165252686 0.73160433769226074
0.72694098949432373 0.93711388111114502 0.45782411098480225
0.76400482654571533 0.94084089994430542 0.44789737462997437
0.82652199268341064 0.94519853591918945 0.44328272342681885
0.90791440010070801 0.95245659351348877 0.45697608590126038
0.9686884880065918 0.95968520641326904 0.48636707663536072
0.99176007509231567 0.9658738374710083 0.54855316877365112
1 0.96153271198272705 0.62797278165817261
0.081703782081604004 0.00034125833190046251 0.38140898942947388
0.16632525622844696 0.0011553296353667974 0.37717446684837341
0.28407415747642517 0.0096185868605971336 0.37521404027938843
0.42720091342926025 0.027216250076889992 0.37213414907455444
0.5835801362991333 0.047227866947650909 0.36743512749671936
0.73446810245513916 0.061831425875425339 0.36201179027557373
0.86577987670898438 0.070312425494194031 0.36045080423355103
0.10749294608831406 0.10096604377031326 0.45763242244720459
0.18693560361862183 0.093679003417491913 0.44428354501724243
0.30277889966964722 0.081939652562141418 0.42464819550514221
0.44206851720809937 0.052611123770475388 0.39286929368972778
0.59904688596725464 0.054592747241258621 0.37560465931892395
0.75159072875976562 0.065281674265861511 0.36493244767189026
0.8866761326789856 0.083813026547431946 0.36759874224662781
0.13388074934482574 0.29709070920944214 0.57286781072616577
0.20846796035766602 0.28831058740615845 0.56272697448730469
0.32799309492111206 0.27700987458229065 0.54377609491348267
0.47088754177093506 0.23937307298183441 0.50554579496383667
0.62213033437728882 0.19313541054725647 0.46170267462730408
0.76869899034500122 0.13963624835014343 0.41245892643928528
0.90251028537750244 0.089462682604789734 0.37010866403579712
0.11981885135173798 0.49385926127433777 0.68618690967559814
0.2121170312166214 0.49153053760528564 0.68285900354385376
0.34238731861114502 0.49062362313270569 0.67125976085662842
0.4890102744102478 0.48112452030181885 0.65107321739196777
0.64160609245300293 0.44876399636268616 0.61871761083602905
0.7861751914024353 0.38990145921707153 0.56913894414901733
0.92033553123474121 0.25528964400291443 0.47213727235794067
0.16409063339233398 0.66327899694442749 0.77732986211776733
0.23452664911746979 0.66562402248382568 0.77725088596343994
0.36399570107460022 0.66715353727340698 0.77072381973266602
0.50672465562820435 0.6660953164100647 0.76154571771621704
0.65470027923583984 0.65956705808639526 0.74628835916519165
0.79810672998428345 0.64041250944137573 0.72473913431167603
0.93259185552597046 0.56830525398254395 0.67337596416473389
0.28401640057563782 0.80719113349914551 0.83354252576828003
0.32953336834907532 0.80979275703430176 0.83947181701660156
0.43440327048301697 0.81308513879776001 0.82878690958023071
0.54920440912246704 0.81585121154785156 0.83714622259140015
0.68327540159225464 0.8199504017829895 0.82560610771179199
0.81605935096740723 0.81542676687240601 0.81794160604476929
0.94818669557571411 0.78681951761245728 0.80339819192886353
0.54964900016784668 0.93733805418014526 0.73633182048797607
0.5859370231628418 0.94056612253189087 0.73346638679504395
0.65057927370071411 0.94613021612167358 0.73835653066635132
0.72192281484603882 0.94882988929748535 0.75933438539505005
0.81431823968887329 0.95550060272216797 0.77016949653625488
0.9025147557258606 0.96145230531692505 0.80392050743103027
0.99137812852859497 0.96301215887069702 0.83407860994338989
0.14123654365539551 0 0.42196470499038696
0.21163305640220642 0.00068057188764214516 0.42512619495391846
0.31471139192581177 0.017012830823659897 0.42743772268295288
0.44633567333221436 0.022942770272493362 0.41747909784317017
0.58702284097671509 0.045670002698898315 0.41411301493644714
0.72449153661727905 0.060018204152584076 0.40695711970329285
0.8457944393157959 0.061792336404323578 0.39993485808372498
0.17029395699501038 0.056948702782392502 0.48004609346389771
0.23730592429637909 0.050488341599702835 0.46799248456954956
0.3394598662853241 0.062231864780187607 0.46165281534194946
0.4676881730556488 0.033090479671955109 0.42740872502326965
0.60739386081695557 0.052213136106729507 0.42004495859146118
0.74724555015563965 0.069758228957653046 0.41119354963302612
0.87211662530899048 0.079437926411628723 0.40794897079467773
0.20464320480823517 0.25512850284576416 0.6001245379447937
0.27123236656188965 0.24419346451759338 0.58797162771224976
0.37251970171928406 0.23146811127662659 0.56722939014434814
0.49824380874633789 0.1880854070186615 0.52456879615783691
0.63252651691436768 0.12732136249542236 0.46974989771842957
0.76534581184387207 0.080878451466560364 0.42205536365509033
0.89530307054519653 0.087885208427906036 0.41144144535064697
0.24250128865242004 0.46994116902351379 0.72726857662200928
0.29547727108001709 0.46322515606880188 0.72084540128707886
0.39856395125389099 0.45972171425819397 0.70668363571166992
0.52016866207122803 0.43715208768844604 0.68022894859313965
0.65443074703216553 0.39145159721374512 0.63700497150421143
0.78966432809829712 0.32792454957962036 0.57856327295303345
0.91193991899490356 0.17927005887031555 0.46946865320205688
0.26258388161659241 0.64763623476028442 0.83282941579818726
0.31919765472412109 0.64960545301437378 0.8310961127281189
0.41641756892204285 0.64771139621734619 0.82286274433135986
0.53460335731506348 0.64047259092330933 0.80875569581985474
0.66450434923171997 0.62725138664245605 0.7875780463218689
0.79761797189712524 0.60479724407196045 0.75764918327331543
0.92171788215637207 0.52635782957077026 0.69493597745895386
0.33484286069869995 0.80083942413330078 0.91448915004730225
0.38379558920860291 0.80792713165283203 0.91570699214935303
0.46301451325416565 0.80716395378112793 0.9116021990776062
0.56488674879074097 0.80768263339996338 0.90688967704772949
0.6797758936882019 0.80656653642654419 0.89596915245056152
0.80246114730834961 0.79790455102920532 0.8801390528678894
0.93206846714019775 0.77050930261611938 0.85076606273651123
0.45590224862098694 0.93969374895095825 0.95890349149703979
0.49037608504295349 0.94224447011947632 0.95111703872680664
0.5491824746131897 0.94653546810150146 0.95582443475723267
0.63227880001068115 0.94880133867263794 0.95503038167953491
0.73120498657226562 0.95050215721130371 0.94227504730224609
0.83278203010559082 0.9602588415145874 0.95284742116928101
0.96238052845001221 0.95952516794204712 0.95571684837341309
