films/fuji_neopan_1600_+.cube
# Created by: G'MIC (https://gmic.eu)
TITLE "fuji_neopan_1600_+"
# LUT size
LUT_3D_SIZE 5
# Data domain
DOMAIN_MIN 0.0 0.0 0.0
DOMAIN_MAX 1.0 1.0 1.0
# LUT data points
0.084896281361579895 0.084896281361579895 0.084896281361579895
0.091282382607460022 0.091282382607460022 0.091282382607460022
0.14780585467815399 0.14780585467815399 0.14780585467815399
0.27157294750213623 0.27157294750213623 0.27157294750213623
0.45591875910758972 0.45591875910758972 0.45591875910758972
0.14395032823085785 0.14395032823085785 0.14395032823085785
0.16209863126277924 0.16209863126277924 0.16209863126277924
0.25845924019813538 0.25845924019813538 0.25845924019813538
0.38628974556922913 0.38628974556922913 0.38628974556922913
0.5608094334602356 0.5608094334602356 0.5608094334602356
0.30120435357093811 0.30120435357093811 0.30120435357093811
0.33253893256187439 0.33253893256187439 0.33253893256187439
0.41004329919815063 0.41004329919815063 0.41004329919815063
0.57604086399078369 0.57604086399078369 0.57604086399078369
0.7658042311668396 0.7658042311668396 0.7658042311668396
0.57925784587860107 0.57925784587860107 0.57925784587860107
0.59117585420608521 0.59117585420608521 0.59117585420608521
0.63567215204238892 0.63567215204238892 0.63567215204238892
0.73017311096191406 0.73017311096191406 0.73017311096191406
0.87243694067001343 0.87243694067001343 0.87243694067001343
0.90417927503585815 0.90417927503585815 0.90417927503585815
0.89361512660980225 0.89361512660980225 0.89361512660980225
0.92382025718688965 0.92382025718688965 0.92382025718688965
0.95897758007049561 0.95897758007049561 0.95897758007049561
0.9955260157585144 0.9955260157585144 0.9955260157585144
0.1023469939827919 0.1023469939827919 0.1023469939827919
0.13437624275684357 0.13437624275684357 0.13437624275684357
0.19743536412715912 0.19743536412715912 0.19743536412715912
0.29464316368103027 0.29464316368103027 0.29464316368103027
0.47720587253570557 0.47720587253570557 0.47720587253570557
0.16649350523948669 0.16649350523948669 0.16649350523948669
0.21670965850353241 0.21670965850353241 0.21670965850353241
0.30472049117088318 0.30472049117088318 0.30472049117088318
0.40659347176551819 0.40659347176551819 0.40659347176551819
0.5763314962387085 0.5763314962387085 0.5763314962387085
0.36942306160926819 0.36942306160926819 0.36942306160926819
0.39502230286598206 0.39502230286598206 0.39502230286598206
0.46053281426429749 0.46053281426429749 0.46053281426429749
0.6037026047706604 0.6037026047706604 0.6037026047706604
0.76549410820007324 0.76549410820007324 0.76549410820007324
0.63016068935394287 0.63016068935394287 0.63016068935394287
0.63590145111083984 0.63590145111083984 0.63590145111083984
0.67699551582336426 0.67699551582336426 0.67699551582336426
0.77295666933059692 0.77295666933059692 0.77295666933059692
0.88647955656051636 0.88647955656051636 0.88647955656051636
0.90669310092926025 0.90669310092926025 0.90669310092926025
0.91072088479995728 0.91072088479995728 0.91072088479995728
0.9225926399230957 0.9225926399230957 0.9225926399230957
0.95218896865844727 0.95218896865844727 0.95218896865844727
0.99289423227310181 0.99289423227310181 0.99289423227310181
0.19815813004970551 0.19815813004970551 0.19815813004970551
0.25009655952453613 0.25009655952453613 0.25009655952453613
0.33090373873710632 0.33090373873710632 0.33090373873710632
0.3736693263053894 0.3736693263053894 0.3736693263053894
0.56823086738586426 0.56823086738586426 0.56823086738586426
0.25734788179397583 0.25734788179397583 0.25734788179397583
0.31926679611206055 0.31926679611206055 0.31926679611206055
0.39410367608070374 0.39410367608070374 0.39410367608070374
0.4678572416305542 0.4678572416305542 0.4678572416305542
0.63373678922653198 0.63373678922653198 0.63373678922653198
0.39474198222160339 0.39474198222160339 0.39474198222160339
0.46082842350006104 0.46082842350006104 0.46082842350006104
0.57067614793777466 0.57067614793777466 0.57067614793777466
0.6653372049331665 0.6653372049331665 0.6653372049331665
0.76324498653411865 0.76324498653411865 0.76324498653411865
0.68682444095611572 0.68682444095611572 0.68682444095611572
0.7173956036567688 0.7173956036567688 0.7173956036567688
0.75834137201309204 0.75834137201309204 0.75834137201309204
0.82451885938644409 0.82451885938644409 0.82451885938644409
0.90833461284637451 0.90833461284637451 0.90833461284637451
0.94009244441986084 0.94009244441986084 0.94009244441986084
0.93924432992935181 0.93924432992935181 0.93924432992935181
0.94335317611694336 0.94335317611694336 0.94335317611694336
0.96586072444915771 0.96586072444915771 0.96586072444915771
0.99707388877868652 0.99707388877868652 0.99707388877868652
0.37933835387229919 0.37933835387229919 0.37933835387229919
0.42755910754203796 0.42755910754203796 0.42755910754203796
0.54287058115005493 0.54287058115005493 0.54287058115005493
0.62182307243347168 0.62182307243347168 0.62182307243347168
0.6784510612487793 0.6784510612487793 0.6784510612487793
0.45850685238838196 0.45850685238838196 0.45850685238838196
0.51689565181732178 0.51689565181732178 0.51689565181732178
0.61605006456375122 0.61605006456375122 0.61605006456375122
0.68827235698699951 0.68827235698699951 0.68827235698699951
0.74340707063674927 0.74340707063674927 0.74340707063674927
0.51594340801239014 0.51594340801239014 0.51594340801239014
0.57401520013809204 0.57401520013809204 0.57401520013809204
0.68654161691665649 0.68654161691665649 0.68654161691665649
0.77252137660980225 0.77252137660980225 0.77252137660980225
0.82171928882598877 0.82171928882598877 0.82171928882598877
0.70104163885116577 0.70104163885116577 0.70104163885116577
0.73199987411499023 0.73199987411499023 0.73199987411499023
0.79565763473510742 0.79565763473510742 0.79565763473510742
0.86255919933319092 0.86255919933319092 0.86255919933319092
0.92600864171981812 0.92600864171981812 0.92600864171981812
0.94482707977294922 0.94482707977294922 0.94482707977294922
0.93744468688964844 0.93744468688964844 0.93744468688964844
0.95271319150924683 0.95271319150924683 0.95271319150924683
0.98493826389312744 0.98493826389312744 0.98493826389312744
0.99879485368728638 0.99879485368728638 0.99879485368728638
0.74576175212860107 0.74576175212860107 0.74576175212860107
0.77505266666412354 0.77505266666412354 0.77505266666412354
0.81454473733901978 0.81454473733901978 0.81454473733901978
0.88284111022949219 0.88284111022949219 0.88284111022949219
0.92164754867553711 0.92164754867553711 0.92164754867553711
0.75697720050811768 0.75697720050811768 0.75697720050811768
0.79316478967666626 0.79316478967666626 0.79316478967666626
0.83824729919433594 0.83824729919433594 0.83824729919433594
0.90863251686096191 0.90863251686096191 0.90863251686096191
0.92786723375320435 0.92786723375320435 0.92786723375320435
0.79915148019790649 0.79915148019790649 0.79915148019790649
0.82425814867019653 0.82425814867019653 0.82425814867019653
0.8529742956161499 0.8529742956161499 0.8529742956161499
0.92432504892349243 0.92432504892349243 0.92432504892349243
0.95372766256332397 0.95372766256332397 0.95372766256332397
0.81091922521591187 0.81091922521591187 0.81091922521591187
0.83352982997894287 0.83352982997894287 0.83352982997894287
0.86799043416976929 0.86799043416976929 0.86799043416976929
0.94084793329238892 0.94084793329238892 0.94084793329238892
0.98237228393554688 0.98237228393554688 0.98237228393554688
0.95516842603683472 0.95516842603683472 0.95516842603683472
0.96331191062927246 0.96331191062927246 0.96331191062927246
0.98219245672225952 0.98219245672225952 0.98219245672225952
0.99888151884078979 0.99888151884078979 0.99888151884078979
0.99823516607284546 0.99823516607284546 0.99823516607284546
