films/fuji_neopan_1600.cube
# Created by: G'MIC (https://gmic.eu)
TITLE "fuji_neopan_1600"
# LUT size
LUT_3D_SIZE 5
# Data domain
DOMAIN_MIN 0.0 0.0 0.0
DOMAIN_MAX 1.0 1.0 1.0
# LUT data points
0.040585760027170181 0.040585760027170181 0.040585760027170181
0.051918119192123413 0.051918119192123413 0.051918119192123413
0.12883386015892029 0.12883386015892029 0.12883386015892029
0.24900791049003601 0.24900791049003601 0.24900791049003601
0.43577083945274353 0.43577083945274353 0.43577083945274353
0.095767885446548462 0.095767885446548462 0.095767885446548462
0.11478558927774429 0.11478558927774429 0.11478558927774429
0.23116521537303925 0.23116521537303925 0.23116521537303925
0.35646605491638184 0.35646605491638184 0.35646605491638184
0.54350721836090088 0.54350721836090088 0.54350721836090088
0.26298698782920837 0.26298698782920837 0.26298698782920837
0.2946222722530365 0.2946222722530365 0.2946222722530365
0.38321390748023987 0.38321390748023987 0.38321390748023987
0.56336444616317749 0.56336444616317749 0.56336444616317749
0.73807787895202637 0.73807787895202637 0.73807787895202637
0.56048619747161865 0.56048619747161865 0.56048619747161865
0.5765567421913147 0.5765567421913147 0.5765567421913147
0.62182396650314331 0.62182396650314331 0.62182396650314331
0.72095292806625366 0.72095292806625366 0.72095292806625366
0.85896670818328857 0.85896670818328857 0.85896670818328857
0.8999285101890564 0.8999285101890564 0.8999285101890564
0.89806616306304932 0.89806616306304932 0.89806616306304932
0.92158854007720947 0.92158854007720947 0.92158854007720947
0.95613682270050049 0.95613682270050049 0.95613682270050049
0.99605733156204224 0.99605733156204224 0.99605733156204224
0.050854403525590897 0.050854403525590897 0.050854403525590897
0.078714050352573395 0.078714050352573395 0.078714050352573395
0.15005184710025787 0.15005184710025787 0.15005184710025787
0.26794171333312988 0.26794171333312988 0.26794171333312988
0.45170429348945618 0.45170429348945618 0.45170429348945618
0.11798592656850815 0.11798592656850815 0.11798592656850815
0.17786353826522827 0.17786353826522827 0.17786353826522827
0.27094864845275879 0.27094864845275879 0.27094864845275879
0.38971084356307983 0.38971084356307983 0.38971084356307983
0.56145685911178589 0.56145685911178589 0.56145685911178589
0.35225829482078552 0.35225829482078552 0.35225829482078552
0.35660108923912048 0.35660108923912048 0.35660108923912048
0.4351654052734375 0.4351654052734375 0.4351654052734375
0.60010242462158203 0.60010242462158203 0.60010242462158203
0.75275099277496338 0.75275099277496338 0.75275099277496338
0.61659812927246094 0.61659812927246094 0.61659812927246094
0.62440043687820435 0.62440043687820435 0.62440043687820435
0.66009360551834106 0.66009360551834106 0.66009360551834106
0.74446761608123779 0.74446761608123779 0.74446761608123779
0.87767738103866577 0.87767738103866577 0.87767738103866577
0.89141756296157837 0.89141756296157837 0.89141756296157837
0.90662485361099243 0.90662485361099243 0.90662485361099243
0.91974151134490967 0.91974151134490967 0.91974151134490967
0.95023626089096069 0.95023626089096069 0.95023626089096069
0.99791276454925537 0.99791276454925537 0.99791276454925537
0.13678044080734253 0.13678044080734253 0.13678044080734253
0.2080661952495575 0.2080661952495575 0.2080661952495575
0.28343448042869568 0.28343448042869568 0.28343448042869568
0.3499947190284729 0.3499947190284729 0.3499947190284729
0.55289596319198608 0.55289596319198608 0.55289596319198608
0.23213663697242737 0.23213663697242737 0.23213663697242737
0.29292961955070496 0.29292961955070496 0.29292961955070496
0.37355521321296692 0.37355521321296692 0.37355521321296692
0.4479866623878479 0.4479866623878479 0.4479866623878479
0.63054400682449341 0.63054400682449341 0.63054400682449341
0.38723307847976685 0.38723307847976685 0.38723307847976685
0.43524709343910217 0.43524709343910217 0.43524709343910217
0.55018776655197144 0.55018776655197144 0.55018776655197144
0.64183235168457031 0.64183235168457031 0.64183235168457031
0.75154316425323486 0.75154316425323486 0.75154316425323486
0.68041199445724487 0.68041199445724487 0.68041199445724487
0.70716363191604614 0.70716363191604614 0.70716363191604614
0.74218297004699707 0.74218297004699707 0.74218297004699707
0.80129152536392212 0.80129152536392212 0.80129152536392212
0.90665102005004883 0.90665102005004883 0.90665102005004883
0.91120940446853638 0.91120940446853638 0.91120940446853638
0.93402135372161865 0.93402135372161865 0.93402135372161865
0.94661587476730347 0.94661587476730347 0.94661587476730347
0.96837115287780762 0.96837115287780762 0.96837115287780762
0.99983519315719604 0.99983519315719604 0.99983519315719604
0.34598153829574585 0.34598153829574585 0.34598153829574585
0.39846998453140259 0.39846998453140259 0.39846998453140259
0.54944717884063721 0.54944717884063721 0.54944717884063721
0.61544960737228394 0.61544960737228394 0.61544960737228394
0.66639119386672974 0.66639119386672974 0.66639119386672974
0.43934327363967896 0.43934327363967896 0.43934327363967896
0.48637723922729492 0.48637723922729492 0.48637723922729492
0.59804999828338623 0.59804999828338623 0.59804999828338623
0.65658068656921387 0.65658068656921387 0.65658068656921387
0.73472601175308228 0.73472601175308228 0.73472601175308228
0.4792582094669342 0.4792582094669342 0.4792582094669342
0.55572152137756348 0.55572152137756348 0.55572152137756348
0.68071585893630981 0.68071585893630981 0.68071585893630981
0.76326048374176025 0.76326048374176025 0.76326048374176025
0.81567835807800293 0.81567835807800293 0.81567835807800293
0.69711077213287354 0.69711077213287354 0.69711077213287354
0.72662675380706787 0.72662675380706787 0.72662675380706787
0.79208779335021973 0.79208779335021973 0.79208779335021973
0.86610251665115356 0.86610251665115356 0.86610251665115356
0.92524415254592896 0.92524415254592896 0.92524415254592896
0.92258447408676147 0.92258447408676147 0.92258447408676147
0.95106548070907593 0.95106548070907593 0.95106548070907593
0.96253913640975952 0.96253913640975952 0.96253913640975952
0.98801833391189575 0.98801833391189575 0.98801833391189575
0.99969464540481567 0.99969464540481567 0.99969464540481567
0.7398112416267395 0.7398112416267395 0.7398112416267395
0.76571738719940186 0.76571738719940186 0.76571738719940186
0.80699449777603149 0.80699449777603149 0.80699449777603149
0.87372809648513794 0.87372809648513794 0.87372809648513794
0.91724389791488647 0.91724389791488647 0.91724389791488647
0.75208771228790283 0.75208771228790283 0.75208771228790283
0.78569751977920532 0.78569751977920532 0.78569751977920532
0.83326655626296997 0.83326655626296997 0.83326655626296997
0.90245157480239868 0.90245157480239868 0.90245157480239868
0.93263489007949829 0.93263489007949829 0.93263489007949829
0.78929996490478516 0.78929996490478516 0.78929996490478516
0.81748390197753906 0.81748390197753906 0.81748390197753906
0.85071843862533569 0.85071843862533569 0.85071843862533569
0.92878913879394531 0.92878913879394531 0.92878913879394531
0.94471162557601929 0.94471162557601929 0.94471162557601929
0.80781787633895874 0.80781787633895874 0.80781787633895874
0.82454603910446167 0.82454603910446167 0.82454603910446167
0.87183099985122681 0.87183099985122681 0.87183099985122681
0.94476509094238281 0.94476509094238281 0.94476509094238281
0.97400939464569092 0.97400939464569092 0.97400939464569092
0.95506393909454346 0.95506393909454346 0.95506393909454346
0.97075158357620239 0.97075158357620239 0.97075158357620239
0.98902082443237305 0.98902082443237305 0.98902082443237305
0.99907946586608887 0.99907946586608887 0.99907946586608887
0.9979662299156189 0.9979662299156189 0.9979662299156189
