films/fuji_superia_400.cube
# Created by: G'MIC (https://gmic.eu)
TITLE "fuji_superia_400"
# LUT size
LUT_3D_SIZE 7
# Data domain
DOMAIN_MIN 0.0 0.0 0.0
DOMAIN_MAX 1.0 1.0 1.0
# LUT data points
0.0087143545970320702 0.056856371462345123 0.048457637429237366
0.1111079528927803 0.064522698521614075 0.048233017325401306
0.3050365149974823 0.060572277754545212 0.043598562479019165
0.55819523334503174 0.019950268790125847 0.031252410262823105
0.79309040307998657 0.011001018807291985 0.0061432630755007267
0.94838017225265503 0.051000185310840607 0.00089127785759046674
1 0.20902499556541443 0
0.0021347044967114925 0.14480763673782349 0.073422826826572418
0.10854918509721756 0.16511446237564087 0.055935759097337723
0.33743107318878174 0.17596404254436493 0.019777977839112282
0.58228272199630737 0.16171024739742279 0.0067047569900751114
0.79411137104034424 0.16723620891571045 6.4086911152116954e-05
0.95594233274459839 0.21738973259925842 0
1 0.30421113967895508 0
0 0.31707704067230225 0.1285938173532486
0.061104029417037964 0.32501861453056335 0.10870783030986786
0.34671717882156372 0.42549851536750793 0.022614706307649612
0.65040761232376099 0.44486767053604126 0
0.7945905327796936 0.37918418645858765 0
0.93725311756134033 0.38296994566917419 0
1 0.43064269423484802 0
0.00020195456454530358 0.51218295097351074 0.20561696588993073
0.078852288424968719 0.51870810985565186 0.19137068092823029
0.28444033861160278 0.55679875612258911 0.15066798031330109
0.58057498931884766 0.64080697298049927 0.051781538873910904
0.8181491494178772 0.65251773595809937 0.0085209263488650322
0.94556057453155518 0.59532761573791504 0
0.99968242645263672 0.57557284832000732 0.00056767184287309647
0.16179457306861877 0.67347025871276855 0.3398151695728302
0.23206010460853577 0.67279249429702759 0.33358031511306763
0.35288247466087341 0.68094909191131592 0.32928711175918579
0.52480059862136841 0.72828578948974609 0.3045298159122467
0.75931966304779053 0.78709137439727783 0.23018752038478851
0.94363468885421753 0.80602413415908813 0.11174064874649048
0.99984985589981079 0.77068358659744263 0.039064474403858185
0.44651836156845093 0.81614041328430176 0.52160656452178955
0.47239434719085693 0.81459212303161621 0.52254366874694824
0.51718080043792725 0.81208056211471558 0.52433842420578003
0.60895580053329468 0.83209133148193359 0.52186977863311768
0.74454677104949951 0.86609846353530884 0.51786249876022339
0.88870787620544434 0.90000319480895996 0.50466179847717285
0.98831868171691895 0.90580141544342041 0.43088623881340027
0.71692711114883423 0.93302804231643677 0.73572784662246704
0.72123712301254272 0.93187797069549561 0.73522156476974487
0.74004912376403809 0.93002575635910034 0.74236398935317993
0.76160258054733276 0.93218809366226196 0.73438113927841187
0.81553906202316284 0.94499439001083374 0.74302870035171509
0.87871390581130981 0.95750832557678223 0.73708444833755493
0.95426309108734131 0.96831035614013672 0.72406619787216187
0.012220554985105991 0.06215088814496994 0.13400596380233765
0.11576929688453674 0.075412020087242126 0.13266897201538086
0.29771003127098083 0.060663513839244843 0.13775649666786194
0.56392425298690796 0.0073461048305034637 0.14313237369060516
0.79619473218917847 0.0050830165855586529 0.13765405118465424
0.95452880859375 0.11296817660331726 0.11843061447143555
0.99984580278396606 0.24028389155864716 0.098422318696975708
0.0075217452831566334 0.15980431437492371 0.15118013322353363
0.1376236230134964 0.17202512919902802 0.1566866934299469
0.34468090534210205 0.17856907844543457 0.14797918498516083
0.59717106819152832 0.17081762850284576 0.14113457500934601
0.79976886510848999 0.18584580719470978 0.12468121200799942
0.95266604423522949 0.23800007998943329 0.10177082568407059
1 0.31981801986694336 0.091363675892353058
0.026485009118914604 0.34552940726280212 0.21018482744693756
0.14823432266712189 0.35737740993499756 0.21875184774398804
0.36966186761856079 0.42091858386993408 0.18394912779331207
0.63549304008483887 0.41369876265525818 0.094734013080596924
0.78989571332931519 0.37468075752258301 0.064848773181438446
0.94182091951370239 0.39680379629135132 0.038353521376848221
0.99992495775222778 0.44440668821334839 0.048092816025018692
0.05697936937212944 0.5365784764289856 0.28911334276199341
0.17616426944732666 0.54120403528213501 0.29491189122200012
0.32477045059204102 0.55551636219024658 0.28881639242172241
0.59150177240371704 0.63823962211608887 0.22196309268474579
0.82382094860076904 0.64408808946609497 0.10386522859334946
0.94020527601242065 0.58178544044494629 0.016388926655054092
0.99987274408340454 0.5769728422164917 0.022075533866882324
0.23217703402042389 0.68969297409057617 0.40381401777267456
0.29869654774665833 0.68625956773757935 0.40545007586479187
0.39138051867485046 0.68606710433959961 0.4070202112197876
0.54216146469116211 0.72697526216506958 0.39813581109046936
0.756561279296875 0.78221291303634644 0.36216142773628235
0.94120162725448608 0.80113404989242554 0.27473461627960205
1 0.76635885238647461 0.13644127547740936
0.47597181797027588 0.82480347156524658 0.55521529912948608
0.49905326962471008 0.82155740261077881 0.55781668424606323
0.54574596881866455 0.81861728429794312 0.56512296199798584
0.6244317889213562 0.83333396911621094 0.56918728351593018
0.74062061309814453 0.86244469881057739 0.56406199932098389
0.88204556703567505 0.89516580104827881 0.54979825019836426
0.99281984567642212 0.91267412900924683 0.52368170022964478
0.72628581523895264 0.93559515476226807 0.74858134984970093
0.73162937164306641 0.93409270048141479 0.75121641159057617
0.74838972091674805 0.93061137199401855 0.75515484809875488
0.77754610776901245 0.9334835410118103 0.7587965726852417
0.81928259134292603 0.94572001695632935 0.75804287195205688
0.8799062967300415 0.95918077230453491 0.75229322910308838
0.95480495691299438 0.96915161609649658 0.74548780918121338
0.0031308191828429699 0.067805841565132141 0.31618496775627136
0.12675124406814575 0.081451982259750366 0.31796807050704956
0.31912577152252197 0.08170008659362793 0.32281285524368286
0.55679011344909668 0.037068925797939301 0.33191493153572083
0.78933548927307129 0.0090392166748642921 0.32808157801628113
0.95577162504196167 0.068138539791107178 0.32225367426872253
1 0.26085233688354492 0.34925162792205811
1.5438305126735941e-05 0.16197706758975983 0.34516164660453796
0.12844312191009521 0.18282024562358856 0.35346248745918274
0.35843560099601746 0.21198274195194244 0.36108973622322083
0.5927351713180542 0.20829686522483826 0.36886903643608093
0.79942840337753296 0.19325977563858032 0.35530757904052734
0.95074552297592163 0.27639526128768921 0.35859715938568115
1 0.37760812044143677 0.36900907754898071
0.010477268137037754 0.37737929821014404 0.37406143546104431
0.14790374040603638 0.39667811989784241 0.39349794387817383
0.39625218510627747 0.4171924889087677 0.40597936511039734
0.62529462575912476 0.41889470815658569 0.38282033801078796
0.79553663730621338 0.41734924912452698 0.3645595908164978
0.94253647327423096 0.43286558985710144 0.35162451863288879
0.99865967035293579 0.48265966773033142 0.35723751783370972
0.22442956268787384 0.57601416110992432 0.44751846790313721
0.32949668169021606 0.58322381973266602 0.45547759532928467
0.41773444414138794 0.57392728328704834 0.45635738968849182
0.61060279607772827 0.63016766309738159 0.44411653280258179
0.80121761560440063 0.61258238554000854 0.37449148297309875
0.92808669805526733 0.57780081033706665 0.31206521391868591
0.99991238117218018 0.58847826719284058 0.29851642251014709
0.39889088273048401 0.71253079175949097 0.52778464555740356
0.43380311131477356 0.71230447292327881 0.528411865234375
0.4768778383731842 0.70424455404281616 0.52248960733413696
0.57891136407852173 0.72571849822998047 0.5243757963180542
0.7657160758972168 0.78125107288360596 0.52030324935913086
0.92665505409240723 0.78741496801376343 0.46347585320472717
0.99893152713775635 0.74815124273300171 0.36465814709663391
0.5437437891960144 0.83055758476257324 0.62428200244903564
0.55735760927200317 0.82962828874588013 0.62292993068695068
0.59274798631668091 0.82699668407440186 0.62786436080932617
0.65780818462371826 0.83492010831832886 0.63826030492782593
0.75780558586120605 0.86213642358779907 0.64010578393936157
0.88039308786392212 0.89137911796569824 0.63032710552215576
0.98684179782867432 0.90474587678909302 0.6084524393081665
0.73259478807449341 0.93393063545227051 0.76719623804092407
0.74311691522598267 0.93373483419418335 0.77079814672470093
0.75501793622970581 0.93057334423065186 0.7723613977432251
0.78927534818649292 0.93210691213607788 0.7827487587928772
0.83053487539291382 0.94208776950836182 0.78458905220031738
0.88743877410888672 0.95790946483612061 0.7837226390838623
0.96265262365341187 0.97306478023529053 0.78137862682342529
0.00044026094838045537 0.074286773800849915 0.54788821935653687
0.12849947810173035 0.082069471478462219 0.5585939884185791
0.3726603090763092 0.094561770558357239 0.55286651849746704
0.57306534051895142 0.12175912410020828 0.55287092924118042
0.75603890419006348 0.14116804301738739 0.5585673451423645
0.92804962396621704 0.22389721870422363 0.55874854326248169
0.99960315227508545 0.30246695876121521 0.54793912172317505
0.0019397510914131999 0.18408958613872528 0.57740086317062378
0.15372203290462494 0.1991066187620163 0.58398902416229248
0.41154730319976807 0.22975775599479675 0.58076924085617065
0.5946584939956665 0.26539850234985352 0.57414722442626953
0.76053321361541748 0.28779974579811096 0.5700451135635376
0.92421168088912964 0.33648690581321716 0.56853759288787842
0.99846643209457397 0.38793227076530457 0.55758154392242432
0 0.36241206526756287 0.59044176340103149
0.090727709233760834 0.38177743554115295 0.59965282678604126
0.40454220771789551 0.41536006331443787 0.60144495964050293
0.60875099897384644 0.45461252331733704 0.59495323896408081
0.77046811580657959 0.46850711107254028 0.58852612972259521
0.92312157154083252 0.48054429888725281 0.58484208583831787
0.99751389026641846 0.51738113164901733 0.58425033092498779
0.13452084362506866 0.59038525819778442 0.58840841054916382
0.27411162853240967 0.5980868935585022 0.59753239154815674
0.44388160109519958 0.59929126501083374 0.60846042633056641
0.62033939361572266 0.62001186609268188 0.61308163404464722
0.77768325805664062 0.61020386219024658 0.58973127603530884
0.91451966762542725 0.61284047365188599 0.57288187742233276
0.99908965826034546 0.6251990795135498 0.55706292390823364
0.4645247757434845 0.73284721374511719 0.63376200199127197
0.50025761127471924 0.73768657445907593 0.64311271905899048
0.56687706708908081 0.73534172773361206 0.64430862665176392
0.64249533414840698 0.73619812726974487 0.64823430776596069
0.77503347396850586 0.77715563774108887 0.65318089723587036
0.91851329803466797 0.77014809846878052 0.60820841789245605
0.99801111221313477 0.73514533042907715 0.54461681842803955
0.61553168296813965 0.84055042266845703 0.70912909507751465
0.63062864542007446 0.84236663579940796 0.71278733015060425
0.66051721572875977 0.84248298406600952 0.70963817834854126
0.70291006565093994 0.8429875373840332 0.71074849367141724
0.77381199598312378 0.85937273502349854 0.7166208028793335
0.88782298564910889 0.89678287506103516 0.72762984037399292
0.98836898803710938 0.89931172132492065 0.70197731256484985
0.76000499725341797 0.93546992540359497 0.80901503562927246
0.77146810293197632 0.93567585945129395 0.81198686361312866
0.77777886390686035 0.93447369337081909 0.80855363607406616
0.80349892377853394 0.93373030424118042 0.81434565782546997
0.84360909461975098 0.93887674808502197 0.82151764631271362
0.89412003755569458 0.95596730709075928 0.82576930522918701
0.96685326099395752 0.97499102354049683 0.82944166660308838
0.075882285833358765 0.087316699326038361 0.73796635866165161
0.25118660926818848 0.094635680317878723 0.7411799430847168
0.45006120204925537 0.11825443059206009 0.73692089319229126
0.63023900985717773 0.18939575552940369 0.73287463188171387
0.77674639225006104 0.27050507068634033 0.72733134031295776
0.89749765396118164 0.31184002757072449 0.72139126062393188
0.99371069669723511 0.43806681036949158 0.7321968674659729
0.13125087320804596 0.20955675840377808 0.74801582098007202
0.27717840671539307 0.21740138530731201 0.75078284740447998
0.46976789832115173 0.24474547803401947 0.74690687656402588
0.64222496747970581 0.31164419651031494 0.74098074436187744
0.77745842933654785 0.36827656626701355 0.72990512847900391
0.90069794654846191 0.40343120694160461 0.7307053804397583
0.99382477998733521 0.50092536211013794 0.73897659778594971
0.068167306482791901 0.36475950479507446 0.74690020084381104
0.22963300347328186 0.38689050078392029 0.74960935115814209
0.46191862225532532 0.41671741008758545 0.74766093492507935
0.64215493202209473 0.47287473082542419 0.74581044912338257
0.77624326944351196 0.514079749584198 0.73674941062927246
0.89608252048492432 0.53930199146270752 0.74078065156936646
0.99415266513824463 0.5918082594871521 0.74542957544326782
0.0077378666028380394 0.55854696035385132 0.73431253433227539
0.1387178897857666 0.56612509489059448 0.7378278374671936
0.40970689058303833 0.57811075448989868 0.74048590660095215
0.62018948793411255 0.60928940773010254 0.74795383214950562
0.77494001388549805 0.64890873432159424 0.74941456317901611
0.89423656463623047 0.6622464656829834 0.74964112043380737
0.9917914867401123 0.67706644535064697 0.74726408720016479
0.36845806241035461 0.74148374795913696 0.73956626653671265
0.43413206934928894 0.74578839540481567 0.74665659666061401
0.53438949584960938 0.7473299503326416 0.74883854389190674
0.65238445997238159 0.74925476312637329 0.7544790506362915
0.78535538911819458 0.77056944370269775 0.76672959327697754
0.89647090435028076 0.76299619674682617 0.74410080909729004
0.99099409580230713 0.76659166812896729 0.73830157518386841
0.63083714246749878 0.85734206438064575 0.78112852573394775
0.6502833366394043 0.85835188627243042 0.78716921806335449
0.69665932655334473 0.85937005281448364 0.78930628299713135
0.75333130359649658 0.85966771841049194 0.79156845808029175
0.80979812145233154 0.86309969425201416 0.80047005414962769
0.89701306819915771 0.89494508504867554 0.81279158592224121
0.98854994773864746 0.88893580436706543 0.78237634897232056
0.78524202108383179 0.94184011220932007 0.85581803321838379
0.8002927303314209 0.94241154193878174 0.86008965969085693
0.81413108110427856 0.94269073009490967 0.85986292362213135
0.83496910333633423 0.94235968589782715 0.86195969581604004
0.85963010787963867 0.93991184234619141 0.86126899719238281
0.90376055240631104 0.95625168085098267 0.87206357717514038
0.96368473768234253 0.97048062086105347 0.87612277269363403
0.33722147345542908 0.14878356456756592 0.87470787763595581
0.41916057467460632 0.16844554245471954 0.87382149696350098
0.54521548748016357 0.20314081013202667 0.87094563245773315
0.68925487995147705 0.27768257260322571 0.86610060930252075
0.81620794534683228 0.39258328080177307 0.8586840033531189
0.91382575035095215 0.45934417843818665 0.85129684209823608
0.99544411897659302 0.50033766031265259 0.8511773943901062
0.34984302520751953 0.26108023524284363 0.8740772008895874
0.42869597673416138 0.27088898420333862 0.87393605709075928
0.55377709865570068 0.30290567874908447 0.87264585494995117
0.69317930936813354 0.36741611361503601 0.86778241395950317
0.81859898567199707 0.46692582964897156 0.86095911264419556
0.91222751140594482 0.51928138732910156 0.8558458685874939
0.99224591255187988 0.56234824657440186 0.85866725444793701
0.32941517233848572 0.40987929701805115 0.87217032909393311
0.41616266965866089 0.42129272222518921 0.8706362247467041
0.54893463850021362 0.44797220826148987 0.86939996480941772
0.68980282545089722 0.49455741047859192 0.86544573307037354
0.81323933601379395 0.56778335571289062 0.86100763082504272
0.90765666961669922 0.60667878389358521 0.85858213901519775
0.98899596929550171 0.63258594274520874 0.86174130439758301
0.11968744546175003 0.53934770822525024 0.86433440446853638
0.27513492107391357 0.54949319362640381 0.86538863182067871
0.46671333909034729 0.57413989305496216 0.86283588409423828
0.66557735204696655 0.61486136913299561 0.86259841918945312
0.80183631181716919 0.66715121269226074 0.86302685737609863
0.90023857355117798 0.70643413066864014 0.86166185140609741
0.98165863752365112 0.7204432487487793 0.86489701271057129
0.26258644461631775 0.71980714797973633 0.8538517951965332
0.33704662322998047 0.72150474786758423 0.85493022203445435
0.4501623809337616 0.71767312288284302 0.85645383596420288
0.60849094390869141 0.72538667917251587 0.85954195261001587
0.78165245056152344 0.7598145604133606 0.86492502689361572
0.89059889316558838 0.79990124702453613 0.87019610404968262
0.97423839569091797 0.80848419666290283 0.87269300222396851
0.56815123558044434 0.86133265495300293 0.85752415657043457
0.59676682949066162 0.86083203554153442 0.86217677593231201
0.65063953399658203 0.86242401599884033 0.86302053928375244
0.7304111123085022 0.86698776483535767 0.86812090873718262
0.80803781747817993 0.87024581432342529 0.87392061948776245
0.89698362350463867 0.88399899005889893 0.8835141658782959
0.9776986837387085 0.88532823324203491 0.87466108798980713
0.79000395536422729 0.94750046730041504 0.90280163288116455
0.80605137348175049 0.94934248924255371 0.90074366331100464
0.82334935665130615 0.95036929845809937 0.90266293287277222
0.85165303945541382 0.95337343215942383 0.90743899345397949
0.88801783323287964 0.95121651887893677 0.91124516725540161
0.92017871141433716 0.95542365312576294 0.91555732488632202
0.97413033246994019 0.97595995664596558 0.9284968376159668
0.55536305904388428 0.3401520848274231 0.97508770227432251
0.59285134077072144 0.35756057500839233 0.97484755516052246
0.67069113254547119 0.39788243174552917 0.97119420766830444
0.76457089185714722 0.45370429754257202 0.96460390090942383
0.85885429382324219 0.53985780477523804 0.95891445875167847
0.93329012393951416 0.64224380254745483 0.95369261503219604
0.9963991641998291 0.66103577613830566 0.94785141944885254
0.55868911743164062 0.41537648439407349 0.97428047657012939
0.59439438581466675 0.42316719889640808 0.97213447093963623
0.67196798324584961 0.46126222610473633 0.97086119651794434
0.7672240138053894 0.51356416940689087 0.96682137250900269
0.8609311580657959 0.57998919486999512 0.96166449785232544
0.93233835697174072 0.66645544767379761 0.95341008901596069
0.99541383981704712 0.69125580787658691 0.95222359895706177
0.55094301700592041 0.51531797647476196 0.97140461206436157
0.59400767087936401 0.52479368448257446 0.96915501356124878
0.67169696092605591 0.5528411865234375 0.96843284368515015
0.76500934362411499 0.59454089403152466 0.96466100215911865
0.85475856065750122 0.64469695091247559 0.95917302370071411
0.92666846513748169 0.71393537521362305 0.95282578468322754
0.99227321147918701 0.74111628532409668 0.95003873109817505
0.46977609395980835 0.60420525074005127 0.97074121236801147
0.53577280044555664 0.61879938840866089 0.96756058931350708
0.63736164569854736 0.63783919811248779 0.96658992767333984
0.74378621578216553 0.66654938459396362 0.96275448799133301
0.84422439336776733 0.71124136447906494 0.95804750919342041
0.92103451490402222 0.76895004510879517 0.9536205530166626
0.98710638284683228 0.79623305797576904 0.94995391368865967
0.37389969825744629 0.71329754590988159 0.96488940715789795
0.44502127170562744 0.71924042701721191 0.96394532918930054
0.55170899629592896 0.73046708106994629 0.96291810274124146
0.68097937107086182 0.74245661497116089 0.96154546737670898
0.82259470224380493 0.78175288438796997 0.95795720815658569
0.91017717123031616 0.82555723190307617 0.9560781717300415
0.97781747579574585 0.85697340965270996 0.95344710350036621
0.58145016431808472 0.86096429824829102 0.95712494850158691
0.59951400756835938 0.86148881912231445 0.95437526702880859
0.64076393842697144 0.86010384559631348 0.95739936828613281
0.70401620864868164 0.85861802101135254 0.96093535423278809
0.78920382261276245 0.85844159126281738 0.95880556106567383
0.90092039108276367 0.88763445615768433 0.96095263957977295
0.97593647241592407 0.91710489988327026 0.96139329671859741
0.76546186208724976 0.95863527059555054 0.9734460711479187
0.77040821313858032 0.95851892232894897 0.96198767423629761
0.80330502986907959 0.96191906929016113 0.96724033355712891
0.83443224430084229 0.96293944120407104 0.96583300828933716
0.87660646438598633 0.96077042818069458 0.96595257520675659
0.9200090765953064 0.96505165100097656 0.96829462051391602
0.98532795906066895 0.98216420412063599 0.98413509130477905
