films/fuji_velvia_100_generic.cube
# Created by: G'MIC (https://gmic.eu)
TITLE "fuji_velvia_100_generic"
# LUT size
LUT_3D_SIZE 13
# Data domain
DOMAIN_MIN 0.0 0.0 0.0
DOMAIN_MAX 1.0 1.0 1.0
# LUT data points
0.022400800138711929 0.018975740298628807 0.017760870978236198
0.073048807680606842 0.015845503658056259 0.018292145803570747
0.13611344993114471 0.017012292519211769 0.02050679549574852
0.22311946749687195 0.018668470904231071 0.019190873950719833
0.33281868696212769 0.01777699775993824 0.017259575426578522
0.45157235860824585 0.01623179204761982 0.016304256394505501
0.57247108221054077 0.013419236987829208 0.015824485570192337
0.69173997640609741 0.01001917477697134 0.014898322522640228
0.80789917707443237 0.0075482088141143322 0.013204148039221764
0.91708552837371826 0.0091974744573235512 0.013353698886930943
0.98761481046676636 0.014290409162640572 0.013894533738493919
1 0.024037394672632217 0.015514134429395199
1 0.038343258202075958 0.021922048181295395
0.032087720930576324 0.074716009199619293 0.015849543735384941
0.071344546973705292 0.06995062530040741 0.017572171986103058
0.12962055206298828 0.070154465734958649 0.020149409770965576
0.22034189105033875 0.070074237883090973 0.018839264288544655
0.33142992854118347 0.069603957235813141 0.015908947214484215
0.45009532570838928 0.06958337128162384 0.013762859627604485
0.570334792137146 0.066858284175395966 0.012610416859388351
0.68836987018585205 0.061008080840110779 0.01044565811753273
0.80147147178649902 0.053698372095823288 0.0092415604740381241
0.91026341915130615 0.051589425653219223 0.0096350722014904022
0.98699736595153809 0.055198505520820618 0.012168764136731625
1 0.067849539220333099 0.013620922341942787
1 0.086866043508052826 0.018855376169085503
0.047058522701263428 0.14243029057979584 0.019439563155174255
0.075865335762500763 0.14045844972133636 0.019971031695604324
0.1285456120967865 0.14025947451591492 0.022571563720703125
0.21880835294723511 0.1372273862361908 0.021720213815569878
0.33121567964553833 0.136697918176651 0.018865128979086876
0.4492746889591217 0.13966818153858185 0.015100681222975254
0.56916552782058716 0.1390824019908905 0.012631121091544628
0.68809694051742554 0.13436192274093628 0.010409889742732048
0.8011360764503479 0.12640726566314697 0.0092636710032820702
0.90813100337982178 0.11814317852258682 0.011402937583625317
0.9873274564743042 0.1145833358168602 0.014937651343643665
1 0.12885323166847229 0.01587892509996891
1 0.15119220316410065 0.01944439485669136
0.044183123856782913 0.23680651187896729 0.021383143961429596
0.066357620060443878 0.23498642444610596 0.019745560362935066
0.11254027485847473 0.23348163068294525 0.021775249391794205
0.19972573220729828 0.23015356063842773 0.022179577499628067
0.31818312406539917 0.22893291711807251 0.020358456298708916
0.44407755136489868 0.2303716242313385 0.0171839389950037
0.56630772352218628 0.2302175909280777 0.014630126766860485
0.68380099534988403 0.2274530827999115 0.012299062684178352
0.79798901081085205 0.22120761871337891 0.011801012791693211
0.90425956249237061 0.21231356263160706 0.014027404598891735
0.98489111661911011 0.20736318826675415 0.017473632469773293
1 0.21720759570598602 0.017133062705397606
1 0.23547430336475372 0.018332477658987045
0.024561744183301926 0.35181429982185364 0.021382635459303856
0.036789223551750183 0.34878942370414734 0.01999218575656414
0.069869071245193481 0.3469487726688385 0.020776964724063873
0.15186594426631927 0.34453687071800232 0.021600371226668358
0.28895336389541626 0.34154397249221802 0.020557388663291931
0.43178141117095947 0.33838081359863281 0.018963009119033813
0.55715018510818481 0.33756640553474426 0.016790159046649933
0.67452281713485718 0.33636349439620972 0.013748289085924625
0.78782480955123901 0.33293032646179199 0.013889477588236332
0.89432775974273682 0.32678520679473877 0.016788946464657784
0.97839725017547607 0.32277855277061462 0.018431853502988815
1 0.32660594582557678 0.015588005073368549
1 0.33676278591156006 0.014335542917251587
0.0042931349016726017 0.47227811813354492 0.020954729989171028
0.0050508687272667885 0.46952319145202637 0.018730089068412781
0.01657797209918499 0.46832510828971863 0.020072473213076591
0.079722791910171509 0.46735695004463196 0.021956544369459152
0.24416369199752808 0.46263933181762695 0.019501375034451485
0.40610501170158386 0.45717310905456543 0.017213469371199608
0.53584885597229004 0.45483174920082092 0.015074636787176132
0.65546709299087524 0.45464989542961121 0.013771715573966503
0.7688518762588501 0.45327931642532349 0.015287226997315884
0.87376207113265991 0.44899895787239075 0.017053088173270226
0.95771872997283936 0.44448074698448181 0.015401847660541534
0.99790108203887939 0.44376838207244873 0.010808577761054039
1 0.44695013761520386 0.0093584097921848297
0 0.58836978673934937 0.017949916422367096
0 0.58744525909423828 0.015548930503427982
0.00049713731277734041 0.58635807037353516 0.016495050862431526
0.045405924320220947 0.58598560094833374 0.017282314598560333
0.1944064199924469 0.58214199542999268 0.014577768743038177
0.36031761765480042 0.57712656259536743 0.011588362045586109
0.50240832567214966 0.57421475648880005 0.0099272783845663071
0.62904113531112671 0.57254904508590698 0.009598810225725174
0.74397695064544678 0.57252603769302368 0.011993408203125
0.84705108404159546 0.57022720575332642 0.012080667540431023
0.93137651681900024 0.56518316268920898 0.0083214705809950829
0.98794996738433838 0.56117492914199829 0.0056232674978673458
1 0.55944335460662842 0.0055338242091238499
0 0.69746506214141846 0.011331535875797272
0 0.69763171672821045 0.0095824301242828369
0.0025456447619944811 0.69625568389892578 0.010445314459502697
0.052279587835073471 0.69632351398468018 0.0090592624619603157
0.1683700829744339 0.69498187303543091 0.0068507473915815353
0.31867125630378723 0.69161289930343628 0.0054867612197995186
0.46789395809173584 0.68821537494659424 0.0044655143283307552
0.60140395164489746 0.68711352348327637 0.0038910212460905313
0.71851086616516113 0.68667006492614746 0.0033047245815396309
0.82123798131942749 0.68413889408111572 0.0023854572791606188
0.90788030624389648 0.67987722158432007 0.0015251159202307463
0.97432750463485718 0.67496079206466675 0.0013071845751255751
0.99989265203475952 0.66943854093551636 0.0023083407431840897
0 0.80062013864517212 0.0038735184352844954
0 0.80159443616867065 0.0027725966647267342
0.0037125831004232168 0.80000346899032593 0.0034482020419090986
0.04739563912153244 0.80075258016586304 0.0020415661856532097
0.14380607008934021 0.80044668912887573 0.0012504277983680367
0.28440007567405701 0.79753804206848145 0.0010426241206005216
0.43956050276756287 0.79355674982070923 0.00084270403021946549
0.5776824951171875 0.79192453622817993 0.00035478180507197976
0.69471758604049683 0.79164803028106689 4.8828125727595761e-05
0.79676192998886108 0.78963059186935425 0
0.88446187973022461 0.78618240356445312 0
0.95480644702911377 0.78165704011917114 0
0.99679452180862427 0.77433609962463379 0.00015402401913888752
0 0.89551240205764771 0.00011610142973950133
0 0.89699429273605347 0
0.00069078931119292974 0.89567106962203979 0
0.029143523424863815 0.89474773406982422 0
0.11280935257673264 0.89458572864532471 0
0.25191026926040649 0.89285886287689209 0
0.41533592343330383 0.88831323385238647 0
0.55808299779891968 0.88603466749191284 0
0.67484176158905029 0.88556605577468872 0
0.77561342716217041 0.883259117603302 0
0.86190527677536011 0.88057643175125122 0
0.93221932649612427 0.87770497798919678 0
0.9854581356048584 0.87029576301574707 0
0.00064432481303811073 0.97397458553314209 0
0.00039500815910287201 0.97399377822875977 0
0.0025909873656928539 0.97201836109161377 0
0.027494123205542564 0.96856379508972168 0
0.095969043672084808 0.96839529275894165 0
0.23860186338424683 0.96893727779388428 0
0.4112088680267334 0.96341598033905029 0
0.55352389812469482 0.96074891090393066 0
0.66596168279647827 0.9618908166885376 0
0.76382046937942505 0.95862877368927002 0
0.8466143012046814 0.95653003454208374 0
0.91436123847961426 0.9563862681388855 0
0.96968609094619751 0.95180952548980713 0
0.022157048806548119 1 0
0.028051309287548065 1 0
0.044179670512676239 1 0
0.080633096396923065 0.99995297193527222 0
0.14983811974525452 0.99977970123291016 0
0.28865298628807068 0.99979579448699951 0
0.45362204313278198 0.99795514345169067 0
0.58306974172592163 0.99744117259979248 0
0.6809922456741333 0.99906909465789795 0
0.76788026094436646 0.99855566024780273 0
0.84289896488189697 0.99841022491455078 0
0.90634030103683472 0.99854499101638794 0
0.96033942699432373 0.99750256538391113 0
0.064778394997119904 1 0.0014515595976263285
0.085789516568183899 1 0.00016141404921654612
0.12039168179035187 1 0
0.17586790025234222 1 0
0.26108938455581665 1 0
0.38552987575531006 1 1.6335879990947433e-05
0.52702951431274414 1 0.00089166680118069053
0.63311958312988281 1 0.0027172013651579618
0.71220290660858154 1 0.0019445531070232391
0.78406566381454468 1 0.00030065799364820123
0.84953820705413818 1 0
0.90781617164611816 1 0
0.95955008268356323 1 0
0.023556757718324661 0.015413965098559856 0.069334544241428375
0.074125222861766815 0.011488716118037701 0.069387994706630707
0.13968625664710999 0.01116047240793705 0.071160301566123962
0.22613450884819031 0.012109868228435516 0.069256231188774109
0.33299973607063293 0.012826313264667988 0.065923742949962616
0.45126429200172424 0.010973837226629257 0.066468030214309692
0.57340580224990845 0.0076696509495377541 0.068665929138660431
0.69476008415222168 0.0050453483127057552 0.067883856594562531
0.81186163425445557 0.0035350127145648003 0.064979732036590576
0.91807180643081665 0.0050385566428303719 0.06219024583697319
0.98735803365707397 0.0087755685672163963 0.06025320291519165
1 0.015054830349981785 0.059181828051805496
1 0.025866430252790451 0.063664108514785767
0.031455680727958679 0.069326616823673248 0.063383124768733978
0.074557855725288391 0.06424451619386673 0.065392404794692993
0.13353699445724487 0.063631318509578705 0.067234247922897339
0.22160160541534424 0.063508592545986176 0.065702654421329498
0.32998180389404297 0.063429094851016998 0.06265944242477417
0.4492262601852417 0.061928484588861465 0.062003642320632935
0.57061922550201416 0.057720784097909927 0.062412083148956299
0.69029384851455688 0.051658675074577332 0.060813620686531067
0.80572861433029175 0.045723378658294678 0.057637471705675125
0.91416877508163452 0.044215511530637741 0.056351277977228165
0.98854488134384155 0.047866865992546082 0.056417174637317657
1 0.057775773108005524 0.057869374752044678
1 0.07323811948299408 0.063323140144348145
0.043830633163452148 0.13992689549922943 0.064402319490909576
0.078204087913036346 0.13509073853492737 0.065987654030323029
0.13089905679225922 0.13374540209770203 0.066396139562129974
0.22033277153968811 0.13196784257888794 0.064463943243026733
0.33027097582817078 0.13191024959087372 0.062743015587329865
0.44829776883125305 0.13255158066749573 0.061855629086494446
0.56887567043304443 0.13035979866981506 0.0606243796646595
0.68820899724960327 0.12545110285282135 0.057865455746650696
0.80279362201690674 0.11885685473680496 0.055159192532300949
0.90943807363510132 0.11224844306707382 0.05490734800696373
0.98654454946517944 0.11104929447174072 0.05785682424902916
1 0.12075593322515488 0.059686172753572464
1 0.13813525438308716 0.064784690737724304
0.042291931807994843 0.23479156196117401 0.063897199928760529
0.068546459078788757 0.2307257354259491 0.06290118396282196
0.11708653718233109 0.22781173884868622 0.064118705689907074
0.20535679161548615 0.2253955751657486 0.063423365354537964
0.32113468647003174 0.22509108483791351 0.061379346996545792
0.44446763396263123 0.22555238008499146 0.059755362570285797
0.56604909896850586 0.22376801073551178 0.05852958932518959
0.683543860912323 0.22071480751037598 0.05589434877038002
0.79640495777130127 0.21617181599140167 0.053492497652769089
0.90144580602645874 0.20890416204929352 0.054525025188922882
0.98150765895843506 0.20449413359165192 0.057908870279788971
1 0.21043626964092255 0.059128839522600174
1 0.22418676316738129 0.062342237681150436
0.024317018687725067 0.34810173511505127 0.060697294771671295
0.040221463888883591 0.34477180242538452 0.059452611953020096
0.079256124794483185 0.34204453229904175 0.060990937054157257
0.16536314785480499 0.34005406498908997 0.060588747262954712
0.29616987705230713 0.33821147680282593 0.05777224525809288
0.43292438983917236 0.33631125092506409 0.056229952722787857
0.55763649940490723 0.33370509743690491 0.055519059300422668
0.67465198040008545 0.33237484097480774 0.05306447297334671
0.7864869236946106 0.3295382559299469 0.051808539777994156
0.89064842462539673 0.32382425665855408 0.053742248564958572
0.97128057479858398 0.31899726390838623 0.055674921721220016
0.9997485876083374 0.32070532441139221 0.053900297731161118
1 0.32794362306594849 0.054157540202140808
0.0033540164586156607 0.46769276261329651 0.056152913719415665
0.0077393027022480965 0.4655437171459198 0.054831501096487045
0.032254014164209366 0.4638611376285553 0.056356899440288544
0.11063171178102493 0.46242758631706238 0.056291047483682632
0.25289970636367798 0.45940834283828735 0.053242597728967667
0.40553337335586548 0.45558178424835205 0.051262244582176208
0.53762650489807129 0.45336359739303589 0.049890317022800446
0.65673279762268066 0.45287898182868958 0.047400724142789841
0.76875549554824829 0.45112177729606628 0.047027483582496643
0.8727608323097229 0.4463857114315033 0.049873173236846924
0.95311820507049561 0.44141390919685364 0.049915343523025513
0.99487370252609253 0.43941044807434082 0.045696437358856201
1 0.44097822904586792 0.044041488319635391
0 0.58493107557296753 0.050460156053304672
0 0.58429950475692749 0.047545984387397766
0.0069561228156089783 0.58340030908584595 0.04779956117272377
0.073169305920600891 0.5823788046836853 0.047096371650695801
0.20843882858753204 0.57974034547805786 0.044822975993156433
0.36530640721321106 0.57585388422012329 0.042840965092182159
0.50706773996353149 0.57305628061294556 0.041764531284570694
0.63233757019042969 0.57254207134246826 0.039996713399887085
0.74636870622634888 0.57202363014221191 0.039731267839670181
0.84974724054336548 0.56787693500518799 0.04114571213722229
0.93291699886322021 0.56268829107284546 0.040194448083639145
0.98735278844833374 0.5586315393447876 0.037754073739051819
1 0.55571877956390381 0.037930477410554886
0 0.69585400819778442 0.040144316852092743
0 0.69619858264923096 0.03538188710808754
0.0038801156915724277 0.69513273239135742 0.034271344542503357
0.058879029005765915 0.69526118040084839 0.032271828502416611
0.17498448491096497 0.69408971071243286 0.03145764023065567
0.32439056038856506 0.69094735383987427 0.031495485454797745
0.47406226396560669 0.6877434253692627 0.031212586909532547
0.60710644721984863 0.68675416707992554 0.029736388474702835
0.72353947162628174 0.68583273887634277 0.027347804978489876
0.82681769132614136 0.6827925443649292 0.025173068046569824
0.91478943824768066 0.67842614650726318 0.024490520358085632
0.98171859979629517 0.67341107130050659 0.026268633082509041
1 0.66787618398666382 0.029772590845823288
0 0.79983246326446533 0.02333984337747097
0 0.80075567960739136 0.017505422234535217
0.0018919402500614524 0.79899376630783081 0.01476389542222023
0.042354807257652283 0.80028450489044189 0.014487083069980145
0.14050726592540741 0.80039888620376587 0.016466567292809486
0.28459659218788147 0.79744696617126465 0.017572769895195961
0.44504258036613464 0.7926790714263916 0.017792720347642899
0.58430510759353638 0.79100728034973145 0.015270218253135681
0.70105737447738647 0.79086136817932129 0.010135007090866566
0.80358171463012695 0.78901404142379761 0.0055431141518056393
0.89272409677505493 0.78582394123077393 0.0044733383692800999
0.96509426832199097 0.78159099817276001 0.0071953716687858105
0.9990660548210144 0.77453213930130005 0.012719756923615932
0 0.89346957206726074 0.0045963958837091923
0 0.8948519229888916 0.0016015744768083096
1.3463637742461287e-06 0.89337766170501709 0.00059256458189338446
0.018496809527277946 0.8932877779006958 0.0015627393731847405
0.099160231649875641 0.8940880298614502 0.0043754726648330688
0.24382315576076508 0.8922688364982605 0.0044386172667145729
0.41675090789794922 0.887359619140625 0.0031950108241289854
0.5638580322265625 0.88514071702957153 0.002680221339687705
0.68137878179550171 0.88457703590393066 0.0007571201422251761
0.78224712610244751 0.88274002075195312 1.3329001376405358e-05
0.86874032020568848 0.88074463605880737 0
0.9394574761390686 0.87846970558166504 2.0734001736855134e-05
0.98989415168762207 0.87150818109512329 0.00089952058624476194
1.2027516277157702e-05 0.97013533115386963 0
4.7152650950010866e-05 0.97014510631561279 0
0.00097799859941005707 0.96676105260848999 0
0.014827578328549862 0.96467882394790649 5.3316005505621433e-05
0.071644939482212067 0.9661870002746582 0.00059189141029492021
0.22106976807117462 0.96598070859909058 4.0316113881999627e-05
0.40680941939353943 0.96229761838912964 0
0.55720692873001099 0.9596480131149292 0
0.67324715852737427 0.95939618349075317 0
0.76980888843536377 0.95777899026870728 0
0.85175061225891113 0.95666444301605225 0
0.91893988847732544 0.95674484968185425 0
0.97330605983734131 0.95164197683334351 0
0.015520821325480938 1 5.2343631978146732e-05
0.021937187761068344 0.99998009204864502 6.7961453169118613e-05
0.039869226515293121 0.99959439039230347 0.00021864946756977588
0.075016498565673828 0.9987187385559082 3.9493337681051344e-05
0.13596794009208679 0.99891799688339233 0
0.27552297711372375 0.99896496534347534 0
0.44541728496551514 0.99817442893981934 2.0255294657545164e-05
0.58177715539932251 0.99756449460983276 0.00093756284331902862
0.68554878234863281 0.99853610992431641 0.0020538030657917261
0.77262276411056519 0.99844622611999512 0.00065307616023346782
0.84724116325378418 0.99831146001815796 2.8961780117242597e-05
0.90964043140411377 0.99843341112136841 0
0.96237766742706299 0.99712717533111572 8.3429673395585269e-05
0.057437386363744736 1 0.011603501625359058
0.079731404781341553 1 0.007814100943505764
0.11957889795303345 1 0.0060138776898384094
0.18288533389568329 1 0.0024365594144910574
0.27130797505378723 1 0.00065576890483498573
0.3865295946598053 1 0.0023095821961760521
0.51623094081878662 1 0.0070440405979752541
0.62645792961120605 1 0.014585606753826141
0.71348530054092407 1 0.017022615298628807
0.78782492876052856 1 0.011667872779071331
0.85394960641860962 1 0.0044532925821840763
0.91228240728378296 1 0.00074328255141153932
0.96420747041702271 1 0.00066024181433022022
0.025953225791454315 0.01380335446447134 0.13661397993564606
0.077286362648010254 0.0091277174651622772 0.13749919831752777
0.14461858570575714 0.0072719799354672432 0.13911178708076477
0.23163682222366333 0.0076210619881749153 0.13749246299266815
0.3358268141746521 0.0089217089116573334 0.13319534063339233
0.4525173008441925 0.0069731618277728558 0.13573151826858521
0.57551926374435425 0.0041445414535701275 0.13990803062915802
0.69925642013549805 0.0027058320119976997 0.13994500041007996
0.81950479745864868 0.0027924482710659504 0.13643845915794373
0.92621481418609619 0.0051369010470807552 0.13074043393135071
0.99200332164764404 0.0087698996067047119 0.12533010542392731
1 0.010125657543540001 0.12203194200992584
1 0.015231622382998466 0.12387809157371521
0.035392880439758301 0.063878409564495087 0.1301218569278717
0.076609037816524506 0.060221951454877853 0.13120271265506744
0.13769634068012238 0.056787002831697464 0.13230197131633759
0.22561007738113403 0.055580813437700272 0.13150806725025177
0.33221247792243958 0.055920232087373734 0.13087530434131622
0.44914186000823975 0.053836792707443237 0.13167145848274231
0.57157951593399048 0.049473077058792114 0.1334972083568573
0.69475448131561279 0.045220736414194107 0.1325095146894455
0.81495124101638794 0.042278558015823364 0.12867698073387146
0.92300605773925781 0.041387774050235748 0.12446045130491257
0.99157381057739258 0.042985010892152786 0.12196402251720428
1 0.049573488533496857 0.12190050631761551
1 0.060610033571720123 0.12709991633892059
0.047412514686584473 0.13477316498756409 0.12977081537246704
0.07955651730298996 0.13176922500133514 0.12922845780849457
0.13320088386535645 0.12749806046485901 0.12846702337265015
0.22328707575798035 0.12551383674144745 0.12774316966533661
0.33104810118675232 0.12546004354953766 0.12876176834106445
0.44652032852172852 0.1246551051735878 0.12955638766288757
0.568195641040802 0.12195803970098495 0.12940213084220886
0.68924933671951294 0.11780662089586258 0.12731659412384033
0.80713856220245361 0.11308220028877258 0.123796246945858
0.91465204954147339 0.10755866765975952 0.12129750102758408
0.9882131814956665 0.10524480789899826 0.12157055735588074
1 0.11227500438690186 0.12368305027484894
1 0.12510028481483459 0.12933892011642456
0.045929402112960815 0.23105695843696594 0.12604588270187378
0.07295536994934082 0.22722139954566956 0.12495726346969604
0.12316655367612839 0.22308202087879181 0.12658961117267609
0.21204254031181335 0.22146159410476685 0.1260700523853302
0.32346883416175842 0.22146223485469818 0.12401530146598816
0.44258740544319153 0.22034099698066711 0.12300237268209457
0.5649104118347168 0.21716497838497162 0.12367969751358032
0.68346977233886719 0.21375632286071777 0.12157817184925079
0.79757130146026611 0.21024669706821442 0.11823196709156036
0.90299946069717407 0.20500519871711731 0.11775219440460205
0.9811740517616272 0.20069345831871033 0.12008266150951385
1 0.20335932075977325 0.1216496154665947
1 0.21265183389186859 0.12546491622924805
0.026997165754437447 0.34361627697944641 0.11901227384805679
0.045932844281196594 0.34040454030036926 0.11882879585027695
0.088550716638565063 0.3375416100025177 0.12168878316879272
0.17582181096076965 0.33614572882652283 0.12123662978410721
0.30215242505073547 0.33501115441322327 0.11747872084379196
0.43413591384887695 0.33228456974029541 0.11601987481117249
0.55765378475189209 0.32929554581642151 0.11606044322252274
0.67473745346069336 0.3271295428276062 0.11407620459794998
0.78711307048797607 0.32473397254943848 0.11194944381713867
0.89203953742980957 0.32018336653709412 0.11364502459764481
0.97145557403564453 0.31573760509490967 0.11528408527374268
0.99953269958496094 0.31469228863716125 0.11363305151462555
1 0.31865492463111877 0.11399862170219421
0.0046089920215308666 0.46279847621917725 0.10955608636140823
0.012136930599808693 0.46077284216880798 0.11095679551362991
0.043092526495456696 0.4592343270778656 0.11341678351163864
0.12397979944944382 0.4579525887966156 0.11296992748975754
0.26141649484634399 0.45548734068870544 0.10944568365812302
0.40995940566062927 0.4520411491394043 0.10771968960762024
0.54027473926544189 0.44968277215957642 0.10705885291099548
0.6574205756187439 0.44903784990310669 0.1038573756814003
0.76867294311523438 0.4476546049118042 0.10198880732059479
0.87389260530471802 0.44263005256652832 0.10611636936664581
0.95355761051177979 0.4375203549861908 0.10743249952793121
0.99253827333450317 0.43426671624183655 0.10277824848890305
0.9998786449432373 0.43409547209739685 0.099462099373340607
0 0.5800061821937561 0.10312428325414658
4.8379337385995314e-05 0.57965183258056641 0.10054439306259155
0.013278946280479431 0.5792728066444397 0.099901162087917328
0.086448013782501221 0.57837903499603271 0.09936872124671936
0.22184042632579803 0.57572346925735474 0.096352443099021912
0.37685137987136841 0.5722959041595459 0.095507845282554626
0.5137144923210144 0.57024085521697998 0.09626317024230957
0.63504683971405029 0.56983846426010132 0.094146206974983215
0.7472725510597229 0.56814038753509521 0.092695407569408417
0.85142338275909424 0.56336826086044312 0.095596954226493835
0.93406480550765991 0.55815213918685913 0.096268042922019958
0.98553884029388428 0.55368214845657349 0.093575559556484222
1 0.55011165142059326 0.093167953193187714
0 0.69148838520050049 0.091296359896659851
0 0.69276994466781616 0.083362817764282227
0.0056398878805339336 0.69279718399047852 0.078550778329372406
