films/fuji_neopan_1600_4_++.cube
TITLE "data/luts/rawtherapee/HaldCLUT/Black-and-White/Fuji/Fuji Neopan 1600 4 ++.png"
LUT_3D_SIZE 8
DOMAIN_MIN 0 0 0
DOMAIN_MAX 1 1 1
0.145098 0.145098 0.145098
0.145098 0.145098 0.145098
0.145658 0.145658 0.145658
0.157983 0.157983 0.157983
0.192157 0.192157 0.192157
0.247619 0.247619 0.247619
0.333894 0.333894 0.333894
0.513725 0.513725 0.513725
0.149020 0.149020 0.149020
0.149020 0.149020 0.149020
0.160464 0.160464 0.160464
0.180872 0.180872 0.180872
0.220808 0.220808 0.220808
0.272829 0.272829 0.272829
0.365986 0.365986 0.365986
0.541176 0.541176 0.541176
0.164146 0.164146 0.164146
0.172229 0.172229 0.172229
0.192077 0.192077 0.192077
0.247059 0.247059 0.247059
0.305322 0.305322 0.305322
0.360304 0.360304 0.360304
0.454582 0.454582 0.454582
0.631373 0.631373 0.631373
0.228571 0.228571 0.228571
0.244258 0.244258 0.244258
0.259544 0.259544 0.259544
0.304202 0.304202 0.304202
0.393758 0.393758 0.393758
0.492437 0.492437 0.492437
0.606723 0.606723 0.606723
0.739496 0.739496 0.739496
0.332213 0.332213 0.332213
0.347899 0.347899 0.347899
0.359104 0.359104 0.359104
0.403601 0.403601 0.403601
0.470668 0.470668 0.470668
0.598639 0.598639 0.598639
0.710924 0.710924 0.710924
0.826331 0.826331 0.826331
0.499720 0.499720 0.499720
0.516847 0.516847 0.516847
0.526130 0.526130 0.526130
0.559664 0.559664 0.559664
0.625930 0.625930 0.625930
0.692357 0.692357 0.692357
0.796879 0.796879 0.796879
0.882913 0.882913 0.882913
0.743978 0.743978 0.743978
0.751261 0.751261 0.751261
0.755662 0.755662 0.755662
0.766387 0.766387 0.766387
0.801120 0.801120 0.801120
0.841457 0.841457 0.841457
0.883874 0.883874 0.883874
0.945098 0.945098 0.945098
0.929412 0.929412 0.929412
0.931092 0.931092 0.931092
0.933333 0.933333 0.933333
0.937255 0.937255 0.937255
0.949020 0.949020 0.949020
0.968627 0.968627 0.968627
0.984314 0.984314 0.984314
0.996078 0.996078 0.996078
0.145098 0.145098 0.145098
0.148059 0.148059 0.148059
0.152621 0.152621 0.152621
0.169108 0.169108 0.169108
0.206723 0.206723 0.206723
0.253221 0.253221 0.253221
0.337255 0.337255 0.337255
0.484594 0.484594 0.484594
0.149740 0.149740 0.149740
0.157171 0.157171 0.157171
0.165426 0.165426 0.165426
0.191036 0.191036 0.191036
0.232825 0.232825 0.232825
0.284457 0.284457 0.284457
0.369908 0.369908 0.369908
0.523569 0.523569 0.523569
0.183754 0.183754 0.183754
0.189058 0.189058 0.189058
0.210610 0.210610 0.210610
0.261293 0.261293 0.261293
0.310764 0.310764 0.310764
0.366101 0.366101 0.366101
0.459578 0.459578 0.459578
0.624410 0.624410 0.624410
0.252101 0.252101 0.252101
0.265443 0.265443 0.265443
0.279060 0.279060 0.279060
0.323970 0.323970 0.323970
0.410118 0.410118 0.410118
0.504682 0.504682 0.504682
0.610793 0.610793 0.610793
0.739496 0.739496 0.739496
0.353501 0.353501 0.353501
0.375190 0.375190 0.375190
0.382725 0.382725 0.382725
0.423838 0.423838 0.423838
0.487029 0.487029 0.487029
0.611204 0.611204 0.611204
0.717578 0.717578 0.717578
0.832333 0.832333 0.832333
0.523169 0.523169 0.523169
0.542880 0.542880 0.542880
0.551855 0.551855 0.551855
0.579843 0.579843 0.579843
0.638644 0.638644 0.638644
0.701949 0.701949 0.701949
0.800595 0.800595 0.800595
0.886835 0.886835 0.886835
0.753501 0.753501 0.753501
0.763025 0.763025 0.763025
0.768044 0.768044 0.768044
0.775750 0.775750 0.775750
0.809238 0.809238 0.809238
0.844692 0.844692 0.844692
0.886286 0.886286 0.886286
0.947339 0.947339 0.947339
0.931653 0.931653 0.931653
0.934054 0.934054 0.934054
0.935334 0.935334 0.935334
0.940536 0.940536 0.940536
0.952301 0.952301 0.952301
0.967187 0.967187 0.967187
0.984314 0.984314 0.984314
0.994398 0.994398 0.994398
0.149020 0.149020 0.149020
0.156303 0.156303 0.156303
0.172469 0.172469 0.172469
0.189196 0.189196 0.189196
0.229852 0.229852 0.229852
0.278992 0.278992 0.278992
0.358864 0.358864 0.358864
0.498039 0.498039 0.498039
0.160224 0.160224 0.160224
0.173852 0.173852 0.173852
0.193323 0.193323 0.193323
0.213594 0.213594 0.213594
0.252501 0.252501 0.252501
0.306088 0.306088 0.306088
0.390053 0.390053 0.390053
0.544778 0.544778 0.544778
0.187195 0.187195 0.187195
0.204322 0.204322 0.204322
0.249448 0.249448 0.249448
0.283794 0.283794 0.283794
0.326828 0.326828 0.326828
0.387195 0.387195 0.387195
0.479586 0.479586 0.479586
0.637615 0.637615 0.637615
0.283073 0.283073 0.283073
0.313314 0.313314 0.313314
0.329972 0.329972 0.329972
0.370194 0.370194 0.370194
0.449688 0.449688 0.449688
0.530349 0.530349 0.530349
0.623118 0.623118 0.623118
0.743818 0.743818 0.743818
0.412485 0.412485 0.412485
0.438793 0.438793 0.438793
0.444875 0.444875 0.444875
0.469182 0.469182 0.469182
0.528772 0.528772 0.528772
0.640508 0.640508 0.640508
0.738684 0.738684 0.738684
0.836975 0.836975 0.836975
0.577511 0.577511 0.577511
0.600320 0.600320 0.600320
0.607843 0.607843 0.607843
0.617230 0.617230 0.617230
0.670165 0.670165 0.670165
0.723581 0.723581 0.723581
0.814280 0.814280 0.814280
0.894678 0.894678 0.894678
0.776471 0.776471 0.776471
0.786989 0.786989 0.786989
0.789756 0.789756 0.789756
0.797439 0.797439 0.797439
0.821003 0.821003 0.821003
0.854982 0.854982 0.854982
0.892574 0.892574 0.892574
0.952941 0.952941 0.952941
0.936695 0.936695 0.936695
0.939176 0.939176 0.939176
0.941176 0.941176 0.941176
0.946058 0.946058 0.946058
0.952941 0.952941 0.952941
0.969108 0.969108 0.969108
0.984314 0.984314 0.984314
0.996078 0.996078 0.996078
0.172549 0.172549 0.172549
0.182713 0.182713 0.182713
0.215286 0.215286 0.215286
0.248179 0.248179 0.248179
0.266667 0.266667 0.266667
0.328852 0.328852 0.328852
0.410724 0.410724 0.410724
0.554062 0.554062 0.554062
0.194958 0.194958 0.194958
0.206723 0.206723 0.206723
0.235534 0.235534 0.235534
0.277014 0.277014 0.277014
0.295272 0.295272 0.295272
0.355799 0.355799 0.355799
0.438050 0.438050 0.438050
0.581513 0.581513 0.581513
0.215286 0.215286 0.215286
0.243389 0.243389 0.243389
0.300520 0.300520 0.300520
0.344572 0.344572 0.344572
0.370468 0.370468 0.370468
0.427588 0.427588 0.427588
0.510456 0.510456 0.510456
0.645538 0.645538 0.645538
0.284594 0.284594 0.284594
0.316126 0.316126 0.316126
0.363265 0.363265 0.363265
0.442600 0.442600 0.442600
0.485474 0.485474 0.485474
0.547899 0.547899 0.547899
0.633419 0.633419 0.633419
0.748219 0.748219 0.748219
0.436975 0.436975 0.436975
0.479129 0.479129 0.479129
0.519854 0.519854 0.519854
0.551249 0.551249 0.551249
0.594729 0.594729 0.594729
0.682753 0.682753 0.682753
0.761310 0.761310 0.761310
0.838095 0.838095 0.838095
0.640896 0.640896 0.640896
0.671617 0.671617 0.671617
0.676934 0.676934 0.676934
0.685348 0.685348 0.685348
0.710044 0.710044 0.710044
0.758120 0.758120 0.758120
0.833785 0.833785 0.833785
0.908283 0.908283 0.908283
0.808403 0.808403 0.808403
0.817824 0.817824 0.817824
0.820237 0.820237 0.820237
0.827554 0.827554 0.827554
0.837912 0.837912 0.837912
0.869399 0.869399 0.869399
0.904202 0.904202 0.904202
0.960784 0.960784 0.960784
0.945098 0.945098 0.945098
0.949020 0.949020 0.949020
0.951821 0.951821 0.951821
0.955742 0.955742 0.955742
0.957983 0.957983 0.957983
0.972949 0.972949 0.972949
0.987115 0.987115 0.987115
0.998880 0.998880 0.998880
0.222409 0.222409 0.222409
0.236014 0.236014 0.236014
0.268908 0.268908 0.268908
0.339176 0.339176 0.339176
0.378471 0.378471 0.378471
0.387835 0.387835 0.387835
0.491317 0.491317 0.491317
0.642017 0.642017 0.642017
0.246419 0.246419 0.246419
0.263946 0.263946 0.263946
0.301092 0.301092 0.301092
0.365369 0.365369 0.365369
0.409867 0.409867 0.409867
0.419619 0.419619 0.419619
0.517121 0.517121 0.517121
0.664906 0.664906 0.664906
0.301401 0.301401 0.301401
0.335643 0.335643 0.335643
0.370331 0.370331 0.370331
0.428011 0.428011 0.428011
0.474350 0.474350 0.474350
0.497342 0.497342 0.497342
0.588887 0.588887 0.588887
0.709804 0.709804 0.709804
0.330212 0.330212 0.330212
0.362842 0.362842 0.362842
0.410118 0.410118 0.410118
0.513474 0.513474 0.513474
0.569428 0.569428 0.569428
0.605717 0.605717 0.605717
0.671228 0.671228 0.671228
0.757663 0.757663 0.757663
0.436975 0.436975 0.436975
0.473732 0.473732 0.473732
0.514274 0.514274 0.514274
0.582622 0.582622 0.582622
0.669868 0.669868 0.669868
0.711244 0.711244 0.711244
0.761104 0.761104 0.761104
0.834174 0.834174 0.834174
0.647779 0.647779 0.647779
0.674030 0.674030 0.674030
0.698760 0.698760 0.698760
0.736146 0.736146 0.736146
0.761630 0.761630 0.761630
0.794100 0.794100 0.794100
0.856594 0.856594 0.856594
0.918607 0.918607 0.918607
0.822489 0.822489 0.822489
0.835145 0.835145 0.835145
0.848099 0.848099 0.848099
0.862265 0.862265 0.862265
0.868565 0.868565 0.868565
0.888744 0.888744 0.888744
0.920574 0.920574 0.920574
0.968627 0.968627 0.968627
0.960784 0.960784 0.960784
0.958703 0.958703 0.958703
0.960784 0.960784 0.960784
0.964386 0.964386 0.964386
0.968627 0.968627 0.968627
0.976631 0.976631 0.976631
0.988235 0.988235 0.988235
0.997199 0.997199 0.997199
0.322689 0.322689 0.322689
0.338375 0.338375 0.338375
0.377591 0.377591 0.377591
0.443377 0.443377 0.443377
0.545098 0.545098 0.545098
0.582633 0.582633 0.582633
0.570308 0.570308 0.570308
0.718207 0.718207 0.718207
0.347899 0.347899 0.347899
0.374527 0.374527 0.374527
0.409444 0.409444 0.409444
0.474350 0.474350 0.474350
0.571360 0.571360 0.571360
0.606368 0.606368 0.606368
0.594592 0.594592 0.594592
0.734454 0.734454 0.734454
0.412325 0.412325 0.412325
0.442223 0.442223 0.442223
0.475081 0.475081 0.475081
0.536878 0.536878 0.536878
0.623312 0.623312 0.623312
0.659944 0.659944 0.659944
0.659212 0.659212 0.659212
0.775990 0.775990 0.775990
0.431533 0.431533 0.431533
0.479243 0.479243 0.479243
0.553707 0.553707 0.553707
0.613605 0.613605 0.613605
0.681152 0.681152 0.681152
0.719248 0.719248 0.719248
0.730955 0.730955 0.730955
0.815286 0.815286 0.815286
0.501801 0.501801 0.501801
0.539564 0.539564 0.539564
0.577968 0.577968 0.577968
0.636014 0.636014 0.636014
0.732933 0.732933 0.732933
0.774390 0.774390 0.774390
0.798788 0.798788 0.798788
0.855462 0.855462 0.855462
0.640896 0.640896 0.640896
0.666312 0.666312 0.666312
0.691797 0.691797 0.691797
0.732396 0.732396 0.732396
0.785411 0.785411 0.785411
0.841297 0.841297 0.841297
0.871709 0.871709 0.871709
0.918207 0.918207 0.918207
0.826090 0.826090 0.826090
0.836849 0.836849 0.836849
0.847585 0.847585 0.847585
0.868039 0.868039 0.868039
0.896759 0.896759 0.896759
0.917041 0.917041 0.917041
0.941565 0.941565 0.941565
0.978711 0.978711 0.978711
0.956863 0.956863 0.956863
0.961024 0.961024 0.961024
0.965266 0.965266 0.965266
0.974070 0.974070 0.974070
0.981513 0.981513 0.981513
0.988155 0.988155 0.988155
0.992717 0.992717 0.992717
1.000000 1.000000 1.000000
0.518768 0.518768 0.518768
0.532213 0.532213 0.532213
0.571188 0.571188 0.571188
0.636895 0.636895 0.636895
0.707563 0.707563 0.707563
0.775430 0.775430 0.775430
0.789756 0.789756 0.789756
0.784874 0.784874 0.784874
0.536134 0.536134 0.536134
0.565403 0.565403 0.565403
0.602527 0.602527 0.602527
0.656651 0.656651 0.656651
0.720768 0.720768 0.720768
0.783959 0.783959 0.783959
0.798331 0.798331 0.798331
0.793117 0.793117 0.793117
0.590796 0.590796 0.590796
0.623369 0.623369 0.623369
0.652707 0.652707 0.652707
0.697102 0.697102 0.697102
0.751386 0.751386 0.751386
0.805008 0.805008 0.805008
0.820168 0.820168 0.820168
0.821849 0.821849 0.821849
0.645298 0.645298 0.645298
0.677117 0.677117 0.677117
0.703070 0.703070 0.703070
0.736809 0.736809 0.736809
0.781890 0.781890 0.781890
0.829440 0.829440 0.829440
0.847619 0.847619 0.847619
0.854342 0.854342 0.854342
0.601281 0.601281 0.601281
0.636975 0.636975 0.636975
0.690699 0.690699 0.690699
0.763585 0.763585 0.763585
0.811890 0.811890 0.811890
0.852935 0.852935 0.852935
0.875756 0.875756 0.875756
0.894118 0.894118 0.894118
0.720448 0.720448 0.720448
0.735997 0.735997 0.735997
0.753261 0.753261 0.753261
0.783285 0.783285 0.783285
0.822489 0.822489 0.822489
0.888550 0.888550 0.888550
0.918447 0.918447 0.918447
0.943657 0.943657 0.943657
0.828972 0.828972 0.828972
0.838267 0.838267 0.838267
0.849060 0.849060 0.849060
0.870440 0.870440 0.870440
0.898851 0.898851 0.898851
0.933310 0.933310 0.933310
0.969725 0.969725 0.969725
0.986555 0.986555 0.986555
0.958543 0.958543 0.958543
0.961745 0.961745 0.961745
0.966146 0.966146 0.966146
0.973029 0.973029 0.973029
0.981032 0.981032 0.981032
0.992717 0.992717 0.992717
0.996799 0.996799 0.996799
0.997759 0.997759 0.997759
0.792157 0.792157 0.792157
0.797759 0.797759 0.797759
0.815126 0.815126 0.815126
0.839216 0.839216 0.839216
0.870588 0.870588 0.870588
0.906443 0.906443 0.906443
0.939496 0.939496 0.939496
0.945098 0.945098 0.945098
0.792157 0.792157 0.792157
0.805922 0.805922 0.805922
0.821048 0.821048 0.821048
0.844258 0.844258 0.844258
0.876591 0.876591 0.876591
0.908363 0.908363 0.908363
0.940456 0.940456 0.940456
0.949020 0.949020 0.949020
0.811765 0.811765 0.811765
0.823770 0.823770 0.823770
0.838735 0.838735 0.838735
0.859224 0.859224 0.859224
0.888675 0.888675 0.888675
0.918127 0.918127 0.918127
0.945098 0.945098 0.945098
0.956863 0.956863 0.956863
0.831373 0.831373 0.831373
0.841537 0.841537 0.841537
0.854902 0.854902 0.854902
0.874510 0.874510 0.874510
0.899160 0.899160 0.899160
0.929412 0.929412 0.929412
0.955182 0.955182 0.955182
0.964706 0.964706 0.964706
0.815686 0.815686 0.815686
0.831373 0.831373 0.831373
0.855862 0.855862 0.855862
0.881553 0.881553 0.881553
0.909004 0.909004 0.909004
0.937815 0.937815 0.937815
0.964226 0.964226 0.964226
0.976471 0.976471 0.976471
0.812885 0.812885 0.812885
0.820408 0.820408 0.820408
0.830972 0.830972 0.830972
0.862745 0.862745 0.862745
0.917487 0.917487 0.917487
0.953501 0.953501 0.953501
0.978952 0.978952 0.978952
0.991597 0.991597 0.991597
0.908123 0.908123 0.908123
0.909084 0.909084 0.909084
0.915166 0.915166 0.915166
0.927731 0.927731 0.927731
0.942777 0.942777 0.942777
0.961345 0.961345 0.961345
0.991437 0.991437 0.991437
0.996078 0.996078 0.996078
0.968627 0.968627 0.968627
0.972549 0.972549 0.972549
0.973109 0.973109 0.973109
0.980392 0.980392 0.980392
0.988235 0.988235 0.988235
0.992717 0.992717 0.992717
0.997759 0.997759 0.997759
1.000000 1.000000 1.000000
