films/fuji_neopan_1600_-.cube
# Created by: G'MIC (https://gmic.eu)
TITLE "fuji_neopan_1600_-"
# LUT size
LUT_3D_SIZE 5
# Data domain
DOMAIN_MIN 0.0 0.0 0.0
DOMAIN_MAX 1.0 1.0 1.0
# LUT data points
0.044128492474555969 0.044128492474555969 0.044128492474555969
0.045252840965986252 0.045252840965986252 0.045252840965986252
0.13043093681335449 0.13043093681335449 0.13043093681335449
0.29950720071792603 0.29950720071792603 0.29950720071792603
0.47786805033683777 0.47786805033683777 0.47786805033683777
0.13145618140697479 0.13145618140697479 0.13145618140697479
0.1512400209903717 0.1512400209903717 0.1512400209903717
0.29778316617012024 0.29778316617012024 0.29778316617012024
0.41323134303092957 0.41323134303092957 0.41323134303092957
0.56523293256759644 0.56523293256759644 0.56523293256759644
0.3219703733921051 0.3219703733921051 0.3219703733921051
0.34184187650680542 0.34184187650680542 0.34184187650680542
0.43436038494110107 0.43436038494110107 0.43436038494110107
0.56818580627441406 0.56818580627441406 0.56818580627441406
0.75025397539138794 0.75025397539138794 0.75025397539138794
0.57929188013076782 0.57929188013076782 0.57929188013076782
0.59177148342132568 0.59177148342132568 0.59177148342132568
0.63406246900558472 0.63406246900558472 0.63406246900558472
0.72199815511703491 0.72199815511703491 0.72199815511703491
0.86844968795776367 0.86844968795776367 0.86844968795776367
0.8999057412147522 0.8999057412147522 0.8999057412147522
0.90596330165863037 0.90596330165863037 0.90596330165863037
0.91782313585281372 0.91782313585281372 0.91782313585281372
0.94165951013565063 0.94165951013565063 0.94165951013565063
0.99415576457977295 0.99415576457977295 0.99415576457977295
0.075349412858486176 0.075349412858486176 0.075349412858486176
0.099170640110969543 0.099170640110969543 0.099170640110969543
0.209548220038414 0.209548220038414 0.209548220038414
0.33663216233253479 0.33663216233253479 0.33663216233253479
0.49808421730995178 0.49808421730995178 0.49808421730995178
0.17752768099308014 0.17752768099308014 0.17752768099308014
0.23280462622642517 0.23280462622642517 0.23280462622642517
0.34071853756904602 0.34071853756904602 0.34071853756904602
0.43234586715698242 0.43234586715698242 0.43234586715698242
0.58615314960479736 0.58615314960479736 0.58615314960479736
0.41061711311340332 0.41061711311340332 0.41061711311340332
0.40653669834136963 0.40653669834136963 0.40653669834136963
0.47950154542922974 0.47950154542922974 0.47950154542922974
0.60002410411834717 0.60002410411834717 0.60002410411834717
0.76351785659790039 0.76351785659790039 0.76351785659790039
0.63536018133163452 0.63536018133163452 0.63536018133163452
0.63313281536102295 0.63313281536102295 0.63313281536102295
0.66268616914749146 0.66268616914749146 0.66268616914749146
0.75090444087982178 0.75090444087982178 0.75090444087982178
0.88596266508102417 0.88596266508102417 0.88596266508102417
0.90387773513793945 0.90387773513793945 0.90387773513793945
0.90781646966934204 0.90781646966934204 0.90781646966934204
0.91216903924942017 0.91216903924942017 0.91216903924942017
0.94340777397155762 0.94340777397155762 0.94340777397155762
0.99767684936523438 0.99767684936523438 0.99767684936523438
0.18635155260562897 0.18635155260562897 0.18635155260562897
0.27252393960952759 0.27252393960952759 0.27252393960952759
0.35841560363769531 0.35841560363769531 0.35841560363769531
0.42215290665626526 0.42215290665626526 0.42215290665626526
0.57349538803100586 0.57349538803100586 0.57349538803100586
0.29967567324638367 0.29967567324638367 0.29967567324638367
0.3590705394744873 0.3590705394744873 0.3590705394744873
0.43854132294654846 0.43854132294654846 0.43854132294654846
0.4918593168258667 0.4918593168258667 0.4918593168258667
0.64107483625411987 0.64107483625411987 0.64107483625411987
0.4209672212600708 0.4209672212600708 0.4209672212600708
0.47183528542518616 0.47183528542518616 0.47183528542518616
0.56866252422332764 0.56866252422332764 0.56866252422332764
0.66109311580657959 0.66109311580657959 0.66109311580657959
0.77356517314910889 0.77356517314910889 0.77356517314910889
0.67650145292282104 0.67650145292282104 0.67650145292282104
0.71247774362564087 0.71247774362564087 0.71247774362564087
0.73996376991271973 0.73996376991271973 0.73996376991271973
0.80035924911499023 0.80035924911499023 0.80035924911499023
0.90820050239562988 0.90820050239562988 0.90820050239562988
0.93633019924163818 0.93633019924163818 0.93633019924163818
0.93454605340957642 0.93454605340957642 0.93454605340957642
0.93265223503112793 0.93265223503112793 0.93265223503112793
0.95848590135574341 0.95848590135574341 0.95848590135574341
0.99963217973709106 0.99963217973709106 0.99963217973709106
0.42009517550468445 0.42009517550468445 0.42009517550468445
0.44908991456031799 0.44908991456031799 0.44908991456031799
0.5547792911529541 0.5547792911529541 0.5547792911529541
0.62252360582351685 0.62252360582351685 0.62252360582351685
0.67652255296707153 0.67652255296707153 0.67652255296707153
0.4752134382724762 0.4752134382724762 0.4752134382724762
0.51852679252624512 0.51852679252624512 0.51852679252624512
0.61513513326644897 0.61513513326644897 0.61513513326644897
0.66440105438232422 0.66440105438232422 0.66440105438232422
0.73700690269470215 0.73700690269470215 0.73700690269470215
0.51664274930953979 0.51664274930953979 0.51664274930953979
0.56296700239181519 0.56296700239181519 0.56296700239181519
0.68458151817321777 0.68458151817321777 0.68458151817321777
0.7635846734046936 0.7635846734046936 0.7635846734046936
0.82469308376312256 0.82469308376312256 0.82469308376312256
0.69586068391799927 0.69586068391799927 0.69586068391799927
0.72648805379867554 0.72648805379867554 0.72648805379867554
0.78698688745498657 0.78698688745498657 0.78698688745498657
0.85470348596572876 0.85470348596572876 0.85470348596572876
0.9222102165222168 0.9222102165222168 0.9222102165222168
0.94139927625656128 0.94139927625656128 0.94139927625656128
0.93768882751464844 0.93768882751464844 0.93768882751464844
0.95125937461853027 0.95125937461853027 0.95125937461853027
0.98595148324966431 0.98595148324966431 0.98595148324966431
0.99951261281967163 0.99951261281967163 0.99951261281967163
0.74147129058837891 0.74147129058837891 0.74147129058837891
0.76361250877380371 0.76361250877380371 0.76361250877380371
0.80972415208816528 0.80972415208816528 0.80972415208816528
0.87212342023849487 0.87212342023849487 0.87212342023849487
0.91627985239028931 0.91627985239028931 0.91627985239028931
0.76838213205337524 0.76838213205337524 0.76838213205337524
0.78407126665115356 0.78407126665115356 0.78407126665115356
0.83141297101974487 0.83141297101974487 0.83141297101974487
0.89111971855163574 0.89111971855163574 0.89111971855163574
0.92300927639007568 0.92300927639007568 0.92300927639007568
0.78994190692901611 0.78994190692901611 0.78994190692901611
0.81928873062133789 0.81928873062133789 0.81928873062133789
0.84836888313293457 0.84836888313293457 0.84836888313293457
0.91848242282867432 0.91848242282867432 0.91848242282867432
0.96444845199584961 0.96444845199584961 0.96444845199584961
0.81304633617401123 0.81304633617401123 0.81304633617401123
0.83070510625839233 0.83070510625839233 0.83070510625839233
0.87074440717697144 0.87074440717697144 0.87074440717697144
0.95136821269989014 0.95136821269989014 0.95136821269989014
0.982685387134552 0.982685387134552 0.982685387134552
0.95368421077728271 0.95368421077728271 0.95368421077728271
0.97511225938796997 0.97511225938796997 0.97511225938796997
0.98955839872360229 0.98955839872360229 0.98955839872360229
0.99969571828842163 0.99969571828842163 0.99969571828842163
0.99829834699630737 0.99829834699630737 0.99829834699630737
