films/fuji_superia_100.cube
# Created by: G'MIC (https://gmic.eu)
TITLE "fuji_superia_100"
# LUT size
LUT_3D_SIZE 7
# Data domain
DOMAIN_MIN 0.0 0.0 0.0
DOMAIN_MAX 1.0 1.0 1.0
# LUT data points
0.01492703054100275 0.026501120999455452 0.022239206358790398
0.11801805347204208 0.043199129402637482 0.023820720613002777
0.31754323840141296 0.067704141139984131 0.0096401739865541458
0.52806413173675537 0.09881940484046936 0.0011295991716906428
0.71296632289886475 0.1381814181804657 0
0.85791951417922974 0.17246516048908234 0
0.9849507212638855 0.21352528035640717 0
8.9757586465566419e-06 0.17090295255184174 0.050384521484375
0.098558507859706879 0.1792277991771698 0.027518194168806076
0.35294827818870544 0.21565505862236023 0.0036821551620960236
0.56739193201065063 0.24310538172721863 0.00058432185323908925
0.7379487156867981 0.25378862023353577 0.0022559820208698511
0.87695091962814331 0.27113455533981323 0
0.9923241138458252 0.29911413788795471 0
0 0.41804686188697815 0.12554571032524109
0.038430023938417435 0.41992515325546265 0.10895843803882599
0.34438842535018921 0.419036865234375 0.056877885013818741
0.58881241083145142 0.42419865727424622 0.0046081990003585815
0.75338363647460938 0.42362987995147705 3.0158547815517522e-05
0.89504635334014893 0.41990676522254944 0
0.99734926223754883 0.43075945973396301 0.00046848971396684647
0 0.6358950138092041 0.24779114127159119
0.010067464783787727 0.64387893676757812 0.2548389732837677
0.24022106826305389 0.63183528184890747 0.23413953185081482
0.53126484155654907 0.60405075550079346 0.15972761809825897
0.73478245735168457 0.59873420000076294 0.075086362659931183
0.89526534080505371 0.59146368503570557 0.029309157282114029
0.99859923124313354 0.58940011262893677 0.040044702589511871
0.047274675220251083 0.79830282926559448 0.40601649880409241
0.082465678453445435 0.80471742153167725 0.4134863018989563
0.21676240861415863 0.79752928018569946 0.40545547008514404
0.47159969806671143 0.78144514560699463 0.36473965644836426
0.68269538879394531 0.76721477508544922 0.3025975227355957
0.86891388893127441 0.75926667451858521 0.23893529176712036
0.99744099378585815 0.75759387016296387 0.23712258040904999
0.26663699746131897 0.9227977991104126 0.57370591163635254
0.33074772357940674 0.92476880550384521 0.57886046171188354
0.41664740443229675 0.92107713222503662 0.57807463407516479
0.53246796131134033 0.9159359335899353 0.56988984346389771
0.66397190093994141 0.90779680013656616 0.5333670973777771
0.81918579339981079 0.90341877937316895 0.4889436662197113
0.98191899061203003 0.90314412117004395 0.45684066414833069
0.60515671968460083 0.99648940563201904 0.7480396032333374
0.62146174907684326 0.99614381790161133 0.75077605247497559
0.64191091060638428 0.99485719203948975 0.74969714879989624
0.68582212924957275 0.99400514364242554 0.7581525444984436
0.74420446157455444 0.99369615316390991 0.74623006582260132
0.82975375652313232 0.99322128295898438 0.72318321466445923
0.93164771795272827 0.99064099788665771 0.71058350801467896
0.013455200009047985 0.024474874138832092 0.16852454841136932
0.13948602974414825 0.019239043816924095 0.16592417657375336
0.33694562315940857 0.0058401967398822308 0.15984375774860382
0.54566127061843872 0.016255427151918411 0.14767822623252869
0.71651726961135864 0.032115336507558823 0.1247580274939537
0.85328644514083862 0.099793635308742523 0.101798415184021
0.98932343721389771 0.17594540119171143 0.08987242728471756
0.0015460294671356678 0.18343374133110046 0.18629051744937897
0.13164608180522919 0.18372386693954468 0.18448345363140106
0.36353424191474915 0.18996050953865051 0.16918578743934631
0.57580339908599854 0.18621350824832916 0.14512680470943451
0.72929549217224121 0.20830570161342621 0.13034346699714661
0.86718684434890747 0.23889361321926117 0.11447089910507202
0.99077677726745605 0.27446633577346802 0.098125383257865906
0.028566129505634308 0.41662466526031494 0.27173337340354919
0.13700832426548004 0.42256003618240356 0.26168626546859741
0.37072774767875671 0.4242326021194458 0.22954671084880829
0.59758037328720093 0.41767081618309021 0.17682477831840515
0.75177669525146484 0.40605145692825317 0.15240322053432465
0.88694971799850464 0.40369638800621033 0.13536073267459869
0.99356240034103394 0.41364902257919312 0.13510294258594513
0.087172053754329681 0.62741398811340332 0.37048825621604919
0.11023424565792084 0.63782966136932373 0.36047860980033875
0.31031525135040283 0.63272923231124878 0.34953403472900391
0.54977697134017944 0.61002039909362793 0.2923368513584137
0.73685061931610107 0.59487450122833252 0.22712679207324982
0.89308547973632812 0.58697056770324707 0.19160997867584229
0.99549287557601929 0.58465850353240967 0.18060788512229919
0.16942210495471954 0.79313355684280396 0.47666069865226746
0.21468906104564667 0.80019229650497437 0.48463231325149536
0.33033293485641479 0.79654610157012939 0.47706261277198792
0.50841867923736572 0.78062266111373901 0.44424530863761902
0.68205589056015015 0.75966542959213257 0.38730263710021973
0.86931771039962769 0.75833332538604736 0.33174464106559753
0.9966663122177124 0.75715798139572144 0.32016885280609131
0.36908447742462158 0.92061746120452881 0.61133182048797607
0.40587881207466125 0.92181938886642456 0.61940604448318481
0.4660828709602356 0.9200395941734314 0.62067866325378418
0.55980545282363892 0.91624242067337036 0.61077284812927246
0.67696738243103027 0.90574353933334351 0.57148504257202148
0.8291395902633667 0.90231597423553467 0.53091174364089966
0.97994470596313477 0.90128672122955322 0.50007146596908569
0.62068766355514526 0.99717921018600464 0.76199066638946533
0.64522391557693481 0.99625605344772339 0.76666903495788574
0.66505557298660278 0.99496138095855713 0.77057349681854248
0.69594424962997437 0.99693059921264648 0.77401375770568848
0.75118577480316162 0.99543517827987671 0.7598913311958313
0.8336748480796814 0.99451500177383423 0.74355036020278931
0.9336664080619812 0.99010312557220459 0.72881805896759033
0.0035456488840281963 0.0080024274066090584 0.39852315187454224
0.18219240009784698 0.0067791510373353958 0.40114834904670715
0.3853452205657959 0.0096493139863014221 0.39038252830505371
0.57412171363830566 0.0094027649611234665 0.36980435252189636
0.73430508375167847 0.00093563302652910352 0.3292156457901001
0.86802363395690918 0.0066309613175690174 0.28470858931541443
0.99027025699615479 0.065246865153312683 0.273874431848526
0 0.18753363192081451 0.40997222065925598
0.14289930462837219 0.1875775158405304 0.4114362895488739
0.39875078201293945 0.18979446589946747 0.40351790189743042
0.5879981517791748 0.18183097243309021 0.3743690550327301
0.73456180095672607 0.16133467853069305 0.33635082840919495
0.86647969484329224 0.18279032409191132 0.31266236305236816
0.99020546674728394 0.21688269078731537 0.29693913459777832
0.02608407661318779 0.41841670870780945 0.42482981085777283
0.19877727329730988 0.42114275693893433 0.43118235468864441
0.41746556758880615 0.41985893249511719 0.42551738023757935
0.60129714012145996 0.4052741527557373 0.39009112119674683
0.74219346046447754 0.3838043212890625 0.36027848720550537
0.87081283330917358 0.38900104165077209 0.34231400489807129
0.99117356538772583 0.39358058571815491 0.32292410731315613
0.28382724523544312 0.61852014064788818 0.50448012351989746
0.37376871705055237 0.61992567777633667 0.50772267580032349
0.44207453727722168 0.61984390020370483 0.49696123600006104
0.5773627758026123 0.60789233446121216 0.45532664656639099
0.74193263053894043 0.59346145391464233 0.41530874371528625
0.88712471723556519 0.58423173427581787 0.38638702034950256
0.99775201082229614 0.57689124345779419 0.36873254179954529
0.41403761506080627 0.77936667203903198 0.58963072299957275
0.43052166700363159 0.78305411338806152 0.58865064382553101
0.46140047907829285 0.78701108694076538 0.57404762506484985
0.55790656805038452 0.78232002258300781 0.55847001075744629
0.70269525051116943 0.75980168581008911 0.50855684280395508
0.86596626043319702 0.75844717025756836 0.46598240733146667
0.9964529275894165 0.75249499082565308 0.44829064607620239
0.52369421720504761 0.91099894046783447 0.68695533275604248
0.53295546770095825 0.91359072923660278 0.68463659286499023
0.55139791965484619 0.91635024547576904 0.68117427825927734
0.61194950342178345 0.9173046350479126 0.68013304471969604
0.7076190710067749 0.90291488170623779 0.64905405044555664
0.83203774690628052 0.89897352457046509 0.60690581798553467
0.97982168197631836 0.89717400074005127 0.57646244764328003
0.68884998559951782 0.99603301286697388 0.80106174945831299
0.70307445526123047 0.99594473838806152 0.80527400970458984
0.70922130346298218 0.99589884281158447 0.80638724565505981
0.73318171501159668 0.99614471197128296 0.80891197919845581
0.78467440605163574 0.99310439825057983 0.80084317922592163
0.84854221343994141 0.99313724040985107 0.77977025508880615
0.94768607616424561 0.99100261926651001 0.75647604465484619
0.00059742649318650365 0.0022702685091644526 0.60877543687820435
0.18228191137313843 0.0019339168211445212 0.61938714981079102
0.41846665740013123 0.00054590561194345355 0.61728429794311523
0.6014830470085144 0.0036894106306135654 0.59584146738052368
0.75720995664596558 0.038200903683900833 0.55793726444244385
0.88302898406982422 0.12348489463329315 0.51081973314285278
0.99420994520187378 0.14097142219543457 0.47432824969291687
0 0.18107439577579498 0.6225622296333313
0.16402944922447205 0.18658861517906189 0.62655854225158691
0.41794756054878235 0.18865467607975006 0.62550175189971924
0.60849589109420776 0.20134466886520386 0.60396641492843628
0.75498265027999878 0.24416431784629822 0.56443530321121216
0.88063263893127441 0.25528806447982788 0.51685142517089844
0.99369704723358154 0.2081383615732193 0.47635772824287415
0.0032276827841997147 0.40964359045028687 0.62061440944671631
0.16595311462879181 0.41219422221183777 0.62182962894439697
0.41492560505867004 0.41883081197738647 0.61631423234939575
0.60661172866821289 0.42660874128341675 0.59987610578536987
0.74391192197799683 0.41777631640434265 0.56186783313751221
0.86926645040512085 0.40254330635070801 0.51948171854019165
0.99087011814117432 0.3624342679977417 0.4816167950630188
0.23412352800369263 0.61499333381652832 0.61914575099945068
0.33975592255592346 0.61412066221237183 0.61779630184173584
0.47086989879608154 0.6074444055557251 0.61222368478775024
0.6018487811088562 0.60090833902359009 0.60094976425170898
0.74066978693008423 0.58814376592636108 0.5733867883682251
0.87117171287536621 0.5599941611289978 0.53721356391906738
0.99193066358566284 0.55345511436462402 0.51501572132110596
0.47332388162612915 0.77577275037765503 0.6738274097442627
0.5092768669128418 0.77774113416671753 0.68045210838317871
0.56510347127914429 0.77674210071563721 0.68053799867630005
0.62860262393951416 0.77484691143035889 0.66933470964431763
0.72977340221405029 0.76202630996704102 0.63457882404327393
0.87194180488586426 0.75012540817260742 0.59403699636459351
0.99442136287689209 0.74080508947372437 0.57134878635406494
0.62971895933151245 0.90665310621261597 0.77012276649475098
0.64281946420669556 0.90738862752914429 0.76776254177093506
0.658516526222229 0.90823894739151001 0.76367616653442383
0.68640726804733276 0.91148930788040161 0.75906270742416382
0.74523544311523438 0.90717202425003052 0.74142295122146606
0.84945833683013916 0.89675164222717285 0.69847315549850464
0.97931492328643799 0.89183109998703003 0.66688650846481323
0.76641440391540527 0.99286568164825439 0.85693609714508057
0.77936619520187378 0.99261772632598877 0.86152404546737671
0.77955955266952515 0.9925769567489624 0.85763061046600342
0.78661864995956421 0.99333453178405762 0.85451871156692505
0.81674498319625854 0.99187570810317993 0.85151326656341553
0.86918801069259644 0.99234843254089355 0.83437371253967285
0.95317202806472778 0.98994630575180054 0.80995100736618042
0.0051429150626063347 0.0018376967636868358 0.78078049421310425
0.1913517564535141 0.011015962809324265 0.78910219669342041
0.41089153289794922 0.0063522490672767162 0.78606551885604858
0.59543913602828979 0.011855151504278183 0.77622067928314209
0.7653501033782959 0.078969262540340424 0.75847101211547852
0.89955151081085205 0.19483962655067444 0.71664953231811523
0.99688351154327393 0.30127164721488953 0.6896931529045105
0.008317580446600914 0.19008526206016541 0.79191285371780396
0.1847577840089798 0.19218647480010986 0.79297471046447754
0.41158857941627502 0.19571967422962189 0.78858381509780884
0.59962630271911621 0.217839315533638 0.78042101860046387
0.76800739765167236 0.26193386316299438 0.7642630934715271
0.90026628971099854 0.31154072284698486 0.72736614942550659
0.99408251047134399 0.37380340695381165 0.69435828924179077
0.012728058733046055 0.39815768599510193 0.78225874900817871
0.20266744494438171 0.40528500080108643 0.7844233512878418
0.43326351046562195 0.4206516444683075 0.77855849266052246
0.60452836751937866 0.43564897775650024 0.77070581912994385
0.75957685708999634 0.45029804110527039 0.75633054971694946
0.88892245292663574 0.46612063050270081 0.72766774892807007
0.99265545606613159 0.47848126292228699 0.69222354888916016
0.15169171988964081 0.59150177240371704 0.76660037040710449
0.28746309876441956 0.59550374746322632 0.76828968524932861
0.44273054599761963 0.59627270698547363 0.76491796970367432
0.59616255760192871 0.59719407558441162 0.75591373443603516
0.75315183401107788 0.61011749505996704 0.74907618761062622
0.87592798471450806 0.60379511117935181 0.71980082988739014
0.99295276403427124 0.57306760549545288 0.67859899997711182
0.40312451124191284 0.77243238687515259 0.77551949024200439
0.45314577221870422 0.77182328701019287 0.77551621198654175
0.53021180629730225 0.76993924379348755 0.77117979526519775
0.63429778814315796 0.76484775543212891 0.76642429828643799
0.7466433048248291 0.75611871480941772 0.75223898887634277
0.86894774436950684 0.7319256067276001 0.71756988763809204
0.99023681879043579 0.71490436792373657 0.69093012809753418
0.63413399457931519 0.90900629758834839 0.82525146007537842
0.64795017242431641 0.90755069255828857 0.82849043607711792
0.69328498840332031 0.90685570240020752 0.82856351137161255
0.75128799676895142 0.90461355447769165 0.8364487886428833
0.80069988965988159 0.90590447187423706 0.83022397756576538
0.87159556150436401 0.89704948663711548 0.79648548364639282
0.98540931940078735 0.89043223857879639 0.76518112421035767
0.79860925674438477 0.98907762765884399 0.89812362194061279
0.80870670080184937 0.98808664083480835 0.90302783250808716
0.83357030153274536 0.98842895030975342 0.90332913398742676
0.85192722082138062 0.98766762018203735 0.9065241813659668
0.86560237407684326 0.9901612401008606 0.90161782503128052
0.90012812614440918 0.99189072847366333 0.89524668455123901
0.96478235721588135 0.99095505475997925 0.87436187267303467
0.046045295894145966 0.0033343746326863766 0.9175686240196228
0.21656899154186249 0.011967887170612812 0.92118948698043823
0.39962747693061829 0.029626479372382164 0.91718703508377075
0.57594102621078491 0.087574422359466553 0.91154569387435913
0.74746173620223999 0.17939557135105133 0.91032487154006958
0.89883518218994141 0.2547614574432373 0.89517796039581299
0.9991227388381958 0.31589806079864502 0.87148368358612061
0.072506129741668701 0.20063246786594391 0.92497116327285767
0.23345737159252167 0.20473356544971466 0.91897487640380859
0.41377019882202148 0.21248564124107361 0.917694091796875
0.58559030294418335 0.25272920727729797 0.91573053598403931
0.7522352933883667 0.30805155634880066 0.909903883934021
0.89944148063659668 0.35062649846076965 0.89732855558395386
0.99635481834411621 0.40404105186462402 0.87691891193389893
0.1705404669046402 0.40968424081802368 0.91652965545654297
0.29240286350250244 0.41451740264892578 0.91260939836502075
0.44883820414543152 0.42397230863571167 0.91105860471725464
0.6028369665145874 0.4424402117729187 0.90928900241851807
0.75508743524551392 0.46924671530723572 0.90510100126266479
0.89805293083190918 0.49276337027549744 0.89452576637268066
0.99859702587127686 0.51880669593811035 0.8741455078125
0.2303195595741272 0.57970952987670898 0.90451085567474365
0.31029564142227173 0.57996302843093872 0.9036981463432312
0.45434096455574036 0.59090203046798706 0.90291875600814819
0.60416752099990845 0.60226809978485107 0.90183079242706299
0.75492686033248901 0.62149083614349365 0.90085631608963013
0.89080202579498291 0.63808423280715942 0.8923259973526001
0.99443405866622925 0.6437562108039856 0.87054175138473511
0.35876548290252686 0.75087255239486694 0.89269107580184937
0.39585217833518982 0.74700278043746948 0.89243948459625244
0.48531386256217957 0.74559646844863892 0.89404481649398804
0.60876107215881348 0.74901831150054932 0.89282727241516113
0.74999994039535522 0.75902312994003296 0.89245826005935669
0.87946814298629761 0.76725977659225464 0.8801954984664917
0.98741811513900757 0.76644814014434814 0.8604971170425415
0.57166337966918945 0.90369331836700439 0.9012906551361084
0.59387767314910889 0.90165174007415771 0.89929842948913574
0.64925062656402588 0.90140753984451294 0.90135836601257324
0.7205316424369812 0.90092998743057251 0.89901173114776611
0.80268579721450806 0.89929580688476562 0.90050733089447021
0.88370257616043091 0.89480149745941162 0.89133048057556152
0.98367321491241455 0.87226611375808716 0.86498785018920898
0.79830557107925415 0.9882347583770752 0.93413758277893066
0.80970776081085205 0.98765558004379272 0.93455499410629272
0.83871418237686157 0.98792046308517456 0.93821698427200317
0.86817270517349243 0.9893498420715332 0.94135427474975586
0.90707886219024658 0.98876607418060303 0.94979232549667358
0.93805831670761108 0.98791706562042236 0.9493831992149353
0.97949212789535522 0.98779773712158203 0.9358832836151123
0.15103748440742493 0.075669638812541962 0.9973333477973938
0.26728019118309021 0.079884305596351624 0.99813193082809448
0.41114982962608337 0.12810327112674713 0.99717003107070923
0.56645447015762329 0.19103874266147614 0.99711400270462036
0.72471696138381958 0.2679101824760437 0.99720847606658936
0.87152695655822754 0.36041459441184998 0.99509382247924805
0.99193793535232544 0.42926785349845886 0.99310767650604248
0.18527232110500336 0.24173441529273987 0.99926471710205078
0.28877061605453491 0.25056195259094238 0.99570620059967041
0.43117439746856689 0.26945772767066956 0.99849498271942139
0.58031171560287476 0.30996960401535034 0.99926471710205078
0.73037225008010864 0.36637553572654724 0.99727785587310791
0.87354332208633423 0.42934253811836243 0.9961313009262085
0.9893568754196167 0.47614717483520508 0.99384784698486328
0.2886773943901062 0.42334643006324768 0.99757307767868042
0.35134679079055786 0.42737963795661926 0.99546569585800171
0.4709571897983551 0.44348695874214172 0.99777495861053467
0.6028066873550415 0.46389254927635193 0.99852943420410156
0.74073976278305054 0.50147223472595215 0.99749183654785156
0.878440260887146 0.5441213846206665 0.99616736173629761
0.99219828844070435 0.57896345853805542 0.99048370122909546
0.32515057921409607 0.57660341262817383 0.99689942598342896
0.39181822538375854 0.58349281549453735 0.99465775489807129
0.48882055282592773 0.59535676240921021 0.99680811166763306
0.62283515930175781 0.61387336254119873 0.99717950820922852
0.75073254108428955 0.63768935203552246 0.99541693925857544
0.87899661064147949 0.66751784086227417 0.99398714303970337
0.98910713195800781 0.6896776556968689 0.98807775974273682
0.38625499606132507 0.72761470079421997 0.99191063642501831
0.40248167514801025 0.72178101539611816 0.99243199825286865
0.5061802864074707 0.73415839672088623 0.99355518817901611
0.62521857023239136 0.74490469694137573 0.99363237619400024
0.76180899143218994 0.76654857397079468 0.99276614189147949
0.88335549831390381 0.78938400745391846 0.99165719747543335
0.98834526538848877 0.80538475513458252 0.98673301935195923
0.56920337677001953 0.88355404138565063 0.98852068185806274
0.57942909002304077 0.88288599252700806 0.98812788724899292
0.63284701108932495 0.88385432958602905 0.98846209049224854
0.69518357515335083 0.87950271368026733 0.98695629835128784
0.7865293025970459 0.8842586874961853 0.98922491073608398
0.89178347587585449 0.89876490831375122 0.98839598894119263
0.98571789264678955 0.91025179624557495 0.98397892713546753
0.76036012172698975 0.98638629913330078 0.98742806911468506
0.76706224679946899 0.98725831508636475 0.98847788572311401
0.79932886362075806 0.98878484964370728 0.98907864093780518
0.84065717458724976 0.98739469051361084 0.99145233631134033
0.88792020082473755 0.98749148845672607 0.99137306213378906
0.93950539827346802 0.99100816249847412 0.99544644355773926
0.99683427810668945 0.99255132675170898 0.99668276309967041
