films/fuji_superia_1600.cube
# Created by: G'MIC (https://gmic.eu)
TITLE "fuji_superia_1600"
# LUT size
LUT_3D_SIZE 13
# Data domain
DOMAIN_MIN 0.0 0.0 0.0
DOMAIN_MAX 1.0 1.0 1.0
# LUT data points
0.062341172248125076 0.097798243165016174 0.10257958620786667
0.078925162553787231 0.10125711560249329 0.102597676217556
0.11980261653661728 0.10516802966594696 0.10304496437311172
0.18459689617156982 0.10989008843898773 0.10100245475769043
0.26984512805938721 0.11609260737895966 0.097289890050888062
0.38139113783836365 0.11433952301740646 0.092588938772678375
0.49982580542564392 0.11159303039312363 0.085468769073486328
0.61390078067779541 0.10798058658838272 0.075369291007518768
0.71372294425964355 0.1130744069814682 0.063440881669521332
0.79560017585754395 0.13719628751277924 0.047526475042104721
0.86904340982437134 0.17240466177463531 0.030645018443465233
0.93711215257644653 0.21419155597686768 0.014768593013286591
0.99171507358551025 0.25870925188064575 0.0092738578096032143
0.052818253636360168 0.11638743430376053 0.10450038313865662
0.076622843742370605 0.12364944815635681 0.10378140956163406
0.12905740737915039 0.13383267819881439 0.10068924725055695
0.19843675196170807 0.13824723660945892 0.098227798938751221
0.28826960921287537 0.14395637810230255 0.094468258321285248
0.40237241983413696 0.14812199771404266 0.089171811938285828
0.52231705188751221 0.15123924612998962 0.079141966998577118
0.63157665729522705 0.15322504937648773 0.066605739295482635
0.72667253017425537 0.16058343648910522 0.052963614463806152
0.80694156885147095 0.18014116585254669 0.03786328062415123
0.87905216217041016 0.20863580703735352 0.021907193586230278
0.94499891996383667 0.24432158470153809 0.0090732946991920471
0.99420982599258423 0.28503364324569702 0.0046221865341067314
0.023420969024300575 0.17036953568458557 0.10836471617221832
0.050034854561090469 0.17332491278648376 0.1060941219329834
0.11262466013431549 0.18835388123989105 0.099139943718910217
0.20428372919559479 0.19871574640274048 0.090995609760284424
0.31841766834259033 0.20667146146297455 0.084308892488479614
0.43954953551292419 0.2090304046869278 0.077915281057357788
0.55630367994308472 0.21145103871822357 0.066072888672351837
0.65519881248474121 0.21428535878658295 0.054586254060268402
0.74144750833511353 0.22386986017227173 0.040463078767061234
0.81800568103790283 0.23974043130874634 0.0257149338722229
0.8881145715713501 0.2614244818687439 0.013713940978050232
0.95204609632492065 0.28891792893409729 0.0092446571215987206
0.99668258428573608 0.32302480936050415 0.013976152986288071
0.0013591691385954618 0.25056201219558716 0.11375510692596436
0.010091280564665794 0.24716478586196899 0.11224142462015152
0.064317084848880768 0.26129043102264404 0.10548646003007889
0.18238259851932526 0.28827089071273804 0.085975006222724915
0.34645548462867737 0.31753793358802795 0.056778762489557266
0.4881574809551239 0.31786850094795227 0.042981810867786407
0.59432655572891235 0.30033460259437561 0.043148338794708252
0.68183350563049316 0.29540243744850159 0.037656433880329132
0.7590363621711731 0.30077794194221497 0.026601783931255341
0.83041477203369141 0.31302419304847717 0.013181319460272789
0.8958275318145752 0.32944706082344055 0.0062550115399062634
0.95434671640396118 0.35125595331192017 0.0065195420756936073
0.99628251791000366 0.37969088554382324 0.017192631959915161
0 0.3533785343170166 0.11933258920907974
2.5012446712935343e-05 0.35119724273681641 0.11917121708393097
0.023208079859614372 0.36025920510292053 0.11503099650144577
0.13466730713844299 0.38345345854759216 0.095572374761104584
0.31410732865333557 0.41563332080841064 0.056842610239982605
0.49039125442504883 0.43363800644874573 0.0196799635887146
0.61616557836532593 0.42400148510932922 0.010876000858843327
0.709156334400177 0.41003760695457458 0.012875755317509174
0.78009164333343506 0.39715307950973511 0.01305052824318409
0.84458446502685547 0.39895224571228027 0.0065393038094043732
0.90399211645126343 0.40663421154022217 0.0045002955012023449
0.95627468824386597 0.42177954316139221 0.007846158929169178
0.99531698226928711 0.44583675265312195 0.021532768383622169
0.0023313635028898716 0.45985209941864014 0.14132632315158844
9.237551421392709e-05 0.46118426322937012 0.13978758454322815
0.0073745725676417351 0.463105708360672 0.13843868672847748
0.086371645331382751 0.47422891855239868 0.12520739436149597
0.25945475697517395 0.49558249115943909 0.09021555632352829
0.44245952367782593 0.51841241121292114 0.041075419634580612
0.60451197624206543 0.5427936315536499 0.0061282888054847717
0.72236740589141846 0.54424118995666504 0.0015331940958276391
0.79628837108612061 0.51944065093994141 0.0042967256158590317
0.85745549201965332 0.50147712230682373 0.0071414574049413204
0.91348171234130859 0.49260145425796509 0.012233120389282703
0.96200281381607056 0.49796321988105774 0.024807455018162727
0.99633097648620605 0.51628023386001587 0.046907942742109299
0.022213146090507507 0.55193310976028442 0.19059248268604279
0.012004747986793518 0.55356985330581665 0.18379637598991394
0.024682242423295975 0.55249446630477905 0.18130724132061005
0.089882314205169678 0.55512207746505737 0.17327441275119781
0.23654434084892273 0.56704831123352051 0.14985595643520355
0.40152660012245178 0.58679473400115967 0.11228647828102112
0.55889624357223511 0.61771631240844727 0.071353554725646973
0.69389998912811279 0.64020484685897827 0.026768149808049202
0.78898805379867554 0.63387477397918701 0.012753594666719437
0.86047899723052979 0.61671525239944458 0.023767255246639252
0.92058372497558594 0.59829807281494141 0.043256677687168121
0.9693647027015686 0.5882270336151123 0.071451656520366669
0.99887359142303467 0.59343522787094116 0.10339762270450592
0.073531255125999451 0.63374751806259155 0.25205868482589722
0.06565219908952713 0.63464349508285522 0.24310684204101562
0.086382634937763214 0.63172084093093872 0.23872846364974976
0.14684808254241943 0.62943387031555176 0.23304474353790283
0.25478079915046692 0.63475269079208374 0.22205421328544617
0.38703656196594238 0.64951622486114502 0.20508375763893127
0.51843875646591187 0.6713334321975708 0.1763140857219696
0.64276623725891113 0.69527560472488403 0.13215740025043488
0.75343257188796997 0.71206402778625488 0.10038495808839798
0.84734684228897095 0.7198491096496582 0.091008022427558899
0.91735535860061646 0.70858907699584961 0.10751200467348099
0.96846061944961548 0.69028067588806152 0.14057829976081848
0.99903225898742676 0.6816093921661377 0.17524518072605133
0.15780213475227356 0.71031177043914795 0.3215445876121521
0.1534598171710968 0.71132087707519531 0.3126678466796875
0.17393957078456879 0.70785337686538696 0.30777719616889954
0.22196818888187408 0.70246976613998413 0.30419519543647766
0.30105432868003845 0.70336580276489258 0.2991340160369873
0.40161576867103577 0.71332287788391113 0.29051560163497925
0.50574964284896851 0.7277711033821106 0.27685844898223877
0.60791462659835815 0.74418729543685913 0.26009398698806763
0.71167844533920288 0.76542758941650391 0.2346997857093811
0.81043756008148193 0.78378069400787354 0.21341021358966827
0.89171791076660156 0.78720325231552124 0.21340729296207428
0.95653766393661499 0.78179490566253662 0.23145952820777893
0.99713307619094849 0.77277123928070068 0.25863078236579895
0.26395612955093384 0.78263908624649048 0.39975219964981079
0.26226538419723511 0.78509354591369629 0.39226514101028442
0.27941888570785522 0.78225946426391602 0.3878684937953949
0.3178068995475769 0.77618086338043213 0.38640663027763367
0.3745453953742981 0.77411377429962158 0.38378754258155823
0.44486188888549805 0.77869701385498047 0.37803003191947937
0.52215445041656494 0.78765100240707397 0.37148526310920715
0.60337382555007935 0.80014461278915405 0.36606523394584656
0.6871374249458313 0.815651535987854 0.35546833276748657
0.77235490083694458 0.82789820432662964 0.34490010142326355
0.85805720090866089 0.84039610624313354 0.33488887548446655
0.93982028961181641 0.85453599691390991 0.33488407731056213
0.99269485473632812 0.85160607099533081 0.35133612155914307
0.38357824087142944 0.84785401821136475 0.48960793018341064
0.38517463207244873 0.85066711902618408 0.48525562882423401
0.39876934885978699 0.84847712516784668 0.48220705986022949
0.42623543739318848 0.84327560663223267 0.4808008074760437
0.46378898620605469 0.83988398313522339 0.47948974370956421
0.51058387756347656 0.84100925922393799 0.47546926140785217
0.56458324193954468 0.84644997119903564 0.47130760550498962
0.62503612041473389 0.85469144582748413 0.47024261951446533
0.68959909677505493 0.86485046148300171 0.46683564782142639
0.75861728191375732 0.87443643808364868 0.46052154898643494
0.83285170793533325 0.88711708784103394 0.45189687609672546
0.91250044107437134 0.90397697687149048 0.44861522316932678
0.97416740655899048 0.90716838836669922 0.45617896318435669
0.50840705633163452 0.90441781282424927 0.58999794721603394
0.5119020938873291 0.90612262487411499 0.58826637268066406
0.5215269923210144 0.90434861183166504 0.58705443143844604
0.53704619407653809 0.90072506666183472 0.58485794067382812
0.55927610397338867 0.89759057760238647 0.58340156078338623
0.58954131603240967 0.89729738235473633 0.58326321840286255
0.62642478942871094 0.89975529909133911 0.58240211009979248
0.66745537519454956 0.90463721752166748 0.57955348491668701
0.71430957317352295 0.91085231304168701 0.57769888639450073
0.7664610743522644 0.91778528690338135 0.57636117935180664
0.82294309139251709 0.92669016122817993 0.57170933485031128
0.88603448867797852 0.93776518106460571 0.56944113969802856
0.94353604316711426 0.94281291961669922 0.57229232788085938
0.62146735191345215 0.95266252756118774 0.68628984689712524
0.62409794330596924 0.95348423719406128 0.68537211418151855
0.63120406866073608 0.95230728387832642 0.68672269582748413
0.63805758953094482 0.94992613792419434 0.68438071012496948
0.64886301755905151 0.94729101657867432 0.68266016244888306
0.66840815544128418 0.94660335779190063 0.68600893020629883
0.69333195686340332 0.94760507345199585 0.68835639953613281
0.71924823522567749 0.9496733546257019 0.68326997756958008
0.75134110450744629 0.953224778175354 0.68178468942642212
0.79032564163208008 0.9578593373298645 0.68522274494171143
0.83240729570388794 0.96318507194519043 0.68329524993896484
0.87703007459640503 0.96889317035675049 0.68090718984603882
0.92309474945068359 0.97239094972610474 0.68120330572128296
0.062492638826370239 0.098676659166812897 0.11606565117835999
0.080388940870761871 0.10100666433572769 0.11636980623006821
0.12253981828689575 0.1022966131567955 0.11785384267568588
0.18984796106815338 0.10156926512718201 0.11862565577030182
0.27634480595588684 0.10502105206251144 0.11834565550088882
0.38594412803649902 0.10761566460132599 0.1168271079659462
0.50243312120437622 0.10928426682949066 0.1124536395072937
0.6124301552772522 0.10271681100130081 0.10791836678981781
0.70893937349319458 0.10446098446846008 0.1007576584815979
0.79100066423416138 0.12767262756824493 0.091536998748779297
0.86477082967758179 0.16585075855255127 0.080372795462608337
0.93348371982574463 0.2092621773481369 0.067003898322582245
0.98969358205795288 0.25449344515800476 0.061420753598213196
0.052652861922979355 0.12048634886741638 0.12120241671800613
0.08018048107624054 0.12567481398582458 0.12151921540498734
0.13269823789596558 0.13120037317276001 0.12088310718536377
0.20067369937896729 0.13476733863353729 0.11958808451890945
0.29043924808502197 0.13897889852523804 0.11863277852535248
0.4037320613861084 0.14434127509593964 0.11650489270687103
0.52177393436431885 0.15041333436965942 0.11075174808502197
0.62840968370437622 0.1519959568977356 0.10381653904914856
0.72130787372589111 0.15712592005729675 0.096016407012939453
0.80065310001373291 0.17624743282794952 0.087950430810451508
0.87308621406555176 0.2036721259355545 0.076342657208442688
0.94032484292984009 0.24052256345748901 0.061217006295919418
0.99225080013275146 0.28244593739509583 0.055378198623657227
0.026834150776267052 0.17533212900161743 0.12945675849914551
0.064056485891342163 0.17803817987442017 0.130292147397995
0.12337477505207062 0.18723660707473755 0.12699677050113678
0.2109333872795105 0.19513335824012756 0.1209300309419632
0.3202398419380188 0.20523637533187866 0.11789694428443909
0.4375857412815094 0.20812810957431793 0.11547406017780304
0.5523378849029541 0.21004807949066162 0.10842864215373993
0.6512266993522644 0.21335434913635254 0.10085568577051163
0.73776984214782715 0.2221449613571167 0.091093190014362335
0.81326025724411011 0.23659257590770721 0.081123113632202148
0.88288837671279907 0.25823149085044861 0.069518581032752991
0.94650876522064209 0.28879699110984802 0.060955405235290527
0.99448460340499878 0.32427546381950378 0.065312959253787994
0.0044787838123738766 0.25629115104675293 0.14269138872623444
0.026381967589259148 0.25804984569549561 0.14203861355781555
0.080232433974742889 0.26822414994239807 0.1380460113286972
0.19650594890117645 0.2892967164516449 0.12379753589630127
0.35393223166465759 0.31249341368675232 0.10687579214572906
0.48495173454284668 0.30900335311889648 0.1016300842165947
0.58919769525527954 0.29566195607185364 0.1008804589509964
0.67748367786407471 0.29274836182594299 0.096240237355232239
0.75553637742996216 0.29883649945259094 0.085649706423282623
0.82630562782287598 0.30923593044281006 0.072988100349903107
0.89176887273788452 0.32678911089897156 0.06224040687084198
0.95057898759841919 0.35160243511199951 0.060428500175476074
0.99479961395263672 0.38158532977104187 0.073112130165100098
0.00029207117040641606 0.36099913716316223 0.15622566640377045
0.0022559671197086573 0.36107820272445679 0.15664392709732056
0.03066406212747097 0.36674243211746216 0.15463697910308838
0.15211367607116699 0.38584792613983154 0.14075499773025513
0.33116781711578369 0.41541808843612671 0.11482910811901093
0.49816620349884033 0.43129682540893555 0.087065570056438446
0.61899095773696899 0.41921588778495789 0.073580421507358551
0.70764470100402832 0.40271711349487305 0.077378831803798676
0.77704089879989624 0.39132320880889893 0.07880692183971405
0.84036356210708618 0.39274439215660095 0.071003437042236328
0.90082418918609619 0.40514695644378662 0.064825110137462616
0.9541553258895874 0.42247205972671509 0.068450435996055603
0.99431377649307251 0.44736567139625549 0.083006583154201508
0.0046668108552694321 0.4676092267036438 0.18251191079616547
0.0015693814493715763 0.46683269739151001 0.18227797746658325
0.022401517257094383 0.4675743579864502 0.18086674809455872
0.12663103640079498 0.47581002116203308 0.17136166989803314
0.29021820425987244 0.4954838752746582 0.14864498376846313
0.45705136656761169 0.51886242628097534 0.11408736556768417
0.61007428169250488 0.54006189107894897 0.065210603177547455
0.71892625093460083 0.53372752666473389 0.058829527348279953
0.79095757007598877 0.50752496719360352 0.072587721049785614
0.85275077819824219 0.49350306391716003 0.078557528555393219
0.91154736280441284 0.49225971102714539 0.082368053495883942
0.9610636830329895 0.49810037016868591 0.092934340238571167
0.99586611986160278 0.5167650580406189 0.10954815894365311
0.02123585157096386 0.55945122241973877 0.2289845198392868
0.015549334697425365 0.55924004316329956 0.22411724925041199
0.049837958067655563 0.55651623010635376 0.22198067605495453
0.13947923481464386 0.5570482611656189 0.21624208986759186
0.27616229653358459 0.56730371713638306 0.20171275734901428
0.4182833731174469 0.58641475439071655 0.17426085472106934
0.55956822633743286 0.61163628101348877 0.13808000087738037
0.68244314193725586 0.62482482194900513 0.10916952788829803
0.7803458571434021 0.62278133630752563 0.094125829637050629
0.85442435741424561 0.61162412166595459 0.10073529183864594
0.91834384202957153 0.59660613536834717 0.11644667387008667
0.96829724311828613 0.58699893951416016 0.13838836550712585
0.99817371368408203 0.59383231401443481 0.1621548980474472
0.071288213133811951 0.64082521200180054 0.28418835997581482
0.070995628833770752 0.64033800363540649 0.27746599912643433
0.11264949291944504 0.63639456033706665 0.27441802620887756
0.18693341314792633 0.63317924737930298 0.27079245448112488
0.28816032409667969 0.6369519829750061 0.26333677768707275
0.40300795435905457 0.64957761764526367 0.24948218464851379
0.52057665586471558 0.66719681024551392 0.22907136380672455
0.63772153854370117 0.68752682209014893 0.19950497150421143
0.74854147434234619 0.70646238327026367 0.17184020578861237
0.84060084819793701 0.71360629796981812 0.16448771953582764
0.91217291355133057 0.70491665601730347 0.17606574296951294
0.96503281593322754 0.69095587730407715 0.20007425546646118
0.99786293506622314 0.68256950378417969 0.22730429470539093
0.16416461765766144 0.71630394458770752 0.34735321998596191
0.16766780614852905 0.71584343910217285 0.34119459986686707
0.20035079121589661 0.71203696727752686 0.33751612901687622
0.25527560710906982 0.7073749303817749 0.33478197455406189
0.32807731628417969 0.70726126432418823 0.33131277561187744
0.41543352603912354 0.71418243646621704 0.32433000206947327
0.51010775566101074 0.72678619623184204 0.31348130106925964
0.60950857400894165 0.7433401346206665 0.29878264665603638
0.71265500783920288 0.76524728536605835 0.27865302562713623
0.80929714441299438 0.78223675489425659 0.26361262798309326
0.88957434892654419 0.7867932915687561 0.26403322815895081
0.95324605703353882 0.78262925148010254 0.27937844395637512
0.99550384283065796 0.77235943078994751 0.30279362201690674
0.27513667941093445 0.78768587112426758 0.41893526911735535
0.28093606233596802 0.78785502910614014 0.41501057147979736
0.30309808254241943 0.78498172760009766 0.4117816686630249
0.34158313274383545 0.78003311157226562 0.40962445735931396
0.39245980978012085 0.77727735042572021 0.40776222944259644
0.45449879765510559 0.7799726128578186 0.40219235420227051
0.52509570121765137 0.78819543123245239 0.39565986394882202
0.60460186004638672 0.8005673885345459 0.39168989658355713
0.68998879194259644 0.81667673587799072 0.38298854231834412
0.77591300010681152 0.83051931858062744 0.37247422337532043
0.85913968086242676 0.84201651811599731 0.36650276184082031
0.9362417459487915 0.85270696878433228 0.3708324134349823
0.99071139097213745 0.85057371854782104 0.38541671633720398
0.39314067363739014 0.85266232490539551 0.50131005048751831
0.40000748634338379 0.85294467210769653 0.50168687105178833
0.41617447137832642 0.85099703073501587 0.49857395887374878
0.44220736622810364 0.84665733575820923 0.49654397368431091
0.47534856200218201 0.84245955944061279 0.49654474854469299
0.51648044586181641 0.84228181838989258 0.49166607856750488
0.56547379493713379 0.84722340106964111 0.4862983226776123
0.62453383207321167 0.85524278879165649 0.48627984523773193
0.68998020887374878 0.8660319447517395 0.48409086465835571
0.76128840446472168 0.87667888402938843 0.47996231913566589
0.83693790435791016 0.88976740837097168 0.47495788335800171
0.91355615854263306 0.90446335077285767 0.47314217686653137
0.97720175981521606 0.90954798460006714 0.47754061222076416
0.51434755325317383 0.90726041793823242 0.59822487831115723
0.52137845754623413 0.90777969360351562 0.59936201572418213
0.53168660402297974 0.90633153915405273 0.59769022464752197
0.54639363288879395 0.90313518047332764 0.59572654962539673
0.56691932678222656 0.89964562654495239 0.59538674354553223
0.59430062770843506 0.89853215217590332 0.59417253732681274
0.62699419260025024 0.90078353881835938 0.59165430068969727
0.66589814424514771 0.90555441379547119 0.58882319927215576
0.71215730905532837 0.91202461719512939 0.58738982677459717
0.76662337779998779 0.91966640949249268 0.58811098337173462
0.82670015096664429 0.92929929494857788 0.58674401044845581
0.88949424028396606 0.93997329473495483 0.5852317214012146
0.94835162162780762 0.94591593742370605 0.58536452054977417
0.62365943193435669 0.953288733959198 0.69209033250808716
0.6305999755859375 0.95442295074462891 0.69462203979492188
0.63597893714904785 0.95354080200195312 0.69404762983322144
0.64295464754104614 0.95140653848648071 0.69231587648391724
0.65464276075363159 0.94887244701385498 0.69208234548568726
0.67235022783279419 0.94773286581039429 0.69316565990447998
0.69351494312286377 0.94803500175476074 0.69310599565505981
0.71794116497039795 0.95066440105438232 0.69002968072891235
0.74900567531585693 0.95407050848007202 0.68902778625488281
0.78806310892105103 0.958659827709198 0.6912502646446228
0.83149176836013794 0.96386629343032837 0.6916765570640564
0.87775874137878418 0.96942543983459473 0.69070708751678467
0.9265744686126709 0.97363853454589844 0.68850713968276978
0.06410718709230423 0.10206865519285202 0.15310715138912201
0.089030168950557709 0.10239271074533463 0.15486909449100494
0.13096889853477478 0.10294413566589355 0.15596677362918854
0.19286718964576721 0.10432938486337662 0.15734082460403442
0.28373730182647705 0.10172419995069504 0.16011224687099457
0.39844071865081787 0.099520951509475708 0.16305787861347198
0.51392066478729248 0.096033178269863129 0.1614871621131897
0.6197240948677063 0.079451680183410645 0.15533699095249176
0.71126818656921387 0.078679345548152924 0.1489625871181488
0.78910130262374878 0.1113794669508934 0.14483076333999634
0.86027902364730835 0.16383056342601776 0.14192536473274231
0.92996895313262939 0.21035321056842804 0.1382242888212204
0.98888570070266724 0.25529599189758301 0.13703012466430664
0.048370257019996643 0.12532795965671539 0.16261312365531921
0.083505846560001373 0.12748955190181732 0.16447892785072327
0.13570027053356171 0.13427051901817322 0.16319920122623444
0.20193986594676971 0.13897030055522919 0.16315403580665588
0.29878759384155273 0.136575847864151 0.1631665825843811
0.41483733057975769 0.13640464842319489 0.16258205473423004
0.52983427047729492 0.13731244206428528 0.15830014646053314
0.6302802562713623 0.13423268496990204 0.15274816751480103
0.71695053577423096 0.14550955593585968 0.14968279004096985
0.79372018575668335 0.17793536186218262 0.14834721386432648
0.86665564775466919 0.21043458580970764 0.14372330904006958
0.9357638955116272 0.24352243542671204 0.13736432790756226
0.9910399317741394 0.28280717134475708 0.13666458427906036
0.024363603442907333 0.18249067664146423 0.17018221318721771
0.067436397075653076 0.18412838876247406 0.17411808669567108
0.1320408433675766 0.19075426459312439 0.17455597221851349
0.21546663343906403 0.19901350140571594 0.17302310466766357
0.32463499903678894 0.20390401780605316 0.17204555869102478
0.43971812725067139 0.20545835793018341 0.16889947652816772
0.55131703615188599 0.20242521166801453 0.1621689647436142
0.64590919017791748 0.2111588716506958 0.15852104127407074
0.72958016395568848 0.22513964772224426 0.15489585697650909
0.80533629655838013 0.24162131547927856 0.15030953288078308
0.87643724679946899 0.26271343231201172 0.14361247420310974
0.94142740964889526 0.29209655523300171 0.13951438665390015
0.99224507808685303 0.32747182250022888 0.14367793500423431
0.0081649627536535263 0.27004459500312805 0.18926292657852173
0.044296953827142715 0.27238991856575012 0.19215935468673706
0.11333746463060379 0.27802035212516785 0.19213616847991943
0.22164757549762726 0.28903058171272278 0.18581649661064148
0.35926172137260437 0.30149433016777039 0.17792597413063049
0.48190009593963623 0.30139791965484619 0.17351597547531128
0.58164352178573608 0.29294416308403015 0.17051355540752411
0.66884684562683105 0.29577881097793579 0.16624940931797028
0.74676090478897095 0.30162456631660461 0.15968118607997894
0.81868940591812134 0.31124132871627808 0.15211616456508636
0.88582402467727661 0.32858166098594666 0.14531207084655762
0.94678378105163574 0.35320556163787842 0.14495749771595001
0.993141770362854 0.3855145275592804 0.15462447702884674
0.014851394109427929 0.37644726037979126 0.21874794363975525
0.034727521240711212 0.37870892882347107 0.21884962916374207
0.089200101792812347 0.3808988630771637 0.21720497310161591
0.20075377821922302 0.38964605331420898 0.20865672826766968
0.34948861598968506 0.40980476140975952 0.19320937991142273
0.50206029415130615 0.42452964186668396 0.17649947106838226
