films/fuji_fp-100c.cube
# Created by: G'MIC (https://gmic.eu)
TITLE "fuji_fp-100c"
# LUT size
LUT_3D_SIZE 5
# Data domain
DOMAIN_MIN 0.0 0.0 0.0
DOMAIN_MAX 1.0 1.0 1.0
# LUT data points
0.045733433216810226 0.065497666597366333 0.077331200242042542
0.23171822726726532 0.049687791615724564 0.077428825199604034
0.53277993202209473 0.014092538505792618 0.083728224039077759
0.80066156387329102 0.021001106128096581 0.086765170097351074
0.99018019437789917 0.11869270354509354 0.098737142980098724
0.022143704816699028 0.23762187361717224 0.090460807085037231
0.28106772899627686 0.25736892223358154 0.061773292720317841
0.5989609956741333 0.27703911066055298 0.066425919532775879
0.83295601606369019 0.2853468656539917 0.083959035575389862
0.98641324043273926 0.3288331925868988 0.11068260669708252
0.0054822885431349277 0.5039408802986145 0.10299444943666458
0.24338015913963318 0.49835067987442017 0.092999570071697235
0.54596686363220215 0.53167116641998291 0.0098151415586471558
0.82310503721237183 0.54762858152389526 0.01520964689552784
0.9938347339630127 0.57545709609985352 0.16730180382728577
0.063561186194419861 0.70559525489807129 0.16865533590316772
0.26284879446029663 0.69552308320999146 0.15559858083724976
0.5034211277961731 0.70767104625701904 0.095378592610359192
0.7630196213722229 0.73772943019866943 0.022164288908243179
0.97759264707565308 0.75626122951507568 0.013707688078284264
0.43616595864295959 0.91817766427993774 0.40409734845161438
0.52050888538360596 0.91862910985946655 0.40802019834518433
0.66637754440307617 0.91664993762969971 0.41979345679283142
0.827170729637146 0.93205791711807251 0.38127347826957703
0.98822039365768433 0.9423755407333374 0.23358184099197388
0.062762364745140076 0.058153532445430756 0.25064447522163391
0.31978356838226318 0.018021842464804649 0.29100191593170166
0.51952028274536133 0.052789442241191864 0.27591857314109802
0.7963937520980835 0.028424371033906937 0.25802391767501831
0.99009126424789429 0.14570555090904236 0.26348468661308289
0.062303252518177032 0.26376473903656006 0.29628026485443115
0.33298218250274658 0.30502200126647949 0.32182592153549194
0.60694378614425659 0.30981332063674927 0.31253638863563538
0.8245851993560791 0.30813625454902649 0.29693740606307983
0.98933136463165283 0.34502449631690979 0.28627133369445801
0.055898226797580719 0.56561076641082764 0.34183233976364136
0.30593782663345337 0.55105298757553101 0.32157167792320251
0.57898974418640137 0.56340748071670532 0.27358943223953247
0.83400428295135498 0.57433944940567017 0.30343466997146606
0.99104845523834229 0.5924028754234314 0.35032308101654053
0.091561242938041687 0.73698031902313232 0.33048442006111145
0.30101355910301208 0.72654241323471069 0.33037474751472473
0.5328751802444458 0.72657597064971924 0.30488276481628418
0.77000695466995239 0.74621874094009399 0.21018040180206299
0.98412221670150757 0.76764404773712158 0.2410266250371933
0.43974792957305908 0.92876237630844116 0.4843657910823822
0.51285052299499512 0.92329931259155273 0.47875618934631348
0.66275227069854736 0.91951292753219604 0.48807635903358459
0.82373285293579102 0.92842471599578857 0.45192763209342957
0.98321890830993652 0.94598489999771118 0.38385111093521118
0.11873795837163925 0.02961437776684761 0.51976311206817627
0.39293250441551208 0.005139040295034647 0.57530027627944946
0.7219463586807251 0.0062727537006139755 0.62415808439254761
0.77027106285095215 0.20442080497741699 0.53400498628616333
0.95961743593215942 0.25086283683776855 0.52339750528335571
0.1082635298371315 0.25214853882789612 0.51719528436660767
0.37195390462875366 0.27351599931716919 0.57116323709487915
0.70136803388595581 0.29364854097366333 0.62704366445541382
0.78256070613861084 0.39187261462211609 0.55769932270050049
0.9743310809135437 0.36237898468971252 0.51845234632492065
0.17111819982528687 0.55160301923751831 0.57574033737182617
0.376262366771698 0.57633417844772339 0.58886039257049561
0.63450050354003906 0.62058806419372559 0.615772545337677
0.82175761461257935 0.60417115688323975 0.58697855472564697
0.96283125877380371 0.58410340547561646 0.55563312768936157
0.28444755077362061 0.77756309509277344 0.60997903347015381
0.40505045652389526 0.77404731512069702 0.59484720230102539
0.57332128286361694 0.76353031396865845 0.56495910882949829
0.79046547412872314 0.77074921131134033 0.52641463279724121
0.98266637325286865 0.79055774211883545 0.56028932332992554
0.40362542867660522 0.93304479122161865 0.61992752552032471
0.48543852567672729 0.9349977970123291 0.61620795726776123
0.64513880014419556 0.93216270208358765 0.61887049674987793
0.81127214431762695 0.92747741937637329 0.60312223434448242
0.98416590690612793 0.95291745662689209 0.56606012582778931
0.29982113838195801 0.010204480029642582 0.76261180639266968
0.47677943110466003 0.0062662460841238499 0.78886628150939941
0.75061845779418945 0.0048578297719359398 0.83083915710449219
0.96231997013092041 0.028287701308727264 0.83832204341888428
0.97761517763137817 0.37351074814796448 0.76420325040817261
0.2719326913356781 0.24175848066806793 0.75203913450241089
0.441049724817276 0.24413061141967773 0.77062088251113892
0.72062116861343384 0.22867842018604279 0.82202297449111938
0.94801205396652222 0.32870793342590332 0.84309756755828857
0.95972418785095215 0.49354627728462219 0.76907622814178467
0.12114217132329941 0.4710794985294342 0.70011502504348755
0.31324145197868347 0.48444890975952148 0.71668648719787598
0.62292522192001343 0.55546998977661133 0.7806820273399353
0.88131999969482422 0.62616574764251709 0.82553559541702271
0.94120258092880249 0.65227270126342773 0.77775776386260986
0.31969186663627625 0.74677419662475586 0.77350729703903198
0.43821153044700623 0.74999797344207764 0.77173882722854614
0.62354546785354614 0.77474725246429443 0.78751391172409058
0.83112144470214844 0.82228624820709229 0.81976628303527832
0.96385699510574341 0.80089592933654785 0.79090124368667603
0.51914989948272705 0.95195955038070679 0.84782117605209351
0.56102454662322998 0.94096344709396362 0.83433002233505249
0.67101341485977173 0.94767498970031738 0.82518434524536133
0.80592983961105347 0.93938910961151123 0.79422152042388916
0.97056710720062256 0.94924449920654297 0.76733797788619995
0.57357674837112427 0.17156742513179779 0.97030025720596313
0.63591533899307251 0.10479863733053207 0.9636540412902832
0.80594229698181152 0.062412664294242859 0.97631210088729858
0.99099510908126831 0.0088502923026680946 0.99108386039733887
1 0.28504770994186401 0.98049932718276978
0.55271250009536743 0.36745509505271912 0.96366453170776367
0.62737458944320679 0.34957060217857361 0.96467399597167969
0.78942888975143433 0.33396425843238831 0.97535377740859985
0.98387652635574341 0.32641404867172241 0.98960429430007935
1 0.46196329593658447 0.98431456089019775
0.41306835412979126 0.54867327213287354 0.94474995136260986
0.52249294519424438 0.55230361223220825 0.94749206304550171
0.71346211433410645 0.56559997797012329 0.95610779523849487
0.92808610200881958 0.59501391649246216 0.97448945045471191
0.99824005365371704 0.66483443975448608 0.97710400819778442
0.34501445293426514 0.74631506204605103 0.92318564653396606
0.40599191188812256 0.74136579036712646 0.91808700561523438
0.54780477285385132 0.73456037044525146 0.91915249824523926
0.83442729711532593 0.77983886003494263 0.95620810985565186
0.98652869462966919 0.83288568258285522 0.97140753269195557
0.59535187482833862 0.93962240219116211 0.960865318775177
0.60706603527069092 0.93073034286499023 0.94875514507293701
0.71445685625076294 0.9440578818321228 0.96021407842636108
0.83559578657150269 0.9502112865447998 0.95830339193344116
0.96636807918548584 0.96599006652832031 0.95020765066146851
