films/fuji_neopan_1600_2.cube
TITLE "data/luts/rawtherapee/HaldCLUT/Black-and-White/Fuji/Fuji Neopan 1600 2.png"
LUT_3D_SIZE 4
DOMAIN_MIN 0 0 0
DOMAIN_MAX 1 1 1
0.039216 0.039216 0.039216
0.047059 0.047059 0.047059
0.166013 0.166013 0.166013
0.490196 0.490196 0.490196
0.105882 0.105882 0.105882
0.166449 0.166449 0.166449
0.356427 0.356427 0.356427
0.636601 0.636601 0.636601
0.415686 0.415686 0.415686
0.441830 0.441830 0.441830
0.596950 0.596950 0.596950
0.847059 0.847059 0.847059
0.921569 0.921569 0.921569
0.929412 0.929412 0.929412
0.959477 0.959477 0.959477
0.996078 0.996078 0.996078
0.050980 0.050980 0.050980
0.116340 0.116340 0.116340
0.230501 0.230501 0.230501
0.484967 0.484967 0.484967
0.155991 0.155991 0.155991
0.268555 0.268555 0.268555
0.383878 0.383878 0.383878
0.645752 0.645752 0.645752
0.526797 0.526797 0.526797
0.551198 0.551198 0.551198
0.652578 0.652578 0.652578
0.864052 0.864052 0.864052
0.933333 0.933333 0.933333
0.941176 0.941176 0.941176
0.961656 0.961656 0.961656
0.996078 0.996078 0.996078
0.236601 0.236601 0.236601
0.326362 0.326362 0.326362
0.484967 0.484967 0.484967
0.675817 0.675817 0.675817
0.376035 0.376035 0.376035
0.457081 0.457081 0.457081
0.599710 0.599710 0.599710
0.745098 0.745098 0.745098
0.555991 0.555991 0.555991
0.628468 0.628468 0.628468
0.774437 0.774437 0.774437
0.874510 0.874510 0.874510
0.956863 0.956863 0.956863
0.964706 0.964706 0.964706
0.979521 0.979521 0.979521
1.000000 1.000000 1.000000
0.772549 0.772549 0.772549
0.806536 0.806536 0.806536
0.883660 0.883660 0.883660
0.941176 0.941176 0.941176
0.807843 0.807843 0.807843
0.837037 0.837037 0.837037
0.901961 0.901961 0.901961
0.954248 0.954248 0.954248
0.768627 0.768627 0.768627
0.828758 0.828758 0.828758
0.932026 0.932026 0.932026
0.985621 0.985621 0.985621
0.964706 0.964706 0.964706
0.972549 0.972549 0.972549
0.989542 0.989542 0.989542
1.000000 1.000000 1.000000
