films/fuji_neopan_1600.cube
# Created by: G'MIC (https://gmic.eu)
TITLE "fuji_neopan_1600"
# LUT size
LUT_3D_SIZE 7
# Data domain
DOMAIN_MIN 0.0 0.0 0.0
DOMAIN_MAX 1.0 1.0 1.0
# LUT data points
0.040585760027170181 0.040585760027170181 0.040585760027170181
0.040734056383371353 0.040734056383371353 0.040734056383371353
0.070905201137065887 0.070905201137065887 0.070905201137065887
0.12883386015892029 0.12883386015892029 0.12883386015892029
0.20376923680305481 0.20376923680305481 0.20376923680305481
0.30342298746109009 0.30342298746109009 0.30342298746109009
0.43577083945274353 0.43577083945274353 0.43577083945274353
0.065780624747276306 0.065780624747276306 0.065780624747276306
0.06410960853099823 0.06410960853099823 0.06410960853099823
0.1100284531712532 0.1100284531712532 0.1100284531712532
0.18401448428630829 0.18401448428630829 0.18401448428630829
0.26039254665374756 0.26039254665374756 0.26039254665374756
0.34748396277427673 0.34748396277427673 0.34748396277427673
0.49089080095291138 0.49089080095291138 0.49089080095291138
0.13867790997028351 0.13867790997028351 0.13867790997028351
0.14527586102485657 0.14527586102485657 0.14527586102485657
0.19588355720043182 0.19588355720043182 0.19588355720043182
0.28254562616348267 0.28254562616348267 0.28254562616348267
0.38070940971374512 0.38070940971374512 0.38070940971374512
0.48964077234268188 0.48964077234268188 0.48964077234268188
0.60940825939178467 0.60940825939178467 0.60940825939178467
0.26298698782920837 0.26298698782920837 0.26298698782920837
0.28019553422927856 0.28019553422927856 0.28019553422927856
0.31532326340675354 0.31532326340675354 0.31532326340675354
0.38321390748023987 0.38321390748023987 0.38321390748023987
0.49643948674201965 0.49643948674201965 0.49643948674201965
0.63133144378662109 0.63133144378662109 0.63133144378662109
0.73807787895202637 0.73807787895202637 0.73807787895202637
0.45108583569526672 0.45108583569526672 0.45108583569526672
0.46200352907180786 0.46200352907180786 0.46200352907180786
0.4807228147983551 0.4807228147983551 0.4807228147983551
0.52310037612915039 0.52310037612915039 0.52310037612915039
0.61184990406036377 0.61184990406036377 0.61184990406036377
0.71332460641860962 0.71332460641860962 0.71332460641860962
0.81992197036743164 0.81992197036743164 0.81992197036743164
0.67825239896774292 0.67825239896774292 0.67825239896774292
0.68388545513153076 0.68388545513153076 0.68388545513153076
0.69781661033630371 0.69781661033630371 0.69781661033630371
0.72646713256835938 0.72646713256835938 0.72646713256835938
0.77264726161956787 0.77264726161956787 0.77264726161956787
0.8281291127204895 0.8281291127204895 0.8281291127204895
0.90442073345184326 0.90442073345184326 0.90442073345184326
0.8999285101890564 0.8999285101890564 0.8999285101890564
0.89400279521942139 0.89400279521942139 0.89400279521942139
0.90741986036300659 0.90741986036300659 0.90741986036300659
0.92158854007720947 0.92158854007720947 0.92158854007720947
0.9455256462097168 0.9455256462097168 0.9455256462097168
0.96817868947982788 0.96817868947982788 0.96817868947982788
0.99605733156204224 0.99605733156204224 0.99605733156204224
0.041588578373193741 0.041588578373193741 0.041588578373193741
0.051111724227666855 0.051111724227666855 0.051111724227666855
0.077025830745697021 0.077025830745697021 0.077025830745697021
0.13396728038787842 0.13396728038787842 0.13396728038787842
0.20965802669525146 0.20965802669525146 0.20965802669525146
0.30946576595306396 0.30946576595306396 0.30946576595306396
0.43958291411399841 0.43958291411399841 0.43958291411399841
0.070751547813415527 0.070751547813415527 0.070751547813415527
0.090906031429767609 0.090906031429767609 0.090906031429767609
0.1324775218963623 0.1324775218963623 0.1324775218963623
0.19995193183422089 0.19995193183422089 0.19995193183422089
0.27623870968818665 0.27623870968818665 0.27623870968818665
0.36927524209022522 0.36927524209022522 0.36927524209022522
0.49958023428916931 0.49958023428916931 0.49958023428916931
0.1641659140586853 0.1641659140586853 0.1641659140586853
0.18037267029285431 0.18037267029285431 0.18037267029285431
0.22800110280513763 0.22800110280513763 0.22800110280513763
0.30818819999694824 0.30818819999694824 0.30818819999694824
0.40230020880699158 0.40230020880699158 0.40230020880699158
0.50530374050140381 0.50530374050140381 0.50530374050140381
0.62209665775299072 0.62209665775299072 0.62209665775299072
0.31641149520874023 0.31641149520874023 0.31641149520874023
0.31981346011161804 0.31981346011161804 0.31981346011161804
0.34377023577690125 0.34377023577690125 0.34377023577690125
0.40712651610374451 0.40712651610374451 0.40712651610374451
0.515034019947052 0.515034019947052 0.515034019947052
0.64295107126235962 0.64295107126235962 0.64295107126235962
0.75950008630752563 0.75950008630752563 0.75950008630752563
0.48273292183876038 0.48273292183876038 0.48273292183876038
0.49282586574554443 0.49282586574554443 0.49282586574554443
0.49800828099250793 0.49800828099250793 0.49800828099250793
0.54656606912612915 0.54656606912612915 0.54656606912612915
0.62712091207504272 0.62712091207504272 0.62712091207504272
0.73189663887023926 0.73189663887023926 0.73189663887023926
0.83682268857955933 0.83682268857955933 0.83682268857955933
0.69142937660217285 0.69142937660217285 0.69142937660217285
0.70194190740585327 0.70194190740585327 0.70194190740585327
0.71078968048095703 0.71078968048095703 0.71078968048095703
0.73528873920440674 0.73528873920440674 0.73528873920440674
0.77665954828262329 0.77665954828262329 0.77665954828262329
0.83731746673583984 0.83731746673583984 0.83731746673583984
0.9140586256980896 0.9140586256980896 0.9140586256980896
0.88913583755493164 0.88913583755493164 0.88913583755493164
0.89772176742553711 0.89772176742553711 0.89772176742553711
0.90566623210906982 0.90566623210906982 0.90566623210906982
0.91734045743942261 0.91734045743942261 0.91734045743942261
0.93633711338043213 0.93633711338043213 0.93633711338043213
0.96598917245864868 0.96598917245864868 0.96598917245864868
0.99720138311386108 0.99720138311386108 0.99720138311386108
0.068033210933208466 0.068033210933208466 0.068033210933208466
0.092309840023517609 0.092309840023517609 0.092309840023517609
0.13186284899711609 0.13186284899711609 0.13186284899711609
0.17952124774456024 0.17952124774456024 0.17952124774456024
0.24049018323421478 0.24049018323421478 0.24049018323421478
0.34263411164283752 0.34263411164283752 0.34263411164283752
0.47472637891769409 0.47472637891769409 0.47472637891769409
0.097642488777637482 0.097642488777637482 0.097642488777637482
0.13972561061382294 0.13972561061382294 0.13972561061382294
0.19952517747879028 0.19952517747879028 0.19952517747879028
0.24395886063575745 0.24395886063575745 0.24395886063575745
0.30138382315635681 0.30138382315635681 0.30138382315635681
0.39207997918128967 0.39207997918128967 0.39207997918128967
0.52548611164093018 0.52548611164093018 0.52548611164093018
0.20332273840904236 0.20332273840904236 0.20332273840904236
0.23397879302501678 0.23397879302501678 0.23397879302501678
0.29340013861656189 0.29340013861656189 0.29340013861656189
0.35278558731079102 0.35278558731079102 0.35278558731079102
0.42760872840881348 0.42760872840881348 0.42760872840881348
0.52168464660644531 0.52168464660644531 0.52168464660644531
0.63160312175750732 0.63160312175750732 0.63160312175750732
0.37033501267433167 0.37033501267433167 0.37033501267433167
0.37360876798629761 0.37360876798629761 0.37360876798629761
0.4094594419002533 0.4094594419002533 0.4094594419002533
0.47136378288269043 0.47136378288269043 0.47136378288269043
0.56512123346328735 0.56512123346328735 0.56512123346328735
0.66103070974349976 0.66103070974349976 0.66103070974349976
0.7475045919418335 0.7475045919418335 0.7475045919418335
0.55782675743103027 0.55782675743103027 0.55782675743103027
0.55927282571792603 0.55927282571792603 0.55927282571792603
0.57382595539093018 0.57382595539093018 0.57382595539093018
0.61006301641464233 0.61006301641464233 0.61006301641464233
0.67054849863052368 0.67054849863052368 0.67054849863052368
0.75317084789276123 0.75317084789276123 0.75317084789276123
0.84205669164657593 0.84205669164657593 0.84205669164657593
0.73813509941101074 0.73813509941101074 0.73813509941101074
0.74776971340179443 0.74776971340179443 0.74776971340179443
0.75481617450714111 0.75481617450714111 0.75481617450714111
0.77023166418075562 0.77023166418075562 0.77023166418075562
0.799582839012146 0.799582839012146 0.799582839012146
0.8544115424156189 0.8544115424156189 0.8544115424156189
0.92626160383224487 0.92626160383224487 0.92626160383224487
0.89763098955154419 0.89763098955154419 0.89763098955154419
0.91145527362823486 0.91145527362823486 0.91145527362823486
0.91866147518157959 0.91866147518157959 0.91866147518157959
0.926441490650177 0.926441490650177 0.926441490650177
0.94141083955764771 0.94141083955764771 0.94141083955764771
0.971152663230896 0.971152663230896 0.971152663230896
0.9987671971321106 0.9987671971321106 0.9987671971321106
0.13678044080734253 0.13678044080734253 0.13678044080734253
0.17463941872119904 0.17463941872119904 0.17463941872119904
0.24650859832763672 0.24650859832763672 0.24650859832763672
0.28343448042869568 0.28343448042869568 0.28343448042869568
0.31188890337944031 0.31188890337944031 0.31188890337944031
0.40750887989997864 0.40750887989997864 0.40750887989997864
0.55289596319198608 0.55289596319198608 0.55289596319198608
0.1915709376335144 0.1915709376335144 0.1915709376335144
0.22511354088783264 0.22511354088783264 0.22511354088783264
0.29005983471870422 0.29005983471870422 0.29005983471870422
0.33156710863113403 0.33156710863113403 0.33156710863113403
0.36796113848686218 0.36796113848686218 0.36796113848686218
0.45686832070350647 0.45686832070350647 0.45686832070350647
0.59982609748840332 0.59982609748840332 0.59982609748840332
0.27231764793395996 0.27231764793395996 0.27231764793395996
0.30033028125762939 0.30033028125762939 0.30033028125762939
0.36788812279701233 0.36788812279701233 0.36788812279701233
0.42915025353431702 0.42915025353431702 0.42915025353431702
0.47553503513336182 0.47553503513336182 0.47553503513336182
0.55074769258499146 0.55074769258499146 0.55074769258499146
0.66502708196640015 0.66502708196640015 0.66502708196640015
0.38723307847976685 0.38723307847976685 0.38723307847976685
0.40164652466773987 0.40164652466773987 0.40164652466773987
0.47578808665275574 0.47578808665275574 0.47578808665275574
0.55018776655197144 0.55018776655197144 0.55018776655197144
0.61228460073471069 0.61228460073471069 0.61228460073471069
0.67266660928726196 0.67266660928726196 0.67266660928726196
0.75154316425323486 0.75154316425323486 0.75154316425323486
0.58109819889068604 0.58109819889068604 0.58109819889068604
0.59689748287200928 0.59689748287200928 0.59689748287200928
0.64563524723052979 0.64563524723052979 0.64563524723052979
0.67652386426925659 0.67652386426925659 0.67652386426925659
0.71870261430740356 0.71870261430740356 0.71870261430740356
0.7842591404914856 0.7842591404914856 0.7842591404914856
0.85899144411087036 0.85899144411087036 0.85899144411087036
0.76638346910476685 0.76638346910476685 0.76638346910476685
0.78147441148757935 0.78147441148757935 0.78147441148757935
0.79809236526489258 0.79809236526489258 0.79809236526489258
0.81040596961975098 0.81040596961975098 0.81040596961975098
0.83345538377761841 0.83345538377761841 0.83345538377761841
0.88436901569366455 0.88436901569366455 0.88436901569366455
0.94592887163162231 0.94592887163162231 0.94592887163162231
0.91120940446853638 0.91120940446853638 0.91120940446853638
0.92859244346618652 0.92859244346618652 0.92859244346618652
0.93814307451248169 0.93814307451248169 0.93814307451248169
0.94661587476730347 0.94661587476730347 0.94661587476730347
0.9577864408493042 0.9577864408493042 0.9577864408493042
0.9824225902557373 0.9824225902557373 0.9824225902557373
0.99983519315719604 0.99983519315719604 0.99983519315719604
0.25880801677703857 0.25880801677703857 0.25880801677703857
0.29042345285415649 0.29042345285415649 0.29042345285415649
0.3617556095123291 0.3617556095123291 0.3617556095123291
0.46018615365028381 0.46018615365028381 0.46018615365028381
0.49697333574295044 0.49697333574295044 0.49697333574295044
0.52054423093795776 0.52054423093795776 0.52054423093795776
0.62415879964828491 0.62415879964828491 0.62415879964828491
0.32504341006278992 0.32504341006278992 0.32504341006278992
0.34696000814437866 0.34696000814437866 0.34696000814437866
0.40347200632095337 0.40347200632095337 0.40347200632095337
0.49054622650146484 0.49054622650146484 0.49054622650146484
0.54854309558868408 0.54854309558868408 0.54854309558868408
0.56637710332870483 0.56637710332870483 0.56637710332870483
0.67404907941818237 0.67404907941818237 0.67404907941818237
0.37969917058944702 0.37969917058944702 0.37969917058944702
0.41615703701972961 0.41615703701972961 0.41615703701972961
0.47244986891746521 0.47244986891746521 0.47244986891746521
0.5563846230506897 0.5563846230506897 0.5563846230506897
0.59595805406570435 0.59595805406570435 0.59595805406570435
0.62686192989349365 0.62686192989349365 0.62686192989349365
0.73011761903762817 0.73011761903762817 0.73011761903762817
0.42365661263465881 0.42365661263465881 0.42365661263465881
0.47578305006027222 0.47578305006027222 0.47578305006027222
0.53985869884490967 0.53985869884490967 0.53985869884490967
0.63678008317947388 0.63678008317947388 0.63678008317947388
0.69612038135528564 0.69612038135528564 0.69612038135528564
0.7312888503074646 0.7312888503074646 0.7312888503074646
0.79040729999542236 0.79040729999542236 0.79040729999542236
0.59160655736923218 0.59160655736923218 0.59160655736923218
0.61414647102355957 0.61414647102355957 0.61414647102355957
0.65965676307678223 0.65965676307678223 0.65965676307678223
0.72098225355148315 0.72098225355148315 0.72098225355148315
0.77433937788009644 0.77433937788009644 0.77433937788009644
0.82550144195556641 0.82550144195556641 0.82550144195556641
0.88032722473144531 0.88032722473144531 0.88032722473144531
0.7785264253616333 0.7785264253616333 0.7785264253616333
0.79214811325073242 0.79214811325073242 0.79214811325073242
0.81139564514160156 0.81139564514160156 0.81139564514160156
0.83626282215118408 0.83626282215118408 0.83626282215118408
0.86882025003433228 0.86882025003433228 0.86882025003433228
0.9109225869178772 0.9109225869178772 0.9109225869178772
0.95556831359863281 0.95556831359863281 0.95556831359863281
0.91980934143066406 0.91980934143066406 0.91980934143066406
0.94178974628448486 0.94178974628448486 0.94178974628448486
0.94969075918197632 0.94969075918197632 0.94969075918197632
0.95947760343551636 0.95947760343551636 0.95947760343551636
0.97362244129180908 0.97362244129180908 0.97362244129180908
0.99054902791976929 0.99054902791976929 0.99054902791976929
0.99993538856506348 0.99993538856506348 0.99993538856506348
0.47109740972518921 0.47109740972518921 0.47109740972518921
0.49406686425209045 0.49406686425209045 0.49406686425209045
0.54841971397399902 0.54841971397399902 0.54841971397399902
0.63650929927825928 0.63650929927825928 0.63650929927825928
0.71360629796981812 0.71360629796981812 0.71360629796981812
0.70997607707977295 0.70997607707977295 0.70997607707977295
0.73755466938018799 0.73755466938018799 0.73755466938018799
0.50987404584884644 0.50987404584884644 0.50987404584884644
0.53111177682876587 0.53111177682876587 0.53111177682876587
0.57903873920440674 0.57903873920440674 0.57903873920440674
0.65796446800231934 0.65796446800231934 0.65796446800231934
0.72542423009872437 0.72542423009872437 0.72542423009872437
0.72815555334091187 0.72815555334091187 0.72815555334091187
0.75581705570220947 0.75581705570220947 0.75581705570220947
0.55570513010025024 0.55570513010025024 0.55570513010025024
0.60035532712936401 0.60035532712936401 0.60035532712936401
0.6307215690612793 0.6307215690612793 0.6307215690612793
0.69666922092437744 0.69666922092437744 0.69666922092437744
0.75472575426101685 0.75472575426101685 0.75472575426101685
0.77731788158416748 0.77731788158416748 0.77731788158416748
0.80636739730834961 0.80636739730834961 0.80636739730834961
0.56287378072738647 0.56287378072738647 0.56287378072738647
0.61753195524215698 0.61753195524215698 0.61753195524215698
0.65738284587860107 0.65738284587860107 0.65738284587860107
0.73155838251113892 0.73155838251113892 0.73155838251113892
0.79852980375289917 0.79852980375289917 0.79852980375289917
0.83413445949554443 0.83413445949554443 0.83413445949554443
0.84459525346755981 0.84459525346755981 0.84459525346755981
0.64368247985839844 0.64368247985839844 0.64368247985839844
0.66917699575424194 0.66917699575424194 0.66917699575424194
0.71005535125732422 0.71005535125732422 0.71005535125732422
0.77355128526687622 0.77355128526687622 0.77355128526687622
0.83887976408004761 0.83887976408004761 0.83887976408004761
0.87972825765609741 0.87972825765609741 0.87972825765609741
0.90683752298355103 0.90683752298355103 0.90683752298355103
0.79142171144485474 0.79142171144485474 0.79142171144485474
0.80516993999481201 0.80516993999481201 0.80516993999481201
0.8261529803276062 0.8261529803276062 0.8261529803276062
0.8602936863899231 0.8602936863899231 0.8602936863899231
0.90415000915527344 0.90415000915527344 0.90415000915527344
0.93386280536651611 0.93386280536651611 0.93386280536651611
0.95743298530578613 0.95743298530578613 0.95743298530578613
0.92693805694580078 0.92693805694580078 0.92693805694580078
0.94537353515625 0.94537353515625 0.94537353515625
0.95445150136947632 0.95445150136947632 0.95445150136947632
0.96716934442520142 0.96716934442520142 0.96716934442520142
0.98603284358978271 0.98603284358978271 0.98603284358978271
0.99375385046005249 0.99375385046005249 0.99375385046005249
0.9987032413482666 0.9987032413482666 0.9987032413482666
0.7398112416267395 0.7398112416267395 0.7398112416267395
0.75358319282531738 0.75358319282531738 0.75358319282531738
0.77304285764694214 0.77304285764694214 0.77304285764694214
0.80699449777603149 0.80699449777603149 0.80699449777603149
0.85627293586730957 0.85627293586730957 0.85627293586730957
0.88512712717056274 0.88512712717056274 0.88512712717056274
0.91724389791488647 0.91724389791488647 0.91724389791488647
0.73998653888702393 0.73998653888702393 0.73998653888702393
0.76049947738647461 0.76049947738647461 0.76049947738647461
0.78472107648849487 0.78472107648849487 0.78472107648849487
0.82170087099075317 0.82170087099075317 0.82170087099075317
0.8710816502571106 0.8710816502571106 0.8710816502571106
0.90454339981079102 0.90454339981079102 0.90454339981079102
0.9220011830329895 0.9220011830329895 0.9220011830329895
0.76945459842681885 0.76945459842681885 0.76945459842681885
0.79361224174499512 0.79361224174499512 0.79361224174499512
0.81061309576034546 0.81061309576034546 0.81061309576034546
0.84333807229995728 0.84333807229995728 0.84333807229995728
0.8921741247177124 0.8921741247177124 0.8921741247177124
0.93000924587249756 0.93000924587249756 0.93000924587249756
0.93879634141921997 0.93879634141921997 0.93879634141921997
0.78929996490478516 0.78929996490478516 0.78929996490478516
0.80375558137893677 0.80375558137893677 0.80375558137893677
0.81983107328414917 0.81983107328414917 0.81983107328414917
0.85071843862533569 0.85071843862533569 0.85071843862533569
0.90521872043609619 0.90521872043609619 0.90521872043609619
0.9416046142578125 0.9416046142578125 0.9416046142578125
0.94471162557601929 0.94471162557601929 0.94471162557601929
0.77668923139572144 0.77668923139572144 0.77668923139572144
0.78409373760223389 0.78409373760223389 0.78409373760223389
0.81310731172561646 0.81310731172561646 0.81310731172561646
0.8534666895866394 0.8534666895866394 0.8534666895866394
0.9140506386756897 0.9140506386756897 0.9140506386756897
0.95049881935119629 0.95049881935119629 0.95049881935119629
0.96467989683151245 0.96467989683151245 0.96467989683151245
0.85329717397689819 0.85329717397689819 0.85329717397689819
0.85874533653259277 0.85874533653259277 0.85874533653259277
0.87571811676025391 0.87571811676025391 0.87571811676025391
0.90627622604370117 0.90627622604370117 0.90627622604370117
0.94634550809860229 0.94634550809860229 0.94634550809860229
0.96756702661514282 0.96756702661514282 0.96756702661514282
0.98179465532302856 0.98179465532302856 0.98179465532302856
0.95506393909454346 0.95506393909454346 0.95506393909454346
0.96502840518951416 0.96502840518951416 0.96502840518951416
0.97642785310745239 0.97642785310745239 0.97642785310745239
0.98902082443237305 0.98902082443237305 0.98902082443237305
0.99793821573257446 0.99793821573257446 0.99793821573257446
0.99898171424865723 0.99898171424865723 0.99898171424865723
0.9979662299156189 0.9979662299156189 0.9979662299156189
