films/fuji_800z.cube
# Created by: G'MIC (https://gmic.eu)
TITLE "fuji_800z"
# LUT size
LUT_3D_SIZE 5
# Data domain
DOMAIN_MIN 0.0 0.0 0.0
DOMAIN_MAX 1.0 1.0 1.0
# LUT data points
0.059151533991098404 0.060300491750240326 0.05031483992934227
0.27862548828125 0.045839976519346237 0.046520069241523743
0.60574346780776978 0.0018454159144312143 0.03165251761674881
0.88464534282684326 0.00048756320029497147 0.013000727631151676
0.99987614154815674 0.10514646023511887 0.0047897039912641048
0.064115621149539948 0.23052933812141418 0.081094302237033844
0.24505095183849335 0.26997202634811401 0.045034132897853851
0.59081095457077026 0.29696613550186157 0.0039458777755498886
0.85677826404571533 0.3028353750705719 0
0.99715292453765869 0.34608787298202515 0
0.087463840842247009 0.45319309830665588 0.13689936697483063
0.21230807900428772 0.44164425134658813 0.13386590778827667
0.52403491735458374 0.54870522022247314 0.052773613482713699
0.82644665241241455 0.59121131896972656 0
0.99025493860244751 0.57610201835632324 0
0.23278075456619263 0.6614498496055603 0.23398950695991516
0.29736036062240601 0.63754332065582275 0.22863936424255371
0.47436723113059998 0.66854673624038696 0.23212632536888123
0.74266290664672852 0.75362133979797363 0.23240543901920319
0.97518074512481689 0.80674576759338379 0.20951312780380249
0.56447482109069824 0.89070379734039307 0.55293923616409302
0.59343153238296509 0.88734275102615356 0.56364673376083374
0.66226154565811157 0.88725155591964722 0.58029317855834961
0.78052419424057007 0.91961580514907837 0.59508872032165527
0.93142372369766235 0.95141488313674927 0.61501437425613403
0.095494695007801056 0.078229732811450958 0.23114041984081268
0.30442893505096436 0.064581103622913361 0.24073012173175812
0.67155253887176514 0.00060698564630001783 0.26388129591941833
0.9090653657913208 0.00025275736697949469 0.26183447241783142
0.99984598159790039 0.1234772801399231 0.26614287495613098
0.083605371415615082 0.28822153806686401 0.2500578761100769
0.30962714552879333 0.29983758926391602 0.26587924361228943
0.6387830376625061 0.29511553049087524 0.25931680202484131
0.87448263168334961 0.30533063411712646 0.25693070888519287
0.99986833333969116 0.35408031940460205 0.26228028535842896
0.20965553820133209 0.53368163108825684 0.29962015151977539
0.31007695198059082 0.50214803218841553 0.29596641659736633
0.56234657764434814 0.56376564502716064 0.28384041786193848
0.82421636581420898 0.58182412385940552 0.23679134249687195
0.99227041006088257 0.57859688997268677 0.22235925495624542
0.33168312907218933 0.69363903999328613 0.35908082127571106
0.37531235814094543 0.67852389812469482 0.35022097826004028
0.4956413209438324 0.67172563076019287 0.3399994969367981
0.74935001134872437 0.75379067659378052 0.38094368577003479
0.96839761734008789 0.80393725633621216 0.38654342293739319
0.57439726591110229 0.89552217721939087 0.59656864404678345
0.59241575002670288 0.88851863145828247 0.58711802959442139
0.6648518443107605 0.88878899812698364 0.60764169692993164
0.78061521053314209 0.91737687587738037 0.62685024738311768
0.93283551931381226 0.95513975620269775 0.65305954217910767
0.18189683556556702 0.10190519690513611 0.51619738340377808
0.36298906803131104 0.10819002240896225 0.52779769897460938
0.65107160806655884 0.067672088742256165 0.56278401613235474
0.93184328079223633 0.031338918954133987 0.57233959436416626
1 0.22793865203857422 0.5555538535118103
0.13396292924880981 0.28416305780410767 0.52417665719985962
0.36518183350563049 0.30758917331695557 0.54355728626251221
0.65224117040634155 0.34445512294769287 0.5737755298614502
0.90415984392166138 0.35716816782951355 0.58253377676010132
1 0.42221292853355408 0.57750540971755981
0.20448406040668488 0.59315186738967896 0.5600048303604126
0.38877221941947937 0.59083586931228638 0.56675893068313599
0.61757433414459229 0.59585690498352051 0.58000785112380981
0.83404290676116943 0.59866976737976074 0.57588833570480347
0.99063622951507568 0.60150939226150513 0.56338262557983398
0.48525416851043701 0.77264869213104248 0.60526192188262939
0.53210031986236572 0.75673866271972656 0.59954708814620972
0.59381765127182007 0.7160220742225647 0.56296926736831665
0.76761448383331299 0.76579183340072632 0.5886957049369812
0.96805721521377563 0.79893451929092407 0.59339821338653564
0.60661453008651733 0.91786187887191772 0.68933790922164917
0.62773525714874268 0.90812468528747559 0.68320703506469727
0.68528401851654053 0.90601396560668945 0.68638598918914795
0.77500271797180176 0.91394722461700439 0.68773573637008667
0.94260978698730469 0.95938915014266968 0.72735309600830078
0.35920301079750061 0.15559516847133636 0.76035517454147339
0.47726422548294067 0.16938701272010803 0.76447176933288574
0.6800609827041626 0.22211672365665436 0.77583402395248413
0.87485671043395996 0.28810364007949829 0.79289436340332031
0.99918723106384277 0.34960195422172546 0.79032027721405029
0.35781416296958923 0.32977619767189026 0.75941276550292969
0.47971957921981812 0.34031355381011963 0.76633673906326294
0.67102289199829102 0.38846495747566223 0.77579152584075928
0.85849881172180176 0.44957587122917175 0.78986728191375732
0.99871516227722168 0.49399131536483765 0.79761660099029541
0.24428792297840118 0.53027647733688354 0.747935950756073
0.38505595922470093 0.53833520412445068 0.74770915508270264
0.63579642772674561 0.58606016635894775 0.76430714130401611
0.83801865577697754 0.64242357015609741 0.79073202610015869
0.99811643362045288 0.67002421617507935 0.80617409944534302
0.47571447491645813 0.79151344299316406 0.7799716591835022
0.53119117021560669 0.78969341516494751 0.77898585796356201
0.66622698307037354 0.79237133264541626 0.78808391094207764
0.80479180812835693 0.79470640420913696 0.79063862562179565
0.97296953201293945 0.80358231067657471 0.78754401206970215
0.67411339282989502 0.95160973072052002 0.82271909713745117
0.70451909303665161 0.95234662294387817 0.82505089044570923
0.75217950344085693 0.94575470685958862 0.81931895017623901
0.79835671186447144 0.92710912227630615 0.80019986629486084
0.94408464431762695 0.95734983682632446 0.8253137469291687
0.60602235794067383 0.39170250296592712 0.94638007879257202
0.65635263919830322 0.40588223934173584 0.94382143020629883
0.76742362976074219 0.44747179746627808 0.94231867790222168
0.89598214626312256 0.53042471408843994 0.9404301643371582
0.99669694900512695 0.5698133111000061 0.94611930847167969
0.60194742679595947 0.48676037788391113 0.93988579511642456
0.65416282415390015 0.49981287121772766 0.94033330678939819
0.76120948791503906 0.53262615203857422 0.94000530242919922
0.88901537656784058 0.59766358137130737 0.93697673082351685
0.99855333566665649 0.62612926959991455 0.94470560550689697
0.54232871532440186 0.6165580153465271 0.93721973896026611
0.60180121660232544 0.61845105886459351 0.9376225471496582
0.73928701877593994 0.65048712491989136 0.93762898445129395
0.87433135509490967 0.69224447011947632 0.93823862075805664
0.99273169040679932 0.72497904300689697 0.94408571720123291
0.50091040134429932 0.77733057737350464 0.93337035179138184
0.54198527336120605 0.77510398626327515 0.9349021315574646
0.650493323802948 0.771797776222229 0.93465614318847656
0.82144886255264282 0.7934269905090332 0.93735545873641968
0.97775661945343018 0.84931021928787231 0.94794756174087524
0.660411536693573 0.96661782264709473 0.94685405492782593
0.68936729431152344 0.97061252593994141 0.9521934986114502
0.75315564870834351 0.96542632579803467 0.94901597499847412
0.84906560182571411 0.96699321269989014 0.95227265357971191
0.96947324275970459 0.97036075592041016 0.95569789409637451
