films/fuji_800z.cube
# Created by: G'MIC (https://gmic.eu)
TITLE "fuji_800z"
# LUT size
LUT_3D_SIZE 13
# Data domain
DOMAIN_MIN 0.0 0.0 0.0
DOMAIN_MAX 1.0 1.0 1.0
# LUT data points
0.059151533991098404 0.060300491750240326 0.05031483992934227
0.11036131531000137 0.06188017874956131 0.048044182360172272
0.18582090735435486 0.058842930942773819 0.047016561031341553
0.27862548828125 0.045839976519346237 0.046520069241523743
0.38314208388328552 0.021112734451889992 0.043708816170692444
0.4936157763004303 0.0036464466247707605 0.039454709738492966
0.60574346780776978 0.0018454159144312143 0.03165251761674881
0.71436846256256104 0.0018266565166413784 0.020295370370149612
0.809131920337677 0.0020193213131278753 0.012377286329865456
0.88464534282684326 0.00048756320029497147 0.013000727631151676
0.94916033744812012 0.0072387396357953548 0.010106689296662807
0.99146926403045654 0.044727519154548645 0.0039671505801379681
0.99987614154815674 0.10514646023511887 0.0047897039912641048
0.061865232884883881 0.10444370657205582 0.05595729872584343
0.10608571022748947 0.11296290904283524 0.052383214235305786
0.17673121392726898 0.11814015358686447 0.047962803393602371
0.26821449398994446 0.11427552253007889 0.044063195586204529
0.37406796216964722 0.095950841903686523 0.038637679070234299
0.48745152354240417 0.071980632841587067 0.032285638153553009
0.60326063632965088 0.061745453625917435 0.023685574531555176
0.71323317289352417 0.049689020961523056 0.015455357730388641
0.80658668279647827 0.048256009817123413 0.010282299481332302
0.88296186923980713 0.048717543482780457 0.0079931076616048813
0.94910109043121338 0.075096681714057922 0.0063431533053517342
0.99347579479217529 0.12754599750041962 0.0032861896324902773
1 0.17940090596675873 0.00046208698768168688
0.064549721777439117 0.16179263591766357 0.067099764943122864
0.1013251394033432 0.1652287095785141 0.065692931413650513
0.16361966729164124 0.17934733629226685 0.056606650352478027
0.2584024965763092 0.19369351863861084 0.040227524936199188
0.37024068832397461 0.19367595016956329 0.025919506326317787
0.48412415385246277 0.18565934896469116 0.019446669146418571
0.59772467613220215 0.1805286705493927 0.011274853721261024
0.70362067222595215 0.1737857311964035 0.0033245759550482035
0.79602867364883423 0.17456546425819397 0.002479747636243701
0.87210994958877563 0.17936751246452332 0.00073833094211295247
0.93650615215301514 0.19730374217033386 0.00019058526959270239
0.98338669538497925 0.22736519575119019 0.00027788948500528932
0.99952751398086548 0.2614046037197113 4.6673944780195598e-06
0.064115621149539948 0.23052933812141418 0.081094302237033844
0.097591131925582886 0.22547222673892975 0.081960372626781464
0.15222899615764618 0.2381427139043808 0.073220334947109222
0.24505095183849335 0.26997202634811401 0.045034132897853851
0.36526495218276978 0.2949974536895752 0.015205308794975281
0.48298338055610657 0.30046319961547852 0.0072335787117481232
0.59081095457077026 0.29696613550186157 0.0039458777755498886
0.68982458114624023 0.29601243138313293 0.0008148043998517096
0.78020220994949341 0.30087167024612427 0.00020967371528968215
0.85677826404571533 0.3028353750705719 0
0.92104107141494751 0.31020632386207581 0
0.96975237131118774 0.32534131407737732 0
0.99715292453765869 0.34608787298202515 0
0.065014258027076721 0.30693450570106506 0.09606577455997467
0.096845932304859161 0.29808840155601501 0.096618056297302246
0.14815071225166321 0.30256962776184082 0.091966710984706879
0.22638815641403198 0.32939967513084412 0.070753268897533417
0.34002229571342468 0.36873850226402283 0.036296319216489792
0.47334980964660645 0.4025593101978302 0.0092226061969995499
0.5870252251625061 0.41027286648750305 0.00031062107882462442
0.68078881502151489 0.40493026375770569 4.2365580156911165e-05
0.76540780067443848 0.40218296647071838 0
0.84099119901657104 0.40169522166252136 0
0.90599864721298218 0.40434390306472778 0
0.9589076042175293 0.41360443830490112 0
0.99447351694107056 0.42748761177062988 0
0.07399342954158783 0.38150161504745483 0.11502569168806076
0.1014498844742775 0.37395235896110535 0.11308128386735916
0.1469821035861969 0.37184962630271912 0.11329930275678635
0.21320931613445282 0.38539445400238037 0.10610620677471161
0.31066006422042847 0.42047896981239319 0.078546397387981415
0.43545621633529663 0.46390166878700256 0.035482339560985565
0.56658327579498291 0.49883675575256348 0.0036739574279636145
0.67915934324264526 0.51369839906692505 8.7962434918154031e-06
0.76234710216522217 0.50732439756393433 0
0.8306725025177002 0.4960726797580719 0
0.89377129077911377 0.49114164710044861 0
0.95065438747406006 0.49381035566329956 0
0.99253922700881958 0.50194299221038818 0
0.087463840842247009 0.45319309830665588 0.13689936697483063
0.11212550103664398 0.44655942916870117 0.13299006223678589
0.15534625947475433 0.43988463282585144 0.1343345046043396
0.21230807900428772 0.44164425134658813 0.13386590778827667
0.29123938083648682 0.46518069505691528 0.11952009052038193
0.39462831616401672 0.50267225503921509 0.090789034962654114
0.52403491735458374 0.54870522022247314 0.052773613482713699
0.65632504224777222 0.58906668424606323 0.019991647452116013
0.75409567356109619 0.59865754842758179 0.0013891481794416904
0.82644665241241455 0.59121131896972656 0
0.88743871450424194 0.58100706338882446 0
0.94357341527938843 0.57409489154815674 0
0.99025493860244751 0.57610201835632324 0
0.11551397293806076 0.52305048704147339 0.16174976527690887
0.13624207675457001 0.51543331146240234 0.15661872923374176
0.17556697130203247 0.50562441349029541 0.15712419152259827
0.22382725775241852 0.49911031126976013 0.16010752320289612
0.28830140829086304 0.51452374458312988 0.15705904364585876
0.37578865885734558 0.54543334245681763 0.14545747637748718
0.48423433303833008 0.58171355724334717 0.12504753470420837
0.60339730978012085 0.6200566291809082 0.094616681337356567
0.71798449754714966 0.65238386392593384 0.050726257264614105
0.81088680028915405 0.6684880256652832 0.020274396985769272
0.88008219003677368 0.66729193925857544 0.010588358156383038
0.93574076890945435 0.65754127502441406 0.0040484410710632801
0.98677748441696167 0.653705894947052 0.0012587752426043153
0.16560979187488556 0.59170609712600708 0.19110436737537384
0.18088552355766296 0.58417618274688721 0.18549326062202454
0.21078233420848846 0.57364630699157715 0.18518546223640442
0.25004115700721741 0.56548458337783813 0.18725262582302094
0.30309131741523743 0.57121455669403076 0.18756730854511261
0.37852033972740173 0.5935247540473938 0.18419940769672394
0.46887949109077454 0.62187623977661133 0.17955158650875092
0.56846803426742554 0.65213435888290405 0.17095115780830383
0.67338895797729492 0.6850929856300354 0.15578942000865936
0.776539146900177 0.71736103296279907 0.12416869401931763
0.86125797033309937 0.73489230871200562 0.10862142592668533
0.92733681201934814 0.73686933517456055 0.091196514666080475
0.98328042030334473 0.7322007417678833 0.061106737703084946
0.23278075456619263 0.6614498496055603 0.23398950695991516
0.24487151205539703 0.65483301877975464 0.22909781336784363
0.2672828733921051 0.64641028642654419 0.2283412367105484
0.29736036062240601 0.63754332065582275 0.22863936424255371
0.33734568953514099 0.63337862491607666 0.22909285128116608
0.39746463298797607 0.64539110660552979 0.22838327288627625
0.47436723113059998 0.66854673624038696 0.23212632536888123
0.56066179275512695 0.69477516412734985 0.23666240274906158
0.65115773677825928 0.72373116016387939 0.23622883856296539
0.74266290664672852 0.75362133979797363 0.23240543901920319
0.82986366748809814 0.78037798404693604 0.2343742847442627
0.91083288192749023 0.80168074369430542 0.23120883107185364
0.97518074512481689 0.80674576759338379 0.20951312780380249
0.32479548454284668 0.73397266864776611 0.30835402011871338
0.33143022656440735 0.7287752628326416 0.30164036154747009
0.34923595190048218 0.72371828556060791 0.30240121483802795
0.37398490309715271 0.71647751331329346 0.30487421154975891
0.40278223156929016 0.70827251672744751 0.3043915331363678
0.44314670562744141 0.71020406484603882 0.29959741234779358
0.50428813695907593 0.72635114192962646 0.30670157074928284
0.57787984609603882 0.74932968616485596 0.31842929124832153
0.65239810943603516 0.77298253774642944 0.32239577174186707
0.72974848747253418 0.79762965440750122 0.33317571878433228
0.80923914909362793 0.8237919807434082 0.34624746441841125
0.89099615812301636 0.85098409652709961 0.35455188155174255
0.95894539356231689 0.86492365598678589 0.35408118367195129
0.44183632731437683 0.81162494421005249 0.42153757810592651
0.44096848368644714 0.80742335319519043 0.41073387861251831
0.45600730180740356 0.80534547567367554 0.41595727205276489
0.4792485237121582 0.80186933279037476 0.42569190263748169
0.49983868002891541 0.7949104905128479 0.42477902770042419
0.52411013841629028 0.79152029752731323 0.41675928235054016
0.56901043653488159 0.80135583877563477 0.42517971992492676
0.62711793184280396 0.81911993026733398 0.44119971990585327
0.68421816825866699 0.83679741621017456 0.44577568769454956
0.74513578414916992 0.85536366701126099 0.45660591125488281
0.80933725833892822 0.87520372867584229 0.47038519382476807
0.87633448839187622 0.89478027820587158 0.4816163182258606
0.93896996974945068 0.90829122066497803 0.48913940787315369
0.56447482109069824 0.89070379734039307 0.55293923616409302
0.56114810705184937 0.8870081901550293 0.5422818660736084
0.57195085287094116 0.88672679662704468 0.5482860803604126
0.59343153238296509 0.88734275102615356 0.56364673376083374
0.60947287082672119 0.88307344913482666 0.56704056262969971
0.63192653656005859 0.88207286596298218 0.57236254215240479
0.66226154565811157 0.88725155591964722 0.58029317855834961
0.69760900735855103 0.89681363105773926 0.5881572961807251
0.73719918727874756 0.90767323970794678 0.59114623069763184
0.78052419424057007 0.91961580514907837 0.59508872032165527
0.82802587747573853 0.93194365501403809 0.60482692718505859
0.87922388315200806 0.94265270233154297 0.61105960607528687
0.93142372369766235 0.95141488313674927 0.61501437425613403
0.069253824651241302 0.066728793084621429 0.090698137879371643
0.117837093770504 0.066870734095573425 0.092239454388618469
0.19416099786758423 0.060858782380819321 0.094243086874485016
0.28991276025772095 0.045234695076942444 0.093668587505817413
0.39838492870330811 0.021628016605973244 0.093287691473960876
0.50890421867370605 0.0071873981505632401 0.094100490212440491
0.61779886484146118 0.003596077673137188 0.091843672096729279
0.72264456748962402 0.0019619511440396309 0.084815070033073425
0.81512504816055298 0.0015935561386868358 0.075979076325893402
0.88908004760742188 0.0032808191608637571 0.0712708979845047
0.9532892107963562 0.0077955657616257668 0.064301371574401855
0.99471306800842285 0.036674767732620239 0.052644260227680206
1 0.10278884321451187 0.053812272846698761
0.070534631609916687 0.11590320616960526 0.095704019069671631
0.11698108911514282 0.11948124319314957 0.09638620913028717
0.19063860177993774 0.12022552639245987 0.096822910010814667
0.28321725130081177 0.11298271268606186 0.094135209918022156
0.38873332738876343 0.098092369735240936 0.092203609645366669
0.50020885467529297 0.078518599271774292 0.089815996587276459
0.61390024423599243 0.059337031096220016 0.084213107824325562
0.72134369611740112 0.04491749033331871 0.077491641044616699
0.81161022186279297 0.048341143876314163 0.067194543778896332
0.88625437021255493 0.058794371783733368 0.060563404113054276
0.94952553510665894 0.077924959361553192 0.057094991207122803
0.99023497104644775 0.12151520699262619 0.051042400300502777
0.99974560737609863 0.17901292443275452 0.046947479248046875
0.078568749129772186 0.17854909598827362 0.10179443657398224
0.11790729314088821 0.17922569811344147 0.10475467145442963
0.18323613703250885 0.18910312652587891 0.10179179906845093
0.27512100338935852 0.19681021571159363 0.092685982584953308
0.38279855251312256 0.19753009080886841 0.083956986665725708
0.49416744709014893 0.18758381903171539 0.077695764601230621
0.60695910453796387 0.17462152242660522 0.065661877393722534
0.71132105588912964 0.16960202157497406 0.053911726921796799
0.80052429437637329 0.17473016679286957 0.046871963888406754
0.87492519617080688 0.18542614579200745 0.040153354406356812
0.93908596038818359 0.20427791774272919 0.03743763267993927
0.9851723313331604 0.22841514647006989 0.039634570479393005
0.99935930967330933 0.26167654991149902 0.036450702697038651
0.087122179567813873 0.24775038659572601 0.11525800824165344
0.12095704674720764 0.24475064873695374 0.11865087598562241
0.17667795717716217 0.25204223394393921 0.11560314148664474
0.26343828439712524 0.27587500214576721 0.0977158322930336
0.37699398398399353 0.29663947224617004 0.076504483819007874
0.4911840558052063 0.29898425936698914 0.063182532787322998
0.59924966096878052 0.2967502772808075 0.048347458243370056
0.6973729133605957 0.29640316963195801 0.039012383669614792
0.78482288122177124 0.29833361506462097 0.02949167974293232
0.86050659418106079 0.30439525842666626 0.023185640573501587
0.92630457878112793 0.31607642769813538 0.024262536317110062
0.97530871629714966 0.32916206121444702 0.023634279146790504
0.99820494651794434 0.34799474477767944 0.028644038364291191
0.09672052413225174 0.32370445132255554 0.13160412013530731
0.12539879977703094 0.31785887479782104 0.13319100439548492
0.17071367800235748 0.31560951471328735 0.13245999813079834
0.2447480708360672 0.33605849742889404 0.11967196315526962
0.35083198547363281 0.37152284383773804 0.097547389566898346
0.47684621810913086 0.39980664849281311 0.066045455634593964
0.59484773874282837 0.41095808148384094 0.036158379167318344
0.68741410970687866 0.40618070960044861 0.029822122305631638
0.76998895406723022 0.40224471688270569 0.01941211149096489
0.84564775228500366 0.4040185809135437 0.011459185741841793
0.91231918334960938 0.40961220860481262 0.0091682737693190575
0.96458631753921509 0.41820406913757324 0.0083330338820815086
0.99592757225036621 0.43122738599777222 0.011564605869352818
0.10754183679819107 0.39967083930969238 0.14976511895656586
0.1342083066701889 0.39313557744026184 0.14867371320724487
0.17275208234786987 0.38604387640953064 0.15000388026237488
0.23167447745800018 0.39339438080787659 0.14603510499000549
0.32127687335014343 0.42363274097442627 0.13115903735160828
0.44511276483535767 0.46702858805656433 0.095550104975700378
0.57856130599975586 0.50469875335693359 0.046632908284664154
0.68339121341705322 0.51505476236343384 0.026280317455530167
0.76448124647140503 0.50780349969863892 0.017975602298974991
0.83389061689376831 0.49948194622993469 0.007767366711050272
0.89782702922821045 0.49523678421974182 0.0058161118067800999
0.95459043979644775 0.49695107340812683 0.0062291012145578861
0.99436783790588379 0.50468116998672485 0.0068045672960579395
0.12224317342042923 0.46976122260093689 0.16846930980682373
0.14749281108379364 0.4636932909488678 0.16657878458499908
0.1832771897315979 0.45483654737472534 0.16778780519962311
0.23054929077625275 0.45029476284980774 0.16798165440559387
0.30349048972129822 0.46845594048500061 0.16101990640163422
0.4056704044342041 0.5058894157409668 0.14569026231765747
0.53105384111404419 0.55130797624588013 0.10978948324918747
0.65349024534225464 0.58590352535247803 0.069552190601825714
0.75233989953994751 0.5976218581199646 0.035330425947904587
0.82481437921524048 0.59123879671096802 0.014094768092036247
0.88646203279495239 0.58147132396697998 0.0093539068475365639
0.9439239501953125 0.57629960775375366 0.0067825019359588623
0.99115204811096191 0.57759660482406616 0.0047292523086071014
0.14775411784648895 0.53690725564956665 0.19164839386940002
0.16902056336402893 0.53070682287216187 0.18790808320045471
0.20190753042697906 0.52032113075256348 0.18790708482265472
0.24145565927028656 0.51000785827636719 0.18940988183021545
0.30051735043525696 0.51895701885223389 0.18798911571502686
0.38590481877326965 0.54786896705627441 0.18300148844718933
0.48997640609741211 0.58310955762863159 0.1706884354352951
0.60464411973953247 0.61979693174362183 0.14466787874698639
0.71769434213638306 0.65197479724884033 0.10395008325576782
0.80862832069396973 0.66642773151397705 0.076379336416721344
0.87843722105026245 0.66610109806060791 0.057913806289434433
0.93426740169525146 0.65670597553253174 0.035687226802110672
0.98687648773193359 0.65316939353942871 0.03510550782084465
0.18985059857368469 0.60301065444946289 0.22014380991458893
0.20479564368724823 0.59632617235183716 0.21596170961856842
0.23145504295825958 0.58531385660171509 0.2146700918674469
0.26541244983673096 0.57499200105667114 0.21391639113426208
0.31448113918304443 0.57716256380081177 0.21284180879592896
0.38742023706436157 0.59758877754211426 0.21148805320262909
0.47502273321151733 0.62504881620407104 0.21173509955406189
0.5720515251159668 0.65426170825958252 0.20839157700538635
0.67550414800643921 0.68606913089752197 0.19896313548088074
0.78014981746673584 0.7196081280708313 0.18502971529960632
0.86794227361679077 0.73968386650085449 0.17152969539165497
0.92948001623153687 0.73765313625335693 0.14448381960391998
0.983112633228302 0.73081821203231812 0.12790273129940033
0.25061681866645813 0.668498694896698 0.25968030095100403
0.2621878981590271 0.66287636756896973 0.255849689245224
0.28250628709793091 0.65413063764572144 0.25489646196365356
0.30910676717758179 0.64384227991104126 0.25296053290367126
0.34627833962440491 0.63855957984924316 0.24980364739894867
0.4032931923866272 0.64813858270645142 0.24908620119094849
0.47767329216003418 0.66984522342681885 0.25617274641990662
0.56090313196182251 0.69516962766647339 0.26355764269828796
0.6515159010887146 0.72454732656478882 0.26839393377304077
0.74776381254196167 0.75835537910461426 0.27355000376701355
0.83811110258102417 0.7876238226890564 0.27708891034126282
0.91216957569122314 0.80250000953674316 0.26841852068901062
0.97231912612915039 0.80449694395065308 0.25490328669548035
0.33434101939201355 0.73620444536209106 0.32380208373069763
0.34414440393447876 0.73340463638305664 0.32279440760612488
0.35977858304977417 0.72778576612472534 0.32448387145996094
0.38037082552909851 0.71888440847396851 0.32445406913757324
0.40665626525878906 0.70960080623626709 0.32063791155815125
0.44730469584465027 0.71068102121353149 0.31899073719978333
0.50770890712738037 0.72682082653045654 0.32795095443725586
0.57688868045806885 0.74806088209152222 0.33603554964065552
0.65058410167694092 0.77189028263092041 0.34079635143280029
0.73044890165328979 0.79884737730026245 0.35407254099845886
0.81014692783355713 0.82512557506561279 0.3653261661529541
0.88623619079589844 0.84835231304168701 0.37332683801651001
0.95289963483810425 0.86074751615524292 0.37915709614753723
0.44134780764579773 0.80971831083297729 0.42373335361480713
0.45043984055519104 0.80997288227081299 0.4268287718296051
0.46217131614685059 0.80722963809967041 0.43087148666381836
0.47876408696174622 0.80157119035720825 0.43470919132232666
0.49987524747848511 0.79487955570220947 0.43520832061767578
0.53010380268096924 0.79355162382125854 0.43642053008079529
0.57452952861785889 0.80263745784759521 0.44474205374717712
0.62682807445526123 0.81800925731658936 0.45145642757415771
0.68204230070114136 0.83513402938842773 0.45484763383865356
0.74327826499938965 0.85426616668701172 0.46588981151580811
0.80454850196838379 0.87118124961853027 0.47162383794784546
0.86962336301803589 0.88958644866943359 0.48313418030738831
0.93453454971313477 0.90614902973175049 0.50037389993667603
0.55698698759078979 0.88778221607208252 0.54991680383682251
0.56464236974716187 0.88848066329956055 0.5520024299621582
0.57312893867492676 0.88690537214279175 0.55618447065353394
0.58715540170669556 0.88556540012359619 0.56327372789382935
0.60488015413284302 0.88187170028686523 0.56937861442565918
0.62980562448501587 0.88173741102218628 0.57714617252349854
0.66269391775131226 0.88738089799880981 0.58751767873764038
0.69749271869659424 0.8961174488067627 0.59260046482086182
0.73642623424530029 0.90748578310012817 0.5961921215057373
0.78020715713500977 0.91995137929916382 0.60232937335968018
0.82523763179779053 0.92978143692016602 0.60421764850616455
0.87567472457885742 0.94059330224990845 0.6098751425743103
0.93043714761734009 0.95182287693023682 0.61798214912414551
0.082999162375926971 0.073619410395622253 0.15268902480602264
0.12784527242183685 0.07576298713684082 0.15382480621337891
0.19911979138851166 0.072391241788864136 0.15632995963096619
0.29864022135734558 0.051272928714752197 0.15770773589611053
0.41384664177894592 0.020547904074192047 0.16026464104652405
0.53000408411026001 0.0039098551496863365 0.16724270582199097
0.64150500297546387 0.0017942092381417751 0.1716047078371048
0.7418016791343689 0.00056833005510270596 0.17049755156040192
0.82730305194854736 1.4361213516167481e-06 0.16643194854259491
0.89607745409011841 0.00066293455893173814 0.1608908623456955
0.95263832807540894 0.0078228823840618134 0.15672247111797333
0.989532470703125 0.043926090002059937 0.15305124223232269
1 0.10681986808776855 0.15688461065292358
0.082824617624282837 0.12040453404188156 0.15742704272270203
0.12920863926410675 0.12319082766771317 0.15953327715396881
0.20262378454208374 0.12561599910259247 0.16145841777324677
0.29619020223617554 0.11672405153512955 0.16178274154663086
0.40640118718147278 0.095044076442718506 0.1634824275970459
0.52482563257217407 0.06531912088394165 0.16733860969543457
0.63590735197067261 0.049619339406490326 0.16904142498970032
0.73741370439529419 0.038308430463075638 0.16764296591281891
0.82028084993362427 0.026721954345703125 0.16315570473670959
0.89104878902435303 0.046704474836587906 0.15743951499462128
0.95137977600097656 0.077244944870471954 0.15593132376670837
0.99065721035003662 0.1238182932138443 0.15426395833492279
0.99999535083770752 0.18099536001682281 0.15756091475486755
0.083544395864009857 0.18908892571926117 0.16194944083690643
0.12995997071266174 0.19154193997383118 0.16586536169052124
0.20290951430797577 0.19827936589717865 0.16855959594249725
0.29424574971199036 0.20012585818767548 0.16602723300457001
0.403097003698349 0.19647029042243958 0.16403394937515259
0.51835602521896362 0.18047992885112762 0.16194792091846466
0.62693411111831665 0.16596598923206329 0.15776322782039642
0.72489047050476074 0.16074621677398682 0.15467043220996857
0.80812859535217285 0.1557900458574295 0.14988173544406891
0.88066321611404419 0.17503969371318817 0.14676405489444733
0.94618105888366699 0.20165741443634033 0.14782881736755371
0.99227935075759888 0.230324387550354 0.14890047907829285
1 0.26492345333099365 0.1513979434967041
0.092296585440635681 0.27229273319244385 0.17232836782932281
0.14040164649486542 0.27234402298927307 0.1760733425617218
0.20633745193481445 0.2726057767868042 0.18018315732479095
0.28669536113739014 0.28659337759017944 0.17469482123851776
0.39674034714698792 0.3013724684715271 0.16569888591766357
0.50993192195892334 0.2989666759967804 0.15568521618843079
0.61310076713562012 0.29036584496498108 0.14517596364021301
0.70897805690765381 0.29147088527679443 0.14134129881858826
0.79269611835479736 0.29191949963569641 0.13369458913803101
0.86592113971710205 0.30032044649124146 0.13205032050609589
0.93236237764358521 0.31467664241790771 0.13350503146648407
0.98111319541931152 0.32889536023139954 0.13222852349281311
0.9991152286529541 0.34747681021690369 0.14009296894073486
0.11514448374509811 0.35632938146591187 0.18864567577838898
0.15448614954948425 0.35103118419647217 0.19127753376960754
0.2039932906627655 0.34183871746063232 0.19423311948776245
0.27195847034454346 0.3484376072883606 0.18996690213680267
0.37299448251724243 0.37954196333885193 0.1799420565366745
0.49070233106613159 0.40193560719490051 0.16168183088302612
0.60001939535140991 0.40406453609466553 0.14048272371292114
0.69244289398193359 0.40011918544769287 0.12761157751083374
0.77547234296798706 0.40009921789169312 0.1159236952662468
0.84926348924636841 0.40180683135986328 0.10997822880744934
0.9162898063659668 0.40817081928253174 0.10774338990449905
