films/fuji_fp-3000b.cube
# Created by: G'MIC (https://gmic.eu)
TITLE "fuji_fp-3000b"
# LUT size
LUT_3D_SIZE 13
# Data domain
DOMAIN_MIN 0.0 0.0 0.0
DOMAIN_MAX 1.0 1.0 1.0
# LUT data points
0.083674952387809753 0.083674952387809753 0.083674952387809753
0.094700969755649567 0.094700969755649567 0.094700969755649567
0.11675784736871719 0.11675784736871719 0.11675784736871719
0.14590039849281311 0.14590039849281311 0.14590039849281311
0.17760588228702545 0.17760588228702545 0.17760588228702545
0.21316678822040558 0.21316678822040558 0.21316678822040558
0.25835064053535461 0.25835064053535461 0.25835064053535461
0.31520360708236694 0.31520360708236694 0.31520360708236694
0.37794008851051331 0.37794008851051331 0.37794008851051331
0.44346019625663757 0.44346019625663757 0.44346019625663757
0.51178842782974243 0.51178842782974243 0.51178842782974243
0.58174818754196167 0.58174818754196167 0.58174818754196167
0.64758342504501343 0.64758342504501343 0.64758342504501343
0.091170892119407654 0.091170892119407654 0.091170892119407654
0.10033150762319565 0.10033150762319565 0.10033150762319565
0.12579277157783508 0.12579277157783508 0.12579277157783508
0.15978631377220154 0.15978631377220154 0.15978631377220154
0.1942058801651001 0.1942058801651001 0.1942058801651001
0.22719933092594147 0.22719933092594147 0.22719933092594147
0.27213600277900696 0.27213600277900696 0.27213600277900696
0.33004909753799438 0.33004909753799438 0.33004909753799438
0.39123910665512085 0.39123910665512085 0.39123910665512085
0.45482093095779419 0.45482093095779419 0.45482093095779419
0.52104228734970093 0.52104228734970093 0.52104228734970093
0.58853006362915039 0.58853006362915039 0.58853006362915039
0.65221810340881348 0.65221810340881348 0.65221810340881348
0.10857406258583069 0.10857406258583069 0.10857406258583069
0.11466275155544281 0.11466275155544281 0.11466275155544281
0.14457784593105316 0.14457784593105316 0.14457784593105316
0.18900975584983826 0.18900975584983826 0.18900975584983826
0.23055067658424377 0.23055067658424377 0.23055067658424377
0.26486608386039734 0.26486608386039734 0.26486608386039734
0.30881088972091675 0.30881088972091675 0.30881088972091675
0.36215630173683167 0.36215630173683167 0.36215630173683167
0.41779085993766785 0.41779085993766785 0.41779085993766785
0.47528928518295288 0.47528928518295288 0.47528928518295288
0.53736549615859985 0.53736549615859985 0.53736549615859985
0.60156738758087158 0.60156738758087158 0.60156738758087158
0.66243839263916016 0.66243839263916016 0.66243839263916016
0.13685199618339539 0.13685199618339539 0.13685199618339539
0.13798220455646515 0.13798220455646515 0.13798220455646515
0.17037749290466309 0.17037749290466309 0.17037749290466309
0.22327993810176849 0.22327993810176849 0.22327993810176849
0.2752741277217865 0.2752741277217865 0.2752741277217865
0.32050159573554993 0.32050159573554993 0.32050159573554993
0.36574575304985046 0.36574575304985046 0.36574575304985046
0.41108003258705139 0.41108003258705139 0.41108003258705139
0.45808061957359314 0.45808061957359314 0.45808061957359314
0.5074959397315979 0.5074959397315979 0.5074959397315979
0.56411159038543701 0.56411159038543701 0.56411159038543701
0.6243707537651062 0.6243707537651062 0.6243707537651062
0.68129491806030273 0.68129491806030273 0.68129491806030273
0.18094006180763245 0.18094006180763245 0.18094006180763245
0.18179701268672943 0.18179701268672943 0.18179701268672943
0.20766621828079224 0.20766621828079224 0.20766621828079224
0.25411868095397949 0.25411868095397949 0.25411868095397949
0.31164619326591492 0.31164619326591492 0.31164619326591492
0.37311461567878723 0.37311461567878723 0.37311461567878723
0.42416688799858093 0.42416688799858093 0.42416688799858093
0.46536308526992798 0.46536308526992798 0.46536308526992798
0.50875502824783325 0.50875502824783325 0.50875502824783325
0.55483192205429077 0.55483192205429077 0.55483192205429077
0.60539853572845459 0.60539853572845459 0.60539853572845459
0.65800738334655762 0.65800738334655762 0.65800738334655762
0.70865195989608765 0.70865195989608765 0.70865195989608765
0.23437425494194031 0.23437425494194031 0.23437425494194031
0.23419217765331268 0.23419217765331268 0.23419217765331268
0.25078219175338745 0.25078219175338745 0.25078219175338745
0.2862643301486969 0.2862643301486969 0.2862643301486969
0.33960559964179993 0.33960559964179993 0.33960559964179993
0.40412476658821106 0.40412476658821106 0.40412476658821106
0.46252849698066711 0.46252849698066711 0.46252849698066711
0.51218491792678833 0.51218491792678833 0.51218491792678833
0.56094598770141602 0.56094598770141602 0.56094598770141602
0.6086498498916626 0.6086498498916626 0.6086498498916626
0.65471380949020386 0.65471380949020386 0.65471380949020386
0.699226975440979 0.699226975440979 0.699226975440979
0.74193805456161499 0.74193805456161499 0.74193805456161499
0.29237270355224609 0.29237270355224609 0.29237270355224609
0.28885060548782349 0.28885060548782349 0.28885060548782349
0.29597318172454834 0.29597318172454834 0.29597318172454834
0.31889265775680542 0.31889265775680542 0.31889265775680542
0.36112061142921448 0.36112061142921448 0.36112061142921448
0.42018309235572815 0.42018309235572815 0.42018309235572815
0.48484316468238831 0.48484316468238831 0.48484316468238831
0.54851508140563965 0.54851508140563965 0.54851508140563965
0.60911577939987183 0.60911577939987183 0.60911577939987183
0.6622161865234375 0.6622161865234375 0.6622161865234375
0.70485705137252808 0.70485705137252808 0.70485705137252808
0.7421225905418396 0.7421225905418396 0.7421225905418396
0.77779245376586914 0.77779245376586914 0.77779245376586914
0.35470166802406311 0.35470166802406311 0.35470166802406311
0.34635528922080994 0.34635528922080994 0.34635528922080994
0.34464350342750549 0.34464350342750549 0.34464350342750549
0.35359227657318115 0.35359227657318115 0.35359227657318115
0.38229185342788696 0.38229185342788696 0.38229185342788696
0.43467029929161072 0.43467029929161072 0.43467029929161072
0.5039445161819458 0.5039445161819458 0.5039445161819458
0.57835996150970459 0.57835996150970459 0.57835996150970459
0.65067458152770996 0.65067458152770996 0.65067458152770996
0.71179497241973877 0.71179497241973877 0.71179497241973877
0.75079381465911865 0.75079381465911865 0.75079381465911865
0.78203493356704712 0.78203493356704712 0.78203493356704712
0.81223100423812866 0.81223100423812866 0.81223100423812866
0.42271524667739868 0.42271524667739868 0.42271524667739868
0.41123634576797485 0.41123634576797485 0.41123634576797485
0.40189599990844727 0.40189599990844727 0.40189599990844727
0.39787560701370239 0.39787560701370239 0.39787560701370239
0.41027095913887024 0.41027095913887024 0.41027095913887024
0.45689404010772705 0.45689404010772705 0.45689404010772705
0.52855211496353149 0.52855211496353149 0.52855211496353149
0.60672026872634888 0.60672026872634888 0.60672026872634888
0.68184351921081543 0.68184351921081543 0.68184351921081543
0.74425005912780762 0.74425005912780762 0.74425005912780762
0.78465944528579712 0.78465944528579712 0.78465944528579712
0.81498169898986816 0.81498169898986816 0.81498169898986816
0.84300017356872559 0.84300017356872559 0.84300017356872559
0.50106346607208252 0.50106346607208252 0.50106346607208252
0.48878651857376099 0.48878651857376099 0.48878651857376099
0.47553166747093201 0.47553166747093201 0.47553166747093201
0.46318227052688599 0.46318227052688599 0.46318227052688599
0.46257084608078003 0.46257084608078003 0.46257084608078003
0.50232136249542236 0.50232136249542236 0.50232136249542236
0.56935226917266846 0.56935226917266846 0.56935226917266846
0.64152020215988159 0.64152020215988159 0.64152020215988159
0.7099844217300415 0.7099844217300415 0.7099844217300415
0.76736390590667725 0.76736390590667725 0.76736390590667725
0.8100702166557312 0.8100702166557312 0.8100702166557312
0.84255677461624146 0.84255677461624146 0.84255677461624146
0.87015235424041748 0.87015235424041748 0.87015235424041748
0.59233647584915161 0.59233647584915161 0.59233647584915161
0.57998335361480713 0.57998335361480713 0.57998335361480713
0.56669241189956665 0.56669241189956665 0.56669241189956665
0.55587893724441528 0.55587893724441528 0.55587893724441528
0.55648970603942871 0.55648970603942871 0.55648970603942871
0.58285987377166748 0.58285987377166748 0.58285987377166748
0.63168370723724365 0.63168370723724365 0.63168370723724365
0.68927782773971558 0.68927782773971558 0.68927782773971558
0.74599164724349976 0.74599164724349976 0.74599164724349976
0.79590111970901489 0.79590111970901489 0.79590111970901489
0.83624058961868286 0.83624058961868286 0.83624058961868286
0.86818629503250122 0.86818629503250122 0.86818629503250122
0.89517521858215332 0.89517521858215332 0.89517521858215332
0.68944674730300903 0.68944674730300903 0.68944674730300903
0.67697781324386597 0.67697781324386597 0.67697781324386597
0.66569358110427856 0.66569358110427856 0.66569358110427856
0.66085082292556763 0.66085082292556763 0.66085082292556763
0.66422545909881592 0.66422545909881592 0.66422545909881592
0.67790049314498901 0.67790049314498901 0.67790049314498901
0.70676827430725098 0.70676827430725098 0.70676827430725098
0.74675256013870239 0.74675256013870239 0.74675256013870239
0.79055255651473999 0.79055255651473999 0.79055255651473999
0.8314673900604248 0.8314673900604248 0.8314673900604248
0.86593484878540039 0.86593484878540039 0.86593484878540039
0.89481455087661743 0.89481455087661743 0.89481455087661743
0.91993522644042969 0.91993522644042969 0.91993522644042969
0.77865338325500488 0.77865338325500488 0.77865338325500488
0.76621222496032715 0.76621222496032715 0.76621222496032715
0.75766474008560181 0.75766474008560181 0.75766474008560181
0.7581782341003418 0.7581782341003418 0.7581782341003418
0.76404255628585815 0.76404255628585815 0.76404255628585815
0.76695483922958374 0.76695483922958374 0.76695483922958374
0.78123366832733154 0.78123366832733154 0.78123366832733154
0.80719363689422607 0.80719363689422607 0.80719363689422607
0.83892291784286499 0.83892291784286499 0.83892291784286499
0.87027662992477417 0.87027662992477417 0.87027662992477417
0.89863348007202148 0.89863348007202148 0.89863348007202148
0.92310518026351929 0.92310518026351929 0.92310518026351929
0.94533240795135498 0.94533240795135498 0.94533240795135498
0.099931530654430389 0.099931530654430389 0.099931530654430389
0.10869405418634415 0.10869405418634415 0.10869405418634415
0.12902389466762543 0.12902389466762543 0.12902389466762543
0.15611857175827026 0.15611857175827026 0.15611857175827026
0.18715973198413849 0.18715973198413849 0.18715973198413849
0.22177742421627045 0.22177742421627045 0.22177742421627045
0.2659933865070343 0.2659933865070343 0.2659933865070343
0.32341289520263672 0.32341289520263672 0.32341289520263672
0.38552162051200867 0.38552162051200867 0.38552162051200867
0.44905653595924377 0.44905653595924377 0.44905653595924377
0.51492691040039062 0.51492691040039062 0.51492691040039062
0.58292579650878906 0.58292579650878906 0.58292579650878906
0.64774447679519653 0.64774447679519653 0.64774447679519653
0.10687509924173355 0.10687509924173355 0.10687509924173355
0.11502164602279663 0.11502164602279663 0.11502164602279663
0.13728909194469452 0.13728909194469452 0.13728909194469452
0.1684839278459549 0.1684839278459549 0.1684839278459549
0.20224928855895996 0.20224928855895996 0.20224928855895996
0.23771281540393829 0.23771281540393829 0.23771281540393829
0.28227484226226807 0.28227484226226807 0.28227484226226807
0.33742111921310425 0.33742111921310425 0.33742111921310425
0.39773812890052795 0.39773812890052795 0.39773812890052795
0.45995891094207764 0.45995891094207764 0.45995891094207764
0.52471709251403809 0.52471709251403809 0.52471709251403809
0.59133082628250122 0.59133082628250122 0.59133082628250122
0.65483754873275757 0.65483754873275757 0.65483754873275757
0.12677712738513947 0.12677712738513947 0.12677712738513947
0.13322059810161591 0.13322059810161591 0.13322059810161591
0.15716513991355896 0.15716513991355896 0.15716513991355896
0.19354775547981262 0.19354775547981262 0.19354775547981262
0.23303104937076569 0.23303104937076569 0.23303104937076569
0.27238404750823975 0.27238404750823975 0.27238404750823975
0.31658622622489929 0.31658622622489929 0.31658622622489929
0.36765411496162415 0.36765411496162415 0.36765411496162415
0.42297056317329407 0.42297056317329407 0.42297056317329407
0.48120942711830139 0.48120942711830139 0.48120942711830139
0.54243320226669312 0.54243320226669312 0.54243320226669312
0.60572731494903564 0.60572731494903564 0.60572731494903564
0.66681152582168579 0.66681152582168579 0.66681152582168579
0.16017569601535797 0.16017569601535797 0.16017569601535797
0.16384595632553101 0.16384595632553101 0.16384595632553101
0.18591147661209106 0.18591147661209106 0.18591147661209106
0.22469274699687958 0.22469274699687958 0.22469274699687958
0.27228692173957825 0.27228692173957825 0.27228692173957825
0.32082465291023254 0.32082465291023254 0.32082465291023254
0.36772221326828003 0.36772221326828003 0.36772221326828003
0.41412517428398132 0.41412517428398132 0.41412517428398132
0.46315652132034302 0.46315652132034302 0.46315652132034302
0.51510334014892578 0.51510334014892578 0.51510334014892578
0.5712859034538269 0.5712859034538269 0.5712859034538269
0.62970411777496338 0.62970411777496338 0.62970411777496338
0.68632686138153076 0.68632686138153076 0.68632686138153076
0.20688942074775696 0.20688942074775696 0.20688942074775696
0.20750318467617035 0.20750318467617035 0.20750318467617035
0.22234724462032318 0.22234724462032318 0.22234724462032318
0.25575727224349976 0.25575727224349976 0.25575727224349976
0.30913552641868591 0.30913552641868591 0.30913552641868591
0.37031611800193787 0.37031611800193787 0.37031611800193787
0.42386987805366516 0.42386987805366516 0.42386987805366516
0.46911165118217468 0.46911165118217468 0.46911165118217468
0.5145113468170166 0.5145113468170166 0.5145113468170166
0.56199949979782104 0.56199949979782104 0.56199949979782104
0.61216461658477783 0.61216461658477783 0.61216461658477783
0.66370952129364014 0.66370952129364014 0.66370952129364014
0.71395260095596313 0.71395260095596313 0.71395260095596313
0.26050516963005066 0.26050516963005066 0.26050516963005066
0.25794318318367004 0.25794318318367004 0.25794318318367004
0.26478585600852966 0.26478585600852966 0.26478585600852966
0.28926244378089905 0.28926244378089905 0.28926244378089905
0.33962205052375793 0.33962205052375793 0.33962205052375793
0.40552887320518494 0.40552887320518494 0.40552887320518494
0.46666797995567322 0.46666797995567322 0.46666797995567322
0.51910597085952759 0.51910597085952759 0.51910597085952759
0.56847816705703735 0.56847816705703735 0.56847816705703735
0.61587512493133545 0.61587512493133545 0.61587512493133545
0.66105544567108154 0.66105544567108154 0.66105544567108154
0.70491188764572144 0.70491188764572144 0.70491188764572144
0.74772554636001587 0.74772554636001587 0.74772554636001587
0.31736576557159424 0.31736576557159424 0.31736576557159424
0.31102386116981506 0.31102386116981506 0.31102386116981506
0.3111816942691803 0.3111816942691803 0.3111816942691803
0.32625150680541992 0.32625150680541992 0.32625150680541992
0.36490285396575928 0.36490285396575928 0.36490285396575928
0.42469349503517151 0.42469349503517151 0.42469349503517151
0.49178880453109741 0.49178880453109741 0.49178880453109741
0.55700480937957764 0.55700480937957764 0.55700480937957764
0.61718368530273438 0.61718368530273438 0.61718368530273438
0.66862595081329346 0.66862595081329346 0.66862595081329346
0.71083652973175049 0.71083652973175049 0.71083652973175049
0.74798136949539185 0.74798136949539185 0.74798136949539185
0.78354597091674805 0.78354597091674805 0.78354597091674805
0.37727648019790649 0.37727648019790649 0.37727648019790649
0.36733722686767578 0.36733722686767578 0.36733722686767578
0.36115697026252747 0.36115697026252747 0.36115697026252747
0.36417841911315918 0.36417841911315918 0.36417841911315918
0.38773038983345032 0.38773038983345032 0.38773038983345032
0.43944582343101501 0.43944582343101501 0.43944582343101501
0.51039057970046997 0.51039057970046997 0.51039057970046997
0.58562445640563965 0.58562445640563965 0.58562445640563965
0.65650111436843872 0.65650111436843872 0.65650111436843872
0.71398955583572388 0.71398955583572388 0.71398955583572388
0.75500005483627319 0.75500005483627319 0.75500005483627319
0.78755921125411987 0.78755921125411987 0.78755921125411987
0.81799817085266113 0.81799817085266113 0.81799817085266113
0.44133475422859192 0.44133475422859192 0.44133475422859192
0.43037283420562744 0.43037283420562744 0.43037283420562744
0.41919681429862976 0.41919681429862976 0.41919681429862976
0.41150954365730286 0.41150954365730286 0.41150954365730286
0.42136701941490173 0.42136701941490173 0.42136701941490173
0.46434476971626282 0.46434476971626282 0.46434476971626282
0.53377252817153931 0.53377252817153931 0.53377252817153931
0.61149430274963379 0.61149430274963379 0.61149430274963379
0.68566715717315674 0.68566715717315674 0.68566715717315674
0.74607926607131958 0.74607926607131958 0.74607926607131958
0.78832787275314331 0.78832787275314331 0.78832787275314331
0.8204464316368103 0.8204464316368103 0.8204464316368103
0.84880685806274414 0.84880685806274414 0.84880685806274414
0.51479446887969971 0.51479446887969971 0.51479446887969971
0.5051766037940979 0.5051766037940979 0.5051766037940979
0.49205070734024048 0.49205070734024048 0.49205070734024048
0.47976064682006836 0.47976064682006836 0.47976064682006836
0.48153942823410034 0.48153942823410034 0.48153942823410034
0.51448804140090942 0.51448804140090942 0.51448804140090942
0.57430493831634521 0.57430493831634521 0.57430493831634521
0.64463299512863159 0.64463299512863159 0.64463299512863159
0.71303516626358032 0.71303516626358032 0.71303516626358032
0.7708200216293335 0.7708200216293335 0.7708200216293335
0.81473112106323242 0.81473112106323242 0.81473112106323242
0.84802603721618652 0.84802603721618652 0.84802603721618652
0.8759385347366333 0.8759385347366333 0.8759385347366333
0.60386645793914795 0.60386645793914795 0.60386645793914795
0.59319096803665161 0.59319096803665161 0.59319096803665161
0.58061397075653076 0.58061397075653076 0.58061397075653076
0.56976544857025146 0.56976544857025146 0.56976544857025146
0.56959336996078491 0.56959336996078491 0.56959336996078491
0.59136372804641724 0.59136372804641724 0.59136372804641724
0.634987473487854 0.634987473487854 0.634987473487854
0.69093495607376099 0.69093495607376099 0.69093495607376099
0.7488895058631897 0.7488895058631897 0.7488895058631897
0.80024427175521851 0.80024427175521851 0.80024427175521851
0.84132558107376099 0.84132558107376099 0.84132558107376099
0.87381976842880249 0.87381976842880249 0.87381976842880249
0.90103822946548462 0.90103822946548462 0.90103822946548462
0.69625282287597656 0.69625282287597656 0.69625282287597656
0.68619060516357422 0.68619060516357422 0.68619060516357422
0.67593199014663696 0.67593199014663696 0.67593199014663696
0.66944354772567749 0.66944354772567749 0.66944354772567749
0.67002326250076294 0.67002326250076294 0.67002326250076294
0.6815941333770752 0.6815941333770752 0.6815941333770752
0.7088358998298645 0.7088358998298645 0.7088358998298645
0.74906831979751587 0.74906831979751587 0.74906831979751587
0.79447758197784424 0.79447758197784424 0.79447758197784424
0.83653736114501953 0.83653736114501953 0.83653736114501953
0.87157964706420898 0.87157964706420898 0.87157964706420898
0.90052783489227295 0.90052783489227295 0.90052783489227295
0.925586998462677 0.925586998462677 0.925586998462677
0.77997612953186035 0.77997612953186035 0.77997612953186035
0.77218806743621826 0.77218806743621826 0.77218806743621826
0.76493221521377563 0.76493221521377563 0.76493221521377563
0.76259559392929077 0.76259559392929077 0.76259559392929077
0.76394414901733398 0.76394414901733398 0.76394414901733398
0.76867401599884033 0.76867401599884033 0.76867401599884033
0.78340989351272583 0.78340989351272583 0.78340989351272583
0.81052702665328979 0.81052702665328979 0.81052702665328979
0.84437179565429688 0.84437179565429688 0.84437179565429688
0.87679237127304077 0.87679237127304077 0.87679237127304077
0.90445274114608765 0.90445274114608765 0.90445274114608765
0.92867469787597656 0.92867469787597656 0.92867469787597656
0.951141357421875 0.951141357421875 0.951141357421875
0.12662699818611145 0.12662699818611145 0.12662699818611145
0.13450874388217926 0.13450874388217926 0.13450874388217926
0.15339125692844391 0.15339125692844391 0.15339125692844391
0.17972457408905029 0.17972457408905029 0.17972457408905029
0.21080896258354187 0.21080896258354187 0.21080896258354187
0.24661096930503845 0.24661096930503845 0.24661096930503845
0.29132086038589478 0.29132086038589478 0.29132086038589478
0.34698027372360229 0.34698027372360229 0.34698027372360229
0.40503612160682678 0.40503612160682678 0.40503612160682678
0.46300971508026123 0.46300971508026123 0.46300971508026123
0.52378034591674805 0.52378034591674805 0.52378034591674805
0.58928000926971436 0.58928000926971436 0.58928000926971436
0.65328884124755859 0.65328884124755859 0.65328884124755859
0.13359354436397552 0.13359354436397552 0.13359354436397552
0.14169919490814209 0.14169919490814209 0.14169919490814209
0.16185267269611359 0.16185267269611359 0.16185267269611359
0.18999470770359039 0.18999470770359039 0.18999470770359039
0.22311112284660339 0.22311112284660339 0.22311112284660339
0.2601611316204071 0.2601611316204071 0.2601611316204071
0.30416753888130188 0.30416753888130188 0.30416753888130188
0.3570101261138916 0.3570101261138916 0.3570101261138916
0.41447600722312927 0.41447600722312927 0.41447600722312927
0.4735741913318634 0.4735741913318634 0.4735741913318634
0.53469860553741455 0.53469860553741455 0.53469860553741455
0.59885239601135254 0.59885239601135254 0.59885239601135254
0.66152310371398926 0.66152310371398926 0.66152310371398926
0.15562675893306732 0.15562675893306732 0.15562675893306732
0.16344824433326721 0.16344824433326721 0.16344824433326721
0.18283499777317047 0.18283499777317047 0.18283499777317047
0.21207495033740997 0.21207495033740997 0.21207495033740997
0.24845756590366364 0.24845756590366364 0.24845756590366364
0.28827065229415894 0.28827065229415894 0.28827065229415894
0.33054906129837036 0.33054906129837036 0.33054906129837036
0.37981969118118286 0.37981969118118286 0.37981969118118286
0.43587827682495117 0.43587827682495117 0.43587827682495117
0.49327525496482849 0.49327525496482849 0.49327525496482849
0.55236709117889404 0.55236709117889404 0.55236709117889404
0.61408030986785889 0.61408030986785889 0.61408030986785889
0.674305260181427 0.674305260181427 0.674305260181427
0.19491507112979889 0.19491507112979889 0.19491507112979889
0.20075689256191254 0.20075689256191254 0.20075689256191254
0.21479709446430206 0.21479709446430206 0.21479709446430206
0.24099364876747131 0.24099364876747131 0.24099364876747131
0.28215312957763672 0.28215312957763672 0.28215312957763672
0.32988429069519043 0.32988429069519043 0.32988429069519043
0.37449979782104492 0.37449979782104492 0.37449979782104492
0.42046922445297241 0.42046922445297241 0.42046922445297241
0.4721127450466156 0.4721127450466156 0.4721127450466156
0.5249817967414856 0.5249817967414856 0.5249817967414856
0.57993215322494507 0.57993215322494507 0.57993215322494507
0.63750213384628296 0.63750213384628296 0.63750213384628296
0.69370812177658081 0.69370812177658081 0.69370812177658081
0.24784310162067413 0.24784310162067413 0.24784310162067413
0.25002232193946838 0.25002232193946838 0.25002232193946838
0.25262182950973511 0.25262182950973511 0.25262182950973511
0.26936489343643188 0.26936489343643188 0.26936489343643188
0.31721106171607971 0.31721106171607971 0.31721106171607971
0.37957236170768738 0.37957236170768738 0.37957236170768738
0.43208310008049011 0.43208310008049011 0.43208310008049011
0.47611165046691895 0.47611165046691895 0.47611165046691895
0.522785484790802 0.522785484790802 0.522785484790802
