films/fuji_velvia_50.cube
# Created by: G'MIC (https://gmic.eu)
TITLE "fuji_velvia_50"
# LUT size
LUT_3D_SIZE 5
# Data domain
DOMAIN_MIN 0.0 0.0 0.0
DOMAIN_MAX 1.0 1.0 1.0
# LUT data points
0.014850002713501453 0.009794856421649456 0.0044753877446055412
0.18170841038227081 0.00064399570692330599 0.0044767493382096291
0.46503022313117981 0 0.00075073243351653218
0.72394311428070068 0 0
0.95669597387313843 0 0
0.025620225816965103 0.22576262056827545 0.03434404730796814
0.20476272702217102 0.19683262705802917 0.033604670315980911
0.47676879167556763 0.15605275332927704 0.032709188759326935
0.73332083225250244 0.1026124507188797 0.025886759161949158
0.97685438394546509 0.04968363419175148 0.011734427884221077
0.0037946812808513641 0.52002567052841187 0.0806756392121315
0.16910985112190247 0.50164538621902466 0.072966903448104858
0.46739482879638672 0.47159063816070557 0.078755304217338562
0.7320476770401001 0.43346109986305237 0.065816633403301239
0.97485858201980591 0.38043627142906189 0.033004701137542725
0 0.78392106294631958 0.13861563801765442
0.090600945055484772 0.77793782949447632 0.12395913898944855
0.44017338752746582 0.75102311372756958 0.10961095988750458
0.72348803281784058 0.725932776927948 0.1053973063826561
0.97815757989883423 0.68265914916992188 0.076624669134616852
0 0.99770522117614746 0.19579914212226868
0.024281864985823631 0.9997822642326355 0.18270887434482574
0.3682195246219635 0.99705988168716431 0.17078167200088501
0.69507831335067749 0.98625123500823975 0.12745535373687744
0.96676063537597656 0.96665424108505249 0.036995023488998413
0.012052872218191624 0.0069961696863174438 0.13322223722934723
0.19359798729419708 0.0046082441695034504 0.13559935986995697
0.4744817316532135 0 0.1326533704996109
0.73407185077667236 0 0.11235116422176361
0.97953534126281738 0 0.075158841907978058
0.024710966274142265 0.21899628639221191 0.19688385725021362
0.20314581692218781 0.20008675754070282 0.20186331868171692
0.48111042380332947 0.15110445022583008 0.19847744703292847
0.73882496356964111 0.10869638621807098 0.18404799699783325
0.9783625602722168 0.07999110221862793 0.14555279910564423
0 0.52098202705383301 0.2565334141254425
0.1505991667509079 0.50772911310195923 0.25619110465049744
0.46955758333206177 0.47361516952514648 0.26057314872741699
0.73393416404724121 0.4376010000705719 0.2512848973274231
0.97978514432907104 0.38811516761779785 0.21485818922519684
0 0.79349255561828613 0.30890920758247375
0.082057371735572815 0.77729356288909912 0.30985772609710693
0.42749962210655212 0.75172299146652222 0.31003037095069885
0.72141772508621216 0.72668105363845825 0.30830958485603333
0.97840899229049683 0.68328225612640381 0.27495566010475159
0.0065690432675182819 1 0.35465136170387268
0.0863775834441185 0.99953490495681763 0.3584434986114502
0.38923177123069763 0.99190670251846313 0.34905707836151123
0.69348549842834473 0.98443144559860229 0.34147393703460693
0.95795422792434692 0.95632612705230713 0.2975100576877594
0.022188372910022736 0.00066636031260713935 0.35281863808631897
0.19482141733169556 0.0003820082638412714 0.35487449169158936
0.478666752576828 6.247127748792991e-05 0.35975223779678345
0.73633062839508057 0 0.35410591959953308
0.96959429979324341 0 0.32031553983688354
0.022939210757613182 0.2184767872095108 0.4083314836025238
0.19554336369037628 0.18912036716938019 0.41400989890098572
0.4889085590839386 0.15001140534877777 0.42214116454124451
0.74408924579620361 0.10339582711458206 0.41918855905532837
0.97771149873733521 0.09755108505487442 0.38946834206581116
0 0.52195793390274048 0.46466919779777527
0.14628496766090393 0.5067862868309021 0.47161328792572021
0.47061857581138611 0.47342726588249207 0.47158390283584595
0.7396010160446167 0.43638744950294495 0.47461041808128357
0.98178589344024658 0.38747566938400269 0.45154964923858643
0 0.79073357582092285 0.51866692304611206
0.10002703219652176 0.77949196100234985 0.52084553241729736
0.43091532588005066 0.75855052471160889 0.52366065979003906
0.72386664152145386 0.72983098030090332 0.52654933929443359
0.98407411575317383 0.68401527404785156 0.50889688730239868
0.01406396646052599 1 0.56038743257522583
0.11230434477329254 1 0.56480664014816284
0.3787190318107605 0.99885505437850952 0.56710207462310791
0.68953496217727661 0.9933086633682251 0.56381618976593018
0.9641842246055603 0.96276253461837769 0.53939604759216309
0.022372975945472717 0 0.55092376470565796
0.17719568312168121 0 0.55431181192398071
0.46605667471885681 0 0.55979818105697632
0.73302227258682251 0 0.55718541145324707
0.95661699771881104 0 0.53395605087280273
0.017507337033748627 0.19396668672561646 0.6067461371421814
0.16632722318172455 0.16851571202278137 0.60946619510650635
0.47762766480445862 0.1307290643453598 0.61753851175308228
0.74763935804367065 0.069702029228210449 0.62033915519714355
0.97925490140914917 0.0729965940117836 0.60447365045547485
0 0.51944035291671753 0.65948241949081421
0.11994247138500214 0.49837693572044373 0.66297322511672974
0.46712881326675415 0.46630069613456726 0.66595840454101562
0.74606287479400635 0.41934525966644287 0.66938507556915283
0.98628556728363037 0.37066230177879333 0.66374725103378296
0 0.79509216547012329 0.71926414966583252
0.066644422709941864 0.77996295690536499 0.7180367112159729
0.41847506165504456 0.75599288940429688 0.71995985507965088
0.72286063432693481 0.72364693880081177 0.72359228134155273
0.98762494325637817 0.68334865570068359 0.72120028734207153
0.0020993549842387438 1 0.7647024393081665
0.097063116729259491 1 0.76797568798065186
0.37128618359565735 0.9992716908454895 0.76859921216964722
0.68588167428970337 0.99466514587402344 0.76971149444580078
0.97607719898223877 0.9790235161781311 0.76185482740402222
0.021964667364954948 0 0.72619295120239258
0.13352291285991669 0.0014262180775403976 0.73822295665740967
0.45397105813026428 0.0045084934681653976 0.74574863910675049
0.7222064733505249 0 0.73632645606994629
0.9397779107093811 0 0.71380794048309326
0.015708085149526596 0.14953066408634186 0.78959900140762329
0.12944881618022919 0.13053388893604279 0.7927972674369812
0.45107161998748779 0.12693721055984497 0.80034106969833374
0.74146240949630737 0.024409126490354538 0.80678534507751465
0.97415030002593994 0.061690341681241989 0.79500991106033325
0 0.5042722225189209 0.84489685297012329
0.069998815655708313 0.48530304431915283 0.8493618369102478
0.43551096320152283 0.44485121965408325 0.8546263575553894
0.73770654201507568 0.39996829628944397 0.86179083585739136
0.98689514398574829 0.33948791027069092 0.86564671993255615
0 0.78780221939086914 0.90824288129806519
0.0020759881008416414 0.77515542507171631 0.91121494770050049
0.38435614109039307 0.74775832891464233 0.91801351308822632
0.71519571542739868 0.71824491024017334 0.92505806684494019
0.98300480842590332 0.67598390579223633 0.92123675346374512
0.0068628201261162758 1 0.95202994346618652
0.065100573003292084 1 0.95830631256103516
0.34449341893196106 0.99878972768783569 0.9621204137802124
0.66903436183929443 0.99583661556243896 0.97545695304870605
0.97813445329666138 0.97809916734695435 0.97991394996643066
