films/fuji_neopan_1600_3_+.cube
TITLE "data/luts/rawtherapee/HaldCLUT/Black-and-White/Fuji/Fuji Neopan 1600 3 +.png"
LUT_3D_SIZE 4
DOMAIN_MIN 0 0 0
DOMAIN_MAX 1 1 1
0.094118 0.094118 0.094118
0.100654 0.100654 0.100654
0.209150 0.209150 0.209150
0.509804 0.509804 0.509804
0.155556 0.155556 0.155556
0.209586 0.209586 0.209586
0.383878 0.383878 0.383878
0.648366 0.648366 0.648366
0.437908 0.437908 0.437908
0.464488 0.464488 0.464488
0.610458 0.610458 0.610458
0.850980 0.850980 0.850980
0.925490 0.925490 0.925490
0.932026 0.932026 0.932026
0.959477 0.959477 0.959477
0.996078 0.996078 0.996078
0.105882 0.105882 0.105882
0.163399 0.163399 0.163399
0.266667 0.266667 0.266667
0.504575 0.504575 0.504575
0.201743 0.201743 0.201743
0.303849 0.303849 0.303849
0.409005 0.409005 0.409005
0.657516 0.657516 0.657516
0.542484 0.542484 0.542484
0.566885 0.566885 0.566885
0.663762 0.663762 0.663762
0.867974 0.867974 0.867974
0.935948 0.935948 0.935948
0.942048 0.942048 0.942048
0.963834 0.963834 0.963834
0.996078 0.996078 0.996078
0.275817 0.275817 0.275817
0.357734 0.357734 0.357734
0.504575 0.504575 0.504575
0.686275 0.686275 0.686275
0.403486 0.403486 0.403486
0.477124 0.477124 0.477124
0.614089 0.614089 0.614089
0.752070 0.752070 0.752070
0.571678 0.571678 0.571678
0.640232 0.640232 0.640232
0.781409 0.781409 0.781409
0.878431 0.878431 0.878431
0.956863 0.956863 0.956863
0.965577 0.965577 0.965577
0.979521 0.979521 0.979521
1.000000 1.000000 1.000000
0.780392 0.780392 0.780392
0.811765 0.811765 0.811765
0.887582 0.887582 0.887582
0.941176 0.941176 0.941176
0.814379 0.814379 0.814379
0.840959 0.840959 0.840959
0.904575 0.904575 0.904575
0.954248 0.954248 0.954248
0.775163 0.775163 0.775163
0.834423 0.834423 0.834423
0.932898 0.932898 0.932898
0.985621 0.985621 0.985621
0.964706 0.964706 0.964706
0.975163 0.975163 0.975163
0.992157 0.992157 0.992157
1.000000 1.000000 1.000000
