films/fuji_neopan_acros_100.cube
# Created by: G'MIC (https://gmic.eu)
TITLE "fuji_neopan_acros_100"
# LUT size
LUT_3D_SIZE 7
# Data domain
DOMAIN_MIN 0.0 0.0 0.0
DOMAIN_MAX 1.0 1.0 1.0
# LUT data points
0.019125292077660561 0.019125292077660561 0.019125292077660561
0.029221538454294205 0.029221538454294205 0.029221538454294205
0.050184931606054306 0.050184931606054306 0.050184931606054306
0.077025063335895538 0.077025063335895538 0.077025063335895538
0.11519552767276764 0.11519552767276764 0.11519552767276764
0.18980990350246429 0.18980990350246429 0.18980990350246429
0.273519366979599 0.273519366979599 0.273519366979599
0.11586673557758331 0.11586673557758331 0.11586673557758331
0.12297895550727844 0.12297895550727844 0.12297895550727844
0.14303454756736755 0.14303454756736755 0.14303454756736755
0.17039112746715546 0.17039112746715546 0.17039112746715546
0.21285398304462433 0.21285398304462433 0.21285398304462433
0.27503818273544312 0.27503818273544312 0.27503818273544312
0.34809297323226929 0.34809297323226929 0.34809297323226929
0.23716628551483154 0.23716628551483154 0.23716628551483154
0.24664370715618134 0.24664370715618134 0.24664370715618134
0.26495027542114258 0.26495027542114258 0.26495027542114258
0.29073342680931091 0.29073342680931091 0.29073342680931091
0.32821419835090637 0.32821419835090637 0.32821419835090637
0.37730050086975098 0.37730050086975098 0.37730050086975098
0.43727153539657593 0.43727153539657593 0.43727153539657593
0.39131373167037964 0.39131373167037964 0.39131373167037964
0.39501988887786865 0.39501988887786865 0.39501988887786865
0.40781986713409424 0.40781986713409424 0.40781986713409424
0.42822521924972534 0.42822521924972534 0.42822521924972534
0.45725014805793762 0.45725014805793762 0.45725014805793762
0.49426001310348511 0.49426001310348511 0.49426001310348511
0.54137051105499268 0.54137051105499268 0.54137051105499268
0.55559349060058594 0.55559349060058594 0.55559349060058594
0.55528908967971802 0.55528908967971802 0.55528908967971802
0.56032055616378784 0.56032055616378784 0.56032055616378784
0.57348966598510742 0.57348966598510742 0.57348966598510742
0.59544217586517334 0.59544217586517334 0.59544217586517334
0.6258465051651001 0.6258465051651001 0.6258465051651001
0.66441243886947632 0.66441243886947632 0.66441243886947632
0.71982616186141968 0.71982616186141968 0.71982616186141968
0.71411228179931641 0.71411228179931641 0.71411228179931641
0.71116608381271362 0.71116608381271362 0.71116608381271362
0.71724027395248413 0.71724027395248413 0.71724027395248413
0.73380893468856812 0.73380893468856812 0.73380893468856812
0.76012074947357178 0.76012074947357178 0.76012074947357178
0.79178524017333984 0.79178524017333984 0.79178524017333984
0.87106657028198242 0.87106657028198242 0.87106657028198242
0.85745072364807129 0.85745072364807129 0.85745072364807129
0.84891259670257568 0.84891259670257568 0.84891259670257568
0.85044944286346436 0.85044944286346436 0.85044944286346436
0.86281532049179077 0.86281532049179077 0.86281532049179077
0.88525259494781494 0.88525259494781494 0.88525259494781494
0.91334730386734009 0.91334730386734009 0.91334730386734009
0.027471264824271202 0.027471264824271202 0.027471264824271202
0.03282615914940834 0.03282615914940834 0.03282615914940834
0.052732028067111969 0.052732028067111969 0.052732028067111969
0.083475597202777863 0.083475597202777863 0.083475597202777863
0.13143150508403778 0.13143150508403778 0.13143150508403778
0.20219254493713379 0.20219254493713379 0.20219254493713379
0.28323015570640564 0.28323015570640564 0.28323015570640564
0.12311003357172012 0.12311003357172012 0.12311003357172012
0.12814624607563019 0.12814624607563019 0.12814624607563019
0.14723409712314606 0.14723409712314606 0.14723409712314606
0.17728397250175476 0.17728397250175476 0.17728397250175476
0.22264644503593445 0.22264644503593445 0.22264644503593445
0.28603705763816833 0.28603705763816833 0.28603705763816833
0.35903587937355042 0.35903587937355042 0.35903587937355042
0.24743326008319855 0.24743326008319855 0.24743326008319855
0.25242075324058533 0.25242075324058533 0.25242075324058533
0.26936042308807373 0.26936042308807373 0.26936042308807373
0.29636469483375549 0.29636469483375549 0.29636469483375549
0.33552870154380798 0.33552870154380798 0.33552870154380798
0.38733422756195068 0.38733422756195068 0.38733422756195068
0.44853109121322632 0.44853109121322632 0.44853109121322632
0.3962709903717041 0.3962709903717041 0.3962709903717041
0.39928385615348816 0.39928385615348816 0.39928385615348816
0.41177085041999817 0.41177085041999817 0.41177085041999817
0.43290415406227112 0.43290415406227112 0.43290415406227112
0.46367472410202026 0.46367472410202026 0.46367472410202026
0.50396710634231567 0.50396710634231567 0.50396710634231567
0.55332785844802856 0.55332785844802856 0.55332785844802856
0.55696958303451538 0.55696958303451538 0.55696958303451538
0.55787515640258789 0.55787515640258789 0.55787515640258789
0.56397110223770142 0.56397110223770142 0.56397110223770142
0.57801324129104614 0.57801324129104614 0.57801324129104614
0.60103350877761841 0.60103350877761841 0.60103350877761841
0.63283860683441162 0.63283860683441162 0.63283860683441162
0.67198538780212402 0.67198538780212402 0.67198538780212402
0.71665889024734497 0.71665889024734497 0.71665889024734497
0.71484911441802979 0.71484911441802979 0.71484911441802979
0.71452057361602783 0.71452057361602783 0.71452057361602783
0.72190487384796143 0.72190487384796143 0.72190487384796143
0.73886209726333618 0.73886209726333618 0.73886209726333618
0.76446449756622314 0.76446449756622314 0.76446449756622314
0.79526907205581665 0.79526907205581665 0.79526907205581665
0.86006951332092285 0.86006951332092285 0.86006951332092285
0.85671377182006836 0.85671377182006836 0.85671377182006836
0.85284185409545898 0.85284185409545898 0.85284185409545898
0.85576313734054565 0.85576313734054565 0.85576313734054565
0.86804109811782837 0.86804109811782837 0.86804109811782837
0.88845008611679077 0.88845008611679077 0.88845008611679077
0.91215866804122925 0.91215866804122925 0.91215866804122925
0.045774124562740326 0.045774124562740326 0.045774124562740326
0.050602991133928299 0.050602991133928299 0.050602991133928299
0.069102376699447632 0.069102376699447632 0.069102376699447632
0.10068213939666748 0.10068213939666748 0.10068213939666748
0.15183535218238831 0.15183535218238831 0.15183535218238831
0.2244071364402771 0.2244071364402771 0.2244071364402771
0.30607214570045471 0.30607214570045471 0.30607214570045471
0.1419920027256012 0.1419920027256012 0.1419920027256012
0.14641179144382477 0.14641179144382477 0.14641179144382477
0.16385161876678467 0.16385161876678467 0.16385161876678467
0.19406037032604218 0.19406037032604218 0.19406037032604218
0.24140724539756775 0.24140724539756775 0.24140724539756775
0.30635339021682739 0.30635339021682739 0.30635339021682739
0.37964153289794922 0.37964153289794922 0.37964153289794922
0.26469811797142029 0.26469811797142029 0.26469811797142029
0.26830118894577026 0.26830118894577026 0.26830118894577026
0.28392010927200317 0.28392010927200317 0.28392010927200317
0.31091171503067017 0.31091171503067017 0.31091171503067017
0.35108855366706848 0.35108855366706848 0.35108855366706848
0.4046081006526947 0.4046081006526947 0.4046081006526947
0.46617862582206726 0.46617862582206726 0.46617862582206726
0.40860027074813843 0.40860027074813843 0.40860027074813843
0.411354660987854 0.411354660987854 0.411354660987854
0.42338484525680542 0.42338484525680542 0.42338484525680542
0.44481804966926575 0.44481804966926575 0.44481804966926575
0.47659140825271606 0.47659140825271606 0.47659140825271606
0.51857668161392212 0.51857668161392212 0.51857668161392212
0.5684276819229126 0.5684276819229126 0.5684276819229126
0.56273466348648071 0.56273466348648071 0.56273466348648071
0.5647810697555542 0.5647810697555542 0.5647810697555542
0.57217931747436523 0.57217931747436523 0.57217931747436523
0.58707296848297119 0.58707296848297119 0.58707296848297119
0.61085152626037598 0.61085152626037598 0.61085152626037598
0.64354199171066284 0.64354199171066284 0.64354199171066284
0.68271416425704956 0.68271416425704956 0.68271416425704956
0.71571815013885498 0.71571815013885498 0.71571815013885498
0.71669548749923706 0.71669548749923706 0.71669548749923706
0.71964192390441895 0.71964192390441895 0.71964192390441895
0.72877925634384155 0.72877925634384155 0.72877925634384155
0.74596375226974487 0.74596375226974487 0.74596375226974487
0.77092987298965454 0.77092987298965454 0.77092987298965454
0.80104249715805054 0.80104249715805054 0.80104249715805054
0.85450917482376099 0.85450917482376099 0.85450917482376099
0.85594481229782104 0.85594481229782104 0.85594481229782104
0.85649257898330688 0.85649257898330688 0.85649257898330688
0.86151206493377686 0.86151206493377686 0.86151206493377686
0.87358695268630981 0.87358695268630981 0.87358695268630981
0.89242470264434814 0.89242470264434814 0.89242470264434814
0.91480916738510132 0.91480916738510132 0.91480916738510132
0.062190592288970947 0.062190592288970947 0.062190592288970947
0.07002723217010498 0.07002723217010498 0.07002723217010498
0.086690030992031097 0.086690030992031097 0.086690030992031097
0.11566919088363647 0.11566919088363647 0.11566919088363647
0.16626758873462677 0.16626758873462677 0.16626758873462677
0.24129155278205872 0.24129155278205872 0.24129155278205872
0.33005887269973755 0.33005887269973755 0.33005887269973755
0.15998081862926483 0.15998081862926483 0.15998081862926483
0.16498264670372009 0.16498264670372009 0.16498264670372009
0.18124109506607056 0.18124109506607056 0.18124109506607056
0.20971007645130157 0.20971007645130157 0.20971007645130157
0.25641170144081116 0.25641170144081116 0.25641170144081116
0.32304444909095764 0.32304444909095764 0.32304444909095764
0.39882838726043701 0.39882838726043701 0.39882838726043701
0.28230923414230347 0.28230923414230347 0.28230923414230347
0.28558412194252014 0.28558412194252014 0.28558412194252014
0.29997873306274414 0.29997873306274414 0.29997873306274414
0.32603403925895691 0.32603403925895691 0.32603403925895691
0.3659319281578064 0.3659319281578064 0.3659319281578064
0.42012640833854675 0.42012640833854675 0.42012640833854675
0.48262509703636169 0.48262509703636169 0.48262509703636169
0.42360797524452209 0.42360797524452209 0.42360797524452209
0.42621281743049622 0.42621281743049622 0.42621281743049622
0.43747255206108093 0.43747255206108093 0.43747255206108093
0.45863023400306702 0.45863023400306702 0.45863023400306702
0.48973116278648376 0.48973116278648376 0.48973116278648376
0.53232830762863159 0.53232830762863159 0.53232830762863159
0.58278399705886841 0.58278399705886841 0.58278399705886841
0.57413256168365479 0.57413256168365479 0.57413256168365479
0.57615858316421509 0.57615858316421509 0.57615858316421509
0.58355271816253662 0.58355271816253662 0.58355271816253662
0.59829998016357422 0.59829998016357422 0.59829998016357422
0.62194359302520752 0.62194359302520752 0.62194359302520752
0.65488213300704956 0.65488213300704956 0.65488213300704956
0.69422954320907593 0.69422954320907593 0.69422954320907593
0.72270113229751587 0.72270113229751587 0.72270113229751587
0.72462815046310425 0.72462815046310425 0.72462815046310425
0.72846442461013794 0.72846442461013794 0.72846442461013794
0.73789316415786743 0.73789316415786743 0.73789316415786743
0.75496876239776611 0.75496876239776611 0.75496876239776611
0.77992624044418335 0.77992624044418335 0.77992624044418335
0.80989843606948853 0.80989843606948853 0.80989843606948853
0.85896283388137817 0.85896283388137817 0.85896283388137817
0.86146169900894165 0.86146169900894165 0.86146169900894165
0.86334323883056641 0.86334323883056641 0.86334323883056641
0.86920034885406494 0.86920034885406494 0.86920034885406494
0.88119417428970337 0.88119417428970337 0.88119417428970337
0.89950019121170044 0.89950019121170044 0.89950019121170044
0.9216386079788208 0.9216386079788208 0.9216386079788208
0.072188496589660645 0.072188496589660645 0.072188496589660645
0.078334063291549683 0.078334063291549683 0.078334063291549683
0.096231766045093536 0.096231766045093536 0.096231766045093536
0.12565377354621887 0.12565377354621887 0.12565377354621887
0.172185018658638 0.172185018658638 0.172185018658638
0.2465294748544693 0.2465294748544693 0.2465294748544693
0.33470621705055237 0.33470621705055237 0.33470621705055237
0.17281368374824524 0.17281368374824524 0.17281368374824524
0.17727282643318176 0.17727282643318176 0.17727282643318176
0.1932874470949173 0.1932874470949173 0.1932874470949173
0.22119246423244476 0.22119246423244476 0.22119246423244476
0.2664036750793457 0.2664036750793457 0.2664036750793457
0.33273416757583618 0.33273416757583618 0.33273416757583618
0.40932342410087585 0.40932342410087585 0.40932342410087585
0.29817104339599609 0.29817104339599609 0.29817104339599609
0.30069509148597717 0.30069509148597717 0.30069509148597717
0.31403857469558716 0.31403857469558716 0.31403857469558716
0.33868703246116638 0.33868703246116638 0.33868703246116638
0.3776208758354187 0.3776208758354187 0.3776208758354187
0.43195822834968567 0.43195822834968567 0.43195822834968567
0.49553731083869934 0.49553731083869934 0.49553731083869934
0.44017913937568665 0.44017913937568665 0.44017913937568665
0.44193482398986816 0.44193482398986816 0.44193482398986816
0.45170071721076965 0.45170071721076965 0.45170071721076965
0.47078695893287659 0.47078695893287659 0.47078695893287659
0.5011146068572998 0.5011146068572998 0.5011146068572998
0.54389029741287231 0.54389029741287231 0.54389029741287231
0.59536564350128174 0.59536564350128174 0.59536564350128174
0.59021639823913574 0.59021639823913574 0.59021639823913574
0.59140467643737793 0.59140467643737793 0.59140467643737793
0.59703058004379272 0.59703058004379272 0.59703058004379272
0.61031627655029297 0.61031627655029297 0.61031627655029297
0.63305330276489258 0.63305330276489258 0.63305330276489258
0.66612052917480469 0.66612052917480469 0.66612052917480469
0.70650213956832886 0.70650213956832886 0.70650213956832886
0.7380145788192749 0.7380145788192749 0.7380145788192749
0.73873281478881836 0.73873281478881836 0.73873281478881836
0.74093914031982422 0.74093914031982422 0.74093914031982422
0.74912011623382568 0.74912011623382568 0.74912011623382568
0.7657361626625061 0.7657361626625061 0.7657361626625061
0.79098033905029297 0.79098033905029297 0.79098033905029297
0.82161790132522583 0.82161790132522583 0.82161790132522583
0.87301886081695557 0.87301886081695557 0.87301886081695557
0.87418454885482788 0.87418454885482788 0.87418454885482788
0.87437331676483154 0.87437331676483154 0.87437331676483154
0.87907874584197998 0.87907874584197998 0.87907874584197998
0.89105778932571411 0.89105778932571411 0.89105778932571411
0.90997791290283203 0.90997791290283203 0.90997791290283203
0.93269854784011841 0.93269854784011841 0.93269854784011841
0.078801818192005157 0.078801818192005157 0.078801818192005157
0.086750701069831848 0.086750701069831848 0.086750701069831848
0.10738369822502136 0.10738369822502136 0.10738369822502136
0.13911090791225433 0.13911090791225433 0.13911090791225433
0.1891825795173645 0.1891825795173645 0.1891825795173645
0.26415881514549255 0.26415881514549255 0.26415881514549255
0.35093066096305847 0.35093066096305847 0.35093066096305847
0.1849132627248764 0.1849132627248764 0.1849132627248764
0.18949845433235168 0.18949845433235168 0.18949845433235168
0.20673346519470215 0.20673346519470215 0.20673346519470215
0.23564465343952179 0.23564465343952179 0.23564465343952179
0.2819419801235199 0.2819419801235199 0.2819419801235199
0.3480398952960968 0.3480398952960968 0.3480398952960968
0.42395463585853577 0.42395463585853577 0.42395463585853577
0.31514090299606323 0.31514090299606323 0.31514090299606323
0.31718617677688599 0.31718617677688599 0.31718617677688599
0.32990798354148865 0.32990798354148865 0.32990798354148865
0.35357809066772461 0.35357809066772461 0.35357809066772461
0.39110854268074036 0.39110854268074036 0.39110854268074036
0.44482129812240601 0.44482129812240601 0.44482129812240601
0.50925815105438232 0.50925815105438232 0.50925815105438232
0.45920786261558533 0.45920786261558533 0.45920786261558533
0.4600314199924469 0.4600314199924469 0.4600314199924469
0.46805387735366821 0.46805387735366821 0.46805387735366821
0.48490062355995178 0.48490062355995178 0.48490062355995178
0.5125700831413269 0.5125700831413269 0.5125700831413269
0.55466198921203613 0.55466198921203613 0.55466198921203613
0.60814827680587769 0.60814827680587769 0.60814827680587769
0.60994654893875122 0.60994654893875122 0.60994654893875122
0.6096642017364502 0.6096642017364502 0.6096642017364502
0.61306583881378174 0.61306583881378174 0.61306583881378174
0.62385624647140503 0.62385624647140503 0.62385624647140503
0.6448630690574646 0.6448630690574646 0.6448630690574646
0.67763561010360718 0.67763561010360718 0.67763561010360718
0.7195662260055542 0.7195662260055542 0.7195662260055542
0.75948357582092285 0.75948357582092285 0.75948357582092285
0.75734239816665649 0.75734239816665649 0.75734239816665649
0.75603204965591431 0.75603204965591431 0.75603204965591431
0.76204484701156616 0.76204484701156616 0.76204484701156616
0.77804005146026611 0.77804005146026611 0.77804005146026611
0.80404996871948242 0.80404996871948242 0.80404996871948242
0.83601588010787964 0.83601588010787964 0.83601588010787964
0.8954969048500061 0.8954969048500061 0.8954969048500061
0.89195209741592407 0.89195209741592407 0.89195209741592407
0.88784098625183105 0.88784098625183105 0.88784098625183105
0.89067775011062622 0.89067775011062622 0.89067775011062622
0.90256530046463013 0.90256530046463013 0.90256530046463013
0.92305576801300049 0.92305576801300049 0.92305576801300049
0.9475330114364624 0.9475330114364624 0.9475330114364624
0.094345316290855408 0.094345316290855408 0.094345316290855408
0.10985008627176285 0.10985008627176285 0.10985008627176285
0.13310983777046204 0.13310983777046204 0.13310983777046204
0.16571691632270813 0.16571691632270813 0.16571691632270813
0.22405214607715607 0.22405214607715607 0.22405214607715607
0.29929181933403015 0.29929181933403015 0.29929181933403015
0.38138690590858459 0.38138690590858459 0.38138690590858459
0.20747289061546326 0.20747289061546326 0.20747289061546326
0.21359537541866302 0.21359537541866302 0.21359537541866302
0.23224388062953949 0.23224388062953949 0.23224388062953949
0.26275113224983215 0.26275113224983215 0.26275113224983215
0.31089016795158386 0.31089016795158386 0.31089016795158386
0.37564882636070251 0.37564882636070251 0.37564882636070251
0.44789034128189087 0.44789034128189087 0.44789034128189087
0.33945575356483459 0.33945575356483459 0.33945575356483459
0.34140810370445251 0.34140810370445251 0.34140810370445251
0.3542812168598175 0.3542812168598175 0.3542812168598175
0.3775627613067627 0.3775627613067627 0.3775627613067627
0.41352981328964233 0.41352981328964233 0.41352981328964233
0.4654286801815033 0.4654286801815033 0.4654286801815033
0.52884006500244141 0.52884006500244141 0.52884006500244141
0.48190248012542725 0.48190248012542725 0.48190248012542725
0.4824272096157074 0.4824272096157074 0.4824272096157074
0.489850252866745 0.489850252866745 0.489850252866745
0.50534635782241821 0.50534635782241821 0.50534635782241821
0.52957189083099365 0.52957189083099365 0.52957189083099365
0.56905055046081543 0.56905055046081543 0.56905055046081543
0.62475252151489258 0.62475252151489258 0.62475252151489258
0.63033467531204224 0.63033467531204224 0.63033467531204224
0.62936264276504517 0.62936264276504517 0.62936264276504517
0.63158607482910156 0.63158607482910156 0.63158607482910156
0.64103370904922485 0.64103370904922485 0.64103370904922485
0.6603350043296814 0.6603350043296814 0.6603350043296814
0.69244003295898438 0.69244003295898438 0.69244003295898438
0.73471611738204956 0.73471611738204956 0.73471611738204956
0.77959728240966797 0.77959728240966797 0.77959728240966797
0.77498871088027954 0.77498871088027954 0.77498871088027954
0.77147096395492554 0.77147096395492554 0.77147096395492554
0.77629667520523071 0.77629667520523071 0.77629667520523071
0.79181170463562012 0.79181170463562012 0.79181170463562012
0.81830406188964844 0.81830406188964844 0.81830406188964844
0.85105031728744507 0.85105031728744507 0.85105031728744507
0.91890466213226318 0.91890466213226318 0.91890466213226318
0.90734440088272095 0.90734440088272095 0.90734440088272095
0.90021413564682007 0.90021413564682007 0.90021413564682007
0.90196293592453003 0.90196293592453003 0.90196293592453003
0.91395395994186401 0.91395395994186401 0.91395395994186401
0.93599939346313477 0.93599939346313477 0.93599939346313477
0.96384602785110474 0.96384602785110474 0.96384602785110474
