films/fuji_provia_100f.cube
# Created by: G'MIC (https://gmic.eu)
TITLE "fuji_provia_100f"
# LUT size
LUT_3D_SIZE 13
# Data domain
DOMAIN_MIN 0.0 0.0 0.0
DOMAIN_MAX 1.0 1.0 1.0
# LUT data points
0.032900448888540268 0.030439175665378571 0.027297239750623703
0.098588787019252777 0.027140328660607338 0.023517848923802376
0.175440713763237 0.026640124619007111 0.021006818860769272
0.2547050416469574 0.030629521235823631 0.018697656691074371
0.33744195103645325 0.033217053860425949 0.015849873423576355
0.42373281717300415 0.031320430338382721 0.014558246359229088
0.51494681835174561 0.025173410773277283 0.015378840267658234
0.61456769704818726 0.019118888303637505 0.011993573047220707
0.72322434186935425 0.014579324051737785 0.0048582935705780983
0.83476936817169189 0.011989413760602474 0.00091272988356649876
0.94043958187103271 0.013475904241204262 0.0002432430483167991
0.99855339527130127 0.020521858707070351 0
1 0.033266119658946991 0
0.061795461922883987 0.10848706960678101 0.060330066829919815
0.11212876439094543 0.10581015795469284 0.055144231766462326
0.18267185986042023 0.10211190581321716 0.052706129848957062
0.26117205619812012 0.1016017273068428 0.050841927528381348
0.34309583902359009 0.10129120945930481 0.047587733715772629
0.42857378721237183 0.098382718861103058 0.043934885412454605
0.51962792873382568 0.09245956689119339 0.039412584155797958
0.61863380670547485 0.084815248847007751 0.03145395964384079
0.72543841600418091 0.075347170233726501 0.020057514309883118
0.8354676365852356 0.067130774259567261 0.0099508995190262794
0.93930590152740479 0.066031590104103088 0.004640915896743536
0.99828386306762695 0.07138119637966156 0.00076685886597260833
1 0.081941179931163788 2.3696002244832925e-05
0.094925060868263245 0.18788957595825195 0.095839723944664001
0.13460136950016022 0.18622443079948425 0.092165149748325348
0.19563861191272736 0.18284530937671661 0.089692689478397369
0.27045771479606628 0.18016430735588074 0.088300757110118866
0.3507007360458374 0.17795097827911377 0.08408849686384201
0.43535983562469482 0.17487314343452454 0.078138671815395355
0.52582228183746338 0.17040449380874634 0.069547347724437714
0.62355881929397583 0.16369384527206421 0.057667691260576248
0.73028993606567383 0.15301701426506042 0.044309802353382111
0.84077447652816772 0.14115519821643829 0.031152792274951935
0.94260686635971069 0.13434827327728271 0.018819218501448631
0.99855983257293701 0.13551335036754608 0.010154200717806816
1 0.14412485063076019 0.0064209285192191601
0.10971648246049881 0.26840654015541077 0.13625901937484741
0.14899672567844391 0.26562786102294922 0.13242156803607941
0.20671659708023071 0.26342472434043884 0.13018260896205902
0.27977737784385681 0.26152348518371582 0.12803436815738678
0.35957971215248108 0.25971627235412598 0.12324582040309906
0.44346481561660767 0.25779238343238831 0.11582590639591217
0.53328776359558105 0.25441566109657288 0.1057405024766922
0.63098514080047607 0.2482866495847702 0.092868536710739136
0.73721253871917725 0.23785166442394257 0.07865433394908905
0.84592348337173462 0.22586007416248322 0.063285320997238159
0.94517999887466431 0.21681608259677887 0.046417821198701859
0.99862825870513916 0.21507246792316437 0.034384723752737045
1 0.22081539034843445 0.029271578416228294
0.11524949967861176 0.35157254338264465 0.17852288484573364
0.15457722544670105 0.34755337238311768 0.17440269887447357
0.21338877081871033 0.34613433480262756 0.17184412479400635
0.28758585453033447 0.34575816988945007 0.16891318559646606
0.36832287907600403 0.34543097019195557 0.16430997848510742
0.45213091373443604 0.34469395875930786 0.15691784024238586
0.54195970296859741 0.34203675389289856 0.14719365537166595
0.6393204927444458 0.33606001734733582 0.13521377742290497
0.74349278211593628 0.32709798216819763 0.1213696077466011
0.84830677509307861 0.31769528985023499 0.1052236333489418
0.9416162371635437 0.31046101450920105 0.087029673159122467
0.99683398008346558 0.30751392245292664 0.070668525993824005
1 0.30924725532531738 0.060269761830568314
0.12292948365211487 0.43947139382362366 0.22141590714454651
0.1615268737077713 0.4352470338344574 0.21752974390983582
0.22113347053527832 0.43437021970748901 0.21449165046215057
0.29547974467277527 0.43517234921455383 0.21136824786663055
0.37616479396820068 0.43528261780738831 0.20703403651714325
0.46068114042282104 0.43484854698181152 0.20063681900501251
0.55043923854827881 0.43253907561302185 0.19204322993755341
0.64650917053222656 0.42777815461158752 0.181501105427742
0.74756407737731934 0.42071223258972168 0.16910409927368164
0.85044568777084351 0.41404110193252563 0.15330624580383301
0.9408193826675415 0.4090200662612915 0.13370311260223389
0.99474930763244629 0.40518283843994141 0.11205236613750458
1 0.40397322177886963 0.095062583684921265
0.13643556833267212 0.53216409683227539 0.26522886753082275
0.17371973395347595 0.52891075611114502 0.26212123036384583
0.23142530024051666 0.52748954296112061 0.25948277115821838
0.3044152557849884 0.52792179584503174 0.25653904676437378
0.38445371389389038 0.52814018726348877 0.25297534465789795
0.46921262145042419 0.52769917249679565 0.24737885594367981
0.55915814638137817 0.52608346939086914 0.23959565162658691
0.65348243713378906 0.52321815490722656 0.23039478063583374
0.75221192836761475 0.51912885904312134 0.21899114549160004
0.85450786352157593 0.51493149995803833 0.20428022742271423
0.94594192504882812 0.51099240779876709 0.18445046246051788
0.99539536237716675 0.50607222318649292 0.15856321156024933
1 0.5021355152130127 0.13479280471801758
0.15687793493270874 0.62686175107955933 0.31165862083435059
0.18801654875278473 0.62412917613983154 0.31021615862846375
0.24168162047863007 0.62390577793121338 0.30904281139373779
0.31407535076141357 0.62395834922790527 0.30662438273429871
0.3945024311542511 0.62395834922790527 0.30315810441970825
0.4798600971698761 0.62290942668914795 0.2976839542388916
0.56926709413528442 0.62054729461669922 0.29042524099349976
0.66156905889511108 0.620036780834198 0.28178107738494873
0.75733327865600586 0.61994880437850952 0.27106204628944397
0.85935395956039429 0.61791825294494629 0.25719493627548218
0.95374304056167603 0.6137387752532959 0.23921346664428711
0.99830895662307739 0.60885912179946899 0.21314352750778198
1 0.60424625873565674 0.1881774365901947
0.18881595134735107 0.71974629163742065 0.36191022396087646
0.21231107413768768 0.71887582540512085 0.36225894093513489
0.26000496745109558 0.71895343065261841 0.36245983839035034
0.33084848523139954 0.72044062614440918 0.36091327667236328
0.41045472025871277 0.72027623653411865 0.35756585001945496
0.4951416552066803 0.71727776527404785 0.35201835632324219
0.58299881219863892 0.71654409170150757 0.34484794735908508
0.67296409606933594 0.71666246652603149 0.33707097172737122
0.76737803220748901 0.719840407371521 0.32679024338722229
0.86709415912628174 0.71754461526870728 0.31307283043861389
0.95520490407943726 0.71272265911102295 0.29467204213142395
0.99755382537841797 0.70923691987991333 0.27110028266906738
1 0.70666664838790894 0.24789956212043762
0.240470290184021 0.81142586469650269 0.41343605518341064
0.26197078824043274 0.81279450654983521 0.41510066390037537
0.30351585149765015 0.81443041563034058 0.41735976934432983
0.36530187726020813 0.81665974855422974 0.41745981574058533
0.43800336122512817 0.81643104553222656 0.41447705030441284
0.51773887872695923 0.81361514329910278 0.40944358706474304
0.60261261463165283 0.8128851056098938 0.40293195843696594
0.69083636999130249 0.81271135807037354 0.39590635895729065
0.78271770477294922 0.81496268510818481 0.3861595094203949
0.8767012357711792 0.81456911563873291 0.37245273590087891
0.95724183320999146 0.80855292081832886 0.35433241724967957
0.99496001005172729 0.8081468939781189 0.33020627498626709
0.99998599290847778 0.80665159225463867 0.30778428912162781
0.31372806429862976 0.89701783657073975 0.46553859114646912
0.33565229177474976 0.90029233694076538 0.46842089295387268
0.37000307440757751 0.90360873937606812 0.4719451367855072
0.41801956295967102 0.90806758403778076 0.47348073124885559
0.47989284992218018 0.90809726715087891 0.47202223539352417
0.55149739980697632 0.90616130828857422 0.4677824079990387
0.63128566741943359 0.90329360961914062 0.46300318837165833
0.71689307689666748 0.90085309743881226 0.45722571015357971
0.80338513851165771 0.90267223119735718 0.44890734553337097
0.88493168354034424 0.90652120113372803 0.43592715263366699
0.95291733741760254 0.90235239267349243 0.41706427931785583
0.9883238673210144 0.89854711294174194 0.39269021153450012
0.9991610050201416 0.89685022830963135 0.36916026473045349
0.40669903159141541 0.96617573499679565 0.51861852407455444
0.42594414949417114 0.97162634134292603 0.52198368310928345
0.45213678479194641 0.97660189867019653 0.52569502592086792
0.48853108286857605 0.98140144348144531 0.52824515104293823
0.5386967658996582 0.98252677917480469 0.52704048156738281
0.59933435916900635 0.98166954517364502 0.5246616005897522
0.67229104042053223 0.97849065065383911 0.52229815721511841
0.75363320112228394 0.97306376695632935 0.51901233196258545
0.83464431762695312 0.97048556804656982 0.51509290933609009
0.90809041261672974 0.97093862295150757 0.50587934255599976
0.96360695362091064 0.96950489282608032 0.48703762888908386
0.99293845891952515 0.96859979629516602 0.4605158269405365
0.99987131357192993 0.96688985824584961 0.43533563613891602
0.50976204872131348 0.99933469295501709 0.57238203287124634
0.52365380525588989 0.99999767541885376 0.57440567016601562
0.5422133207321167 1 0.57646805047988892
0.57035869359970093 1 0.57795155048370361
0.61068332195281982 1 0.57782363891601562
0.6627504825592041 1 0.57750189304351807
0.72705340385437012 1 0.57737535238265991
0.79995238780975342 1 0.5773804783821106
0.87541687488555908 0.99984133243560791 0.57761102914810181
0.94586008787155151 0.99872738122940063 0.57544577121734619
0.9899451732635498 0.99889677762985229 0.55685770511627197
0.99989926815032959 0.99967795610427856 0.52729833126068115
1 0.99960792064666748 0.50077337026596069
0.024635106325149536 0.022260209545493126 0.066702358424663544
0.086882524192333221 0.019612271338701248 0.062910713255405426
0.16165079176425934 0.02032044343650341 0.058224577456712723
0.24156175553798676 0.023400265723466873 0.051879927515983582
0.3251681923866272 0.026036132127046585 0.044230278581380844
0.41345664858818054 0.02409127913415432 0.040109027177095413
0.50723123550415039 0.018027495592832565 0.039749011397361755
0.60863709449768066 0.012473746202886105 0.034735452383756638
0.71713906526565552 0.0083787506446242332 0.023618750274181366
0.82903814315795898 0.006472898181527853 0.01184418611228466
0.9345850944519043 0.0091957394033670425 0.003987031988799572
0.99722450971603394 0.014424103312194347 0.00022780474682804197
1 0.022271353751420975 0
0.048166431486606598 0.099263451993465424 0.10028963536024094
0.10068045556545258 0.097154282033443451 0.097456745803356171
0.17106512188911438 0.094363011419773102 0.092570692300796509
0.24945056438446045 0.093798786401748657 0.086792886257171631
0.33144393563270569 0.093079283833503723 0.080113217234611511
0.418121337890625 0.08909047394990921 0.074902988970279694
0.51097214221954346 0.082197614014148712 0.069123752415180206
0.61130493879318237 0.073847569525241852 0.059214305132627487
0.71826773881912231 0.063928358256816864 0.044348325580358505
0.82782536745071411 0.056040234863758087 0.02871684730052948
0.93200457096099854 0.056195024400949478 0.018496420234441757
0.99607014656066895 0.059204671531915665 0.0087325004860758781
1 0.065381832420825958 0.0027494092937558889
0.078032396733760834 0.18091873824596405 0.1351141482591629
0.12173647433519363 0.1799759715795517 0.13212919235229492
0.18378390371799469 0.17714951932430267 0.12865118682384491
0.25943633913993835 0.17392261326313019 0.12509158253669739
0.33945629000663757 0.17065200209617615 0.1185741052031517
0.4244421124458313 0.16642557084560394 0.11152457445859909
0.51633554697036743 0.16029439866542816 0.1021709069609642
0.61631566286087036 0.15216684341430664 0.089298456907272339
0.72388333082199097 0.14101716876029968 0.073562994599342346
0.83302408456802368 0.13056571781635284 0.057599443942308426
0.93301808834075928 0.12421631067991257 0.042691458016633987
0.99563342332839966 0.12245424836874008 0.03012777678668499
1 0.12596842646598816 0.02186037041246891
0.092685848474502563 0.26311060786247253 0.17166800796985626
0.13308665156364441 0.26136928796768188 0.16841186583042145
0.19247740507125854 0.25921881198883057 0.16572156548500061
0.26813456416130066 0.2565828263759613 0.16358716785907745
0.34848859906196594 0.2539685070514679 0.15752501785755157
0.4321746826171875 0.2515922486782074 0.14931200444698334
0.52303236722946167 0.24702577292919159 0.13884973526000977
0.62314635515213013 0.23929020762443542 0.12591046094894409
0.73102521896362305 0.22842206060886383 0.11047641187906265
0.83981823921203613 0.21773679554462433 0.094118215143680573
0.937019944190979 0.20973247289657593 0.076743572950363159
0.99646562337875366 0.20529349148273468 0.061646286398172379
1 0.20583526790142059 0.051162015646696091
0.095798015594482422 0.34814050793647766 0.21052160859107971
0.13525176048278809 0.34520837664604187 0.20632649958133698
0.19720728695392609 0.34313526749610901 0.20448297262191772
0.27562674880027771 0.34155574440956116 0.20185466110706329
0.35784050822257996 0.34072226285934448 0.19720658659934998
0.4412725567817688 0.34003320336341858 0.18937067687511444
0.53127622604370117 0.33733507990837097 0.17950400710105896
0.63113313913345337 0.3304806649684906 0.16744621098041534
0.73803693056106567 0.32106888294219971 0.15326671302318573
0.84527933597564697 0.31212088465690613 0.13718180358409882
0.94037973880767822 0.30520403385162354 0.11882054805755615
0.99654686450958252 0.30040916800498962 0.1004173755645752
1 0.29817217588424683 0.085783489048480988
0.10225016623735428 0.43755176663398743 0.25074979662895203
0.14295996725559235 0.43425837159156799 0.2466956228017807
0.20630134642124176 0.43228533864021301 0.24416095018386841
0.28429022431373596 0.43193492293357849 0.24135699868202209
0.36611640453338623 0.43169590830802917 0.23759001493453979
0.45051106810569763 0.43124616146087646 0.23115098476409912
0.5412941575050354 0.42890670895576477 0.22270201146602631
0.63938713073730469 0.42397153377532959 0.21228080987930298
0.74367111921310425 0.41732582449913025 0.19966194033622742
0.84938186407089233 0.41061687469482422 0.18437859416007996
0.94371050596237183 0.40450596809387207 0.16520306468009949
0.99651873111724854 0.39890322089195251 0.14178651571273804
1 0.39516377449035645 0.12103734910488129
0.1149112656712532 0.53151065111160278 0.29260408878326416
0.15516321361064911 0.52815455198287964 0.28928616642951965
0.21786732971668243 0.52745097875595093 0.28639748692512512
0.29481878876686096 0.52745097875595093 0.28352394700050354
0.3750130832195282 0.5268898606300354 0.28081026673316956
0.46019536256790161 0.52501672506332397 0.27540796995162964
0.5512930154800415 0.52300566434860229 0.26796481013298035
0.64714324474334717 0.52024096250534058 0.25888910889625549
0.74762427806854248 0.51682323217391968 0.24797186255455017
0.85104858875274658 0.51236343383789062 0.23365266621112823
0.9453698992729187 0.50652164220809937 0.21413466334342957
0.99576032161712646 0.49985453486442566 0.18599031865596771
1 0.49454870820045471 0.15834204852581024
0.13427522778511047 0.62755113840103149 0.33705988526344299
0.16971619427204132 0.62420815229415894 0.3354741632938385
0.2282903790473938 0.62395834922790527 0.33379611372947693
0.30332079529762268 0.62395834922790527 0.33159688115119934
0.38471522927284241 0.62341958284378052 0.32855454087257385
0.47164043784141541 0.62036752700805664 0.32314500212669373
0.56267952919006348 0.61872029304504395 0.31570520997047424
0.655983567237854 0.61809855699539185 0.30774971842765808
0.75188171863555908 0.61817657947540283 0.29790511727333069
0.8520662784576416 0.615650475025177 0.28434479236602783
0.94280827045440674 0.61014693975448608 0.26506370306015015
0.99366945028305054 0.60397571325302124 0.23790769279003143
1 0.59890693426132202 0.21239086985588074
0.16580358147621155 0.72151178121566772 0.38632720708847046
0.19546140730381012 0.72046881914138794 0.38553974032402039
0.2479078620672226 0.72046566009521484 0.38562807440757751
0.31909418106079102 0.72046566009521484 0.38420578837394714
0.40012165904045105 0.72035402059555054 0.38091084361076355
0.48701351881027222 0.71703034639358521 0.37490421533584595
0.57760971784591675 0.7148977518081665 0.36693876981735229
0.66873180866241455 0.71588534116744995 0.35977652668952942
0.76229631900787354 0.71810656785964966 0.35088083148002625
0.86058163642883301 0.71630054712295532 0.33790645003318787
0.94818407297134399 0.71082019805908203 0.31955152750015259
0.99576312303543091 0.70694160461425781 0.29586946964263916
1 0.70378780364990234 0.27415090799331665
0.21855081617832184 0.81663858890533447 0.43772241473197937
0.24483704566955566 0.81642061471939087 0.43811202049255371
0.2904326319694519 0.81653916835784912 0.4395507276058197
0.3534209132194519 0.81692278385162354 0.43916326761245728
0.42796200513839722 0.8168148398399353 0.43622082471847534
0.50990527868270874 0.81388980150222778 0.43057295680046082
0.59682381153106689 0.81222081184387207 0.42387568950653076
0.68574899435043335 0.81281197071075439 0.41713011264801025
0.77763479948043823 0.8152000904083252 0.40825673937797546
0.87266266345977783 0.81398433446884155 0.3952217698097229
0.95693618059158325 0.80890756845474243 0.37758627533912659
0.9978640079498291 0.80672210454940796 0.35522046685218811
1 0.80607783794403076 0.33474865555763245
0.2964552640914917 0.9065544605255127 0.48997047543525696
0.32142901420593262 0.90530037879943848 0.49231889843940735
0.3584749698638916 0.9054836630821228 0.4947802722454071
0.40873381495475769 0.90736186504364014 0.49544394016265869
0.47146138548851013 0.9074331521987915 0.49253323674201965
0.54417294263839722 0.90581953525543213 0.48832216858863831
0.62497031688690186 0.90328001976013184 0.48352620005607605
0.70993053913116455 0.90256744623184204 0.47806769609451294
0.79608935117721558 0.90399169921875 0.46989595890045166
0.88206827640533447 0.90431463718414307 0.45723024010658264
0.95863097906112671 0.90112388134002686 0.43959498405456543
0.99603080749511719 0.90065568685531616 0.41725888848304749
0.99995064735412598 0.90093636512756348 0.39596256613731384
0.4020419716835022 0.97664409875869751 0.54532420635223389
0.42178833484649658 0.97691571712493896 0.54781550168991089
0.44630005955696106 0.97852450609207153 0.54982119798660278
0.4826023280620575 0.9812626838684082 0.54985916614532471
0.53220784664154053 0.98236936330795288 0.54785358905792236
0.59401130676269531 0.98154455423355103 0.54560750722885132
0.66668045520782471 0.97900164127349854 0.54257959127426147
0.74550265073776245 0.976357102394104 0.54008191823959351
0.82497167587280273 0.9749332070350647 0.5345110297203064
0.90009677410125732 0.97417432069778442 0.52457129955291748
0.96154975891113281 0.97388303279876709 0.50743412971496582
0.99326545000076294 0.97653138637542725 0.48349389433860779
0.99967092275619507 0.97787553071975708 0.45996180176734924
0.52611714601516724 0.9999159574508667 0.60360813140869141
0.53114891052246094 1 0.60309833288192749
0.54235726594924927 1 0.60273098945617676
0.56737440824508667 1 0.60222238302230835
0.60613143444061279 1 0.60103344917297363
0.65791398286819458 1 0.59966683387756348
0.72126895189285278 1 0.59941071271896362
0.792044997215271 1 0.59957265853881836
0.86446446180343628 1 0.59735620021820068
0.9315645694732666 1 0.5908922553062439
0.98134392499923706 1 0.5743938684463501
0.99946743249893188 1 0.55007511377334595
1 1 0.52597355842590332
0.019716570153832436 0.020056631416082382 0.10918173938989639
0.076009593904018402 0.017291035503149033 0.10521876066923141
0.14952509105205536 0.016256503760814667 0.10040214657783508
0.22941358387470245 0.017615629360079765 0.092848896980285645
0.31396466493606567 0.018633345142006874 0.083741508424282074
0.40390533208847046 0.016018811613321304 0.078767783939838409
0.49947616457939148 0.011305506341159344 0.076434820890426636
0.6017029881477356 0.007913641631603241 0.068334139883518219
0.71095007658004761 0.0056277555413544178 0.055022638291120529
0.82412421703338623 0.0054520103149116039 0.03845590353012085
0.93079692125320435 0.0086986618116497993 0.019968997687101364
0.995322585105896 0.010901193134486675 0.0060364669188857079
1 0.012549515813589096 0.0011406094999983907
0.041149754077196121 0.092060953378677368 0.1422954648733139
0.090978629887104034 0.089449912309646606 0.13988478481769562
0.16110895574092865 0.086752362549304962 0.13529998064041138
0.23847450315952301 0.085250362753868103 0.12852272391319275
0.32070910930633545 0.083291642367839813 0.12144950777292252
0.40866374969482422 0.077941671013832092 0.1163230761885643
0.50264847278594971 0.071050100028514862 0.10941164940595627
0.60386878252029419 0.064311020076274872 0.097163915634155273
0.71211707592010498 0.057252321392297745 0.081299573183059692
0.8229602575302124 0.052429348230361938 0.063405923545360565
0.92430800199508667 0.050362858921289444 0.045626081526279449
0.99108195304870605 0.046734873205423355 0.028227008879184723
1 0.045975271612405777 0.015690688043832779
0.072934843599796295 0.17334543168544769 0.17688868939876556
0.11539080739021301 0.17216680943965912 0.17388428747653961
0.17277567088603973 0.17006228864192963 0.16955684125423431
0.24738949537277222 0.16602951288223267 0.1652565598487854
0.32788091897964478 0.16213557124137878 0.15913853049278259
0.41378632187843323 0.15694379806518555 0.15214468538761139
0.5070376992225647 0.14991456270217896 0.14283919334411621
0.60845804214477539 0.14180628955364227 0.12984107434749603
0.71630191802978516 0.13291147351264954 0.11393313109874725
0.82465976476669312 0.1242687776684761 0.096394360065460205
0.92149877548217773 0.11609793454408646 0.078154347836971283
0.98840594291687012 0.10727161914110184 0.059860318899154663
1 0.10397826880216599 0.044904910027980804
0.08449205756187439 0.25679495930671692 0.21124210953712463
0.12350346893072128 0.25547844171524048 0.20763151347637177
0.18042862415313721 0.25329333543777466 0.20482237637042999
0.25613534450531006 0.25020691752433777 0.20232702791690826
0.33620327711105347 0.24800066649913788 0.19626486301422119
0.42052677273750305 0.24493756890296936 0.18834730982780457
0.51335930824279785 0.23861406743526459 0.17872244119644165
0.6150088906288147 0.23040243983268738 0.16653929650783539
0.72313159704208374 0.22070963680744171 0.15162025392055511
0.83075296878814697 0.21171209216117859 0.13528256118297577
0.92662525177001953 0.20331324636936188 0.1173277348279953
0.99147194623947144 0.19493700563907623 0.098658591508865356
1 0.18886667490005493 0.082512922585010529
0.081480376422405243 0.34304934740066528 0.24738395214080811
0.1191016286611557 0.34091067314147949 0.24305413663387299
0.18401367962360382 0.33826127648353577 0.24198049306869507
0.2649402916431427 0.33601391315460205 0.2393941730260849
0.34628638625144958 0.33582925796508789 0.23419541120529175
0.43039646744728088 0.33475804328918457 0.22701507806777954
0.52199065685272217 0.33089199662208557 0.2178792804479599
0.62318426370620728 0.3236885666847229 0.20666885375976562
0.7308582067489624 0.31507515907287598 0.19338859617710114
0.83808821439743042 0.3074495792388916 0.17813639342784882
0.93430870771408081 0.30128765106201172 0.1607716828584671
0.99538683891296387 0.29511371254920959 0.1416410505771637
1 0.28715428709983826 0.12309280037879944
0.085303574800491333 0.43328234553337097 0.28596216440200806
0.12741225957870483 0.4304681122303009 0.28164196014404297
0.19317944347858429 0.42813247442245483 0.27943289279937744
0.27310043573379517 0.42741098999977112 0.27750590443611145
0.3554491400718689 0.42744675278663635 0.2731207013130188
0.44081291556358337 0.42666882276535034 0.26714590191841125
0.53294634819030762 0.42382451891899109 0.25920525193214417
