films/fuji_neopan_1600_+.cube
# Created by: G'MIC (https://gmic.eu)
TITLE "fuji_neopan_1600_+"
# LUT size
LUT_3D_SIZE 13
# Data domain
DOMAIN_MIN 0.0 0.0 0.0
DOMAIN_MAX 1.0 1.0 1.0
# LUT data points
0.084896281361579895 0.084896281361579895 0.084896281361579895
0.079727143049240112 0.079727143049240112 0.079727143049240112
0.081811480224132538 0.081811480224132538 0.081811480224132538
0.091282382607460022 0.091282382607460022 0.091282382607460022
0.10632928460836411 0.10632928460836411 0.10632928460836411
0.12515750527381897 0.12515750527381897 0.12515750527381897
0.14780585467815399 0.14780585467815399 0.14780585467815399
0.17972297966480255 0.17972297966480255 0.17972297966480255
0.22259749472141266 0.22259749472141266 0.22259749472141266
0.27157294750213623 0.27157294750213623 0.27157294750213623
0.32671186327934265 0.32671186327934265 0.32671186327934265
0.38923832774162292 0.38923832774162292 0.38923832774162292
0.45591875910758972 0.45591875910758972 0.45591875910758972
0.093038849532604218 0.093038849532604218 0.093038849532604218
0.088023930788040161 0.088023930788040161 0.088023930788040161
0.091177202761173248 0.091177202761173248 0.091177202761173248
0.10285436362028122 0.10285436362028122 0.10285436362028122
0.12126114964485168 0.12126114964485168 0.12126114964485168
0.14415149390697479 0.14415149390697479 0.14415149390697479
0.17030128836631775 0.17030128836631775 0.17030128836631775
0.20383311808109283 0.20383311808109283 0.20383311808109283
0.24609100818634033 0.24609100818634033 0.24609100818634033
0.29259005188941956 0.29259005188941956 0.29259005188941956
0.34434649348258972 0.34434649348258972 0.34434649348258972
0.40654003620147705 0.40654003620147705 0.40654003620147705
0.47529056668281555 0.47529056668281555 0.47529056668281555
0.11233572661876678 0.11233572661876678 0.11233572661876678
0.10741046071052551 0.10741046071052551 0.10741046071052551
0.11102759838104248 0.11102759838104248 0.11102759838104248
0.12588544189929962 0.12588544189929962 0.12588544189929962
0.14923299849033356 0.14923299849033356 0.14923299849033356
0.17739211022853851 0.17739211022853851 0.17739211022853851
0.20958548784255981 0.20958548784255981 0.20958548784255981
0.24600766599178314 0.24600766599178314 0.24600766599178314
0.28685414791107178 0.28685414791107178 0.28685414791107178
0.33013516664505005 0.33013516664505005 0.33013516664505005
0.37676265835762024 0.37676265835762024 0.37676265835762024
0.43724328279495239 0.43724328279495239 0.43724328279495239
0.50858598947525024 0.50858598947525024 0.50858598947525024
0.14395032823085785 0.14395032823085785 0.14395032823085785
0.14007957279682159 0.14007957279682159 0.14007957279682159
0.14527495205402374 0.14527495205402374 0.14527495205402374
0.16209863126277924 0.16209863126277924 0.16209863126277924
0.18873919546604156 0.18873919546604156 0.18873919546604156
0.22123794257640839 0.22123794257640839 0.22123794257640839
0.25845924019813538 0.25845924019813538 0.25845924019813538
0.29875218868255615 0.29875218868255615 0.29875218868255615
0.34138667583465576 0.34138667583465576 0.34138667583465576
0.38628974556922913 0.38628974556922913 0.38628974556922913
0.43446770310401917 0.43446770310401917 0.43446770310401917
0.49335870146751404 0.49335870146751404 0.49335870146751404
0.5608094334602356 0.5608094334602356 0.5608094334602356
0.18646237254142761 0.18646237254142761 0.18646237254142761
0.18664442002773285 0.18664442002773285 0.18664442002773285
0.1947578638792038 0.1947578638792038 0.1947578638792038
0.21164077520370483 0.21164077520370483 0.21164077520370483
0.23714342713356018 0.23714342713356018 0.23714342713356018
0.27040272951126099 0.27040272951126099 0.27040272951126099
0.31006002426147461 0.31006002426147461 0.31006002426147461
0.35431563854217529 0.35431563854217529 0.35431563854217529
0.40245252847671509 0.40245252847671509 0.40245252847671509
0.4544159471988678 0.4544159471988678 0.4544159471988678
0.50877493619918823 0.50877493619918823 0.50877493619918823
0.56719291210174561 0.56719291210174561 0.56719291210174561
0.62803053855895996 0.62803053855895996 0.62803053855895996
0.23771756887435913 0.23771756887435913 0.23771756887435913
0.24243898689746857 0.24243898689746857 0.24243898689746857
0.25289762020111084 0.25289762020111084 0.25289762020111084
0.2687760591506958 0.2687760591506958 0.2687760591506958
0.29127877950668335 0.29127877950668335 0.29127877950668335
0.32159149646759033 0.32159149646759033 0.32159149646759033
0.36022603511810303 0.36022603511810303 0.36022603511810303
0.40674504637718201 0.40674504637718201 0.40674504637718201
0.46093606948852539 0.46093606948852539 0.46093606948852539
0.52144086360931396 0.52144086360931396 0.52144086360931396
0.58144110441207886 0.58144110441207886 0.58144110441207886
0.6419144868850708 0.6419144868850708 0.6419144868850708
0.70036309957504272 0.70036309957504272 0.70036309957504272
0.30120435357093811 0.30120435357093811 0.30120435357093811
0.30817115306854248 0.30817115306854248 0.30817115306854248
0.31902730464935303 0.31902730464935303 0.31902730464935303
0.33253893256187439 0.33253893256187439 0.33253893256187439
0.35075724124908447 0.35075724124908447 0.35075724124908447
0.37584570050239563 0.37584570050239563 0.37584570050239563
0.41004329919815063 0.41004329919815063 0.41004329919815063
0.45629990100860596 0.45629990100860596 0.45629990100860596
0.51310503482818604 0.51310503482818604 0.51310503482818604
0.57604086399078369 0.57604086399078369 0.57604086399078369
0.64035218954086304 0.64035218954086304 0.64035218954086304
0.70564442873001099 0.70564442873001099 0.70564442873001099
0.7658042311668396 0.7658042311668396 0.7658042311668396
0.38255825638771057 0.38255825638771057 0.38255825638771057
0.38713553547859192 0.38713553547859192 0.38713553547859192
0.39591550827026367 0.39591550827026367 0.39591550827026367
0.40601226687431335 0.40601226687431335 0.40601226687431335
0.41973379254341125 0.41973379254341125 0.41973379254341125
0.43867599964141846 0.43867599964141846 0.43867599964141846
0.46629506349563599 0.46629506349563599 0.46629506349563599
0.51003503799438477 0.51003503799438477 0.51003503799438477
0.56454885005950928 0.56454885005950928 0.56454885005950928
0.62348300218582153 0.62348300218582153 0.62348300218582153
0.68579834699630737 0.68579834699630737 0.68579834699630737
0.75054758787155151 0.75054758787155151 0.75054758787155151
0.8088105320930481 0.8088105320930481 0.8088105320930481
0.47490859031677246 0.47490859031677246 0.47490859031677246
0.47874510288238525 0.47874510288238525 0.47874510288238525
0.48484304547309875 0.48484304547309875 0.48484304547309875
0.49254640936851501 0.49254640936851501 0.49254640936851501
0.50308138132095337 0.50308138132095337 0.50308138132095337
0.51859802007675171 0.51859802007675171 0.51859802007675171
0.54191213846206665 0.54191213846206665 0.54191213846206665
0.57882356643676758 0.57882356643676758 0.57882356643676758
0.62430405616760254 0.62430405616760254 0.62430405616760254
0.67159044742584229 0.67159044742584229 0.67159044742584229
0.72457790374755859 0.72457790374755859 0.72457790374755859
0.78504770994186401 0.78504770994186401 0.78504770994186401
0.83945918083190918 0.83945918083190918 0.83945918083190918
0.57925784587860107 0.57925784587860107 0.57925784587860107
0.58141851425170898 0.58141851425170898 0.58141851425170898
0.58549731969833374 0.58549731969833374 0.58549731969833374
0.59117585420608521 0.59117585420608521 0.59117585420608521
0.60019040107727051 0.60019040107727051 0.60019040107727051
0.61465513706207275 0.61465513706207275 0.61465513706207275
0.63567215204238892 0.63567215204238892 0.63567215204238892
0.66399508714675903 0.66399508714675903 0.66399508714675903
0.69692838191986084 0.69692838191986084 0.69692838191986084
0.73017311096191406 0.73017311096191406 0.73017311096191406
0.77051538228988647 0.77051538228988647 0.77051538228988647
0.82347041368484497 0.82347041368484497 0.82347041368484497
0.87243694067001343 0.87243694067001343 0.87243694067001343
0.69068628549575806 0.69068628549575806 0.69068628549575806
0.69131863117218018 0.69131863117218018 0.69131863117218018
0.69254493713378906 0.69254493713378906 0.69254493713378906
0.69647097587585449 0.69647097587585449 0.69647097587585449
0.70466434955596924 0.70466434955596924 0.70466434955596924
0.71805214881896973 0.71805214881896973 0.71805214881896973
0.73529309034347534 0.73529309034347534 0.73529309034347534
0.75676769018173218 0.75676769018173218 0.75676769018173218
0.781158447265625 0.781158447265625 0.781158447265625
0.80601376295089722 0.80601376295089722 0.80601376295089722
0.83568751811981201 0.83568751811981201 0.83568751811981201
0.87374973297119141 0.87374973297119141 0.87374973297119141
0.91226083040237427 0.91226083040237427 0.91226083040237427
0.80354136228561401 0.80354136228561401 0.80354136228561401
0.80020081996917725 0.80020081996917725 0.80020081996917725
0.79778921604156494 0.79778921604156494 0.79778921604156494
0.7997094988822937 0.7997094988822937 0.7997094988822937
0.80765700340270996 0.80765700340270996 0.80765700340270996
0.82048600912094116 0.82048600912094116 0.82048600912094116
0.83433657884597778 0.83433657884597778 0.83433657884597778
0.84961968660354614 0.84961968660354614 0.84961968660354614
0.86871391534805298 0.86871391534805298 0.86871391534805298
0.88647162914276123 0.88647162914276123 0.88647162914276123
0.90531212091445923 0.90531212091445923 0.90531212091445923
0.92961728572845459 0.92961728572845459 0.92961728572845459
0.95707076787948608 0.95707076787948608 0.95707076787948608
0.90417927503585815 0.90417927503585815 0.90417927503585815
0.8976103663444519 0.8976103663444519 0.8976103663444519
0.8928985595703125 0.8928985595703125 0.8928985595703125
0.89361512660980225 0.89361512660980225 0.89361512660980225
0.90090262889862061 0.90090262889862061 0.90090262889862061
0.91331058740615845 0.91331058740615845 0.91331058740615845
0.92382025718688965 0.92382025718688965 0.92382025718688965
0.93322843313217163 0.93322843313217163 0.93322843313217163
0.94695472717285156 0.94695472717285156 0.94695472717285156
0.95897758007049561 0.95897758007049561 0.95897758007049561
0.96950280666351318 0.96950280666351318 0.96950280666351318
0.98318904638290405 0.98318904638290405 0.98318904638290405
0.9955260157585144 0.9955260157585144 0.9955260157585144
0.083183929324150085 0.083183929324150085 0.083183929324150085
0.079946838319301605 0.079946838319301605 0.079946838319301605
0.084775649011135101 0.084775649011135101 0.084775649011135101
0.096366643905639648 0.096366643905639648 0.096366643905639648
0.11287949234247208 0.11287949234247208 0.11287949234247208
0.13305017352104187 0.13305017352104187 0.13305017352104187
0.1571887731552124 0.1571887731552124 0.1571887731552124
0.18799994885921478 0.18799994885921478 0.18799994885921478
0.22723141312599182 0.22723141312599182 0.22723141312599182
0.27401292324066162 0.27401292324066162 0.27401292324066162
0.32852637767791748 0.32852637767791748 0.32852637767791748
0.39046719670295715 0.39046719670295715 0.39046719670295715
0.45661008358001709 0.45661008358001709 0.45661008358001709
0.090927764773368835 0.090927764773368835 0.090927764773368835
0.088618122041225433 0.088618122041225433 0.088618122041225433
0.095158599317073822 0.095158599317073822 0.095158599317073822
0.10943685472011566 0.10943685472011566 0.10943685472011566
0.12936870753765106 0.12936870753765106 0.12936870753765106
0.15318146347999573 0.15318146347999573 0.15318146347999573
0.18039445579051971 0.18039445579051971 0.18039445579051971
0.21285109221935272 0.21285109221935272 0.21285109221935272
0.25156265497207642 0.25156265497207642 0.25156265497207642
0.29629513621330261 0.29629513621330261 0.29629513621330261
0.34867823123931885 0.34867823123931885 0.34867823123931885
0.41019359230995178 0.41019359230995178 0.41019359230995178
0.4781152606010437 0.4781152606010437 0.4781152606010437
0.11152318120002747 0.11152318120002747 0.11152318120002747
0.11043231189250946 0.11043231189250946 0.11043231189250946
0.11819766461849213 0.11819766461849213 0.11819766461849213
0.13474844396114349 0.13474844396114349 0.13474844396114349
0.15878832340240479 0.15878832340240479 0.15878832340240479
0.18787743151187897 0.18787743151187897 0.18787743151187897
0.22050389647483826 0.22050389647483826 0.22050389647483826
0.25553098320960999 0.25553098320960999 0.25553098320960999
0.2934114933013916 0.2934114933013916 0.2934114933013916
0.33562299609184265 0.33562299609184265 0.33562299609184265
0.38484182953834534 0.38484182953834534 0.38484182953834534
0.44495591521263123 0.44495591521263123 0.44495591521263123
0.51310920715332031 0.51310920715332031 0.51310920715332031
0.14686678349971771 0.14686678349971771 0.14686678349971771
0.14743874967098236 0.14743874967098236 0.14743874967098236
0.1560930460691452 0.1560930460691452 0.1560930460691452
0.17371925711631775 0.17371925711631775 0.17371925711631775
0.20006032288074493 0.20006032288074493 0.20006032288074493
0.23357725143432617 0.23357725143432617 0.23357725143432617
0.2717253565788269 0.2717253565788269 0.2717253565788269
0.31087729334831238 0.31087729334831238 0.31087729334831238
0.34955185651779175 0.34955185651779175 0.34955185651779175
0.39197885990142822 0.39197885990142822 0.39197885990142822
0.44138115644454956 0.44138115644454956 0.44138115644454956
0.5001976490020752 0.5001976490020752 0.5001976490020752
0.56525444984436035 0.56525444984436035 0.56525444984436035
0.19582457840442657 0.19582457840442657 0.19582457840442657
0.19856303930282593 0.19856303930282593 0.19856303930282593
0.20765632390975952 0.20765632390975952 0.20765632390975952
0.22389291226863861 0.22389291226863861 0.22389291226863861
0.24957971274852753 0.24957971274852753 0.24957971274852753
0.28375893831253052 0.28375893831253052 0.28375893831253052
0.32533121109008789 0.32533121109008789 0.32533121109008789
0.3682401180267334 0.3682401180267334 0.3682401180267334
0.41058623790740967 0.41058623790740967 0.41058623790740967
0.45838305354118347 0.45838305354118347 0.45838305354118347
0.51191526651382446 0.51191526651382446 0.51191526651382446
0.57072693109512329 0.57072693109512329 0.57072693109512329
0.63142311573028564 0.63142311573028564 0.63142311573028564
0.25393256545066833 0.25393256545066833 0.25393256545066833
0.25853553414344788 0.25853553414344788 0.25853553414344788
0.26745545864105225 0.26745545864105225 0.26745545864105225
0.2808089554309845 0.2808089554309845 0.2808089554309845
0.30288004875183105 0.30288004875183105 0.30288004875183105
0.3336758017539978 0.3336758017539978 0.3336758017539978
0.37274768948554993 0.37274768948554993 0.37274768948554993
0.41767874360084534 0.41767874360084534 0.41767874360084534
0.46751859784126282 0.46751859784126282 0.46751859784126282
0.52339988946914673 0.52339988946914673 0.52339988946914673
0.58302766084671021 0.58302766084671021 0.58302766084671021
0.64427179098129272 0.64427179098129272 0.64427179098129272
0.70245730876922607 0.70245730876922607 0.70245730876922607
0.31891772150993347 0.31891772150993347 0.31891772150993347
0.32445457577705383 0.32445457577705383 0.32445457577705383
0.33265289664268494 0.33265289664268494 0.33265289664268494
0.34314259886741638 0.34314259886741638 0.34314259886741638
0.35992372035980225 0.35992372035980225 0.35992372035980225
0.38553473353385925 0.38553473353385925 0.38553473353385925
0.42019325494766235 0.42019325494766235 0.42019325494766235
0.46473395824432373 0.46473395824432373 0.46473395824432373
0.51904356479644775 0.51904356479644775 0.51904356479644775
0.57988554239273071 0.57988554239273071 0.57988554239273071
0.64376908540725708 0.64376908540725708 0.64376908540725708
0.70810341835021973 0.70810341835021973 0.70810341835021973
0.7661433219909668 0.7661433219909668 0.7661433219909668
0.39458993077278137 0.39458993077278137 0.39458993077278137
0.39919468760490417 0.39919468760490417 0.39919468760490417
0.40577569603919983 0.40577569603919983 0.40577569603919983
0.41286912560462952 0.41286912560462952 0.41286912560462952
0.4250456690788269 0.4250456690788269 0.4250456690788269
0.44627392292022705 0.44627392292022705 0.44627392292022705
0.47680884599685669 0.47680884599685669 0.47680884599685669
0.51897746324539185 0.51897746324539185 0.51897746324539185
0.57144057750701904 0.57144057750701904 0.57144057750701904
0.63005578517913818 0.63005578517913818 0.63005578517913818
0.69225782155990601 0.69225782155990601 0.69225782155990601
0.7553594708442688 0.7553594708442688 0.7553594708442688
0.81162148714065552 0.81162148714065552 0.81162148714065552
0.48023334145545959 0.48023334145545959 0.48023334145545959
0.48609307408332825 0.48609307408332825 0.48609307408332825
0.49194487929344177 0.49194487929344177 0.49194487929344177
0.49663689732551575 0.49663689732551575 0.49663689732551575
0.50545597076416016 0.50545597076416016 0.50545597076416016
0.52408140897750854 0.52408140897750854 0.52408140897750854
0.55086350440979004 0.55086350440979004 0.55086350440979004
0.58731687068939209 0.58731687068939209 0.58731687068939209
0.63185888528823853 0.63185888528823853 0.63185888528823853
0.6806793212890625 0.6806793212890625 0.6806793212890625
0.73441636562347412 0.73441636562347412 0.73441636562347412
0.79211658239364624 0.79211658239364624 0.79211658239364624
0.8442988395690918 0.8442988395690918 0.8442988395690918
0.58111464977264404 0.58111464977264404 0.58111464977264404
0.58661949634552002 0.58661949634552002 0.58661949634552002
0.5912749171257019 0.5912749171257019 0.5912749171257019
0.59537810087203979 0.59537810087203979 0.59537810087203979
0.60328817367553711 0.60328817367553711 0.60328817367553711
0.61868250370025635 0.61868250370025635 0.61868250370025635
0.64112156629562378 0.64112156629562378 0.64112156629562378
0.67005568742752075 0.67005568742752075 0.67005568742752075
0.70359665155410767 0.70359665155410767 0.70359665155410767
0.73952579498291016 0.73952579498291016 0.73952579498291016
0.78157263994216919 0.78157263994216919 0.78157263994216919
0.83052968978881836 0.83052968978881836 0.83052968978881836
0.87668472528457642 0.87668472528457642 0.87668472528457642
0.69345217943191528 0.69345217943191528 0.69345217943191528
0.69575679302215576 0.69575679302215576 0.69575679302215576
0.69793576002120972 0.69793576002120972 0.69793576002120972
0.7011532187461853 0.7011532187461853 0.7011532187461853
0.70835644006729126 0.70835644006729126 0.70835644006729126
0.72094041109085083 0.72094041109085083 0.72094041109085083
0.73862498998641968 0.73862498998641968 0.73862498998641968
0.76013839244842529 0.76013839244842529 0.76013839244842529
0.78438526391983032 0.78438526391983032 0.78438526391983032
0.81064134836196899 0.81064134836196899 0.81064134836196899
0.84135407209396362 0.84135407209396362 0.84135407209396362
0.87768298387527466 0.87768298387527466 0.87768298387527466
0.91451871395111084 0.91451871395111084 0.91451871395111084
0.80338823795318604 0.80338823795318604 0.80338823795318604
0.80316096544265747 0.80316096544265747 0.80316096544265747
0.80240523815155029 0.80240523815155029 0.80240523815155029
0.80413943529129028 0.80413943529129028 0.80413943529129028
0.81050735712051392 0.81050735712051392 0.81050735712051392
0.82115781307220459 0.82115781307220459 0.82115781307220459
0.83428144454956055 0.83428144454956055 0.83428144454956055
0.84950810670852661 0.84950810670852661 0.84950810670852661
0.86684215068817139 0.86684215068817139 0.86684215068817139
0.88521879911422729 0.88521879911422729 0.88521879911422729
0.90595567226409912 0.90595567226409912 0.90595567226409912
0.93007725477218628 0.93007725477218628 0.93007725477218628
0.95710653066635132 0.95710653066635132 0.95710653066635132
0.89993715286254883 0.89993715286254883 0.89993715286254883
0.89886504411697388 0.89886504411697388 0.89886504411697388
0.89658606052398682 0.89658606052398682 0.89658606052398682
0.89740300178527832 0.89740300178527832 0.89740300178527832
0.90264385938644409 0.90264385938644409 0.90264385938644409
0.91146636009216309 0.91146636009216309 0.91146636009216309
0.92082852125167847 0.92082852125167847 0.92082852125167847
0.93074923753738403 0.93074923753738403 0.93074923753738403
0.9425780177116394 0.9425780177116394 0.9425780177116394
0.95448869466781616 0.95448869466781616 0.95448869466781616
0.96712219715118408 0.96712219715118408 0.96712219715118408
0.98219239711761475 0.98219239711761475 0.98219239711761475
0.99489903450012207 0.99489903450012207 0.99489903450012207
0.088924884796142578 0.088924884796142578 0.088924884796142578
0.088569164276123047 0.088569164276123047 0.088569164276123047
0.096659444272518158 0.096659444272518158 0.096659444272518158
0.11104489862918854 0.11104489862918854 0.11104489862918854
0.12949194014072418 0.12949194014072418 0.12949194014072418
0.15055312216281891 0.15055312216281891 0.15055312216281891
0.17409497499465942 0.17409497499465942 0.17409497499465942
0.20250064134597778 0.20250064134597778 0.20250064134597778
0.23811204731464386 0.23811204731464386 0.23811204731464386
0.28232860565185547 0.28232860565185547 0.28232860565185547
0.33555993437767029 0.33555993437767029 0.33555993437767029
0.39727821946144104 0.39727821946144104 0.39727821946144104
0.46342149376869202 0.46342149376869202 0.46342149376869202
0.095382779836654663 0.095382779836654663 0.095382779836654663
0.097075477242469788 0.097075477242469788 0.097075477242469788
0.10800491273403168 0.10800491273403168 0.10800491273403168
0.12454614043235779 0.12454614043235779 0.12454614043235779
0.14662908017635345 0.14662908017635345 0.14662908017635345
0.17089919745922089 0.17089919745922089 0.17089919745922089
0.19739161431789398 0.19739161431789398 0.19739161431789398
0.22726269066333771 0.22726269066333771 0.22726269066333771
0.26232311129570007 0.26232311129570007 0.26232311129570007
0.30482706427574158 0.30482706427574158 0.30482706427574158
0.35636433959007263 0.35636433959007263 0.35636433959007263
0.41798555850982666 0.41798555850982666 0.41798555850982666
0.48537206649780273 0.48537206649780273 0.48537206649780273
0.1161249652504921 0.1161249652504921 0.1161249652504921
0.1202695369720459 0.1202695369720459 0.1202695369720459
0.13281317055225372 0.13281317055225372 0.13281317055225372
0.15227010846138 0.15227010846138 0.15227010846138
0.17694908380508423 0.17694908380508423 0.17694908380508423
0.20538945496082306 0.20538945496082306 0.20538945496082306
0.23684100806713104 0.23684100806713104 0.23684100806713104
0.26931482553482056 0.26931482553482056 0.26931482553482056
0.30395358800888062 0.30395358800888062 0.30395358800888062
0.3439851701259613 0.3439851701259613 0.3439851701259613
0.3933899998664856 0.3933899998664856 0.3933899998664856
0.45334929227828979 0.45334929227828979 0.45334929227828979
0.52023470401763916 0.52023470401763916 0.52023470401763916
0.15554587543010712 0.15554587543010712 0.15554587543010712
0.16136680543422699 0.16136680543422699 0.16136680543422699
0.17392063140869141 0.17392063140869141 0.17392063140869141
0.19313682615756989 0.19313682615756989 0.19313682615756989
0.21939311921596527 0.21939311921596527 0.21939311921596527
0.25188037753105164 0.25188037753105164 0.25188037753105164
0.28982418775558472 0.28982418775558472 0.28982418775558472
0.32608163356781006 0.32608163356781006 0.32608163356781006
0.35981109738349915 0.35981109738349915 0.35981109738349915
0.39948785305023193 0.39948785305023193 0.39948785305023193
0.44826611876487732 0.44826611876487732 0.44826611876487732
0.50671291351318359 0.50671291351318359 0.50671291351318359
0.57044953107833862 0.57044953107833862 0.57044953107833862
0.21223136782646179 0.21223136782646179 0.21223136782646179
0.21957114338874817 0.21957114338874817 0.21957114338874817
0.22919818758964539 0.22919818758964539 0.22919818758964539
0.24524959921836853 0.24524959921836853 0.24524959921836853
0.26987305283546448 0.26987305283546448 0.26987305283546448
0.30325585603713989 0.30325585603713989 0.30325585603713989
0.34497293829917908 0.34497293829917908 0.34497293829917908
0.38523393869400024 0.38523393869400024 0.38523393869400024
