films/fuji_neopan_1600_++.cube
# Created by: G'MIC (https://gmic.eu)
TITLE "fuji_neopan_1600_++"
# LUT size
LUT_3D_SIZE 13
# Data domain
DOMAIN_MIN 0.0 0.0 0.0
DOMAIN_MAX 1.0 1.0 1.0
# LUT data points
0.14257007837295532 0.14257007837295532 0.14257007837295532
0.13919574022293091 0.13919574022293091 0.13919574022293091
0.14140842854976654 0.14140842854976654 0.14140842854976654
0.14874756336212158 0.14874756336212158 0.14874756336212158
0.16021332144737244 0.16021332144737244 0.16021332144737244
0.17554621398448944 0.17554621398448944 0.17554621398448944
0.19434595108032227 0.19434595108032227 0.19434595108032227
0.21725857257843018 0.21725857257843018 0.21725857257843018
0.2461521178483963 0.2461521178483963 0.2461521178483963
0.28332436084747314 0.28332436084747314 0.28332436084747314
0.32949700951576233 0.32949700951576233 0.32949700951576233
0.38255596160888672 0.38255596160888672 0.38255596160888672
0.43987852334976196 0.43987852334976196 0.43987852334976196
0.15363050997257233 0.15363050997257233 0.15363050997257233
0.15069219470024109 0.15069219470024109 0.15069219470024109
0.15353575348854065 0.15353575348854065 0.15353575348854065
0.16186827421188354 0.16186827421188354 0.16186827421188354
0.1751520186662674 0.1751520186662674 0.1751520186662674
0.19204860925674438 0.19204860925674438 0.19204860925674438
0.21186250448226929 0.21186250448226929 0.21186250448226929
0.23449279367923737 0.23449279367923737 0.23449279367923737
0.26259082555770874 0.26259082555770874 0.26259082555770874
0.30077710747718811 0.30077710747718811 0.30077710747718811
0.35134035348892212 0.35134035348892212 0.35134035348892212
0.40953972935676575 0.40953972935676575 0.40953972935676575
0.46990516781806946 0.46990516781806946 0.46990516781806946
0.17130966484546661 0.17130966484546661 0.17130966484546661
0.16896654665470123 0.16896654665470123 0.16896654665470123
0.17251026630401611 0.17251026630401611 0.17251026630401611
0.18197637796401978 0.18197637796401978 0.18197637796401978
0.19718348979949951 0.19718348979949951 0.19718348979949951
0.21728043258190155 0.21728043258190155 0.21728043258190155
0.23959587514400482 0.23959587514400482 0.23959587514400482
0.26253369450569153 0.26253369450569153 0.26253369450569153
0.28958550095558167 0.28958550095558167 0.28958550095558167
0.32856342196464539 0.32856342196464539 0.32856342196464539
0.38631343841552734 0.38631343841552734 0.38631343841552734
0.4504915177822113 0.4504915177822113 0.4504915177822113
0.51295948028564453 0.51295948028564453 0.51295948028564453
0.19563442468643188 0.19563442468643188 0.19563442468643188
0.19372166693210602 0.19372166693210602 0.19372166693210602
0.19788840413093567 0.19788840413093567 0.19788840413093567
0.20803430676460266 0.20803430676460266 0.20803430676460266
0.22469513118267059 0.22469513118267059 0.22469513118267059
0.24858422577381134 0.24858422577381134 0.24858422577381134
0.27566105127334595 0.27566105127334595 0.27566105127334595
0.30197605490684509 0.30197605490684509 0.30197605490684509
0.33318242430686951 0.33318242430686951 0.33318242430686951
0.37679430842399597 0.37679430842399597 0.37679430842399597
0.4410187304019928 0.4410187304019928 0.4410187304019928
0.50785148143768311 0.50785148143768311 0.50785148143768311
0.56900006532669067 0.56900006532669067 0.56900006532669067
0.22635179758071899 0.22635179758071899 0.22635179758071899
0.22535029053688049 0.22535029053688049 0.22535029053688049
0.22983081638813019 0.22983081638813019 0.22983081638813019
0.23956537246704102 0.23956537246704102 0.23956537246704102
0.25633624196052551 0.25633624196052551 0.25633624196052551
0.28175210952758789 0.28175210952758789 0.28175210952758789
0.31387802958488464 0.31387802958488464 0.31387802958488464
0.34960156679153442 0.34960156679153442 0.34960156679153442
0.39321905374526978 0.39321905374526978 0.39321905374526978
0.44885668158531189 0.44885668158531189 0.44885668158531189
0.51511549949645996 0.51511549949645996 0.51511549949645996
0.57907235622406006 0.57907235622406006 0.57907235622406006
0.63492637872695923 0.63492637872695923 0.63492637872695923
0.2642005980014801 0.2642005980014801 0.2642005980014801
0.26480579376220703 0.26480579376220703 0.26480579376220703
0.2700502872467041 0.2700502872467041 0.2700502872467041
0.2782304584980011 0.2782304584980011 0.2782304584980011
0.2929660975933075 0.2929660975933075 0.2929660975933075
0.31896406412124634 0.31896406412124634 0.31896406412124634
0.35603266954421997 0.35603266954421997 0.35603266954421997
0.40120789408683777 0.40120789408683777 0.40120789408683777
0.45619824528694153 0.45619824528694153 0.45619824528694153
0.52270126342773438 0.52270126342773438 0.52270126342773438
0.59385871887207031 0.59385871887207031 0.59385871887207031
0.65338873863220215 0.65338873863220215 0.65338873863220215
0.70229887962341309 0.70229887962341309 0.70229887962341309
0.31038752198219299 0.31038752198219299 0.31038752198219299
0.31466901302337646 0.31466901302337646 0.31466901302337646
0.32234588265419006 0.32234588265419006 0.32234588265419006
0.32928016781806946 0.32928016781806946 0.32928016781806946
0.33986625075340271 0.33986625075340271 0.33986625075340271
0.36640632152557373 0.36640632152557373 0.36640632152557373
0.40649318695068359 0.40649318695068359 0.40649318695068359
0.45515045523643494 0.45515045523643494 0.45515045523643494
0.51486504077911377 0.51486504077911377 0.51486504077911377
0.5846867561340332 0.5846867561340332 0.5846867561340332
0.6557152271270752 0.6557152271270752 0.6557152271270752
0.7135968804359436 0.7135968804359436 0.7135968804359436
0.75933623313903809 0.75933623313903809 0.75933623313903809
0.37125292420387268 0.37125292420387268 0.37125292420387268
0.38153949379920959 0.38153949379920959 0.38153949379920959
0.3925931453704834 0.3925931453704834 0.3925931453704834
0.40057900547981262 0.40057900547981262 0.40057900547981262
0.41080507636070251 0.41080507636070251 0.41080507636070251
0.43405994772911072 0.43405994772911072 0.43405994772911072
0.46922218799591064 0.46922218799591064 0.46922218799591064
0.51286321878433228 0.51286321878433228 0.51286321878433228
0.56983309984207153 0.56983309984207153 0.56983309984207153
0.63636475801467896 0.63636475801467896 0.63636475801467896
0.70103073120117188 0.70103073120117188 0.70103073120117188
0.75639176368713379 0.75639176368713379 0.75639176368713379
0.8006930947303772 0.8006930947303772 0.8006930947303772
0.46114090085029602 0.46114090085029602 0.46114090085029602
0.47235387563705444 0.47235387563705444 0.47235387563705444
0.48430478572845459 0.48430478572845459 0.48430478572845459
0.49316692352294922 0.49316692352294922 0.49316692352294922
0.50310444831848145 0.50310444831848145 0.50310444831848145
0.5215383768081665 0.5215383768081665 0.5215383768081665
0.54874926805496216 0.54874926805496216 0.54874926805496216
0.58323633670806885 0.58323633670806885 0.58323633670806885
0.63201767206192017 0.63201767206192017 0.63201767206192017
0.69007432460784912 0.69007432460784912 0.69007432460784912
0.7454535961151123 0.7454535961151123 0.7454535961151123
0.79421770572662354 0.79421770572662354 0.79421770572662354
0.83506840467453003 0.83506840467453003 0.83506840467453003
0.57522368431091309 0.57522368431091309 0.57522368431091309
0.58323758840560913 0.58323758840560913 0.58323758840560913
0.59307605028152466 0.59307605028152466 0.59307605028152466
0.60108453035354614 0.60108453035354614 0.60108453035354614
0.60912966728210449 0.60912966728210449 0.60912966728210449
0.62273538112640381 0.62273538112640381 0.62273538112640381
0.64348751306533813 0.64348751306533813 0.64348751306533813
0.67160487174987793 0.67160487174987793 0.67160487174987793
0.70925921201705933 0.70925921201705933 0.70925921201705933
0.75311410427093506 0.75311410427093506 0.75311410427093506
0.79588639736175537 0.79588639736175537 0.79588639736175537
0.83521521091461182 0.83521521091461182 0.83521521091461182
0.87024140357971191 0.87024140357971191 0.87024140357971191
0.69474875926971436 0.69474875926971436 0.69474875926971436
0.70089954137802124 0.70089954137802124 0.70089954137802124
0.70828157663345337 0.70828157663345337 0.70828157663345337
0.71465021371841431 0.71465021371841431 0.71465021371841431
0.71919524669647217 0.71919524669647217 0.71919524669647217
0.72872012853622437 0.72872012853622437 0.72872012853622437
0.74441051483154297 0.74441051483154297 0.74441051483154297
0.76583015918731689 0.76583015918731689 0.76583015918731689
0.7930598258972168 0.7930598258972168 0.7930598258972168
0.8236767053604126 0.8236767053604126 0.8236767053604126
0.85300171375274658 0.85300171375274658 0.85300171375274658
0.88097852468490601 0.88097852468490601 0.88097852468490601
0.90801888704299927 0.90801888704299927 0.90801888704299927
0.80972015857696533 0.80972015857696533 0.80972015857696533
0.81205826997756958 0.81205826997756958 0.81205826997756958
0.81555581092834473 0.81555581092834473 0.81555581092834473
0.81884109973907471 0.81884109973907471 0.81884109973907471
0.82227241992950439 0.82227241992950439 0.82227241992950439
0.83014577627182007 0.83014577627182007 0.83014577627182007
0.84212309122085571 0.84212309122085571 0.84212309122085571
0.85612243413925171 0.85612243413925171 0.85612243413925171
0.87471067905426025 0.87471067905426025 0.87471067905426025
0.89566898345947266 0.89566898345947266 0.89566898345947266
0.91213434934616089 0.91213434934616089 0.91213434934616089
0.92870783805847168 0.92870783805847168 0.92870783805847168
0.94745868444442749 0.94745868444442749 0.94745868444442749
0.90969616174697876 0.90969616174697876 0.90969616174697876
0.90730798244476318 0.90730798244476318 0.90730798244476318
0.90595090389251709 0.90595090389251709 0.90595090389251709
0.90719789266586304 0.90719789266586304 0.90719789266586304
0.91078734397888184 0.91078734397888184 0.91078734397888184
0.91890019178390503 0.91890019178390503 0.91890019178390503
0.92860352993011475 0.92860352993011475 0.92860352993011475
0.93591368198394775 0.93591368198394775 0.93591368198394775
0.94611901044845581 0.94611901044845581 0.94611901044845581
0.95823431015014648 0.95823431015014648 0.95823431015014648
0.96705102920532227 0.96705102920532227 0.96705102920532227
0.97603839635848999 0.97603839635848999 0.97603839635848999
0.98686683177947998 0.98686683177947998 0.98686683177947998
0.13981339335441589 0.13981339335441589 0.13981339335441589
0.13647057116031647 0.13647057116031647 0.13647057116031647
0.13930898904800415 0.13930898904800415 0.13930898904800415
0.14685016870498657 0.14685016870498657 0.14685016870498657
0.15857724845409393 0.15857724845409393 0.15857724845409393
0.17354249954223633 0.17354249954223633 0.17354249954223633
0.19201028347015381 0.19201028347015381 0.19201028347015381
0.21517361700534821 0.21517361700534821 0.21517361700534821
0.24435023963451385 0.24435023963451385 0.24435023963451385
0.28164958953857422 0.28164958953857422 0.28164958953857422
0.32718935608863831 0.32718935608863831 0.32718935608863831
0.38121214509010315 0.38121214509010315 0.38121214509010315
0.43943196535110474 0.43943196535110474 0.43943196535110474
0.15108698606491089 0.15108698606491089 0.15108698606491089
0.14885517954826355 0.14885517954826355 0.14885517954826355
0.15232720971107483 0.15232720971107483 0.15232720971107483
0.16107039153575897 0.16107039153575897 0.16107039153575897
0.17416243255138397 0.17416243255138397 0.17416243255138397
0.19064876437187195 0.19064876437187195 0.19064876437187195
0.21038523316383362 0.21038523316383362 0.21038523316383362
0.23359832167625427 0.23359832167625427 0.23359832167625427
0.26293513178825378 0.26293513178825378 0.26293513178825378
0.30175614356994629 0.30175614356994629 0.30175614356994629
0.3512786328792572 0.3512786328792572 0.3512786328792572
0.40874835848808289 0.40874835848808289 0.40874835848808289
0.46991422772407532 0.46991422772407532 0.46991422772407532
0.16975727677345276 0.16975727677345276 0.16975727677345276
0.16858391463756561 0.16858391463756561 0.16858391463756561
0.17272089421749115 0.17272089421749115 0.17272089421749115
0.18267731368541718 0.18267731368541718 0.18267731368541718
0.19740049540996552 0.19740049540996552 0.19740049540996552
0.21658709645271301 0.21658709645271301 0.21658709645271301
0.23854455351829529 0.23854455351829529 0.23854455351829529
0.26326411962509155 0.26326411962509155 0.26326411962509155
0.29373151063919067 0.29373151063919067 0.29373151063919067
0.33536535501480103 0.33536535501480103 0.33536535501480103
0.39003264904022217 0.39003264904022217 0.39003264904022217
0.45207357406616211 0.45207357406616211 0.45207357406616211
0.51478826999664307 0.51478826999664307 0.51478826999664307
0.19587729871273041 0.19587729871273041 0.19587729871273041
0.19540184736251831 0.19540184736251831 0.19540184736251831
0.2007068544626236 0.2007068544626236 0.2007068544626236
0.21108461916446686 0.21108461916446686 0.21108461916446686
0.22709208726882935 0.22709208726882935 0.22709208726882935
0.24892958998680115 0.24892958998680115 0.24892958998680115
0.27495011687278748 0.27495011687278748 0.27495011687278748
0.30429071187973022 0.30429071187973022 0.30429071187973022
0.34021314978599548 0.34021314978599548 0.34021314978599548
0.38755983114242554 0.38755983114242554 0.38755983114242554
0.44739976525306702 0.44739976525306702 0.44739976525306702
0.51169973611831665 0.51169973611831665 0.51169973611831665
0.57302159070968628 0.57302159070968628 0.57302159070968628
0.22931171953678131 0.22931171953678131 0.22931171953678131
0.23045599460601807 0.23045599460601807 0.23045599460601807
0.23618189990520477 0.23618189990520477 0.23618189990520477
0.24592316150665283 0.24592316150665283 0.24592316150665283
0.26166406273841858 0.26166406273841858 0.26166406273841858
0.28555881977081299 0.28555881977081299 0.28555881977081299
0.31658610701560974 0.31658610701560974 0.31658610701560974
0.3540743887424469 0.3540743887424469 0.3540743887424469
0.40003404021263123 0.40003404021263123 0.40003404021263123
0.45652216672897339 0.45652216672897339 0.45652216672897339
0.52103710174560547 0.52103710174560547 0.52103710174560547
0.58463561534881592 0.58463561534881592 0.58463561534881592
0.64163410663604736 0.64163410663604736 0.64163410663604736
0.27081292867660522 0.27081292867660522 0.27081292867660522
0.27370503544807434 0.27370503544807434 0.27370503544807434
0.28015440702438354 0.28015440702438354 0.28015440702438354
0.28833329677581787 0.28833329677581787 0.28833329677581787
0.30224141478538513 0.30224141478538513 0.30224141478538513
0.32699453830718994 0.32699453830718994 0.32699453830718994
0.36282354593276978 0.36282354593276978 0.36282354593276978
0.40839877724647522 0.40839877724647522 0.40839877724647522
0.46396166086196899 0.46396166086196899 0.46396166086196899
0.52927249670028687 0.52927249670028687 0.52927249670028687
0.59768450260162354 0.59768450260162354 0.59768450260162354
0.66033071279525757 0.66033071279525757 0.66033071279525757
0.7131657600402832 0.7131657600402832 0.7131657600402832
0.32113736867904663 0.32113736867904663 0.32113736867904663
0.32682177424430847 0.32682177424430847 0.32682177424430847
0.33446401357650757 0.33446401357650757 0.33446401357650757
0.34117767214775085 0.34117767214775085 0.34117767214775085
0.35268968343734741 0.35268968343734741 0.35268968343734741
0.37711426615715027 0.37711426615715027 0.37711426615715027
0.41559740900993347 0.41559740900993347 0.41559740900993347
0.46463662385940552 0.46463662385940552 0.46463662385940552
0.52445310354232788 0.52445310354232788 0.52445310354232788
0.59267675876617432 0.59267675876617432 0.59267675876617432
0.66137981414794922 0.66137981414794922 0.66137981414794922
0.72234737873077393 0.72234737873077393 0.72234737873077393
0.77301585674285889 0.77301585674285889 0.77301585674285889
0.38634982705116272 0.38634982705116272 0.38634982705116272
0.3950132429599762 0.3950132429599762 0.3950132429599762
0.40460377931594849 0.40460377931594849 0.40460377931594849
0.41060319542884827 0.41060319542884827 0.41060319542884827
0.41954350471496582 0.41954350471496582 0.41954350471496582
0.4422353208065033 0.4422353208065033 0.4422353208065033
0.47884330153465271 0.47884330153465271 0.47884330153465271
0.5250735878944397 0.5250735878944397 0.5250735878944397
0.58163833618164062 0.58163833618164062 0.58163833618164062
0.64489644765853882 0.64489644765853882 0.64489644765853882
0.70831292867660522 0.70831292867660522 0.70831292867660522
0.76476454734802246 0.76476454734802246 0.76476454734802246
0.81059831380844116 0.81059831380844116 0.81059831380844116
0.4753042459487915 0.4753042459487915 0.4753042459487915
0.48472386598587036 0.48472386598587036 0.48472386598587036
0.49459061026573181 0.49459061026573181 0.49459061026573181
0.50012767314910889 0.50012767314910889 0.50012767314910889
0.50741708278656006 0.50741708278656006 0.50741708278656006
0.52637338638305664 0.52637338638305664 0.52637338638305664
0.55706632137298584 0.55706632137298584 0.55706632137298584
0.5955243706703186 0.5955243706703186 0.5955243706703186
0.64271193742752075 0.64271193742752075 0.64271193742752075
0.6960785984992981 0.6960785984992981 0.6960785984992981
0.74967497587203979 0.74967497587203979 0.74967497587203979
0.79955756664276123 0.79955756664276123 0.79955756664276123
0.84183716773986816 0.84183716773986816 0.84183716773986816
0.58516538143157959 0.58516538143157959 0.58516538143157959
0.59280669689178467 0.59280669689178467 0.59280669689178467
0.60111922025680542 0.60111922025680542 0.60111922025680542
0.60646718740463257 0.60646718740463257 0.60646718740463257
0.61267697811126709 0.61267697811126709 0.61267697811126709
0.62661862373352051 0.62661862373352051 0.62661862373352051
0.64937621355056763 0.64937621355056763 0.64937621355056763
0.67903316020965576 0.67903316020965576 0.67903316020965576
0.71482402086257935 0.71482402086257935 0.71482402086257935
0.75468039512634277 0.75468039512634277 0.75468039512634277
0.79636412858963013 0.79636412858963013 0.79636412858963013
0.8376653790473938 0.8376653790473938 0.8376653790473938
0.8747674822807312 0.8747674822807312 0.8747674822807312
0.70079261064529419 0.70079261064529419 0.70079261064529419
0.70698326826095581 0.70698326826095581 0.70698326826095581
0.71305996179580688 0.71305996179580688 0.71305996179580688
0.71747243404388428 0.71747243404388428 0.71747243404388428
0.72232234477996826 0.72232234477996826 0.72232234477996826
0.73203295469284058 0.73203295469284058 0.73203295469284058
0.74788409471511841 0.74788409471511841 0.74788409471511841
0.76884132623672485 0.76884132623672485 0.76884132623672485
0.7942962646484375 0.7942962646484375 0.7942962646484375
0.8224799633026123 0.8224799633026123 0.8224799633026123
0.85172516107559204 0.85172516107559204 0.85172516107559204
0.88194936513900757 0.88194936513900757 0.88194936513900757
0.9115215539932251 0.9115215539932251 0.9115215539932251
0.81008023023605347 0.81008023023605347 0.81008023023605347
0.81443911790847778 0.81443911790847778 0.81443911790847778
0.81768941879272461 0.81768941879272461 0.81768941879272461
0.82073342800140381 0.82073342800140381 0.82073342800140381
0.82430469989776611 0.82430469989776611 0.82430469989776611
0.83160483837127686 0.83160483837127686 0.83160483837127686
0.84254926443099976 0.84254926443099976 0.84254926443099976
0.85646253824234009 0.85646253824234009 0.85646253824234009
0.87338924407958984 0.87338924407958984 0.87338924407958984
0.8919985294342041 0.8919985294342041 0.8919985294342041
0.9108467698097229 0.9108467698097229 0.9108467698097229
0.9299132227897644 0.9299132227897644 0.9299132227897644
0.95135337114334106 0.95135337114334106 0.95135337114334106
0.90417307615280151 0.90417307615280151 0.90417307615280151
0.90665268898010254 0.90665268898010254 0.90665268898010254
0.90824306011199951 0.90824306011199951 0.90824306011199951
0.90934771299362183 0.90934771299362183 0.90934771299362183
0.91238182783126831 0.91238182783126831 0.91238182783126831
0.91854572296142578 0.91854572296142578 0.91854572296142578
0.92634201049804688 0.92634201049804688 0.92634201049804688
0.93441933393478394 0.93441933393478394 0.93441933393478394
0.94429183006286621 0.94429183006286621 0.94429183006286621
0.9553714394569397 0.9553714394569397 0.9553714394569397
0.96628272533416748 0.96628272533416748 0.96628272533416748
0.97807568311691284 0.97807568311691284 0.97807568311691284
0.99023610353469849 0.99023610353469849 0.99023610353469849
0.14275649189949036 0.14275649189949036 0.14275649189949036
0.14016783237457275 0.14016783237457275 0.14016783237457275
0.1436435878276825 0.1436435878276825 0.1436435878276825
0.15204621851444244 0.15204621851444244 0.15204621851444244
0.16432103514671326 0.16432103514671326 0.16432103514671326
0.17922753095626831 0.17922753095626831 0.17922753095626831
0.19757585227489471 0.19757585227489471 0.19757585227489471
0.2198554128408432 0.2198554128408432 0.2198554128408432
0.2493336945772171 0.2493336945772171 0.2493336945772171
0.28646516799926758 0.28646516799926758 0.28646516799926758
0.33104589581489563 0.33104589581489563 0.33104589581489563
0.38341835141181946 0.38341835141181946 0.38341835141181946
0.44359171390533447 0.44359171390533447 0.44359171390533447
0.15460552275180817 0.15460552275180817 0.15460552275180817
0.15297776460647583 0.15297776460647583 0.15297776460647583
0.15763507783412933 0.15763507783412933 0.15763507783412933
0.16729773581027985 0.16729773581027985 0.16729773581027985
0.18088617920875549 0.18088617920875549 0.18088617920875549
0.19738635420799255 0.19738635420799255 0.19738635420799255
0.21653890609741211 0.21653890609741211 0.21653890609741211
0.239641934633255 0.239641934633255 0.239641934633255
0.26968303322792053 0.26968303322792053 0.26968303322792053
0.30843096971511841 0.30843096971511841 0.30843096971511841
0.35607835650444031 0.35607835650444031 0.35607835650444031
0.41167172789573669 0.41167172789573669 0.41167172789573669
0.47401630878448486 0.47401630878448486 0.47401630878448486
0.17438961565494537 0.17438961565494537 0.17438961565494537
0.17422227561473846 0.17422227561473846 0.17422227561473846
0.1801697164773941 0.1801697164773941 0.1801697164773941
0.19091734290122986 0.19091734290122986 0.19091734290122986
0.20581617951393127 0.20581617951393127 0.20581617951393127
0.22418422996997833 0.22418422996997833 0.22418422996997833
0.24568849802017212 0.24568849802017212 0.24568849802017212
0.27104347944259644 0.27104347944259644 0.27104347944259644
0.30332866311073303 0.30332866311073303 0.30332866311073303
0.34521648287773132 0.34521648287773132 0.34521648287773132
0.3970094621181488 0.3970094621181488 0.3970094621181488
0.45619341731071472 0.45619341731071472 0.45619341731071472
0.51934331655502319 0.51934331655502319 0.51934331655502319
0.20260101556777954 0.20260101556777954 0.20260101556777954
0.20419123768806458 0.20419123768806458 0.20419123768806458
0.21110785007476807 0.21110785007476807 0.21110785007476807
0.22220417857170105 0.22220417857170105 0.22220417857170105
0.23775167763233185 0.23775167763233185 0.23775167763233185
0.25842365622520447 0.25842365622520447 0.25842365622520447
0.28336140513420105 0.28336140513420105 0.28336140513420105
0.31362536549568176 0.31362536549568176 0.31362536549568176
0.3511846661567688 0.3511846661567688 0.3511846661567688
0.39838063716888428 0.39838063716888428 0.39838063716888428
0.45468953251838684 0.45468953251838684 0.45468953251838684
0.51602673530578613 0.51602673530578613 0.51602673530578613
0.57754164934158325 0.57754164934158325 0.57754164934158325
0.23981635272502899 0.23981635272502899 0.23981635272502899
0.24387930333614349 0.24387930333614349 0.24387930333614349
0.25180593132972717 0.25180593132972717 0.25180593132972717
0.26168084144592285 0.26168084144592285 0.26168084144592285
0.27653807401657104 0.27653807401657104 0.27653807401657104
0.29872915148735046 0.29872915148735046 0.29872915148735046
0.32831081748008728 0.32831081748008728 0.32831081748008728
0.36535945534706116 0.36535945534706116 0.36535945534706116
0.41132116317749023 0.41132116317749023 0.41132116317749023
