films/fuji_superia_400.cube
# Created by: G'MIC (https://gmic.eu)
TITLE "fuji_superia_400"
# LUT size
LUT_3D_SIZE 13
# Data domain
DOMAIN_MIN 0.0 0.0 0.0
DOMAIN_MAX 1.0 1.0 1.0
# LUT data points
0.0087143545970320702 0.056856371462345123 0.048457637429237366
0.046122323721647263 0.059750903397798538 0.047659706324338913
0.1111079528927803 0.064522698521614075 0.048233017325401306
0.19737343490123749 0.067424103617668152 0.046963095664978027
0.3050365149974823 0.060572277754545212 0.043598562479019165
0.42786598205566406 0.038688525557518005 0.039074137806892395
0.55819523334503174 0.019950268790125847 0.031252410262823105
0.68460166454315186 0.012486940249800682 0.018921168521046638
0.79309040307998657 0.011001018807291985 0.0061432630755007267
0.87663161754608154 0.013481155037879944 0.0002667595399543643
0.94838017225265503 0.051000185310840607 0.00089127785759046674
0.99631774425506592 0.13680467009544373 8.3818624261766672e-05
1 0.20902499556541443 0
0.0056107612326741219 0.089200727641582489 0.055993247777223587
0.041193194687366486 0.097722850739955902 0.053366284817457199
0.11384165287017822 0.10342031717300415 0.049207709729671478
0.2100321501493454 0.10532684624195099 0.041569892317056656
0.31432807445526123 0.098650090396404266 0.035537287592887878
0.43574795126914978 0.087537713348865509 0.029679525643587112
0.56664490699768066 0.077601715922355652 0.020252855494618416
0.68962943553924561 0.072361201047897339 0.0091168275102972984
0.79463875293731689 0.074408151209354401 0.0020479089580476284
0.881916344165802 0.087028577923774719 4.3622185330605134e-05
0.95582914352416992 0.12536145746707916 0
0.99807703495025635 0.18879498541355133 0
1 0.2502114474773407 0
0.0021347044967114925 0.14480763673782349 0.073422826826572418
0.032920792698860168 0.15031944215297699 0.067920729517936707
0.10854918509721756 0.16511446237564087 0.055935759097337723
0.22249065339565277 0.18323630094528198 0.0324566550552845
0.33743107318878174 0.17596404254436493 0.019777977839112282
0.45853933691978455 0.16639100015163422 0.015759576112031937
0.58228272199630737 0.16171024739742279 0.0067047569900751114
0.69661414623260498 0.16189147531986237 0.00094224518397822976
0.79411137104034424 0.16723620891571045 6.4086911152116954e-05
0.88091433048248291 0.18526999652385712 0
0.95594233274459839 0.21738973259925842 0
0.9978024959564209 0.25875735282897949 0
1 0.30421113967895508 0
0.00024808995658531785 0.22323688864707947 0.098923668265342712
0.018793592229485512 0.22352062165737152 0.09234841912984848
0.084596849977970123 0.23634995520114899 0.078567594289779663
0.20577985048294067 0.27426481246948242 0.040989477187395096
0.37008696794509888 0.30960896611213684 0.0070822173729538918
0.50716519355773926 0.30310428142547607 0.0013117771595716476
0.61192423105239868 0.28043314814567566 0.00019230562611483037
0.70487946271896362 0.26681864261627197 0
0.79046249389648438 0.26538023352622986 0
0.87488037347793579 0.28193467855453491 0
0.94757610559463501 0.3042389452457428 0
0.99354356527328491 0.33075901865959167 0
1 0.36524102091789246 0
0 0.31707704067230225 0.1285938173532486
0.0047946707345545292 0.31671008467674255 0.12131387740373611
0.061104029417037964 0.32501861453056335 0.10870783030986786
0.16800333559513092 0.36219161748886108 0.069558314979076385
0.34671717882156372 0.42549851536750793 0.022614706307649612
0.52592962980270386 0.45714548230171204 0.001140654319897294
0.65040761232376099 0.44486767053604126 0
0.72945559024810791 0.40902692079544067 0
0.7945905327796936 0.37918418645858765 0
0.86648744344711304 0.37143412232398987 0
0.93725311756134033 0.38296994566917419 0
0.98755544424057007 0.40265843272209167 0
1 0.43064269423484802 0
0 0.41691377758979797 0.16278663277626038
0.0018219293560832739 0.41930019855499268 0.15346178412437439
0.055204577744007111 0.42571023106575012 0.14290162920951843
0.15483352541923523 0.45000144839286804 0.11790343374013901
0.29576194286346436 0.49383893609046936 0.077709153294563293
0.47619226574897766 0.54532337188720703 0.029368096962571144
0.64537757635116577 0.58028692007064819 0.0013473061844706535
0.75309967994689941 0.56927222013473511 8.0318073742091656e-05
0.81187969446182251 0.52245116233825684 0
0.8715442419052124 0.48441055417060852 0
0.93704915046691895 0.47567650675773621 0
0.98574495315551758 0.47964751720428467 0
0.99992889165878296 0.50080734491348267 1.6335879990947433e-05
0.00020195456454530358 0.51218295097351074 0.20561696588993073
0.01229254063218832 0.51683306694030762 0.196941077709198
0.078852288424968719 0.51870810985565186 0.19137068092823029
0.17110885679721832 0.52996504306793213 0.17807778716087341
0.28444033861160278 0.55679875612258911 0.15066798031330109
0.42381784319877625 0.59629744291305542 0.10408122092485428
0.58057498931884766 0.64080697298049927 0.051781538873910904
0.72481644153594971 0.6686747670173645 0.028292084112763405
0.8181491494178772 0.65251773595809937 0.0085209263488650322
0.88926428556442261 0.62227576971054077 0.00020365996169857681
0.94556057453155518 0.59532761573791504 0
0.98603266477584839 0.57512074708938599 0
0.99968242645263672 0.57557284832000732 0.00056767184287309647
0.044510398060083389 0.59662860631942749 0.26487374305725098
0.077030152082443237 0.60025703907012939 0.25801223516464233
0.13971307873725891 0.59896314144134521 0.25567370653152466
0.21686714887619019 0.60235029458999634 0.25037619471549988
0.30517086386680603 0.61839252710342407 0.23693177103996277
0.40847909450531006 0.64682245254516602 0.21194292604923248
0.53074795007705688 0.68022501468658447 0.17833113670349121
0.66753745079040527 0.71397417783737183 0.1395556777715683
0.79457384347915649 0.73587185144424438 0.081660628318786621
0.89570605754852295 0.74025440216064453 0.022552311420440674
0.9543154239654541 0.71620804071426392 0.0035849327687174082
0.98824191093444824 0.68631243705749512 0
0.99974685907363892 0.66714626550674438 6.8260640546213835e-05
0.16179457306861877 0.67347025871276855 0.3398151695728302
0.18731552362442017 0.675068199634552 0.33468669652938843
0.23206010460853577 0.67279249429702759 0.33358031511306763
0.28873619437217712 0.67165064811706543 0.33277976512908936
0.35288247466087341 0.68094909191131592 0.32928711175918579
0.42885774374008179 0.70221501588821411 0.32209658622741699
0.52480059862136841 0.72828578948974609 0.3045298159122467
0.63866287469863892 0.75702095031738281 0.27476698160171509
0.75931966304779053 0.78709137439727783 0.23018752038478851
0.86715841293334961 0.80751144886016846 0.17779029905796051
0.94363468885421753 0.80602413415908813 0.11174064874649048
0.98833978176116943 0.79101961851119995 0.057544335722923279
0.99984985589981079 0.77068358659744263 0.039064474403858185
0.30062508583068848 0.74679148197174072 0.42523846030235291
0.31771814823150635 0.74737757444381714 0.42267048358917236
0.34565079212188721 0.7451055645942688 0.42254346609115601
0.38124623894691467 0.74347299337387085 0.42285832762718201
0.42337143421173096 0.74681168794631958 0.42387098073959351
0.47849786281585693 0.75889962911605835 0.42169061303138733
0.55393940210342407 0.77996957302093506 0.41391101479530334
0.64300835132598877 0.80369514226913452 0.4003046452999115
0.73888230323791504 0.82699316740036011 0.38754686713218689
0.83106952905654907 0.84640246629714966 0.37718674540519714
0.91856616735458374 0.86417341232299805 0.34086436033248901
0.98053508996963501 0.86856925487518311 0.28629946708679199
0.99864202737808228 0.85301005840301514 0.22143657505512238
0.44651836156845093 0.81614041328430176 0.52160656452178955
0.45723971724510193 0.8163292407989502 0.52195096015930176
0.47239434719085693 0.81459212303161621 0.52254366874694824
0.49280348420143127 0.81302505731582642 0.52231436967849731
0.51718080043792725 0.81208056211471558 0.52433842420578003
0.5539892315864563 0.81791049242019653 0.52473241090774536
0.60895580053329468 0.83209133148193359 0.52186977863311768
0.67395997047424316 0.84922659397125244 0.51821362972259521
0.74454677104949951 0.86609846353530884 0.51786249876022339
0.81588917970657349 0.88278102874755859 0.5150306224822998
0.88870787620544434 0.90000319480895996 0.50466179847717285
0.95157265663146973 0.91101568937301636 0.47958070039749146
0.98831868171691895 0.90580141544342041 0.43088623881340027
0.59035050868988037 0.87859565019607544 0.63048696517944336
0.59564244747161865 0.8786652684211731 0.63016855716705322
0.603096604347229 0.87760227918624878 0.63098764419555664
0.61585474014282227 0.87614297866821289 0.63357299566268921
0.63082343339920044 0.87477189302444458 0.63536238670349121
0.65129077434539795 0.8764459490776062 0.63358545303344727
0.6836281418800354 0.883780837059021 0.63139963150024414
0.7255128026008606 0.8945915699005127 0.63198012113571167
0.77317547798156738 0.90605646371841431 0.63568109273910522
0.82175666093826294 0.91641807556152344 0.63458490371704102
0.86898964643478394 0.92654633522033691 0.62400698661804199
0.92032021284103394 0.93589937686920166 0.61126905679702759
0.96817505359649658 0.93969237804412842 0.59025281667709351
0.71692711114883423 0.93302804231643677 0.73572784662246704
0.71772289276123047 0.93296372890472412 0.73388195037841797
0.72123712301254272 0.93187797069549561 0.73522156476974487
0.73163187503814697 0.93139380216598511 0.74131500720977783
0.74004912376403809 0.93002575635910034 0.74236398935317993
0.74656081199645996 0.92934352159500122 0.73690420389175415
0.76160258054733276 0.93218809366226196 0.73438113927841187
0.7853514552116394 0.93803191184997559 0.7364996075630188
0.81553906202316284 0.94499439001083374 0.74302870035171509
0.84800487756729126 0.95168465375900269 0.74630308151245117
0.87871390581130981 0.95750832557678223 0.73708444833755493
0.91474694013595581 0.96375483274459839 0.73111641407012939
0.95426309108734131 0.96831035614013672 0.72406619787216187
0.011836586520075798 0.058017939329147339 0.079070553183555603
0.047557156533002853 0.061795912683010101 0.079571321606636047
0.10664909332990646 0.067300029098987579 0.081665143370628357
0.19235357642173767 0.066839136183261871 0.083330221474170685
0.30307665467262268 0.055632647126913071 0.083308123052120209
0.42775261402130127 0.030377272516489029 0.083874329924583435
0.55993461608886719 0.0077480240724980831 0.079793266952037811
0.68627452850341797 0.0035058413632214069 0.068110883235931396
0.79266291856765747 0.0062055252492427826 0.052617870271205902
0.87957918643951416 0.025664011016488075 0.03340747207403183
0.95186960697174072 0.07767842710018158 0.025610441341996193
0.99444413185119629 0.151113361120224 0.014799559488892555
1 0.22056818008422852 0.006979325320571661
0.0058346018195152283 0.094013303518295288 0.088318184018135071
0.048294410109519958 0.09889114648103714 0.089269049465656281
0.12005244195461273 0.10641241818666458 0.088963977992534637
0.20903246104717255 0.10487061738967896 0.084156319499015808
0.31749787926673889 0.096193693578243256 0.079939104616641998
0.44105428457260132 0.083662472665309906 0.077551715075969696
0.57211709022521973 0.067191854119300842 0.070002250373363495
0.69481974840164185 0.061643816530704498 0.056973971426486969
0.79695814847946167 0.07002740353345871 0.043321825563907623
0.88292920589447021 0.096360057592391968 0.024887459352612495
0.9569709300994873 0.14221060276031494 0.011892086826264858
0.99726706743240356 0.19922401010990143 0.0055560991168022156
1 0.25767043232917786 0.0029318416491150856
0.0075813592411577702 0.14978264272212982 0.10342987626791
0.048751622438430786 0.1523161381483078 0.1041075587272644
0.12660118937492371 0.16769400238990784 0.097040720283985138
0.22705002129077911 0.17488916218280792 0.082634963095188141
0.34017923474311829 0.17007406055927277 0.070911094546318054
0.46276503801345825 0.16395658254623413 0.06337476521730423
0.58823627233505249 0.16109919548034668 0.049260590225458145
0.70339834690093994 0.16500046849250793 0.033887121826410294
0.79829996824264526 0.1725228875875473 0.025130044668912888
0.8805086612701416 0.19214785099029541 0.012506208382546902
0.95335489511489868 0.22278057038784027 0.0076583712361752987
0.99587404727935791 0.26262775063514709 0.0055734221823513508
1 0.309050053358078 0.0051595950499176979
0.013498508371412754 0.22864894568920135 0.13009603321552277
0.044853359460830688 0.23077391088008881 0.12783785164356232
0.11186252534389496 0.24368561804294586 0.12023091316223145
0.22141827642917633 0.27370783686637878 0.094543904066085815
0.37154468894004822 0.30089583992958069 0.05564422532916069
0.50476694107055664 0.29294738173484802 0.033669281750917435
0.60813337564468384 0.27101725339889526 0.020702466368675232
0.70627743005752563 0.26814275979995728 0.01184367761015892
0.79397821426391602 0.27311491966247559 0.0079332385212182999
0.8755754828453064 0.28463435173034668 0.0058174431324005127
0.94750303030014038 0.3060089647769928 0.0029420740902423859
0.99301815032958984 0.33398175239562988 0.0015105303609743714
1 0.36948743462562561 0.0038817760068923235
0.0017745672957971692 0.3276008665561676 0.16058364510536194
0.020172568038105965 0.32997962832450867 0.15844447910785675
0.089836210012435913 0.33659279346466064 0.15570123493671417
0.19056582450866699 0.36764240264892578 0.13303162157535553
0.35127177834510803 0.42153716087341309 0.081469729542732239
0.52894473075866699 0.45559102296829224 0.019520225003361702
0.64137095212936401 0.42897427082061768 0.0032517227809876204
0.72109133005142212 0.3968258798122406 0.0023829890415072441
0.79031974077224731 0.37394848465919495 0.0021556629799306393
0.86574697494506836 0.37203100323677063 0.00034655403578653932
0.93765604496002197 0.38539856672286987 6.5822227952594403e-06
0.98683071136474609 0.40667060017585754 0
1 0.43563947081565857 0.00059723202139139175
1.382266782457009e-05 0.42873165011405945 0.19413508474826813
0.013589432463049889 0.43306487798690796 0.19120268523693085
0.08282596617937088 0.43633118271827698 0.19101138412952423
0.17725470662117004 0.4536500871181488 0.1797545999288559
0.30504307150840759 0.49194365739822388 0.14710961282253265
0.47487309575080872 0.54106819629669189 0.083033479750156403
0.63903695344924927 0.57149416208267212 0.017593847587704659
0.74616283178329468 0.55844521522521973 0.0010918860789388418
0.80778211355209351 0.51338851451873779 0
0.86932218074798584 0.47832301259040833 0
0.93465656042098999 0.47309544682502747 0
0.98100203275680542 0.48177614808082581 0
0.99926865100860596 0.50456172227859497 6.2426399381365627e-05
0.0018719392828643322 0.52086371183395386 0.23367060720920563
0.034492030739784241 0.52564072608947754 0.23220169544219971
0.10626891255378723 0.52603185176849365 0.23394899070262909
0.19196441769599915 0.53198647499084473 0.23105348646640778
0.29465118050575256 0.55435937643051147 0.21387667953968048
0.42703104019165039 0.59323704242706299 0.1774166077375412
0.58276253938674927 0.63900822401046753 0.11574093997478485
0.73229789733886719 0.67002987861633301 0.048418276011943817
0.82691609859466553 0.65353608131408691 0.017100764438509941
0.88695931434631348 0.61405038833618164 0.0095791388303041458
0.94238293170928955 0.58764374256134033 0.0006373237119987607
0.98478668928146362 0.56959080696105957 0
0.99942201375961304 0.57379412651062012 0.00037805893225595355
0.050828777253627777 0.60358899831771851 0.28877383470535278
0.10035855323076248 0.60675185918807983 0.28880029916763306
0.16409040987491608 0.60412275791168213 0.29188615083694458
0.23542872071266174 0.60297131538391113 0.29247072339057922
0.31659600138664246 0.61626964807510376 0.28443488478660583
0.4162505567073822 0.64593291282653809 0.26690897345542908
0.53684467077255249 0.68016588687896729 0.2379000186920166
0.67536956071853638 0.71552020311355591 0.18721477687358856
0.7984958291053772 0.73472189903259277 0.13473762571811676
0.88776063919067383 0.72842389345169067 0.089504212141036987
0.95136666297912598 0.70867073535919189 0.034594740718603134
0.98993968963623047 0.68112874031066895 0.0037442226894199848
0.99989837408065796 0.66347068548202515 9.8733344202628359e-06
0.17473582923412323 0.68067973852157593 0.36131483316421509
0.20608089864253998 0.68131017684936523 0.35941383242607117
0.25133863091468811 0.67721647024154663 0.36203157901763916
0.30468162894248962 0.67282760143280029 0.36442762613296509
0.36496582627296448 0.68028378486633301 0.36212277412414551
0.43830537796020508 0.70234280824661255 0.3540290892124176
0.52980709075927734 0.72762393951416016 0.34248298406600952
0.63807553052902222 0.75430917739868164 0.32273542881011963
0.75471103191375732 0.78138881921768188 0.29150426387786865
0.86152464151382446 0.79875189065933228 0.25094407796859741
0.94439864158630371 0.80359911918640137 0.18215066194534302
0.99084889888763428 0.78934222459793091 0.11245229095220566
1 0.76783972978591919 0.058792877942323685
0.31391498446464539 0.7537161111831665 0.44162604212760925
0.3315642774105072 0.75322157144546509 0.44068801403045654
0.35919800400733948 0.74962854385375977 0.44258606433868408
0.39339402318000793 0.74639362096786499 0.44422221183776855
0.43505296111106873 0.74895399808883667 0.44673168659210205
0.48822703957557678 0.76120233535766602 0.44615671038627625
0.55660027265548706 0.77961045503616333 0.44140645861625671
0.63911157846450806 0.80119574069976807 0.43283787369728088
0.73218321800231934 0.82313460111618042 0.42361724376678467
0.82832056283950806 0.84447097778320312 0.40984126925468445
0.92016279697418213 0.86632794141769409 0.38250094652175903
0.98025834560394287 0.86919575929641724 0.33791300654411316
0.99890029430389404 0.85256904363632202 0.28246951103210449
0.45659348368644714 0.8223537802696228 0.531688392162323
0.4668022096157074 0.82143896818161011 0.53397858142852783
0.48145896196365356 0.8189966082572937 0.53545719385147095
0.50116020441055298 0.81713390350341797 0.5352904200553894
0.52804034948348999 0.81590229272842407 0.54054081439971924
0.56414484977722168 0.82086074352264404 0.54335170984268188
0.61199402809143066 0.83306032419204712 0.54090893268585205
0.67065513134002686 0.84835684299468994 0.53764313459396362
0.73810034990310669 0.86382842063903809 0.53651249408721924
0.80846363306045532 0.87961727380752563 0.52829074859619141
0.88483601808547974 0.89973676204681396 0.52247971296310425
0.95094794034957886 0.91251963376998901 0.50901949405670166
0.99110496044158936 0.9092673659324646 0.47666490077972412
0.59681868553161621 0.88316690921783447 0.63719505071640015
0.60292607545852661 0.8831402063369751 0.63924705982208252
0.60935109853744507 0.88025128841400146 0.64046061038970947
0.62057918310165405 0.87950688600540161 0.64190995693206787
0.63708209991455078 0.87656193971633911 0.64560765027999878
0.65901225805282593 0.87837505340576172 0.64755344390869141
0.68786025047302246 0.88503634929656982 0.64600294828414917
0.72522175312042236 0.89475363492965698 0.64561134576797485
0.76988571882247925 0.90524208545684814 0.64615970849990845
0.81665134429931641 0.91531819105148315 0.64143079519271851
0.8679242730140686 0.92731529474258423 0.63404589891433716
0.92337536811828613 0.93907415866851807 0.62805283069610596
0.9736141562461853 0.94386285543441772 0.61187648773193359
0.72029048204421997 0.9353289008140564 0.74009686708450317
0.72445476055145264 0.93565410375595093 0.74187695980072021
0.72693938016891479 0.93427449464797974 0.74328625202178955
0.73343265056610107 0.93266022205352783 0.74594920873641968
0.74276059865951538 0.93103647232055664 0.74801063537597656
0.75385409593582153 0.93056255578994751 0.74793082475662231
0.76772159337997437 0.93336242437362671 0.74658858776092529
0.78774583339691162 0.93886125087738037 0.7474130392074585
0.81460833549499512 0.94567447900772095 0.74976330995559692
0.84469282627105713 0.95198589563369751 0.74858450889587402
0.87676137685775757 0.95850145816802979 0.74229979515075684
0.91523194313049316 0.96530747413635254 0.73808330297470093
0.95603293180465698 0.97008192539215088 0.72998762130737305
0.012220554985105991 0.06215088814496994 0.13400596380233765
0.056255802512168884 0.066680148243904114 0.13260029256343842
0.11576929688453674 0.075412020087242126 0.13266897201538086
0.19072169065475464 0.075361959636211395 0.13434082269668579
0.29771003127098083 0.060663513839244843 0.13775649666786194
0.42751866579055786 0.034058738499879837 0.14422391355037689
0.56392425298690796 0.0073461048305034637 0.14313237369060516
0.69218927621841431 0.0005487778689712286 0.13691611588001251
0.79619473218917847 0.0050830165855586529 0.13765405118465424
0.88298076391220093 0.04477398470044136 0.12930402159690857
0.95452880859375 0.11296817660331726 0.11843061447143555
0.99319314956665039 0.1792919933795929 0.11048265546560287
0.99984580278396606 0.24028389155864716 0.098422318696975708
0.0035014282912015915 0.10063585638999939 0.14425073564052582
0.052367370575666428 0.10537689924240112 0.14462485909461975
0.12560400366783142 0.11329641938209534 0.14497052133083344
0.20563364028930664 0.11291398853063583 0.14353467524051666
0.31657776236534119 0.10618721693754196 0.14345405995845795
0.44570589065551758 0.092509172856807709 0.14710058271884918
0.57974773645401001 0.065501302480697632 0.14492292702198029
0.7018662691116333 0.048670675605535507 0.13754802942276001
0.79946726560592651 0.06864803284406662 0.1336020827293396
0.88282448053359985 0.11887145787477493 0.12271061539649963
0.95349997282028198 0.1682293564081192 0.1095927506685257
0.99382543563842773 0.21680615842342377 0.10008085519075394
1 0.27159848809242249 0.095884479582309723
0.0075217452831566334 0.15980431437492371 0.15118013322353363
0.057769536972045898 0.16304692625999451 0.15504257380962372
0.1376236230134964 0.17202512919902802 0.1566866934299469
0.22855624556541443 0.17705409228801727 0.15374031662940979
0.34468090534210205 0.17856907844543457 0.14797918498516083
0.47077557444572449 0.17532594501972198 0.14687849581241608
0.59717106819152832 0.17081762850284576 0.14113457500934601
0.70835322141647339 0.17174825072288513 0.13213977217674255
0.79976886510848999 0.18584580719470978 0.12468121200799942
0.88177406787872314 0.21134774386882782 0.11275951564311981
0.95266604423522949 0.23800007998943329 0.10177082568407059
0.99463957548141479 0.2749151885509491 0.092466317117214203
1 0.31981801986694336 0.091363675892353058
0.029469238594174385 0.24181643128395081 0.17504644393920898
0.073358722031116486 0.24722369015216827 0.17791780829429626
0.14328168332576752 0.25407299399375916 0.18022090196609497
0.24334943294525146 0.2781643271446228 0.17205435037612915
0.37906667590141296 0.29639574885368347 0.152069091796875
0.50378865003585815 0.28570130467414856 0.13610394299030304
0.60962378978729248 0.27184927463531494 0.11950521916151047
0.70734697580337524 0.27504134178161621 0.10648638010025024
0.79602187871932983 0.28415548801422119 0.097834132611751556
0.87915682792663574 0.29709306359291077 0.08706316351890564
0.95120441913604736 0.31847399473190308 0.075331054627895355
0.99407029151916504 0.34462118148803711 0.065768256783485413
1 0.37895104289054871 0.075997970998287201
0.026485009118914604 0.34552940726280212 0.21018482744693756
0.074435979127883911 0.35294449329376221 0.21479257941246033
0.14823432266712189 0.35737740993499756 0.21875184774398804
0.23318906128406525 0.37698879837989807 0.21183516085147858
0.36966186761856079 0.42091858386993408 0.18394912779331207
0.52829813957214355 0.4435170590877533 0.13520151376724243
0.63549304008483887 0.41369876265525818 0.094734013080596924
0.71434229612350464 0.38505405187606812 0.078593522310256958
0.78989571332931519 0.37468075752258301 0.064848773181438446
0.86982518434524536 0.38300326466560364 0.048372723162174225
0.94182091951370239 0.39680379629135132 0.038353521376848221
0.98839962482452393 0.41658130288124084 0.029858922585844994
0.99992495775222778 0.44440668821334839 0.048092816025018692
0.02812601812183857 0.44771549105644226 0.24792543053627014
0.079381890594959259 0.45465099811553955 0.25079581141471863
0.15139815211296082 0.45497032999992371 0.25583866238594055
0.22685295343399048 0.46140649914741516 0.25484335422515869
0.33307221531867981 0.49485790729522705 0.23715522885322571
