films/fuji_neopan_1600_-.cube
# Created by: G'MIC (https://gmic.eu)
TITLE "fuji_neopan_1600_-"
# LUT size
LUT_3D_SIZE 13
# Data domain
DOMAIN_MIN 0.0 0.0 0.0
DOMAIN_MAX 1.0 1.0 1.0
# LUT data points
0.044128492474555969 0.044128492474555969 0.044128492474555969
0.034584477543830872 0.034584477543830872 0.034584477543830872
0.034896552562713623 0.034896552562713623 0.034896552562713623
0.045252840965986252 0.045252840965986252 0.045252840965986252
0.065069131553173065 0.065069131553173065 0.065069131553173065
0.091907620429992676 0.091907620429992676 0.091907620429992676
0.13043093681335449 0.13043093681335449 0.13043093681335449
0.18544362485408783 0.18544362485408783 0.18544362485408783
0.24299675226211548 0.24299675226211548 0.24299675226211548
0.29950720071792603 0.29950720071792603 0.29950720071792603
0.3570246696472168 0.3570246696472168 0.3570246696472168
0.41706752777099609 0.41706752777099609 0.41706752777099609
0.47786805033683777 0.47786805033683777 0.47786805033683777
0.060516700148582458 0.060516700148582458 0.060516700148582458
0.050430942326784134 0.050430942326784134 0.050430942326784134
0.052162665873765945 0.052162665873765945 0.052162665873765945
0.067749351263046265 0.067749351263046265 0.067749351263046265
0.094451248645782471 0.094451248645782471 0.094451248645782471
0.129598468542099 0.129598468542099 0.129598468542099
0.17325291037559509 0.17325291037559509 0.17325291037559509
0.22496312856674194 0.22496312856674194 0.22496312856674194
0.27677410840988159 0.27677410840988159 0.27677410840988159
0.32778105139732361 0.32778105139732361 0.32778105139732361
0.38038471341133118 0.38038471341133118 0.38038471341133118
0.43695998191833496 0.43695998191833496 0.43695998191833496
0.49729710817337036 0.49729710817337036 0.49729710817337036
0.089325487613677979 0.089325487613677979 0.089325487613677979
0.077613890171051025 0.077613890171051025 0.077613890171051025
0.080919854342937469 0.080919854342937469 0.080919854342937469
0.10353033244609833 0.10353033244609833 0.10353033244609833
0.14015835523605347 0.14015835523605347 0.14015835523605347
0.18488180637359619 0.18488180637359619 0.18488180637359619
0.23412267863750458 0.23412267863750458 0.23412267863750458
0.2815728485584259 0.2815728485584259 0.2815728485584259
0.32389190793037415 0.32389190793037415 0.32389190793037415
0.36657696962356567 0.36657696962356567 0.36657696962356567
0.41209268569946289 0.41209268569946289 0.41209268569946289
0.46474525332450867 0.46474525332450867 0.46474525332450867
0.52501559257507324 0.52501559257507324 0.52501559257507324
0.13145618140697479 0.13145618140697479 0.13145618140697479
0.11934424191713333 0.11934424191713333 0.11934424191713333
0.12200703471899033 0.12200703471899033 0.12200703471899033
0.1512400209903717 0.1512400209903717 0.1512400209903717
0.19505408406257629 0.19505408406257629 0.19505408406257629
0.24530059099197388 0.24530059099197388 0.24530059099197388
0.29778316617012024 0.29778316617012024 0.29778316617012024
0.34239476919174194 0.34239476919174194 0.34239476919174194
0.37687927484512329 0.37687927484512329 0.37687927484512329
0.41323134303092957 0.41323134303092957 0.41323134303092957
0.45443660020828247 0.45443660020828247 0.45443660020828247
0.50376695394515991 0.50376695394515991 0.50376695394515991
0.56523293256759644 0.56523293256759644 0.56523293256759644
0.1876668781042099 0.1876668781042099 0.1876668781042099
0.17860554158687592 0.17860554158687592 0.17860554158687592
0.18425484001636505 0.18425484001636505 0.18425484001636505
0.21133401989936829 0.21133401989936829 0.21133401989936829
0.25293046236038208 0.25293046236038208 0.25293046236038208
0.30083027482032776 0.30083027482032776 0.30083027482032776
0.34907564520835876 0.34907564520835876 0.34907564520835876
0.39107301831245422 0.39107301831245422 0.39107301831245422
0.4269510805606842 0.4269510805606842 0.4269510805606842
0.46506392955780029 0.46506392955780029 0.46506392955780029
0.50917786359786987 0.50917786359786987 0.50917786359786987
0.56112390756607056 0.56112390756607056 0.56112390756607056
0.62066364288330078 0.62066364288330078 0.62066364288330078
0.25296390056610107 0.25296390056610107 0.25296390056610107
0.24814602732658386 0.24814602732658386 0.24814602732658386
0.25483202934265137 0.25483202934265137 0.25483202934265137
0.27606943249702454 0.27606943249702454 0.27606943249702454
0.30933821201324463 0.30933821201324463 0.30933821201324463
0.34941807389259338 0.34941807389259338 0.34941807389259338
0.39170956611633301 0.39170956611633301 0.39170956611633301
0.43280956149101257 0.43280956149101257 0.43280956149101257
0.47341865301132202 0.47341865301132202 0.47341865301132202
0.51775467395782471 0.51775467395782471 0.51775467395782471
0.56885719299316406 0.56885719299316406 0.56885719299316406
0.62664759159088135 0.62664759159088135 0.62664759159088135
0.6854662299156189 0.6854662299156189 0.6854662299156189
0.3219703733921051 0.3219703733921051 0.3219703733921051
0.32002720236778259 0.32002720236778259 0.32002720236778259
0.32650288939476013 0.32650288939476013 0.32650288939476013
0.34184187650680542 0.34184187650680542 0.34184187650680542
0.36564391851425171 0.36564391851425171 0.36564391851425171
0.39682230353355408 0.39682230353355408 0.39682230353355408
0.43436038494110107 0.43436038494110107 0.43436038494110107
0.47528207302093506 0.47528207302093506 0.47528207302093506
0.51901930570602417 0.51901930570602417 0.51901930570602417
0.56818580627441406 0.56818580627441406 0.56818580627441406
0.62506061792373657 0.62506061792373657 0.62506061792373657
0.68899548053741455 0.68899548053741455 0.68899548053741455
0.75025397539138794 0.75025397539138794 0.75025397539138794
0.39286947250366211 0.39286947250366211 0.39286947250366211
0.39504599571228027 0.39504599571228027 0.39504599571228027
0.40184518694877625 0.40184518694877625 0.40184518694877625
0.41248917579650879 0.41248917579650879 0.41248917579650879
0.42767354846000671 0.42767354846000671 0.42767354846000671
0.44994866847991943 0.44994866847991943 0.44994866847991943
0.4841093122959137 0.4841093122959137 0.4841093122959137
0.52376729249954224 0.52376729249954224 0.52376729249954224
0.56739908456802368 0.56739908456802368 0.56739908456802368
0.61609125137329102 0.61609125137329102 0.61609125137329102
0.67363405227661133 0.67363405227661133 0.67363405227661133
0.73899650573730469 0.73899650573730469 0.73899650573730469
0.80139577388763428 0.80139577388763428 0.80139577388763428
0.47572451829910278 0.47572451829910278 0.47572451829910278
0.48037457466125488 0.48037457466125488 0.48037457466125488
0.48683243989944458 0.48683243989944458 0.48683243989944458
0.49460038542747498 0.49460038542747498 0.49460038542747498
0.50443410873413086 0.50443410873413086 0.50443410873413086
0.51971662044525146 0.51971662044525146 0.51971662044525146
0.54899477958679199 0.54899477958679199 0.54899477958679199
0.58494144678115845 0.58494144678115845 0.58494144678115845
0.62282311916351318 0.62282311916351318 0.62282311916351318
0.66475814580917358 0.66475814580917358 0.66475814580917358
0.71629250049591064 0.71629250049591064 0.71629250049591064
0.77731931209564209 0.77731931209564209 0.77731931209564209
0.8345220685005188 0.8345220685005188 0.8345220685005188
0.57929188013076782 0.57929188013076782 0.57929188013076782
0.58120715618133545 0.58120715618133545 0.58120715618133545
0.58556902408599854 0.58556902408599854 0.58556902408599854
0.59177148342132568 0.59177148342132568 0.59177148342132568
0.59980148077011108 0.59980148077011108 0.59980148077011108
0.61248242855072021 0.61248242855072021 0.61248242855072021
0.63406246900558472 0.63406246900558472 0.63406246900558472
0.66133201122283936 0.66133201122283936 0.66133201122283936
0.69025826454162598 0.69025826454162598 0.69025826454162598
0.72199815511703491 0.72199815511703491 0.72199815511703491
0.76334309577941895 0.76334309577941895 0.76334309577941895
0.81723254919052124 0.81723254919052124 0.81723254919052124
0.86844968795776367 0.86844968795776367 0.86844968795776367
0.69079530239105225 0.69079530239105225 0.69079530239105225
0.69171035289764404 0.69171035289764404 0.69171035289764404
0.69494593143463135 0.69494593143463135 0.69494593143463135
0.70000660419464111 0.70000660419464111 0.70000660419464111
0.70588523149490356 0.70588523149490356 0.70588523149490356
0.71529865264892578 0.71529865264892578 0.71529865264892578
0.73109358549118042 0.73109358549118042 0.73109358549118042
0.74961173534393311 0.74961173534393311 0.74961173534393311
0.76971656084060669 0.76971656084060669 0.76971656084060669
0.79348891973495483 0.79348891973495483 0.79348891973495483
0.82540613412857056 0.82540613412857056 0.82540613412857056
0.86651664972305298 0.86651664972305298 0.86651664972305298
0.9087064266204834 0.9087064266204834 0.9087064266204834
0.80100059509277344 0.80100059509277344 0.80100059509277344
0.80180102586746216 0.80180102586746216 0.80180102586746216
0.80443847179412842 0.80443847179412842 0.80443847179412842
0.80979031324386597 0.80979031324386597 0.80979031324386597
0.81237775087356567 0.81237775087356567 0.81237775087356567
0.81742000579833984 0.81742000579833984 0.81742000579833984
0.82846921682357788 0.82846921682357788 0.82846921682357788
0.8421284556388855 0.8421284556388855 0.8421284556388855
0.85447824001312256 0.85447824001312256 0.85447824001312256
0.86944538354873657 0.86944538354873657 0.86944538354873657
0.89215528964996338 0.89215528964996338 0.89215528964996338
0.92166328430175781 0.92166328430175781 0.92166328430175781
0.95397841930389404 0.95397841930389404 0.95397841930389404
0.8999057412147522 0.8999057412147522 0.8999057412147522
0.89932674169540405 0.89932674169540405 0.89932674169540405
0.90137535333633423 0.90137535333633423 0.90137535333633423
0.90596330165863037 0.90596330165863037 0.90596330165863037
0.90681654214859009 0.90681654214859009 0.90681654214859009
0.90917724370956421 0.90917724370956421 0.90917724370956421
0.91782313585281372 0.91782313585281372 0.91782313585281372
0.92917710542678833 0.92917710542678833 0.92917710542678833
0.93423187732696533 0.93423187732696533 0.93423187732696533
0.94165951013565063 0.94165951013565063 0.94165951013565063
0.95646113157272339 0.95646113157272339 0.95646113157272339
0.97679245471954346 0.97679245471954346 0.97679245471954346
0.99415576457977295 0.99415576457977295 0.99415576457977295
0.04588959738612175 0.04588959738612175 0.04588959738612175
0.037787612527608871 0.037787612527608871 0.037787612527608871
0.039470449090003967 0.039470449090003967 0.039470449090003967
0.051114413887262344 0.051114413887262344 0.051114413887262344
0.073389880359172821 0.073389880359172821 0.073389880359172821
0.10626734048128128 0.10626734048128128 0.10626734048128128
0.14815793931484222 0.14815793931484222 0.14815793931484222
0.19839830696582794 0.19839830696582794 0.19839830696582794
0.25171718001365662 0.25171718001365662 0.25171718001365662
0.30543142557144165 0.30543142557144165 0.30543142557144165
0.36086404323577881 0.36086404323577881 0.36086404323577881
0.41922283172607422 0.41922283172607422 0.41922283172607422
0.47930321097373962 0.47930321097373962 0.47930321097373962
0.063566781580448151 0.063566781580448151 0.063566781580448151
0.05585765466094017 0.05585765466094017 0.05585765466094017
0.059404231607913971 0.059404231607913971 0.059404231607913971
0.075774207711219788 0.075774207711219788 0.075774207711219788
0.10416292399168015 0.10416292399168015 0.10416292399168015
0.14230610430240631 0.14230610430240631 0.14230610430240631
0.18686489760875702 0.18686489760875702 0.18686489760875702
0.23475006222724915 0.23475006222724915 0.23475006222724915
0.28320783376693726 0.28320783376693726 0.28320783376693726
0.33183851838111877 0.33183851838111877 0.33183851838111877
0.38318037986755371 0.38318037986755371 0.38318037986755371
0.43942022323608398 0.43942022323608398 0.43942022323608398
0.49966341257095337 0.49966341257095337 0.49966341257095337
0.095008283853530884 0.095008283853530884 0.095008283853530884
0.08802853524684906 0.08802853524684906 0.08802853524684906
0.094299808144569397 0.094299808144569397 0.094299808144569397
0.11730756610631943 0.11730756610631943 0.11730756610631943
0.15388689935207367 0.15388689935207367 0.15388689935207367
0.19787400960922241 0.19787400960922241 0.19787400960922241
0.2437962144613266 0.2437962144613266 0.2437962144613266
0.28720840811729431 0.28720840811729431 0.28720840811729431
0.32803830504417419 0.32803830504417419 0.32803830504417419
0.36961796879768372 0.36961796879768372 0.36961796879768372
0.41567268967628479 0.41567268967628479 0.41567268967628479
0.46908998489379883 0.46908998489379883 0.46908998489379883
0.529105544090271 0.529105544090271 0.529105544090271
0.14134140312671661 0.14134140312671661 0.14134140312671661
0.13491055369377136 0.13491055369377136 0.13491055369377136
0.14329390227794647 0.14329390227794647 0.14329390227794647
0.17095063626766205 0.17095063626766205 0.17095063626766205
0.21358861029148102 0.21358861029148102 0.21358861029148102
0.26188534498214722 0.26188534498214722 0.26188534498214722
0.30643227696418762 0.30643227696418762 0.30643227696418762
0.34502732753753662 0.34502732753753662 0.34502732753753662
0.37969937920570374 0.37969937920570374 0.37969937920570374
0.4169190526008606 0.4169190526008606 0.4169190526008606
0.46004548668861389 0.46004548668861389 0.46004548668861389
0.51169240474700928 0.51169240474700928 0.51169240474700928
0.57132023572921753 0.57132023572921753 0.57132023572921753
0.20198827981948853 0.20198827981948853 0.20198827981948853
0.19706298410892487 0.19706298410892487 0.19706298410892487
0.20557981729507446 0.20557981729507446 0.20557981729507446
0.23196613788604736 0.23196613788604736 0.23196613788604736
0.2733357846736908 0.2733357846736908 0.2733357846736908
0.31998175382614136 0.31998175382614136 0.31998175382614136
0.36103042960166931 0.36103042960166931 0.36103042960166931
0.39654514193534851 0.39654514193534851 0.39654514193534851
0.43114688992500305 0.43114688992500305 0.43114688992500305
0.46959388256072998 0.46959388256072998 0.46959388256072998
0.5152323842048645 0.5152323842048645 0.5152323842048645
0.56853014230728149 0.56853014230728149 0.56853014230728149
0.62686693668365479 0.62686693668365479 0.62686693668365479
0.27161076664924622 0.27161076664924622 0.27161076664924622
0.26803413033485413 0.26803413033485413 0.26803413033485413
0.27434751391410828 0.27434751391410828 0.27434751391410828
0.29447680711746216 0.29447680711746216 0.29447680711746216
0.32704180479049683 0.32704180479049683 0.32704180479049683
0.36557811498641968 0.36557811498641968 0.36557811498641968
0.40370765328407288 0.40370765328407288 0.40370765328407288
0.44031503796577454 0.44031503796577454 0.44031503796577454
0.47887498140335083 0.47887498140335083 0.47887498140335083
0.52292442321777344 0.52292442321777344 0.52292442321777344
0.57463306188583374 0.57463306188583374 0.57463306188583374
0.63223707675933838 0.63223707675933838 0.63223707675933838
0.69046413898468018 0.69046413898468018 0.69046413898468018
0.34325659275054932 0.34325659275054932 0.34325659275054932
0.34049412608146667 0.34049412608146667 0.34049412608146667
0.34425485134124756 0.34425485134124756 0.34425485134124756
0.35723704099655151 0.35723704099655151 0.35723704099655151
0.37951648235321045 0.37951648235321045 0.37951648235321045
0.40941247344017029 0.40941247344017029 0.40941247344017029
0.44421213865280151 0.44421213865280151 0.44421213865280151
0.48201474547386169 0.48201474547386169 0.48201474547386169
0.52422541379928589 0.52422541379928589 0.52422541379928589
0.57320654392242432 0.57320654392242432 0.57320654392242432
0.6304706335067749 0.6304706335067749 0.6304706335067749
0.69278734922409058 0.69278734922409058 0.69278734922409058
0.75188541412353516 0.75188541412353516 0.75188541412353516
0.41456258296966553 0.41456258296966553 0.41456258296966553
0.41337594389915466 0.41337594389915466 0.41337594389915466
0.41612383723258972 0.41612383723258972 0.41612383723258972
0.42419111728668213 0.42419111728668213 0.42419111728668213
0.43861499428749084 0.43861499428749084 0.43861499428749084
0.46094954013824463 0.46094954013824463 0.46094954013824463
0.49193266034126282 0.49193266034126282 0.49193266034126282
0.52893948554992676 0.52893948554992676 0.52893948554992676
0.57069426774978638 0.57069426774978638 0.57069426774978638
0.62062782049179077 0.62062782049179077 0.62062782049179077
0.67925459146499634 0.67925459146499634 0.67925459146499634
0.74254488945007324 0.74254488945007324 0.74254488945007324
0.80126452445983887 0.80126452445983887 0.80126452445983887
0.49489536881446838 0.49489536881446838 0.49489536881446838
0.49424457550048828 0.49424457550048828 0.49424457550048828
0.49588140845298767 0.49588140845298767 0.49588140845298767
0.50206589698791504 0.50206589698791504 0.50206589698791504
0.51237833499908447 0.51237833499908447 0.51237833499908447
0.52920663356781006 0.52920663356781006 0.52920663356781006
0.55553287267684937 0.55553287267684937 0.55553287267684937
0.58805882930755615 0.58805882930755615 0.58805882930755615
0.62525469064712524 0.62525469064712524 0.62525469064712524
0.67005133628845215 0.67005133628845215 0.67005133628845215
0.72406184673309326 0.72406184673309326 0.72406184673309326
0.78308629989624023 0.78308629989624023 0.78308629989624023
0.83829003572463989 0.83829003572463989 0.83829003572463989
0.59155648946762085 0.59155648946762085 0.59155648946762085
0.58947288990020752 0.58947288990020752 0.58947288990020752
0.58982139825820923 0.58982139825820923 0.58982139825820923
0.59545981884002686 0.59545981884002686 0.59545981884002686
0.60432356595993042 0.60432356595993042 0.60432356595993042
0.6175239086151123 0.6175239086151123 0.6175239086151123
0.63767582178115845 0.63767582178115845 0.63767582178115845
0.66306221485137939 0.66306221485137939 0.66306221485137939
0.69276535511016846 0.69276535511016846 0.69276535511016846
0.72878748178482056 0.72878748178482056 0.72878748178482056
0.7733190655708313 0.7733190655708313 0.7733190655708313
0.82452219724655151 0.82452219724655151 0.82452219724655151
0.87396073341369629 0.87396073341369629 0.87396073341369629
0.697471022605896 0.697471022605896 0.697471022605896
0.69664561748504639 0.69664561748504639 0.69664561748504639
0.69724446535110474 0.69724446535110474 0.69724446535110474
0.70145142078399658 0.70145142078399658 0.70145142078399658
0.70760107040405273 0.70760107040405273 0.70760107040405273
0.71702116727828979 0.71702116727828979 0.71702116727828979
0.73144626617431641 0.73144626617431641 0.73144626617431641
0.74945652484893799 0.74945652484893799 0.74945652484893799
0.77116113901138306 0.77116113901138306 0.77116113901138306
0.79779797792434692 0.79779797792434692 0.79779797792434692
0.8320421576499939 0.8320421576499939 0.8320421576499939
0.87268006801605225 0.87268006801605225 0.87268006801605225
0.91363710165023804 0.91363710165023804 0.91363710165023804
0.80322796106338501 0.80322796106338501 0.80322796106338501
0.80401098728179932 0.80401098728179932 0.80401098728179932
0.80501013994216919 0.80501013994216919 0.80501013994216919
0.80817747116088867 0.80817747116088867 0.80817747116088867
0.81147634983062744 0.81147634983062744 0.81147634983062744
0.81667280197143555 0.81667280197143555 0.81667280197143555
0.82643765211105347 0.82643765211105347 0.82643765211105347
0.83915883302688599 0.83915883302688599 0.83915883302688599
0.85324722528457642 0.85324722528457642 0.85324722528457642
0.87092804908752441 0.87092804908752441 0.87092804908752441
0.89541894197463989 0.89541894197463989 0.89541894197463989
0.9253842830657959 0.9253842830657959 0.9253842830657959
0.95772242546081543 0.95772242546081543 0.95772242546081543
0.89770001173019409 0.89770001173019409 0.89770001173019409
0.89966088533401489 0.89966088533401489 0.89966088533401489
0.90092974901199341 0.90092974901199341 0.90092974901199341
0.90336900949478149 0.90336900949478149 0.90336900949478149
0.90444439649581909 0.90444439649581909 0.90444439649581909
0.90744078159332275 0.90744078159332275 0.90744078159332275
0.91402959823608398 0.91402959823608398 0.91402959823608398
0.92265170812606812 0.92265170812606812 0.92265170812606812
0.93077832460403442 0.93077832460403442 0.93077832460403442
0.94174247980117798 0.94174247980117798 0.94174247980117798
0.95780736207962036 0.95780736207962036 0.95780736207962036
0.97860461473464966 0.97860461473464966 0.97860461473464966
0.99541574716567993 0.99541574716567993 0.99541574716567993
0.056447871029376984 0.056447871029376984 0.056447871029376984
0.051538102328777313 0.051538102328777313 0.051538102328777313
0.055296130478382111 0.055296130478382111 0.055296130478382111
0.06767350435256958 0.06767350435256958 0.06767350435256958
0.092253021895885468 0.092253021895885468 0.092253021895885468
0.13013379275798798 0.13013379275798798 0.13013379275798798
0.17444220185279846 0.17444220185279846 0.17444220185279846
0.220638707280159 0.220638707280159 0.220638707280159
0.26848292350769043 0.26848292350769043 0.26848292350769043
0.31773439049720764 0.31773439049720764 0.31773439049720764
0.37006410956382751 0.37006410956382751 0.37006410956382751
0.42640239000320435 0.42640239000320435 0.42640239000320435
0.48567396402359009 0.48567396402359009 0.48567396402359009
0.075742997229099274 0.075742997229099274 0.075742997229099274
0.071957036852836609 0.071957036852836609 0.071957036852836609
0.078127078711986542 0.078127078711986542 0.078127078711986542
0.094667352735996246 0.094667352735996246 0.094667352735996246
0.12355732917785645 0.12355732917785645 0.12355732917785645
0.16436435282230377 0.16436435282230377 0.16436435282230377
0.20863978564739227 0.20863978564739227 0.20863978564739227
0.25236505270004272 0.25236505270004272 0.25236505270004272
0.2961476743221283 0.2961476743221283 0.2961476743221283
0.34102100133895874 0.34102100133895874 0.34102100133895874
0.39000362157821655 0.39000362157821655 0.39000362157821655
0.44517740607261658 0.44517740607261658 0.44517740607261658
0.50556373596191406 0.50556373596191406 0.50556373596191406
0.10968131572008133 0.10968131572008133 0.10968131572008133
0.10760246962308884 0.10760246962308884 0.10760246962308884
0.118175208568573 0.118175208568573 0.118175208568573
0.14174789190292358 0.14174789190292358 0.14174789190292358
0.17731073498725891 0.17731073498725891 0.17731073498725891
0.21954894065856934 0.21954894065856934 0.21954894065856934
0.26070043444633484 0.26070043444633484 0.26070043444633484
0.29942053556442261 0.29942053556442261 0.29942053556442261
0.33704781532287598 0.33704781532287598 0.33704781532287598
0.37646099925041199 0.37646099925041199 0.37646099925041199
0.42119139432907104 0.42119139432907104 0.42119139432907104
0.47473025321960449 0.47473025321960449 0.47473025321960449
0.53540527820587158 0.53540527820587158 0.53540527820587158
0.15844066441059113 0.15844066441059113 0.15844066441059113
0.1586337685585022 0.1586337685585022 0.1586337685585022
0.17151263356208801 0.17151263356208801 0.17151263356208801
0.19933472573757172 0.19933472573757172 0.19933472573757172
0.24009983241558075 0.24009983241558075 0.24009983241558075
0.28486377000808716 0.28486377000808716 0.28486377000808716
0.32180806994438171 0.32180806994438171 0.32180806994438171
0.35380643606185913 0.35380643606185913 0.35380643606185913
0.38657885789871216 0.38657885789871216 0.38657885789871216
0.42313665151596069 0.42313665151596069 0.42313665151596069
0.46640750765800476 0.46640750765800476 0.46640750765800476
0.51896536350250244 0.51896536350250244 0.51896536350250244
0.57834601402282715 0.57834601402282715 0.57834601402282715
0.22312813997268677 0.22312813997268677 0.22312813997268677
0.22319066524505615 0.22319066524505615 0.22319066524505615
0.23448853194713593 0.23448853194713593 0.23448853194713593
0.26026999950408936 0.26026999950408936 0.26026999950408936
0.30006197094917297 0.30006197094917297 0.30006197094917297
0.34513965249061584 0.34513965249061584 0.34513965249061584
0.37732616066932678 0.37732616066932678 0.37732616066932678
