films/fuji_superia_400.cube
# Created by: G'MIC (https://gmic.eu)
TITLE "fuji_superia_400"
# LUT size
LUT_3D_SIZE 5
# Data domain
DOMAIN_MIN 0.0 0.0 0.0
DOMAIN_MAX 1.0 1.0 1.0
# LUT data points
0.0087143545970320702 0.056856371462345123 0.048457637429237366
0.19737343490123749 0.067424103617668152 0.046963095664978027
0.55819523334503174 0.019950268790125847 0.031252410262823105
0.87663161754608154 0.013481155037879944 0.0002667595399543643
1 0.20902499556541443 0
0.00024808995658531785 0.22323688864707947 0.098923668265342712
0.20577985048294067 0.27426481246948242 0.040989477187395096
0.61192423105239868 0.28043314814567566 0.00019230562611483037
0.87488037347793579 0.28193467855453491 0
1 0.36524102091789246 0
0.00020195456454530358 0.51218295097351074 0.20561696588993073
0.17110885679721832 0.52996504306793213 0.17807778716087341
0.58057498931884766 0.64080697298049927 0.051781538873910904
0.88926428556442261 0.62227576971054077 0.00020365996169857681
0.99968242645263672 0.57557284832000732 0.00056767184287309647
0.30062508583068848 0.74679148197174072 0.42523846030235291
0.38124623894691467 0.74347299337387085 0.42285832762718201
0.55393940210342407 0.77996957302093506 0.41391101479530334
0.83106952905654907 0.84640246629714966 0.37718674540519714
0.99864202737808228 0.85301005840301514 0.22143657505512238
0.71692711114883423 0.93302804231643677 0.73572784662246704
0.73163187503814697 0.93139380216598511 0.74131500720977783
0.76160258054733276 0.93218809366226196 0.73438113927841187
0.84800487756729126 0.95168465375900269 0.74630308151245117
0.95426309108734131 0.96831035614013672 0.72406619787216187
0.0094654606655240059 0.065746307373046875 0.21160687506198883
0.20005430281162262 0.087417706847190857 0.21020914614200592
0.5639796257019043 0.012845117598772049 0.22552305459976196
0.8872835636138916 0.036622125655412674 0.21991400420665741
1 0.27374041080474854 0.24079500138759613
0.011618430726230145 0.25269728899002075 0.24475286900997162
0.25646176934242249 0.28624099493026733 0.26964691281318665
0.6193385124206543 0.28982636332511902 0.25162848830223083
0.88201457262039185 0.32329621911048889 0.22952531278133392
1 0.39924538135528564 0.22132983803749084
0.17130939662456512 0.55702418088912964 0.3701309859752655
0.30683606863021851 0.55554389953613281 0.37270483374595642
0.60439890623092651 0.63932394981384277 0.33945709466934204
0.87774801254272461 0.59908270835876465 0.19777588546276093
0.99975723028182983 0.58264315128326416 0.14540433883666992
0.40451157093048096 0.76576691865921021 0.51842403411865234
0.45802959799766541 0.75975579023361206 0.51989114284515381
0.58716452121734619 0.78033447265625 0.52787792682647705
0.82631820440292358 0.8417438268661499 0.51145660877227783
0.99851608276367188 0.84742587804794312 0.42397060990333557
0.72788393497467041 0.93457072973251343 0.75575166940689087
0.73958384990692139 0.93165880441665649 0.7587551474571228
0.78414261341094971 0.93271654844284058 0.77038449048995972
0.85227108001708984 0.95177900791168213 0.76798748970031738
0.95747148990631104 0.97050017118453979 0.76301419734954834
0.00044026094838045537 0.074286773800849915 0.54788821935653687
0.25585183501243591 0.085063368082046509 0.55551081895828247
0.57306534051895142 0.12175912410020828 0.55287092924118042
0.84620368480682373 0.17691464722156525 0.55942356586456299
0.99960315227508545 0.30246695876121521 0.54793912172317505
2.0464729459490627e-05 0.26070874929428101 0.5900646448135376
0.29490533471107483 0.2992742657661438 0.5948297381401062
0.60072606801986694 0.35756617784500122 0.58674848079681396
0.85062158107757568 0.38788187503814697 0.57652395963668823
0.99732917547225952 0.44985330104827881 0.57173281908035278
0.13452084362506866 0.59038525819778442 0.58840841054916382
0.35920467972755432 0.59709471464157104 0.60367190837860107
0.62033939361572266 0.62001186609268188 0.61308163404464722
0.84778130054473877 0.61214345693588257 0.58221691846847534
0.99908965826034546 0.6251990795135498 0.55706292390823364
0.54789716005325317 0.78881096839904785 0.66986197233200073
0.59228551387786865 0.79245173931121826 0.67932164669036865
0.6698310375213623 0.79165959358215332 0.67557495832443237
0.83782678842544556 0.84149491786956787 0.68451571464538574
0.99588173627853394 0.82131427526473999 0.61061400175094604
0.76000499725341797 0.93546992540359497 0.80901503562927246
0.77441537380218506 0.93520933389663696 0.8106464147567749
0.80349892377853394 0.93373030424118042 0.81434565782546997
0.86437451839447021 0.94572502374649048 0.82128417491912842
0.96685326099395752 0.97499102354049683 0.82944166660308838
0.19876331090927124 0.10862108319997787 0.81184428930282593
0.41212722659111023 0.13228709995746613 0.8106689453125
0.6597590446472168 0.2259901762008667 0.8055463433265686
0.85127878189086914 0.35316497087478638 0.79144531488418579
0.99353063106536865 0.46443948149681091 0.79362159967422485
0.2465958297252655 0.30961093306541443 0.81424105167388916
0.42778858542442322 0.32752829790115356 0.81385594606399536
0.66805201768875122 0.40492457151412964 0.80911713838577271
0.84960448741912842 0.4965367317199707 0.79789745807647705
0.9914630651473999 0.56987166404724121 0.8064160943031311
0.0085669122636318207 0.54180276393890381 0.80077105760574341
0.30804592370986938 0.56062966585159302 0.802978515625
0.6357651948928833 0.60756021738052368 0.80708694458007812
0.84442031383514404 0.67304658889770508 0.80916678905487061
0.98340910673141479 0.70251971483230591 0.81157934665679932
0.47368910908699036 0.80618196725845337 0.80184280872344971
0.54451346397399902 0.8071211576461792 0.80859506130218506
0.68750655651092529 0.8112947940826416 0.81340873241424561
0.84231358766555786 0.82656300067901611 0.82805687189102173
0.98575198650360107 0.82739770412445068 0.80800038576126099
0.79609173536300659 0.94523113965988159 0.87833654880523682
0.81045740842819214 0.94698417186737061 0.87908589839935303
0.85121703147888184 0.94804257154464722 0.88688284158706665
0.88918042182922363 0.94661682844161987 0.88624948263168335
0.96990138292312622 0.97512924671173096 0.90270966291427612
0.55536305904388428 0.3401520848274231 0.97508770227432251
0.62567645311355591 0.36993420124053955 0.97338747978210449
0.76457089185714722 0.45370429754257202 0.96460390090942383
0.89903503656387329 0.59410375356674194 0.9563639760017395
0.9963991641998291 0.66103577613830566 0.94785141944885254
0.55510127544403076 0.46079084277153015 0.97282838821411133
0.63050496578216553 0.48963245749473572 0.97028088569641113
0.76665616035461426 0.55105400085449219 0.96603178977966309
0.89641612768173218 0.64878958463668823 0.95706790685653687
0.99370640516281128 0.71726799011230469 0.95055645704269409
0.46977609395980835 0.60420525074005127 0.97074121236801147
0.58211600780487061 0.62507957220077515 0.96748167276382446
0.74378621578216553 0.66654938459396362 0.96275448799133301
0.88582837581634521 0.74019217491149902 0.95591205358505249
0.98710638284683228 0.79623305797576904 0.94995391368865967
0.46473774313926697 0.79056441783905029 0.95868438482284546
0.53711354732513428 0.79425561428070068 0.95827734470367432
0.65400642156600952 0.79056477546691895 0.96109688282012939
0.85419803857803345 0.8332865834236145 0.95865565538406372
0.97597455978393555 0.8896825909614563 0.95678991079330444
0.76546186208724976 0.95863527059555054 0.9734460711479187
0.78754204511642456 0.95999443531036377 0.96473455429077148
0.83443224430084229 0.96293944120407104 0.96583300828933716
0.89590179920196533 0.96259260177612305 0.96448403596878052
0.98532795906066895 0.98216420412063599 0.98413509130477905
