films/fuji_provia_400x.cube
# Created by: G'MIC (https://gmic.eu)
TITLE "fuji_provia_400x"
# LUT size
LUT_3D_SIZE 7
# Data domain
DOMAIN_MIN 0.0 0.0 0.0
DOMAIN_MAX 1.0 1.0 1.0
# LUT data points
0.042435485869646072 0.037456363439559937 0.034913424402475357
0.20231230556964874 0.037181615829467773 0.033735103905200958
0.38107460737228394 0.033272087574005127 0.037083763629198074
0.58262556791305542 0.035059507936239243 0.033520225435495377
0.77523410320281982 0.028045818209648132 0.019104123115539551
0.93618887662887573 0.0204123854637146 0.0031516430899500847
1 0.026267781853675842 0
0.08877977728843689 0.20058204233646393 0.084186702966690063
0.20180018246173859 0.19727422297000885 0.080219760537147522
0.38256484270095825 0.18687449395656586 0.077782712876796722
0.59708529710769653 0.1738644540309906 0.0761384516954422
0.79838544130325317 0.15174007415771484 0.059307560324668884
0.96055847406387329 0.12499444931745529 0.032828252762556076
1 0.12887828052043915 0.0069745681248605251
0.062480088323354721 0.37966045737266541 0.12781862914562225
0.17716467380523682 0.37500089406967163 0.12813103199005127
0.38274261355400085 0.37014859914779663 0.12187816947698593
0.61232620477676392 0.35651135444641113 0.11428596824407578
0.81639736890792847 0.33858135342597961 0.097394399344921112
0.96044498682022095 0.31534963846206665 0.071163982152938843
0.99965167045593262 0.29623502492904663 0.040736313909292221
0.013516190461814404 0.56015843152999878 0.15228292346000671
0.14611577987670898 0.55597877502441406 0.15014712512493134
0.37719625234603882 0.55566692352294922 0.14544613659381866
0.62882018089294434 0.54370886087417603 0.13051675260066986
0.83034533262252808 0.5351148247718811 0.12449294328689575
0.97042578458786011 0.52046579122543335 0.098698556423187256
1 0.50660210847854614 0.061285190284252167
0.007449430413544178 0.70020461082458496 0.13908189535140991
0.11851357668638229 0.69916951656341553 0.14050079882144928
0.381328284740448 0.69527930021286011 0.13057279586791992
0.65369391441345215 0.68997746706008911 0.1207369938492775
0.85525053739547729 0.68668198585510254 0.11317215114831924
0.99324733018875122 0.67746829986572266 0.097857490181922913
1 0.66753202676773071 0.055813375860452652
0.0029878504574298859 0.83261066675186157 0.077671915292739868
0.092550627887248993 0.83224248886108398 0.079349622130393982
0.40788906812667847 0.82488960027694702 0.060154080390930176
0.68891215324401855 0.82182919979095459 0.064546145498752594
0.89044868946075439 0.82397627830505371 0.056962557137012482
0.99963545799255371 0.81920218467712402 0.036422997713088989
1 0.80654728412628174 0.012954427860677242
0 0.97451549768447876 0
0.053704116493463516 0.97955501079559326 0.00051000260282307863
0.22561004757881165 0.98150122165679932 0.00048558853450231254
0.61334323883056641 0.975047767162323 0
0.8797343373298645 0.97603625059127808 9.3347889560391195e-06
0.99985027313232422 0.97373831272125244 0
1 0.95486718416213989 0
0.025926074013113976 0.024411505088210106 0.13735537230968475
0.17435550689697266 0.022131377831101418 0.1352970153093338
0.35168761014938354 0.011800504289567471 0.13586039841175079
0.55442023277282715 0.014636724255979061 0.12552663683891296
0.7449842095375061 0.010311800055205822 0.10817142575979233
0.90612959861755371 0.004551996011286974 0.08207295835018158
0.9980628490447998 0.0016764472238719463 0.04085247591137886
0.073111891746520996 0.18001963198184967 0.17535394430160522
0.17662760615348816 0.17401830852031708 0.17437586188316345
0.35797244310379028 0.16234332323074341 0.17325954139232635
0.56913566589355469 0.15368252992630005 0.16516810655593872
0.76141250133514404 0.12780168652534485 0.14932186901569366
0.9154394268989563 0.098610974848270416 0.12211278080940247
0.99976754188537598 0.099707812070846558 0.085355781018733978
0.032585322856903076 0.36575540900230408 0.2143765389919281
0.13615253567695618 0.36301961541175842 0.21017244458198547
0.36065974831581116 0.35581204295158386 0.20760266482830048
0.58701086044311523 0.34610012173652649 0.20222093164920807
0.78635448217391968 0.32654023170471191 0.18813329935073853
0.94542449712753296 0.30101752281188965 0.1632152646780014
1 0.28496840596199036 0.13025069236755371
0.003072147723287344 0.55112797021865845 0.24129778146743774
0.094862617552280426 0.55019301176071167 0.24054019153118134
0.33842548727989197 0.54652273654937744 0.23478531837463379
0.59966361522674561 0.5405462384223938 0.22632862627506256
0.79710108041763306 0.53307074308395386 0.21185863018035889
0.96367990970611572 0.51892977952957153 0.18859873712062836
1 0.49943545460700989 0.14810764789581299
0.001897654845379293 0.69950908422470093 0.24596437811851501
0.088107526302337646 0.69721496105194092 0.25310355424880981
0.33991864323616028 0.6919935941696167 0.24365772306919098
0.61513745784759521 0.68672186136245728 0.23045466840267181
0.81514376401901245 0.68328595161437988 0.21605269610881805
0.97396755218505859 0.67635899782180786 0.18919840455055237
1 0.66319423913955688 0.1339193731546402
0.00073888443876057863 0.83178853988647461 0.20931611955165863
0.077943362295627594 0.82953059673309326 0.21176241338253021
0.34317955374717712 0.82206565141677856 0.20068033039569855
0.63853222131729126 0.81978821754455566 0.18927314877510071
0.84408032894134521 0.81686580181121826 0.17079181969165802
0.99089890718460083 0.81040924787521362 0.12907876074314117
1 0.80618762969970703 0.087940022349357605
0 0.98428142070770264 0.03400084376335144
0.039391297847032547 0.98352509737014771 0.058624971657991409
0.27038472890853882 0.97841471433639526 0.07312668114900589
0.60534083843231201 0.9811062216758728 0.021622182801365852
0.85507649183273315 0.97679734230041504 0.036639031022787094
0.99950563907623291 0.97313505411148071 0.0067554996348917484
1 0.96645760536193848 0.00045076257083564997
0.014307164587080479 0.016808453947305679 0.23967075347900391
0.14436852931976318 0.006452642846852541 0.24205926060676575
0.3205362856388092 0.0023387833498418331 0.2430156022310257
0.51214271783828735 0.0024891123175621033 0.23710529506206512
0.69366455078125 0.0013348298380151391 0.22443248331546783
0.85781824588775635 0.0022043264470994473 0.20140978693962097
0.98996865749359131 0.0047515570186078548 0.16212771832942963
0.0562564916908741 0.15126220881938934 0.28503236174583435
0.15321582555770874 0.14491929113864899 0.28381946682929993
0.32769176363945007 0.13251644372940063 0.28629976511001587
0.52636396884918213 0.12356839329004288 0.28132545948028564
0.705832839012146 0.1016237884759903 0.26938566565513611
0.86479437351226807 0.076732039451599121 0.24490129947662354
0.99034953117370605 0.079409338533878326 0.20902833342552185
0.043786320835351944 0.34221634268760681 0.33042711019515991
0.12680403888225555 0.33884504437446594 0.32868528366088867
0.33057999610900879 0.32931032776832581 0.33195391297340393
0.54450023174285889 0.32038623094558716 0.32658672332763672
0.72655761241912842 0.30034753680229187 0.31612566113471985
0.88949239253997803 0.27301749587059021 0.29426142573356628
0.9981425404548645 0.25628721714019775 0.25997331738471985
0.0041857999749481678 0.54101121425628662 0.36967206001281738
0.071224585175514221 0.53636264801025391 0.36859646439552307
0.29507207870483398 0.53085756301879883 0.36758044362068176
0.54866540431976318 0.52525979280471802 0.36481952667236328
0.73532605171203613 0.51715672016143799 0.3563445508480072
0.8994104266166687 0.50457394123077393 0.33654007315635681
0.99734336137771606 0.4824613630771637 0.29662063717842102
0 0.68861323595046997 0.39990600943565369
0.059373624622821808 0.68756294250488281 0.40331056714057922
0.29522097110748291 0.68297255039215088 0.39547032117843628
0.55423909425735474 0.67812275886535645 0.39225056767463684
0.74533164501190186 0.67417550086975098 0.38387668132781982
0.92222112417221069 0.66789311170578003 0.3632013201713562
1 0.65397244691848755 0.31637716293334961
0 0.82264447212219238 0.40152934193611145
0.041370570659637451 0.81910866498947144 0.40847694873809814
0.27280625700950623 0.81613796949386597 0.40028172731399536
0.55681312084197998 0.81241524219512939 0.39639928936958313
0.75600391626358032 0.80986541509628296 0.38539573550224304
0.93702894449234009 0.80242812633514404 0.36414662003517151
1 0.79564714431762695 0.29767563939094543
0 0.97932159900665283 0.28951430320739746
0.011799920350313187 0.97474509477615356 0.30127516388893127
0.21437828242778778 0.97264546155929565 0.30211487412452698
0.5078698992729187 0.97206354141235352 0.28633841872215271
0.76305776834487915 0.97335702180862427 0.26784726977348328
0.97172713279724121 0.97300130128860474 0.22392743825912476
1 0.97197109460830688 0.11508207023143768
0.024836402386426926 0.00030356014030985534 0.34850099682807922
0.13718532025814056 0 0.35157358646392822
0.29473328590393066 0 0.3542153537273407
0.47096946835517883 0 0.35234940052032471
0.63997799158096313 0 0.34631931781768799
0.79742264747619629 0 0.3307957649230957
0.94720280170440674 0.00022053437714930624 0.29961737990379333
0.035878408700227737 0.10372283309698105 0.40039083361625671
0.13585165143013 0.097554422914981842 0.39957496523857117
0.29738637804985046 0.085218586027622223 0.40254545211791992
0.48280173540115356 0.07961699366569519 0.40003451704978943
0.6481398344039917 0.066769376397132874 0.39567288756370544
0.79515200853347778 0.04252256453037262 0.38086053729057312
0.93685567378997803 0.042728979140520096 0.35077056288719177
0.05548342689871788 0.30270558595657349 0.45315408706665039
0.12177294492721558 0.29889866709709167 0.45094630122184753
0.30712726712226868 0.28728863596916199 0.45420804619789124
0.50272142887115479 0.2758127748966217 0.45085352659225464
0.66672605276107788 0.25806710124015808 0.44644132256507874
0.81978905200958252 0.2327829897403717 0.43461659550666809
0.95880782604217529 0.21089954674243927 0.40696361660957336
0.0083418302237987518 0.51779454946517944 0.49977734684944153
0.075680211186408997 0.51498550176620483 0.50069290399551392
0.2754732072353363 0.50957608222961426 0.50213712453842163
0.50531858205795288 0.50249069929122925 0.5002099871635437
0.67486679553985596 0.48966801166534424 0.49660411477088928
0.83600020408630371 0.478505939245224 0.48942631483078003
0.9842955470085144 0.45564290881156921 0.46551322937011719
2.7286305339657702e-05 0.67348802089691162 0.5387384295463562
0.042490627616643906 0.67533403635025024 0.53959947824478149
0.25530245900154114 0.67199307680130005 0.53883719444274902
0.49926361441612244 0.66664773225784302 0.53872931003570557
0.67662656307220459 0.66039514541625977 0.53718239068984985
0.84545016288757324 0.65466034412384033 0.52883678674697876
0.99212580919265747 0.63949835300445557 0.50286149978637695
0 0.81505268812179565 0.56140393018722534
0.011754458770155907 0.81404405832290649 0.55984055995941162
0.21652092039585114 0.81061691045761108 0.556427001953125
0.48638680577278137 0.80257523059844971 0.56090801954269409
0.67719739675521851 0.79952549934387207 0.55874073505401611
0.85603964328765869 0.79770076274871826 0.55009037256240845
0.99705702066421509 0.78658169507980347 0.52132850885391235
0 0.97411197423934937 0.52645021677017212
0.0024831434711813927 0.97206753492355347 0.52100485563278198
0.13343663513660431 0.97091221809387207 0.51616024971008301
0.37046346068382263 0.96817731857299805 0.52258896827697754
0.64195728302001953 0.96832311153411865 0.51556688547134399
0.87495386600494385 0.974384605884552 0.49022158980369568
0.99586743116378784 0.97013372182846069 0.442461758852005
0.048733070492744446 0 0.44466361403465271
0.1480480432510376 0 0.45062041282653809
0.28584045171737671 0 0.45560726523399353
0.44316732883453369 0 0.45739400386810303
0.5962059497833252 0 0.45731818675994873
0.73753732442855835 0 0.45546084642410278
0.87404698133468628 0 0.4311273992061615
0.049541816115379333 0.044459324330091476 0.49434158205986023
0.14461833238601685 0.036895841360092163 0.49667820334434509
0.28951692581176758 0.034533288329839706 0.49986368417739868
0.45459896326065063 0.027977259829640388 0.50099641084671021
0.60569161176681519 0.023498654365539551 0.50232768058776855
0.74338674545288086 0.020909357815980911 0.50032973289489746
0.88000154495239258 0.0091981329023838043 0.4780680239200592
0.064404353499412537 0.23941667377948761 0.54722386598587036
0.15116351842880249 0.23458307981491089 0.54729872941970825
0.31082066893577576 0.22542327642440796 0.54896253347396851
0.47919788956642151 0.21012899279594421 0.54861462116241455
0.62713932991027832 0.19837436079978943 0.54917663335800171
0.76907861232757568 0.17651259899139404 0.54658961296081543
0.9062652587890625 0.12983308732509613 0.52797651290893555
0.018425915390253067 0.4836525022983551 0.59826749563217163
0.10972116142511368 0.47823029756546021 0.59879863262176514
0.29203051328659058 0.4720369279384613 0.60061949491500854
0.48732432723045349 0.4642835259437561 0.60091280937194824
0.64194738864898682 0.45521605014801025 0.60004246234893799
0.79178863763809204 0.4358380138874054 0.59775501489639282
0.94298279285430908 0.40356352925300598 0.58419603109359741
5.7444854064669926e-06 0.65868145227432251 0.63951730728149414
0.057657398283481598 0.65853524208068848 0.64061778783798218
0.26126399636268616 0.65560346841812134 0.64229464530944824
0.48048406839370728 0.64955741167068481 0.64300405979156494
0.64241164922714233 0.64220696687698364 0.64203447103500366
0.79780524969100952 0.63698345422744751 0.64092123508453369
0.95932555198669434 0.61603176593780518 0.62758523225784302
0 0.80201107263565063 0.66881245374679565
0.017013879492878914 0.80579859018325806 0.6681169867515564
0.19883033633232117 0.80203163623809814 0.66926330327987671
0.44790762662887573 0.79408371448516846 0.66984981298446655
0.62931466102600098 0.78997153043746948 0.66923058032989502
0.80145561695098877 0.78828680515289307 0.67053139209747314
0.97561424970626831 0.77505981922149658 0.65468376874923706
0 0.96574914455413818 0.66396719217300415
0.0001220703125 0.9731634259223938 0.66567057371139526
0.072479903697967529 0.97142153978347778 0.66724944114685059
0.25395479798316956 0.97133427858352661 0.67393743991851807
0.55702316761016846 0.96587526798248291 0.66950619220733643
0.78529459238052368 0.97015386819839478 0.6669008731842041
0.98129743337631226 0.95054847002029419 0.64117079973220825
0.090492069721221924 0 0.52652162313461304
0.17840483784675598 0 0.53710412979125977
0.29629263281822205 0 0.54669767618179321
0.4324280321598053 0 0.5489431619644165
0.57001161575317383 0 0.54768258333206177
0.70169639587402344 0 0.54377573728561401
0.82799935340881348 0 0.52408301830291748
0.09072558581829071 0.00050114648183807731 0.57000881433486938
0.18015111982822418 0.00041168811731040478 0.5743677020072937
0.30337843298912048 0.0015036340337246656 0.58093851804733276
0.44303023815155029 0.00074543670052662492 0.58503168821334839
0.57941454648971558 0.00019148284627590328 0.58872908353805542
0.71083903312683105 5.3854550060350448e-05 0.58746713399887085
0.83949178457260132 0 0.57065814733505249
0.11982709169387817 0.14661341905593872 0.61817407608032227
0.21331301331520081 0.1409323662519455 0.61897486448287964
0.33499544858932495 0.13734407722949982 0.62165778875350952
0.4681755006313324 0.12416962534189224 0.62461221218109131
0.60035938024520874 0.11832305043935776 0.62897640466690063
0.73240453004837036 0.10289881378412247 0.62968486547470093
0.86409366130828857 0.069423511624336243 0.61634272336959839
0.10877695679664612 0.42366981506347656 0.67357832193374634
0.20161296427249908 0.4166644811630249 0.67439299821853638
0.34619662165641785 0.41257122159004211 0.67763864994049072
0.49325138330459595 0.40253707766532898 0.67800617218017578
0.62309664487838745 0.38361433148384094 0.68014103174209595
0.75590312480926514 0.36654579639434814 0.67965817451477051
0.9012572169303894 0.33227047324180603 0.67075693607330322
0.059412263333797455 0.63133543729782104 0.72386211156845093
0.14437584578990936 0.62819176912307739 0.72489696741104126
0.32386651635169983 0.62393385171890259 0.72740143537521362
0.48863866925239563 0.61754423379898071 0.72872096300125122
0.62557291984558105 0.60754698514938354 0.72872865200042725
0.76642686128616333 0.60126715898513794 0.72918039560317993
0.92426961660385132 0.57604199647903442 0.72273749113082886
0.02105814591050148 0.78386318683624268 0.76355695724487305
0.079266943037509918 0.78771108388900757 0.76399409770965576
0.24595984816551208 0.77990967035293579 0.76444697380065918
0.45154231786727905 0.77577126026153564 0.76733005046844482
0.60893124341964722 0.77140611410140991 0.76609724760055542
0.76594918966293335 0.76737105846405029 0.76543897390365601
0.94604134559631348 0.75420701503753662 0.76096576452255249
0 0.96208757162094116 0.78674870729446411
0.004502524621784687 0.97415632009506226 0.78743165731430054
0.073567725718021393 0.96255457401275635 0.79019021987915039
0.28285107016563416 0.96570134162902832 0.79380178451538086
0.52179694175720215 0.96285891532897949 0.79141139984130859
0.73960918188095093 0.95968598127365112 0.78992056846618652
0.96139669418334961 0.94463759660720825 0.7793695330619812
0.14721448719501495 0 0.59862762689590454
0.22544711828231812 0 0.61348515748977661
0.32326972484588623 0 0.62906664609909058
0.43858972191810608 0 0.62728166580200195
0.56049501895904541 0 0.62128680944442749
0.68142586946487427 0 0.61274033784866333
0.79837465286254883 0 0.59534269571304321
0.16430263221263885 0 0.63818621635437012
0.24029898643493652 0 0.64658194780349731
0.33582350611686707 0 0.65480691194534302
0.44767299294471741 0 0.65808463096618652
0.56795775890350342 0 0.65926933288574219
0.68997550010681152 0 0.6557202935218811
0.80961751937866211 0 0.64146476984024048
0.21159635484218597 0.031067417934536934 0.6820981502532959
0.27575260400772095 0.023600934073328972 0.68408477306365967
0.36265367269515991 0.022944910451769829 0.6871260404586792
0.46585610508918762 0.013571182265877724 0.69033348560333252
0.58417612314224243 0.022951193153858185 0.69749033451080322
0.70624184608459473 0.019133653491735458 0.69904851913452148
0.82604146003723145 0.00079417508095502853 0.68593698740005493
0.2611260712146759 0.31157305836677551 0.74571079015731812
0.30611619353294373 0.30439931154251099 0.74520421028137207
0.39407971501350403 0.29399663209915161 0.74690204858779907
0.49917453527450562 0.28075060248374939 0.74872726202011108
0.61224305629730225 0.27752864360809326 0.75327330827713013
0.73052650690078735 0.25452283024787903 0.75389456748962402
0.85776197910308838 0.18525521457195282 0.74220865964889526
0.22222629189491272 0.57280409336090088 0.80610018968582153
0.28885576128959656 0.57177424430847168 0.80873531103134155
0.3973546028137207 0.56441885232925415 0.80887776613235474
0.51074230670928955 0.55780881643295288 0.81202429533004761
0.62443530559539795 0.54226589202880859 0.81364226341247559
0.74911469221115112 0.53339159488677979 0.81597888469696045
0.89456629753112793 0.49627229571342468 0.81023693084716797
0.14022600650787354 0.75305092334747314 0.86213058233261108
0.21062959730625153 0.75060701370239258 0.86291098594665527
0.35886451601982117 0.74573975801467896 0.86275655031204224
0.48733735084533691 0.74054515361785889 0.8658636212348938
0.61006397008895874 0.73630094528198242 0.86913961172103882
0.75061893463134766 0.72636425495147705 0.87280118465423584
0.91783738136291504 0.71431851387023926 0.87227076292037964
0.0052148406393826008 0.95507669448852539 0.91021806001663208
0.0066339531913399696 0.94865912199020386 0.90868639945983887
0.1238916888833046 0.95062994956970215 0.91163027286529541
0.30858123302459717 0.95022022724151611 0.91309845447540283
0.52379733324050903 0.94070720672607422 0.91946238279342651
0.70495277643203735 0.94047105312347412 0.92278653383255005
0.93346965312957764 0.94322532415390015 0.93758457899093628
