films/fuji_neopan_1600_1_-.cube
TITLE "data/luts/rawtherapee/HaldCLUT/Black-and-White/Fuji/Fuji Neopan 1600 1 -.png"
LUT_3D_SIZE 8
DOMAIN_MIN 0 0 0
DOMAIN_MAX 1 1 1
0.039216 0.039216 0.039216
0.039216 0.039216 0.039216
0.047059 0.047059 0.047059
0.071709 0.071709 0.071709
0.150700 0.150700 0.150700
0.259384 0.259384 0.259384
0.369188 0.369188 0.369188
0.517647 0.517647 0.517647
0.044818 0.044818 0.044818
0.050260 0.050260 0.050260
0.075950 0.075950 0.075950
0.125970 0.125970 0.125970
0.212325 0.212325 0.212325
0.300280 0.300280 0.300280
0.401281 0.401281 0.401281
0.541176 0.541176 0.541176
0.089636 0.089636 0.089636
0.103081 0.103081 0.103081
0.155182 0.155182 0.155182
0.258824 0.258824 0.258824
0.340456 0.340456 0.340456
0.395598 0.395598 0.395598
0.472269 0.472269 0.472269
0.619048 0.619048 0.619048
0.229692 0.229692 0.229692
0.253221 0.253221 0.253221
0.280112 0.280112 0.280112
0.339496 0.339496 0.339496
0.425130 0.425130 0.425130
0.500280 0.500280 0.500280
0.596158 0.596158 0.596158
0.719888 0.719888 0.719888
0.367507 0.367507 0.367507
0.383193 0.383193 0.383193
0.394398 0.394398 0.394398
0.431052 0.431052 0.431052
0.486355 0.486355 0.486355
0.587835 0.587835 0.587835
0.691317 0.691317 0.691317
0.810644 0.810644 0.810644
0.507003 0.507003 0.507003
0.520768 0.520768 0.520768
0.529972 0.529972 0.529972
0.555182 0.555182 0.555182
0.611365 0.611365 0.611365
0.675630 0.675630 0.675630
0.777271 0.777271 0.777271
0.867227 0.867227 0.867227
0.722129 0.722129 0.722129
0.730692 0.730692 0.730692
0.735814 0.735814 0.735814
0.745658 0.745658 0.745658
0.781513 0.781513 0.781513
0.822409 0.822409 0.822409
0.869468 0.869468 0.869468
0.937255 0.937255 0.937255
0.921569 0.921569 0.921569
0.921569 0.921569 0.921569
0.925490 0.925490 0.925490
0.929412 0.929412 0.929412
0.943978 0.943978 0.943978
0.961345 0.961345 0.961345
0.980392 0.980392 0.980392
0.996078 0.996078 0.996078
0.039216 0.039216 0.039216
0.044818 0.044818 0.044818
0.056343 0.056343 0.056343
0.098519 0.098519 0.098519
0.182553 0.182553 0.182553
0.272829 0.272829 0.272829
0.373509 0.373509 0.373509
0.494118 0.494118 0.494118
0.050980 0.050980 0.050980
0.066427 0.066427 0.066427
0.091877 0.091877 0.091877
0.149305 0.149305 0.149305
0.233613 0.233613 0.233613
0.314835 0.314835 0.314835
0.403922 0.403922 0.403922
0.525490 0.525490 0.525490
0.133894 0.133894 0.133894
0.143223 0.143223 0.143223
0.192157 0.192157 0.192157
0.284594 0.284594 0.284594
0.346058 0.346058 0.346058
0.400160 0.400160 0.400160
0.476808 0.476808 0.476808
0.611204 0.611204 0.611204
0.266186 0.266186 0.266186
0.287852 0.287852 0.287852
0.307014 0.307014 0.307014
0.360761 0.360761 0.360761
0.436769 0.436769 0.436769
0.511553 0.511553 0.511553
0.599028 0.599028 0.599028
0.718768 0.718768 0.718768
0.388796 0.388796 0.388796
0.409089 0.409089 0.409089
0.414737 0.414737 0.414737
0.449105 0.449105 0.449105
0.497936 0.497936 0.497936
0.599440 0.599440 0.599440
0.697285 0.697285 0.697285
0.814566 0.814566 0.814566
0.526531 0.526531 0.526531
0.541680 0.541680 0.541680
0.548174 0.548174 0.548174
0.571932 0.571932 0.571932
0.624741 0.624741 0.624741
0.683988 0.683988 0.683988
0.780987 0.780987 0.780987
0.873389 0.873389 0.873389
0.731653 0.731653 0.731653
0.742697 0.742697 0.742697
0.746962 0.746962 0.746962
0.756142 0.756142 0.756142
0.789630 0.789630 0.789630
0.827291 0.827291 0.827291
0.872829 0.872829 0.872829
0.941176 0.941176 0.941176
0.921569 0.921569 0.921569
0.925490 0.925490 0.925490
0.927491 0.927491 0.927491
0.933814 0.933814 0.933814
0.944458 0.944458 0.944458
0.963265 0.963265 0.963265
0.983353 0.983353 0.983353
0.994398 0.994398 0.994398
0.050980 0.050980 0.050980
0.065786 0.065786 0.065786
0.108123 0.108123 0.108123
0.145658 0.145658 0.145658
0.229692 0.229692 0.229692
0.309804 0.309804 0.309804
0.394158 0.394158 0.394158
0.505882 0.505882 0.505882
0.077311 0.077311 0.077311
0.108443 0.108443 0.108443
0.154233 0.154233 0.154233
0.199966 0.199966 0.199966
0.270588 0.270588 0.270588
0.341176 0.341176 0.341176
0.421529 0.421529 0.421529
0.543337 0.543337 0.543337
0.143417 0.143417 0.143417
0.181192 0.181192 0.181192
0.262025 0.262025 0.262025
0.312228 0.312228 0.312228
0.362122 0.362122 0.362122
0.418979 0.418979 0.418979
0.491797 0.491797 0.491797
0.622969 0.622969 0.622969
0.312045 0.312045 0.312045
0.349020 0.349020 0.349020
0.365598 0.365598 0.365598
0.403041 0.403041 0.403041
0.468496 0.468496 0.468496
0.530692 0.530692 0.530692
0.609364 0.609364 0.609364
0.722689 0.722689 0.722689
0.440096 0.440096 0.440096
0.461064 0.461064 0.461064
0.464986 0.464986 0.464986
0.482193 0.482193 0.482193
0.531092 0.531092 0.531092
0.625164 0.625164 0.625164
0.716835 0.716835 0.716835
0.818487 0.818487 0.818487
0.570148 0.570148 0.570148
0.590408 0.590408 0.590408
0.596078 0.596078 0.596078
0.605465 0.605465 0.605465
0.653804 0.653804 0.653804
0.703493 0.703493 0.703493
0.794878 0.794878 0.794878
0.882433 0.882433 0.882433
0.756623 0.756623 0.756623
0.766421 0.766421 0.766421
0.770148 0.770148 0.770148
0.777831 0.777831 0.777831
0.802172 0.802172 0.802172
0.839296 0.839296 0.839296
0.880432 0.880432 0.880432
0.946539 0.946539 0.946539
0.928852 0.928852 0.928852
0.932773 0.932773 0.932773
0.933814 0.933814 0.933814
0.940776 0.940776 0.940776
0.947899 0.947899 0.947899
0.965186 0.965186 0.965186
0.982313 0.982313 0.982313
0.995518 0.995518 0.995518
0.105882 0.105882 0.105882
0.128932 0.128932 0.128932
0.199600 0.199600 0.199600
0.262185 0.262185 0.262185
0.291317 0.291317 0.291317
0.365266 0.365266 0.365266
0.438175 0.438175 0.438175
0.550140 0.550140 0.550140
0.159024 0.159024 0.159024
0.185240 0.185240 0.185240
0.240325 0.240325 0.240325
0.305059 0.305059 0.305059
0.329115 0.329115 0.329115
0.391094 0.391094 0.391094
0.459464 0.459464 0.459464
0.573669 0.573669 0.573669
0.200000 0.200000 0.200000
0.253553 0.253553 0.253553
0.333539 0.333539 0.333539
0.380152 0.380152 0.380152
0.405488 0.405488 0.405488
0.451118 0.451118 0.451118
0.515566 0.515566 0.515566
0.630012 0.630012 0.630012
0.315166 0.315166 0.315166
0.352735 0.352735 0.352735
0.398559 0.398559 0.398559
0.463637 0.463637 0.463637
0.495238 0.495238 0.495238
0.546939 0.546939 0.546939
0.619391 0.619391 0.619391
0.725810 0.725810 0.725810
0.460504 0.460504 0.460504
0.491671 0.491671 0.491671
0.524210 0.524210 0.524210
0.548219 0.548219 0.548219
0.584314 0.584314 0.584314
0.665821 0.665821 0.665821
0.741062 0.741062 0.741062
0.822089 0.822089 0.822089
0.627611 0.627611 0.627611
0.654113 0.654113 0.654113
0.660607 0.660607 0.660607
0.665786 0.665786 0.665786
0.690436 0.690436 0.690436
0.734614 0.734614 0.734614
0.815526 0.815526 0.815526
0.896679 0.896679 0.896679
0.788796 0.788796 0.788796
0.798216 0.798216 0.798216
0.802412 0.802412 0.802412
0.809398 0.809398 0.809398
0.820568 0.820568 0.820568
0.855085 0.855085 0.855085
0.893123 0.893123 0.893123
0.955262 0.955262 0.955262
0.940056 0.940056 0.940056
0.941817 0.941817 0.941817
0.945098 0.945098 0.945098
0.948219 0.948219 0.948219
0.954062 0.954062 0.954062
0.971429 0.971429 0.971429
0.984314 0.984314 0.984314
0.996078 0.996078 0.996078
0.217367 0.217367 0.217367
0.239296 0.239296 0.239296
0.292437 0.292437 0.292437
0.375270 0.375270 0.375270
0.410644 0.410644 0.410644
0.419208 0.419208 0.419208
0.500280 0.500280 0.500280
0.627451 0.627451 0.627451
0.259384 0.259384 0.259384
0.287475 0.287475 0.287475
0.336054 0.336054 0.336054
0.400480 0.400480 0.400480
0.437455 0.437455 0.437455
0.444109 0.444109 0.444109
0.521043 0.521043 0.521043
0.649220 0.649220 0.649220
0.336134 0.336134 0.336134
0.372640 0.372640 0.372640
0.404779 0.404779 0.404779
0.451826 0.451826 0.451826
0.488675 0.488675 0.488675
0.505528 0.505528 0.505528
0.578643 0.578643 0.578643
0.690196 0.690196 0.690196
0.367507 0.367507 0.367507
0.398136 0.398136 0.398136
0.437569 0.437569 0.437569
0.517396 0.517396 0.517396
0.564614 0.564614 0.564614
0.595667 0.595667 0.595667
0.655016 0.655016 0.655016
0.738055 0.738055 0.738055
0.460504 0.460504 0.460504
0.488618 0.488618 0.488618
0.518928 0.518928 0.518928
0.574778 0.574778 0.574778
0.652089 0.652089 0.652089
0.689922 0.689922 0.689922
0.740216 0.740216 0.740216
0.814566 0.814566 0.814566
0.632093 0.632093 0.632093
0.654422 0.654422 0.654422
0.679152 0.679152 0.679152
0.715852 0.715852 0.715852
0.741337 0.741337 0.741337
0.773669 0.773669 0.773669
0.840908 0.840908 0.840908
0.910364 0.910364 0.910364
0.804482 0.804482 0.804482
0.818670 0.818670 0.818670
0.832001 0.832001 0.832001
0.847036 0.847036 0.847036
0.853221 0.853221 0.853221
0.876202 0.876202 0.876202
0.910570 0.910570 0.910570
0.964706 0.964706 0.964706
0.952941 0.952941 0.952941
0.953581 0.953581 0.953581
0.956863 0.956863 0.956863
0.960464 0.960464 0.960464
0.964706 0.964706 0.964706
0.972709 0.972709 0.972709
0.988235 0.988235 0.988235
0.997199 0.997199 0.997199
0.357983 0.357983 0.357983
0.373669 0.373669 0.373669
0.411845 0.411845 0.411845
0.464986 0.464986 0.464986
0.544538 0.544538 0.544538
0.574710 0.574710 0.574710
0.566066 0.566066 0.566066
0.698599 0.698599 0.698599
0.385114 0.385114 0.385114
0.407957 0.407957 0.407957
0.436895 0.436895 0.436895
0.487052 0.487052 0.487052
0.564477 0.564477 0.564477
0.597233 0.597233 0.597233
0.583754 0.583754 0.583754
0.714606 0.714606 0.714606
0.439776 0.439776 0.439776
0.463271 0.463271 0.463271
0.489796 0.489796 0.489796
0.536032 0.536032 0.536032
0.608666 0.608666 0.608666
0.644189 0.644189 0.644189
0.643046 0.643046 0.643046
0.753501 0.753501 0.753501
0.454502 0.454502 0.454502
0.491294 0.491294 0.491294
0.549923 0.549923 0.549923
0.601841 0.601841 0.601841
0.662345 0.662345 0.662345
0.698760 0.698760 0.698760
0.709975 0.709975 0.709975
0.796639 0.796639 0.796639
0.509244 0.509244 0.509244
0.539336 0.539336 0.539336
0.571429 0.571429 0.571429
0.623003 0.623003 0.623003
0.712594 0.712594 0.712594
0.754645 0.754645 0.754645
0.779180 0.779180 0.779180
0.838655 0.838655 0.838655
0.628091 0.628091 0.628091
0.648488 0.648488 0.648488
0.672189 0.672189 0.672189
0.712788 0.712788 0.712788
0.765746 0.765746 0.765746
0.825404 0.825404 0.825404
0.857532 0.857532 0.857532
0.906443 0.906443 0.906443
0.806483 0.806483 0.806483
0.819482 0.819482 0.819482
0.831898 0.831898 0.831898
0.852352 0.852352 0.852352
0.884823 0.884823 0.884823
0.907243 0.907243 0.907243
0.933722 0.933722 0.933722
0.976951 0.976951 0.976951
0.952941 0.952941 0.952941
0.956863 0.956863 0.956863
0.961345 0.961345 0.961345
0.970148 0.970148 0.970148
0.979992 0.979992 0.979992
0.984314 0.984314 0.984314
0.992157 0.992157 0.992157
0.999440 0.999440 0.999440
0.522689 0.522689 0.522689
0.533894 0.533894 0.533894
0.565346 0.565346 0.565346
0.621849 0.621849 0.621849
0.687955 0.687955 0.687955
0.755502 0.755502 0.755502
0.770148 0.770148 0.770148
0.763025 0.763025 0.763025
0.536134 0.536134 0.536134
0.561482 0.561482 0.561482
0.592340 0.592340 0.592340
0.640691 0.640691 0.640691
0.700474 0.700474 0.700474
0.763345 0.763345 0.763345
0.778723 0.778723 0.778723
0.772549 0.772549 0.772549
0.582953 0.582953 0.582953
0.610187 0.610187 0.610187
0.637009 0.637009 0.637009
0.677562 0.677562 0.677562
0.730109 0.730109 0.730109
0.785434 0.785434 0.785434
0.800880 0.800880 0.800880
0.802481 0.802481 0.802481
0.629612 0.629612 0.629612
0.660024 0.660024 0.660024
0.683462 0.683462 0.683462
0.717201 0.717201 0.717201
0.762282 0.762282 0.762282
0.811285 0.811285 0.811285
0.830652 0.830652 0.830652
0.838655 0.838655 0.838655
0.589996 0.589996 0.589996
0.622249 0.622249 0.622249
0.671640 0.671640 0.671640
0.743337 0.743337 0.743337
0.792283 0.792283 0.792283
0.836049 0.836049 0.836049
0.862665 0.862665 0.862665
0.882353 0.882353 0.882353
0.700600 0.700600 0.700600
0.715486 0.715486 0.715486
0.732179 0.732179 0.732179
0.762213 0.762213 0.762213
0.805374 0.805374 0.805374
0.873904 0.873904 0.873904
0.908363 0.908363 0.908363
0.935814 0.935814 0.935814
0.811365 0.811365 0.811365
0.819619 0.819619 0.819619
0.832756 0.832756 0.832756
0.855668 0.855668 0.855668
0.886880 0.886880 0.886880
0.923547 0.923547 0.923547
0.965803 0.965803 0.965803
0.982633 0.982633 0.982633
0.954622 0.954622 0.954622
0.956863 0.956863 0.956863
0.960784 0.960784 0.960784
0.969748 0.969748 0.969748
0.980392 0.980392 0.980392
0.992157 0.992157 0.992157
0.996078 0.996078 0.996078
0.997759 0.997759 0.997759
0.772549 0.772549 0.772549
0.778151 0.778151 0.778151
0.795518 0.795518 0.795518
0.822409 0.822409 0.822409
0.857703 0.857703 0.857703
0.894678 0.894678 0.894678
0.931653 0.931653 0.931653
0.941176 0.941176 0.941176
0.772549 0.772549 0.772549
0.786315 0.786315 0.786315
0.801441 0.801441 0.801441
0.828091 0.828091 0.828091
0.862105 0.862105 0.862105
0.896599 0.896599 0.896599
0.932613 0.932613 0.932613
0.941176 0.941176 0.941176
0.792157 0.792157 0.792157
0.807843 0.807843 0.807843
0.822489 0.822489 0.822489
0.843537 0.843537 0.843537
0.874350 0.874350 0.874350
0.906443 0.906443 0.906443
0.939736 0.939736 0.939736
0.952381 0.952381 0.952381
0.811765 0.811765 0.811765
0.825210 0.825210 0.825210
0.839216 0.839216 0.839216
0.859144 0.859144 0.859144
0.887075 0.887075 0.887075
0.920608 0.920608 0.920608
0.950620 0.950620 0.950620
0.960784 0.960784 0.960784
0.796078 0.796078 0.796078
0.812405 0.812405 0.812405
0.840176 0.840176 0.840176
0.867467 0.867467 0.867467
0.897239 0.897239 0.897239
0.929972 0.929972 0.929972
0.960304 0.960304 0.960304
0.975350 0.975350 0.975350
0.793277 0.793277 0.793277
0.802561 0.802561 0.802561
0.812325 0.812325 0.812325
0.847059 0.847059 0.847059
0.905882 0.905882 0.905882
0.949100 0.949100 0.949100
0.978711 0.978711 0.978711
0.988235 0.988235 0.988235
0.896359 0.896359 0.896359
0.899320 0.899320 0.899320
0.905642 0.905642 0.905642
0.919888 0.919888 0.919888
0.937175 0.937175 0.937175
0.957183 0.957183 0.957183
0.990476 0.990476 0.990476
0.996078 0.996078 0.996078
0.964706 0.964706 0.964706
0.968627 0.968627 0.968627
0.969188 0.969188 0.969188
0.976471 0.976471 0.976471
0.985434 0.985434 0.985434
0.992717 0.992717 0.992717
0.997759 0.997759 0.997759
1.000000 1.000000 1.000000
