films/fuji_160c.cube
# Created by: G'MIC (https://gmic.eu)
TITLE "fuji_160c"
# LUT size
LUT_3D_SIZE 5
# Data domain
DOMAIN_MIN 0.0 0.0 0.0
DOMAIN_MAX 1.0 1.0 1.0
# LUT data points
0.040036894381046295 0.040624596178531647 0.032284770160913467
0.27327144145965576 0.011007256805896759 0.029485888779163361
0.62020373344421387 0.0024256387259811163 0.017760451883077621
0.87780451774597168 0.0098843146115541458 0.012300902977585793
1 0.2116445004940033 0.023308457806706429
0.00010393928096164018 0.26601991057395935 0.0059962254017591476
0.23477031290531158 0.26841071248054504 0.0054387408308684826
0.60227882862091064 0.26282671093940735 3.2312730127159739e-06
0.85584437847137451 0.29712212085723877 0.00025823255418799818
0.99719130992889404 0.38003954291343689 0.0026685826014727354
0 0.54780250787734985 0.00038992188638076186
0.13292078673839569 0.53592872619628906 0
0.52534657716751099 0.54816603660583496 0.00025850185193121433
0.80738306045532227 0.5657351016998291 0
0.99295341968536377 0.57486838102340698 0.0014951219782233238
0.00066659966250881553 0.75683677196502686 0.021438179537653923
0.15919837355613708 0.74994027614593506 0.03676190972328186
0.48629602789878845 0.74954015016555786 0.033940903842449188
0.7399364709854126 0.75378841161727905 0.015752978622913361
0.9586518406867981 0.77849173545837402 0.021791854873299599
0.22991740703582764 0.96100747585296631 0.34123104810714722
0.34020557999610901 0.95644807815551758 0.3549157977104187
0.51694780588150024 0.95319819450378418 0.38451021909713745
0.71462798118591309 0.9563603401184082 0.39377889037132263
0.91451084613800049 0.96109592914581299 0.41235923767089844
0.078118957579135895 0.051378048956394196 0.2390531599521637
0.30869436264038086 0.024738430976867676 0.24884168803691864
0.64682680368423462 0.010886607691645622 0.24205656349658966
0.88346856832504272 0.072714038193225861 0.27153465151786804
1 0.28826531767845154 0.31157872080802917
0.012031241320073605 0.29374080896377563 0.26127544045448303
0.31655865907669067 0.29483646154403687 0.26562437415122986
0.63284558057785034 0.29000288248062134 0.25684657692909241
0.85880035161972046 0.34828796982765198 0.2822968065738678
0.99929165840148926 0.41253894567489624 0.29698964953422546
0.048298045992851257 0.5784841775894165 0.2732841968536377
0.24752725660800934 0.56272208690643311 0.27197492122650146
0.5636056661605835 0.560283362865448 0.25812998414039612
0.8153233528137207 0.56989026069641113 0.22797176241874695
0.99410182237625122 0.58366072177886963 0.23675334453582764
0.0065577039495110512 0.77085691690444946 0.28751948475837708
0.20516368746757507 0.76123553514480591 0.29055911302566528
0.50424551963806152 0.75044959783554077 0.29440796375274658
0.74548840522766113 0.76126360893249512 0.286640465259552
0.96341979503631592 0.78029829263687134 0.2737356424331665
0.23857152462005615 0.95928370952606201 0.43213963508605957
0.33583241701126099 0.95276850461959839 0.42881250381469727
0.52303981781005859 0.95243912935256958 0.46339032053947449
0.71241968870162964 0.95445877313613892 0.47353869676589966
0.91365784406661987 0.96010452508926392 0.4833560585975647
0.16926075518131256 0.074801333248615265 0.5368226170539856
0.38852411508560181 0.071423172950744629 0.54822397232055664
0.65558457374572754 0.044221512973308563 0.56758028268814087
0.8749154806137085 0.093664906919002533 0.55203205347061157
0.99923586845397949 0.26476183533668518 0.5588265061378479
0.14958854019641876 0.28008753061294556 0.5397942066192627
0.38242819905281067 0.30280002951622009 0.55219101905822754
0.65470361709594727 0.33584883809089661 0.57332801818847656
0.86532092094421387 0.34886246919631958 0.56581729650497437
0.99940985441207886 0.43715935945510864 0.59042322635650635
0.080287948250770569 0.58419185876846313 0.57294386625289917
0.36170405149459839 0.58643430471420288 0.57633823156356812
0.61818462610244751 0.59222209453582764 0.58232128620147705
0.82468307018280029 0.599872887134552 0.57948487997055054
0.99257320165634155 0.61206185817718506 0.57718867063522339
0.31131947040557861 0.79577195644378662 0.59761172533035278
0.42333856225013733 0.79340922832489014 0.59579837322235107
0.56767451763153076 0.77183955907821655 0.56960266828536987
0.75918346643447876 0.77166080474853516 0.55615520477294922
0.97464638948440552 0.77882248163223267 0.54494220018386841
0.36386382579803467 0.96229547262191772 0.61648446321487427
0.42349919676780701 0.95847469568252563 0.61087119579315186
0.53923892974853516 0.95312774181365967 0.60429143905639648
0.71412116289138794 0.94939506053924561 0.61249387264251709
0.91953021287918091 0.96115332841873169 0.62814128398895264
0.40405908226966858 0.15226000547409058 0.77754354476928711
0.5156480073928833 0.1596924215555191 0.78106498718261719
0.70703625679016113 0.22206988930702209 0.79498195648193359
0.87213242053985596 0.30238711833953857 0.7971227765083313
0.99856334924697876 0.31555503606796265 0.78149610757827759
0.39929607510566711 0.33461430668830872 0.7727620005607605
0.50745666027069092 0.34212592244148254 0.77701306343078613
0.69076788425445557 0.39164561033248901 0.79074227809906006
0.85812407732009888 0.43877473473548889 0.79485583305358887
0.99884498119354248 0.45168733596801758 0.78226864337921143
0.26013392210006714 0.53140389919281006 0.76117110252380371
0.40928930044174194 0.54083931446075439 0.76237690448760986
0.63429206609725952 0.58209431171417236 0.78078389167785645
0.83240664005279541 0.63387501239776611 0.80250996351242065
0.99463552236557007 0.62570619583129883 0.78471451997756958
0.29732182621955872 0.78549569845199585 0.79073649644851685
0.40895560383796692 0.78340494632720947 0.7907567024230957
0.60461556911468506 0.7911916971206665 0.79866248369216919
0.79999911785125732 0.79846811294555664 0.80039280652999878
0.97557854652404785 0.80369341373443604 0.79955446720123291
0.43403828144073486 0.97788739204406738 0.81313163042068481
0.504935622215271 0.97480332851409912 0.81105226278305054
0.63455981016159058 0.96818166971206665 0.80991458892822266
0.76238447427749634 0.95982122421264648 0.79969149827957153
0.9328494668006897 0.95726561546325684 0.80173355340957642
0.62331944704055786 0.40344855189323425 0.97115176916122437
0.67014133930206299 0.41911470890045166 0.96907716989517212
0.76614534854888916 0.45834746956825256 0.96648788452148438
0.8877595067024231 0.52299040555953979 0.96624058485031128
0.99880695343017578 0.54292875528335571 0.96087020635604858
0.60819000005722046 0.49152478575706482 0.96553879976272583
0.66103935241699219 0.50259709358215332 0.96631276607513428
0.75682550668716431 0.53902196884155273 0.96380430459976196
0.87894684076309204 0.5875551700592041 0.96507138013839722
0.99795746803283691 0.61388421058654785 0.96171027421951294
0.52802658081054688 0.6090894341468811 0.96089494228363037
0.60853540897369385 0.62874525785446167 0.96195882558822632
0.72791409492492676 0.65134036540985107 0.9611583948135376
0.86149764060974121 0.69129037857055664 0.96348041296005249
0.99306744337081909 0.71301060914993286 0.96559494733810425
0.43244415521621704 0.76610982418060303 0.95804899930953979
0.48759636282920837 0.75943130254745483 0.95630133152008057
0.61840283870697021 0.76089352369308472 0.95332604646682739
0.81563490629196167 0.79925918579101562 0.9611961841583252
0.98480868339538574 0.84551101922988892 0.96370053291320801
0.48487573862075806 0.96304512023925781 0.97355622053146362
0.52449113130569458 0.96755945682525635 0.97096532583236694
0.66072708368301392 0.96454036235809326 0.97129100561141968
0.81497609615325928 0.96827280521392822 0.97121787071228027
0.96595126390457153 0.97087979316711426 0.97068876028060913
