films/fuji_sensia_100.cube
# Created by: G'MIC (https://gmic.eu)
TITLE "fuji_sensia_100"
# LUT size
LUT_3D_SIZE 7
# Data domain
DOMAIN_MIN 0.0 0.0 0.0
DOMAIN_MAX 1.0 1.0 1.0
# LUT data points
0.051896218210458755 0.047336593270301819 0.045897867530584335
0.18003974854946136 0.048381701111793518 0.033814687281847
0.31121498346328735 0.048587288707494736 0.022549154236912727
0.46410086750984192 0.040522154420614243 0.010560727678239346
0.6485210657119751 0.047273434698581696 0.0022345748730003834
0.79649680852890015 0.057481039315462112 0.0057002645917236805
0.88661521673202515 0.073451235890388489 0.039793815463781357
0.13474304974079132 0.2247166633605957 0.1249520406126976
0.22034665942192078 0.22262077033519745 0.1156560555100441
0.34902769327163696 0.2166888564825058 0.094439305365085602
0.51847869157791138 0.20963694155216217 0.067180216312408447
0.71393692493438721 0.20146691799163818 0.048512957990169525
0.86621123552322388 0.19941213726997375 0.056373115628957748
0.95355528593063354 0.20599375665187836 0.098087877035140991
0.16575126349925995 0.403972327709198 0.19914053380489349
0.2566063404083252 0.40567746758460999 0.19137872755527496
0.39126911759376526 0.39911940693855286 0.17869435250759125
0.57289296388626099 0.39432281255722046 0.15205098688602448
0.76519739627838135 0.38750970363616943 0.13015878200531006
0.9143059253692627 0.38432565331459045 0.13514219224452972
0.99623030424118042 0.38419419527053833 0.17784509062767029
0.1997876912355423 0.61570924520492554 0.26979705691337585
0.29704189300537109 0.61780226230621338 0.25680938363075256
0.44934704899787903 0.60856819152832031 0.24137295782566071
0.63861793279647827 0.60851311683654785 0.22062960267066956
0.82544821500778198 0.60508555173873901 0.20290881395339966
0.95723044872283936 0.60131055116653442 0.21342815458774567
0.99963921308517456 0.60598468780517578 0.2644411027431488
0.25755327939987183 0.79514533281326294 0.31010863184928894
0.35704681277275085 0.78881543874740601 0.30047067999839783
0.51484912633895874 0.77963900566101074 0.27644568681716919
0.70945370197296143 0.7780950665473938 0.25719600915908813
0.89500552415847778 0.77473485469818115 0.24308010935783386
0.99458247423171997 0.77100175619125366 0.25032579898834229
1 0.77009487152099609 0.29929983615875244
0.36229103803634644 0.89628428220748901 0.24394616484642029
0.44864639639854431 0.89690554141998291 0.25415593385696411
0.59057760238647461 0.89164191484451294 0.23436829447746277
0.78249120712280273 0.88600355386734009 0.21564109623432159
0.96419417858123779 0.88065671920776367 0.1991807222366333
1 0.87686479091644287 0.20566432178020477
1 0.87093657255172729 0.27250245213508606
0.41299238801002502 0.96968519687652588 0.13619643449783325
0.49124208092689514 0.96938681602478027 0.11862552165985107
0.65985143184661865 0.96329367160797119 0.056101705878973007
0.85797208547592163 0.95745980739593506 0.034850042313337326
0.99924653768539429 0.95119786262512207 0.017920101061463356
1 0.94795387983322144 0.05097382515668869
1 0.94450682401657104 0.18317832052707672
0.045791521668434143 0.036126572638750076 0.15332439541816711
0.16242629289627075 0.033582441508769989 0.13129203021526337
0.29390814900398254 0.025430222973227501 0.11441139131784439
0.45352986454963684 0.023545149713754654 0.090421013534069061
0.63108104467391968 0.027795813977718353 0.070623673498630524
0.77747184038162231 0.033780056983232498 0.069964513182640076
0.86996114253997803 0.045671902596950531 0.10904701054096222
0.12713685631752014 0.20715108513832092 0.21893930435180664
0.20434445142745972 0.20514820516109467 0.2063373327255249
0.33467143774032593 0.19449616968631744 0.18401296436786652
0.50464308261871338 0.18577167391777039 0.15402811765670776
0.69356191158294678 0.18112096190452576 0.1321970522403717
0.84068596363067627 0.17936237156391144 0.13418221473693848
0.92862224578857422 0.18346387147903442 0.17526243627071381
0.15177610516548157 0.39335927367210388 0.28833696246147156
0.24202342331409454 0.39225432276725769 0.27859601378440857
0.37909319996833801 0.38977923989295959 0.26201096177101135
0.55981171131134033 0.381888747215271 0.23386470973491669
0.7513001561164856 0.37615016102790833 0.21045106649398804
0.89757412672042847 0.37620094418525696 0.21443817019462585
0.97737115621566772 0.3764374852180481 0.25738626718521118
0.1755521148443222 0.61550295352935791 0.35958841443061829
0.27531346678733826 0.61593139171600342 0.34788477420806885
0.43032738566398621 0.61104005575180054 0.33133414387702942
0.62359166145324707 0.60775220394134521 0.30979001522064209
0.81281173229217529 0.60361176729202271 0.2892114520072937
0.95883870124816895 0.60126978158950806 0.29484438896179199
0.99952989816665649 0.59931844472885132 0.34364083409309387
0.23189277946949005 0.79416370391845703 0.39927458763122559
0.3317914605140686 0.79506504535675049 0.39288303256034851
0.49125772714614868 0.78915351629257202 0.37036404013633728
0.6900094747543335 0.78445732593536377 0.35416111350059509
0.87913811206817627 0.78058576583862305 0.33992862701416016
0.99344485998153687 0.77809476852416992 0.34701246023178101
1 0.77853590250015259 0.40136519074440002
0.33220160007476807 0.90067917108535767 0.36397552490234375
0.42421373724937439 0.90251100063323975 0.37522977590560913
0.56973868608474731 0.89596676826477051 0.34335863590240479
0.76021969318389893 0.8901945948600769 0.3282260000705719
0.93681591749191284 0.88616293668746948 0.31761586666107178
0.99992668628692627 0.8851509690284729 0.33266863226890564
1 0.883372962474823 0.40830284357070923
0.40892797708511353 0.975139319896698 0.21766217052936554
0.49508661031723022 0.97619712352752686 0.23618744313716888
0.64142924547195435 0.96718549728393555 0.14441707730293274
0.83609426021575928 0.9608083963394165 0.14562408626079559
0.99317282438278198 0.95544826984405518 0.10634874552488327
1 0.9548032283782959 0.14977739751338959
1 0.95834791660308838 0.32530781626701355
0.043300434947013855 0.028704924508929253 0.24700398743152618
0.14470884203910828 0.019441341981291771 0.2294687032699585
0.27703851461410522 0.012229097075760365 0.2118513286113739
0.43598565459251404 0.011702398769557476 0.18822954595088959
0.60730069875717163 0.018963100388646126 0.16795714199542999
0.74675893783569336 0.019862066954374313 0.16208317875862122
0.83776140213012695 0.026667635887861252 0.20146907866001129
0.12096039950847626 0.18430538475513458 0.31851845979690552
0.19258454442024231 0.18071721494197845 0.30504050850868225
0.32206922769546509 0.17490625381469727 0.28700575232505798
0.48595425486564636 0.163338303565979 0.2589576244354248
0.6619797945022583 0.16108264029026031 0.23876950144767761
0.80049842596054077 0.15722556412220001 0.24263250827789307
0.88910430669784546 0.15763728320598602 0.27987638115882874
0.1423666775226593 0.37552532553672791 0.39318317174911499
0.23397666215896606 0.37364831566810608 0.38568514585494995
0.3685876727104187 0.37001395225524902 0.37057653069496155
0.54361873865127563 0.36597275733947754 0.34559053182601929
0.72142130136489868 0.36094203591346741 0.3246922492980957
0.85742068290710449 0.35713252425193787 0.33134451508522034
0.94145435094833374 0.35378730297088623 0.36677274107933044
0.15976114571094513 0.60719627141952515 0.47594574093818665
0.26160740852355957 0.60250061750411987 0.46887403726577759
0.41502588987350464 0.60184639692306519 0.45360419154167175
0.6045912504196167 0.60087466239929199 0.43316963315010071
0.78261721134185791 0.59649175405502319 0.41751229763031006
0.91328376531600952 0.59211140871047974 0.42391273379325867
0.98039370775222778 0.58110690116882324 0.4551730751991272
0.20160068571567535 0.79122328758239746 0.52724701166152954
0.3041025698184967 0.79335135221481323 0.52619254589080811
0.46869358420372009 0.7929762601852417 0.51308423280715942
0.66308480501174927 0.78535562753677368 0.49073797464370728
0.840717613697052 0.78082764148712158 0.48555278778076172
0.96436107158660889 0.77646297216415405 0.49136644601821899
0.99972671270370483 0.76675617694854736 0.52539700269699097
0.2832234799861908 0.90331488847732544 0.51910316944122314
0.38503852486610413 0.90599626302719116 0.53889793157577515
0.53877311944961548 0.90214073657989502 0.51817023754119873
0.72402298450469971 0.8962973952293396 0.49562281370162964
0.89149034023284912 0.89205092191696167 0.49997246265411377
0.99078518152236938 0.88989973068237305 0.51122719049453735
1 0.88525199890136719 0.55492395162582397
0.36471143364906311 0.98288881778717041 0.42092350125312805
0.46440702676773071 0.98491621017456055 0.44659334421157837
0.60952985286712646 0.97981888055801392 0.41328820586204529
0.78886890411376953 0.97275954484939575 0.38221496343612671
0.95633167028427124 0.96580988168716431 0.36365535855293274
0.99991369247436523 0.96728134155273438 0.41538906097412109
1 0.96768409013748169 0.50663858652114868
0.026915008202195168 0.0046858992427587509 0.36156189441680908
0.12753595411777496 0.0039234235882759094 0.35025230050086975
0.26036521792411804 0.0025845246855169535 0.33225560188293457
0.41685014963150024 0.0034829382784664631 0.30669146776199341
0.58313971757888794 0.014099734835326672 0.28351294994354248
0.7045477032661438 0.010846246033906937 0.28464311361312866
0.79556000232696533 0.018544215708971024 0.31138592958450317
0.088173761963844299 0.13984346389770508 0.4330810010433197
0.17468960583209991 0.13994130492210388 0.42333850264549255
0.3030964732170105 0.1344829648733139 0.40787842869758606
0.46010467410087585 0.12364473193883896 0.38110920786857605
0.6224285364151001 0.12526282668113708 0.35982376337051392
0.74837082624435425 0.12285618484020233 0.36112120747566223
0.83908545970916748 0.12742753326892853 0.38473197817802429
0.14287653565406799 0.34350365400314331 0.5252196192741394
0.2249082624912262 0.34336873888969421 0.51785445213317871
0.35640373826026917 0.33911332488059998 0.50262677669525146
0.52284246683120728 0.3328375518321991 0.47793224453926086
0.68263810873031616 0.3252919614315033 0.45839768648147583
0.80469232797622681 0.31930351257324219 0.45742863416671753
0.89214545488357544 0.32018089294433594 0.47529798746109009
0.16031420230865479 0.58530616760253906 0.62475180625915527
0.25427091121673584 0.5837065577507019 0.61927074193954468
0.40062302350997925 0.58341318368911743 0.60151553153991699
0.58366096019744873 0.57868248224258423 0.57892286777496338
0.74575996398925781 0.57529670000076294 0.56223613023757935
0.86392027139663696 0.56994020938873291 0.56023669242858887
0.94605273008346558 0.56380140781402588 0.57285982370376587
0.19454631209373474 0.78461986780166626 0.6925959587097168
0.29422491788864136 0.78837931156158447 0.6952938437461853
0.45118054747581482 0.78688102960586548 0.67832678556442261
0.63536703586578369 0.78132146596908569 0.6562533974647522
0.79615253210067749 0.77731037139892578 0.64309847354888916
0.91178780794143677 0.77568322420120239 0.64352059364318848
0.98490959405899048 0.76409924030303955 0.65491759777069092
0.25246241688728333 0.90854477882385254 0.71441823244094849
0.35658201575279236 0.91098189353942871 0.72290414571762085
0.51022601127624512 0.9071115255355835 0.70646864175796509
0.68314599990844727 0.90169775485992432 0.68700754642486572
0.83720725774765015 0.89862143993377686 0.67810249328613281
0.94655126333236694 0.89671486616134644 0.68794310092926025
0.99877429008483887 0.88897305727005005 0.70227694511413574
0.31166520714759827 0.99239861965179443 0.67974656820297241
0.42684054374694824 0.99387294054031372 0.67691373825073242
0.57176649570465088 0.99023079872131348 0.65838038921356201
0.73241877555847168 0.98449110984802246 0.63820832967758179
0.87829411029815674 0.97984123229980469 0.62624043226242065
0.96972566843032837 0.97898763418197632 0.64940029382705688
0.99990308284759521 0.97563892602920532 0.68935185670852661
0.023697871714830399 0.0011942695127800107 0.50401055812835693
0.12338127940893173 0 0.48390653729438782
0.25374755263328552 0.001032032654620707 0.46731632947921753
0.40384206175804138 6.9292851549107581e-05 0.43487042188644409
0.55049043893814087 0.00036429610918276012 0.40208926796913147
0.65927493572235107 0 0.3916599452495575
0.74995005130767822 0.00064297846984118223 0.40125593543052673
0.08388221263885498 0.084112726151943207 0.55541753768920898
0.16732116043567657 0.07790316641330719 0.54383063316345215
0.29209324717521667 0.085247516632080078 0.52787351608276367
0.43772566318511963 0.067469500005245209 0.49718615412712097
0.58323502540588379 0.069186463952064514 0.46893423795700073
0.6921236515045166 0.061317160725593567 0.4572332501411438
0.78427094221115112 0.072703436017036438 0.46820500493049622
0.161510169506073 0.29133707284927368 0.64655935764312744
0.23668934404850006 0.28702625632286072 0.63818114995956421
0.35682743787765503 0.28126201033592224 0.61887753009796143
0.50674164295196533 0.26901531219482422 0.59003764390945435
0.65069973468780518 0.26510080695152283 0.56615966558456421
0.75838756561279297 0.26006165146827698 0.55470073223114014
0.84251350164413452 0.2628510594367981 0.55743783712387085
0.20519624650478363 0.5552106499671936 0.75419753789901733
0.29182028770446777 0.54977208375930786 0.74488872289657593
0.42095988988876343 0.54548317193984985 0.72411733865737915
0.57962453365325928 0.54275751113891602 0.69847935438156128
0.71958380937576294 0.53254956007003784 0.67496216297149658
0.82902830839157104 0.53155940771102905 0.66509538888931274
0.91350317001342773 0.53515172004699707 0.66526317596435547
0.25583082437515259 0.77552664279937744 0.8299604058265686
0.34434717893600464 0.77693337202072144 0.82900619506835938
0.48012754321098328 0.7737467885017395 0.80937284231185913
0.63547635078430176 0.77174711227416992 0.78615182638168335
0.77052551507949829 0.76329219341278076 0.76554214954376221
0.87842673063278198 0.76247811317443848 0.75763219594955444
0.96139788627624512 0.75773370265960693 0.7556159496307373
0.30864861607551575 0.91027718782424927 0.86827379465103149
0.39721661806106567 0.91309249401092529 0.87213045358657837
0.52828532457351685 0.90684056282043457 0.85426867008209229
0.6729246973991394 0.90355199575424194 0.83572244644165039
0.80239665508270264 0.90050166845321655 0.81746751070022583
0.91073483228683472 0.89861851930618286 0.81185942888259888
0.98736482858657837 0.88926094770431519 0.80627059936523438
0.34163838624954224 0.99569201469421387 0.86549216508865356
0.44116359949111938 0.99699753522872925 0.86242741346359253
0.56760543584823608 0.99499273300170898 0.84665346145629883
0.70562279224395752 0.99188500642776489 0.83092963695526123
0.82912063598632812 0.98820036649703979 0.81864702701568604
0.94166004657745361 0.98553758859634399 0.81048554182052612
0.99987775087356567 0.98014754056930542 0.80933880805969238
0.068909615278244019 0 0.6026991605758667
0.16148354113101959 0 0.58591991662979126
0.28265449404716492 0 0.56805682182312012
0.41599228978157043 0 0.53711295127868652
0.54024142026901245 0 0.50452566146850586
0.6349252462387085 0 0.48127901554107666
0.71581816673278809 0 0.47091659903526306
0.12598212063312531 0.010061136446893215 0.63565731048583984
0.19992224872112274 0.01184997521340847 0.62413305044174194
0.30755206942558289 0.015164259821176529 0.60260307788848877
0.43665489554405212 0.012627216055989265 0.57316744327545166
0.56171011924743652 0.016027128323912621 0.54691708087921143
0.65465790033340454 0.0097506353631615639 0.52662903070449829
0.73791193962097168 0.014038668945431709 0.51992344856262207
0.23251248896121979 0.2015891820192337 0.71216154098510742
0.28274926543235779 0.19422167539596558 0.69903582334518433
0.38002112507820129 0.17994511127471924 0.6742052435874939
0.5053335428237915 0.1723908931016922 0.64593386650085449
0.62322449684143066 0.17018225789070129 0.62164127826690674
0.71410524845123291 0.16436950862407684 0.60390722751617432
0.78898334503173828 0.16512453556060791 0.59457743167877197
0.32412505149841309 0.48706871271133423 0.81354129314422607
0.3772883415222168 0.48382505774497986 0.80434280633926392
0.47552180290222168 0.47627481818199158 0.78398627042770386
0.59849303960800171 0.47149738669395447 0.75926369428634644
0.70990145206451416 0.46540269255638123 0.73657220602035522
0.80062651634216309 0.45852029323577881 0.72087401151657104
0.87532138824462891 0.45678171515464783 0.70990473031997681
0.39612692594528198 0.74850559234619141 0.90321046113967896
0.4519161581993103 0.74954831600189209 0.8988233208656311
0.5522344708442688 0.74164241552352905 0.88040733337402344
0.66540133953094482 0.73702472448348999 0.85858333110809326
0.7681267261505127 0.735676109790802 0.84021967649459839
0.86146610975265503 0.72712022066116333 0.82686096429824829
0.93543606996536255 0.71180135011672974 0.81282752752304077
0.45590558648109436 0.90156561136245728 0.95535784959793091
0.51157337427139282 0.90470165014266968 0.95664519071578979
0.59983015060424805 0.900360107421875 0.93724387884140015
0.70475369691848755 0.90065592527389526 0.92308300733566284
0.80157750844955444 0.89881664514541626 0.90784299373626709
0.89299601316452026 0.89164471626281738 0.89341884851455688
0.97111761569976807 0.88001424074172974 0.88077396154403687
0.4499259889125824 0.99535441398620605 0.98454338312149048
0.52363806962966919 0.99576807022094727 0.97774362564086914
0.60882902145385742 0.99508005380630493 0.96338433027267456
0.72545117139816284 0.99511909484863281 0.9462883472442627
0.82224339246749878 0.99317318201065063 0.93383091688156128
0.91699719429016113 0.99064600467681885 0.91941720247268677
0.99413233995437622 0.98540323972702026 0.90817350149154663
0.15453118085861206 0 0.6456713080406189
0.23559978604316711 0 0.64569932222366333
0.34224924445152283 0 0.6375088095664978
0.45298117399215698 0 0.60920560359954834
0.55929601192474365 0 0.58403748273849487
0.63519930839538574 0 0.55533778667449951
0.69966953992843628 0 0.53063851594924927
0.20846068859100342 0 0.67140394449234009
0.26920369267463684 0 0.66341990232467651
0.35882160067558289 0 0.64767909049987793
0.46300861239433289 0 0.62264007329940796
0.56327396631240845 0 0.60163158178329468
0.64429378509521484 0 0.58430665731430054
0.70790058374404907 0 0.56055921316146851
0.30668896436691284 0.056567728519439697 0.71389281749725342
0.34416511654853821 0.055771593004465103 0.70571386814117432
0.42147856950759888 0.056180708110332489 0.68982076644897461
0.51417464017868042 0.042543180286884308 0.66240006685256958
0.59950059652328491 0.042779453098773956 0.64058995246887207
0.66272848844528198 0.033021755516529083 0.61865317821502686
0.73059439659118652 0.033492442220449448 0.60337650775909424
0.43117117881774902 0.36111530661582947 0.81692099571228027
0.46896436810493469 0.36028942465782166 0.8111991286277771
0.53187137842178345 0.35851126909255981 0.79733675718307495
0.6150851845741272 0.34462037682533264 0.77343612909317017
0.69334739446640015 0.33880901336669922 0.75355416536331177
0.76195353269577026 0.33725020289421082 0.73875683546066284
0.82540464401245117 0.33644366264343262 0.72523266077041626
0.52548491954803467 0.66023892164230347 0.92007088661193848
0.5659792423248291 0.66560530662536621 0.91731721162796021
0.63074290752410889 0.66944557428359985 0.90608316659927368
0.70271903276443481 0.66046208143234253 0.88733237981796265
0.77260792255401611 0.65754562616348267 0.87293976545333862
0.84526711702346802 0.6553797721862793 0.86147701740264893
0.90563440322875977 0.63822120428085327 0.84272116422653198
0.60741454362869263 0.8620307445526123 0.9879879355430603
0.63804483413696289 0.86396193504333496 0.9865422248840332
0.68609136343002319 0.86471462249755859 0.97593742609024048
0.75304245948791504 0.86494320631027222 0.96639424562454224
0.81843161582946777 0.86320894956588745 0.95674455165863037
0.88857024908065796 0.86103934049606323 0.94713681936264038
0.95616036653518677 0.85769665241241455 0.93034070730209351
0.64747101068496704 0.98994749784469604 0.99990397691726685
0.66587281227111816 0.98742246627807617 1
0.71280878782272339 0.98779797554016113 1
0.77463138103485107 0.98261302709579468 0.99971169233322144
0.8380768895149231 0.98055362701416016 0.99737286567687988
0.91329139471054077 0.98292142152786255 0.99138796329498291
0.98555588722229004 0.98234724998474121 0.98266887664794922
