films/fuji_provia_400x.cube
# Created by: G'MIC (https://gmic.eu)
TITLE "fuji_provia_400x"
# LUT size
LUT_3D_SIZE 5
# Data domain
DOMAIN_MIN 0.0 0.0 0.0
DOMAIN_MAX 1.0 1.0 1.0
# LUT data points
0.042435485869646072 0.037456363439559937 0.034913424402475357
0.28813308477401733 0.035600040107965469 0.035078730434179306
0.58262556791305542 0.035059507936239243 0.033520225435495377
0.86059683561325073 0.021919803693890572 0.010432658717036247
1 0.026267781853675842 0
0.090794928371906281 0.28674161434173584 0.108185775578022
0.28154966235160828 0.27941831946372986 0.10495750606060028
0.60490000247955322 0.26025906205177307 0.098610460758209229
0.89393043518066406 0.22507141530513763 0.06696898490190506
1 0.20440812408924103 0.023626260459423065
0.013516190461814404 0.56015843152999878 0.15228292346000671
0.25192517042160034 0.55622440576553345 0.1486547440290451
0.62882018089294434 0.54370886087417603 0.13051675260066986
0.91224658489227295 0.52823126316070557 0.11444394290447235
1 0.50660210847854614 0.061285190284252167
0.0060189040377736092 0.76475143432617188 0.11838071048259735
0.22655744850635529 0.76140677928924561 0.1125582829117775
0.66921299695968628 0.75433039665222168 0.10403595119714737
0.95387578010559082 0.75099843740463257 0.083142422139644623
1 0.73511898517608643 0.040945149958133698
0 0.97451549768447876 0
0.12413173168897629 0.98106765747070312 0.001025031553581357
0.61334323883056641 0.975047767162323 0
0.97055912017822266 0.9778212308883667 0.0003926445497199893
1 0.95486718416213989 0
0.017911110073328018 0.02400524728000164 0.18694011867046356
0.24372844398021698 0.0091182934120297432 0.18886555731296539
0.53418225049972534 0.0074871438555419445 0.17960453033447266
0.80380916595458984 0.0027582356706261635 0.15402573347091675
0.99297952651977539 0.0015661651268601418 0.096497267484664917
0.059941608458757401 0.25702646374702454 0.24926099181175232
0.24448195099830627 0.24777014553546906 0.24726593494415283
0.55896556377410889 0.2327580600976944 0.24189203977584839
0.83084690570831299 0.19053587317466736 0.217734694480896
0.99980342388153076 0.17073819041252136 0.16856594383716583
0.002286574337631464 0.54627937078475952 0.30196887254714966
0.16970361769199371 0.54257774353027344 0.29849004745483398
0.5757109522819519 0.53472042083740234 0.29280593991279602
0.85748845338821411 0.51992416381835938 0.27053946256637573
0.99906682968139648 0.49406203627586365 0.21305955946445465
0.00048253676504828036 0.75984501838684082 0.32336685061454773
0.17575699090957642 0.75492113828659058 0.32461988925933838
0.59592103958129883 0.74774074554443359 0.31043103337287903
0.88308042287826538 0.74166876077651978 0.28524482250213623
1 0.72951912879943848 0.20479346811771393
0 0.98244166374206543 0.1436714380979538
0.11087365448474884 0.97733068466186523 0.18146726489067078
0.56680727005004883 0.97860348224639893 0.13400894403457642
0.93491888046264648 0.97711634635925293 0.09516182541847229
1 0.97140777111053467 0.01843637228012085
0.024836402386426926 0.00030356014030985534 0.34850099682807922
0.21148486435413361 0 0.35321977734565735
0.47096946835517883 0 0.35234940052032471
0.71975767612457275 0 0.34047421813011169
0.94720280170440674 0.00022053437714930624 0.29961737990379333
0.052847318351268768 0.19588932394981384 0.4269101619720459
0.20897693932056427 0.18525643646717072 0.42633602023124695
0.49328207969665527 0.1676841527223587 0.4252808690071106
0.73279452323913574 0.13744811713695526 0.41678190231323242
0.94613707065582275 0.11140869557857513 0.37822723388671875
0.0083418302237987518 0.51779454946517944 0.49977734684944153
0.15508531033992767 0.51365154981613159 0.50155520439147949
0.50531858205795288 0.50249069929122925 0.5002099871635437
0.75397014617919922 0.48530346155166626 0.4942203164100647
0.9842955470085144 0.45564290881156921 0.46551322937011719
0 0.74307906627655029 0.55331724882125854
0.11144980788230896 0.7424963116645813 0.55175930261611938
0.49597629904747009 0.73426991701126099 0.55268663167953491
0.76003134250640869 0.7274441123008728 0.54763311147689819
0.99374580383300781 0.71265500783920288 0.51554602384567261
0 0.97411197423934937 0.52645021677017212
0.047847986221313477 0.97145086526870728 0.51720398664474487
0.37046346068382263 0.96817731857299805 0.52258896827697754
0.75865268707275391 0.97220855951309204 0.506572425365448
0.99586743116378784 0.97013372182846069 0.442461758852005
0.067141830921173096 0 0.48701381683349609
0.22076523303985596 0 0.49890786409378052
0.43560335040092468 0 0.50483161211013794
0.64981520175933838 0 0.50517147779464722
0.84824633598327637 0 0.48222512006759644
0.074120946228504181 0.087363854050636292 0.55852806568145752
0.23148840665817261 0.08041999489068985 0.56078249216079712
0.45905566215515137 0.069931671023368835 0.56547838449478149
0.66896426677703857 0.06142820417881012 0.56949222087860107
0.86914622783660889 0.024771612137556076 0.55074703693389893
0.046954359859228134 0.45906820893287659 0.63696074485778809
0.22597223520278931 0.44944784045219421 0.63834160566329956
0.48902851343154907 0.43896156549453735 0.64107269048690796
0.70078575611114502 0.41778600215911865 0.64160925149917603
0.92203611135482788 0.37493446469306946 0.62950408458709717
0.0016041924245655537 0.71937233209609985 0.69964170455932617
0.15146078169345856 0.71966719627380371 0.70172339677810669
0.4748399555683136 0.71029973030090332 0.70357537269592285
0.7029799222946167 0.70151859521865845 0.70323425531387329
0.9484439492225647 0.68469023704528809 0.69392865896224976
0 0.96359622478485107 0.7246202826499939
0.018175745382905006 0.97178876399993896 0.72765761613845825
0.28171321749687195 0.96617990732192993 0.73275649547576904
0.65360945463180542 0.96264851093292236 0.73099398612976074
0.97199839353561401 0.94553494453430176 0.71318268775939941
0.14721448719501495 0 0.59862762689590454
0.27176260948181152 0 0.62184363603591919
0.43858972191810608 0 0.62728166580200195
0.62102305889129639 0 0.61768394708633423
0.79837465286254883 0 0.59534269571304321
0.18379320204257965 0 0.65834277868270874
0.29981157183647156 0 0.66623252630233765
0.4558468759059906 0 0.67291074991226196
0.63630378246307373 0 0.67849838733673096
0.81721407175064087 0 0.66350078582763672
0.2611260712146759 0.31157305836677551 0.74571079015731812
0.34602019190788269 0.29746076464653015 0.74566972255706787
0.49917453527450562 0.28075060248374939 0.74872726202011108
0.67006957530975342 0.27152964472770691 0.75478261709213257
0.85776197910308838 0.18525521457195282 0.74220865964889526
0.19884809851646423 0.66331619024276733 0.83379459381103516
0.32879000902175903 0.66219449043273926 0.83534181118011475
0.50570833683013916 0.65312772989273071 0.83844101428985596
0.68466091156005859 0.64032334089279175 0.84335881471633911
0.90596872568130493 0.6090705394744873 0.84090518951416016
0.0052148406393826008 0.95507669448852539 0.91021806001663208
0.027623614296317101 0.95799630880355835 0.9138529896736145
0.30858123302459717 0.95022022724151611 0.91309845447540283
0.61844700574874878 0.93879294395446777 0.92258542776107788
0.93346965312957764 0.94322532415390015 0.93758457899093628
