films/fuji_velvia_100_generic.cube
# Created by: G'MIC (https://gmic.eu)
TITLE "fuji_velvia_100_generic"
# LUT size
LUT_3D_SIZE 7
# Data domain
DOMAIN_MIN 0.0 0.0 0.0
DOMAIN_MAX 1.0 1.0 1.0
# LUT data points
0.022400800138711929 0.018975740298628807 0.017760870978236198
0.13611344993114471 0.017012292519211769 0.02050679549574852
0.33281868696212769 0.01777699775993824 0.017259575426578522
0.57247108221054077 0.013419236987829208 0.015824485570192337
0.80789917707443237 0.0075482088141143322 0.013204148039221764
0.98761481046676636 0.014290409162640572 0.013894533738493919
1 0.038343258202075958 0.021922048181295395
0.047058522701263428 0.14243029057979584 0.019439563155174255
0.1285456120967865 0.14025947451591492 0.022571563720703125
0.33121567964553833 0.136697918176651 0.018865128979086876
0.56916552782058716 0.1390824019908905 0.012631121091544628
0.8011360764503479 0.12640726566314697 0.0092636710032820702
0.9873274564743042 0.1145833358168602 0.014937651343643665
1 0.15119220316410065 0.01944439485669136
0.024561744183301926 0.35181429982185364 0.021382635459303856
0.069869071245193481 0.3469487726688385 0.020776964724063873
0.28895336389541626 0.34154397249221802 0.020557388663291931
0.55715018510818481 0.33756640553474426 0.016790159046649933
0.78782480955123901 0.33293032646179199 0.013889477588236332
0.97839725017547607 0.32277855277061462 0.018431853502988815
1 0.33676278591156006 0.014335542917251587
0 0.58836978673934937 0.017949916422367096
0.00049713731277734041 0.58635807037353516 0.016495050862431526
0.1944064199924469 0.58214199542999268 0.014577768743038177
0.50240832567214966 0.57421475648880005 0.0099272783845663071
0.74397695064544678 0.57252603769302368 0.011993408203125
0.93137651681900024 0.56518316268920898 0.0083214705809950829
1 0.55944335460662842 0.0055338242091238499
0 0.80062013864517212 0.0038735184352844954
0.0037125831004232168 0.80000346899032593 0.0034482020419090986
0.14380607008934021 0.80044668912887573 0.0012504277983680367
0.43956050276756287 0.79355674982070923 0.00084270403021946549
0.69471758604049683 0.79164803028106689 4.8828125727595761e-05
0.88446187973022461 0.78618240356445312 0
0.99679452180862427 0.77433609962463379 0.00015402401913888752
0.00064432481303811073 0.97397458553314209 0
0.0025909873656928539 0.97201836109161377 0
0.095969043672084808 0.96839529275894165 0
0.4112088680267334 0.96341598033905029 0
0.66596168279647827 0.9618908166885376 0
0.8466143012046814 0.95653003454208374 0
0.96968609094619751 0.95180952548980713 0
0.064778394997119904 1 0.0014515595976263285
0.12039168179035187 1 0
0.26108938455581665 1 0
0.52702951431274414 1 0.00089166680118069053
0.71220290660858154 1 0.0019445531070232391
0.84953820705413818 1 0
0.95955008268356323 1 0
0.025953225791454315 0.01380335446447134 0.13661397993564606
0.14461858570575714 0.0072719799354672432 0.13911178708076477
0.3358268141746521 0.0089217089116573334 0.13319534063339233
0.57551926374435425 0.0041445414535701275 0.13990803062915802
0.81950479745864868 0.0027924482710659504 0.13643845915794373
0.99200332164764404 0.0087698996067047119 0.12533010542392731
1 0.015231622382998466 0.12387809157371521
0.047412514686584473 0.13477316498756409 0.12977081537246704
0.13320088386535645 0.12749806046485901 0.12846702337265015
0.33104810118675232 0.12546004354953766 0.12876176834106445
0.568195641040802 0.12195803970098495 0.12940213084220886
0.80713856220245361 0.11308220028877258 0.123796246945858
0.9882131814956665 0.10524480789899826 0.12157055735588074
1 0.12510028481483459 0.12933892011642456
0.026997165754437447 0.34361627697944641 0.11901227384805679
0.088550716638565063 0.3375416100025177 0.12168878316879272
0.30215242505073547 0.33501115441322327 0.11747872084379196
0.55765378475189209 0.32929554581642151 0.11606044322252274
0.78711307048797607 0.32473397254943848 0.11194944381713867
0.97145557403564453 0.31573760509490967 0.11528408527374268
1 0.31865492463111877 0.11399862170219421
0 0.5800061821937561 0.10312428325414658
0.013278946280479431 0.5792728066444397 0.099901162087917328
0.22184042632579803 0.57572346925735474 0.096352443099021912
0.5137144923210144 0.57024085521697998 0.09626317024230957
0.7472725510597229 0.56814038753509521 0.092695407569408417
0.93406480550765991 0.55815213918685913 0.096268042922019958
1 0.55011165142059326 0.093167953193187714
0 0.79525625705718994 0.068975247442722321
0.0020671619568020105 0.79696214199066162 0.046625908464193344
0.14979134500026703 0.79699462652206421 0.05694873258471489
0.44760763645172119 0.79152774810791016 0.064000643789768219
0.70401972532272339 0.78650897741317749 0.056140780448913574
0.89612352848052979 0.78052383661270142 0.043116103857755661
0.99936425685882568 0.77067238092422485 0.054888825863599777
0 0.96355181932449341 0.0099151162430644035
0.0030846989247947931 0.95761203765869141 0.015997897833585739
0.10767336189746857 0.95761656761169434 0.025588061660528183
0.41994833946228027 0.9607359766960144 0.0097737330943346024
0.6777462363243103 0.95496708154678345 0.020576747134327888
0.85520374774932861 0.95076566934585571 0.0042159585282206535
0.97735881805419922 0.94413888454437256 0.0044763302430510521
0.051804888993501663 1 0.049944903701543808
0.12363249808549881 1 0.046652626246213913
0.3154265284538269 0.99981367588043213 0.024475846439599991
0.52185958623886108 1 0.042322900146245956
0.71461397409439087 1 0.061796914786100388
0.8573002815246582 1 0.041637271642684937
0.97047752141952515 0.99956470727920532 0.015557816252112389
0.040138646960258484 0.0074131833389401436 0.33503046631813049
0.15855014324188232 0.0010312547674402595 0.33786255121231079
0.34564530849456787 0.0002751967404037714 0.33804517984390259
0.57902777194976807 1.3643152669828851e-05 0.33811008930206299
0.81672972440719604 4.0211398300016299e-05 0.33293172717094421
0.98003119230270386 0.00060376932378858328 0.32295843958854675
1 0.00099019065964967012 0.32373851537704468
0.053245216608047485 0.12106797099113464 0.32952207326889038
0.14727704226970673 0.11213339865207672 0.3313450813293457
0.33650794625282288 0.10685508698225021 0.33205929398536682
0.57170194387435913 0.10179270058870316 0.3293781578540802
0.81273925304412842 0.09423510730266571 0.32484310865402222
0.98880904912948608 0.088300012052059174 0.32118305563926697
1 0.087012767791748047 0.32254785299301147
0.02552298828959465 0.32576349377632141 0.31401723623275757
0.09998861700296402 0.32237511873245239 0.31663227081298828
0.31418353319168091 0.31794965267181396 0.31749188899993896
0.56334936618804932 0.31125885248184204 0.31345102190971375
0.79858946800231934 0.30467000603675842 0.31064501404762268
0.98301893472671509 0.29722803831100464 0.31020215153694153
1 0.29205656051635742 0.30815985798835754
0 0.56355327367782593 0.29616650938987732
0.023252315819263458 0.56535422801971436 0.29334276914596558
0.22881960868835449 0.56119972467422485 0.29372528195381165
0.52412039041519165 0.55531978607177734 0.29541793465614319
0.75669533014297485 0.54998886585235596 0.29472291469573975
0.94691413640975952 0.54201126098632812 0.29503783583641052
1 0.53180056810379028 0.29022660851478577
0 0.78119409084320068 0.27777811884880066
0.013557853177189827 0.78265780210494995 0.26106163859367371
0.17869749665260315 0.78195077180862427 0.26164191961288452
0.46990033984184265 0.77714997529983521 0.2718389630317688
0.71332806348800659 0.76986986398696899 0.27212196588516235
0.90479081869125366 0.76398724317550659 0.26403582096099854
0.99985313415527344 0.75625443458557129 0.26259398460388184
0 0.94902139902114868 0.24772553145885468
0.0025475146248936653 0.94045770168304443 0.24104075133800507
0.12541116774082184 0.94789278507232666 0.25154033303260803
0.43737581372261047 0.94722193479537964 0.24831613898277283
0.68621194362640381 0.94068855047225952 0.24049390852451324
0.86151248216629028 0.93605548143386841 0.22324325144290924
0.98305714130401611 0.92721402645111084 0.22867840528488159
0.033727817237377167 1 0.25533896684646606
0.081980042159557343 1 0.26420718431472778
0.31037315726280212 0.99969804286956787 0.25946852564811707
0.53693270683288574 1 0.2631184458732605
0.72507345676422119 0.99993252754211426 0.2694517970085144
0.86046195030212402 1 0.25140315294265747
0.97027403116226196 0.99966084957122803 0.23816181719303131
0.049731310456991196 0.0030468062032014132 0.56964617967605591
0.16927474737167358 0 0.57252222299575806
0.35405123233795166 0 0.56995201110839844
0.58204001188278198 0 0.56851541996002197
0.80893731117248535 0 0.56474322080612183
0.96875596046447754 0 0.55931097269058228
1 0 0.55345815420150757
0.051277041435241699 0.10935968160629272 0.56376528739929199
0.15320210158824921 0.097418300807476044 0.56823748350143433
0.3426106870174408 0.094248861074447632 0.56726592779159546
0.57769429683685303 0.087230414152145386 0.56340104341506958
0.81475752592086792 0.074561037123203278 0.56101518869400024
0.98850911855697632 0.068257831037044525 0.55625998973846436
1 0.074515081942081451 0.55155038833618164
0.026118634268641472 0.30828279256820679 0.55039691925048828
0.12302803993225098 0.30391386151313782 0.55268412828445435
0.32755628228187561 0.29952940344810486 0.55386853218078613
0.56731241941452026 0.29255008697509766 0.55037039518356323
0.80235010385513306 0.28424066305160522 0.54742968082427979
0.9853551983833313 0.27592438459396362 0.54516011476516724
1 0.27095696330070496 0.53809243440628052
0.00029009650461375713 0.54612743854522705 0.53769385814666748
0.064507439732551575 0.5447506308555603 0.53785306215286255
0.27051231265068054 0.54009217023849487 0.53677010536193848
0.53429615497589111 0.53627556562423706 0.53605228662490845
0.76627302169799805 0.53284299373626709 0.53435897827148438
0.9596867561340332 0.52650946378707886 0.53304922580718994
1 0.51260709762573242 0.52365827560424805
0 0.76548862457275391 0.52793097496032715
0.018505021929740906 0.76550865173339844 0.52586454153060913
0.20727550983428955 0.76089048385620117 0.52002257108688354
0.49362644553184509 0.75656044483184814 0.52177673578262329
0.72850733995437622 0.75362682342529297 0.52181375026702881
0.9152902364730835 0.74911350011825562 0.52047419548034668
1 0.73814666271209717 0.51368588209152222
0 0.93316102027893066 0.51772481203079224
0.0041162827983498573 0.92853575944900513 0.51828324794769287
0.18165063858032227 0.92665016651153564 0.51653188467025757
0.47413927316665649 0.9254145622253418 0.51379674673080444
0.70234376192092896 0.92327284812927246 0.51028585433959961
0.87358182668685913 0.92135435342788696 0.51140838861465454
0.98863035440444946 0.91406798362731934 0.5106467604637146
0.021490404382348061 1 0.50659447908401489
0.068751826882362366 1 0.51737290620803833
0.30584853887557983 0.99945336580276489 0.51994234323501587
0.54765874147415161 1 0.51525199413299561
0.72627526521682739 0.99995797872543335 0.51276427507400513
0.86618870496749878 1 0.51095449924468994
0.97394192218780518 0.9996873140335083 0.50363320112228394
0.048752535134553909 0.0025890874676406384 0.79103291034698486
0.17862024903297424 0 0.78550755977630615
0.36191579699516296 0 0.78152906894683838
0.58693963289260864 0 0.78285640478134155
0.82259321212768555 0 0.78412055969238281
0.98847824335098267 0.00028806200134567916 0.78137654066085815
1 0.00073614681605249643 0.77350014448165894
0.071072280406951904 0.082096025347709656 0.7817113995552063
0.17317293584346771 0.088246412575244904 0.78085786104202271
0.35462963581085205 0.089365728199481964 0.77859163284301758
0.58301085233688354 0.075311101973056793 0.77852970361709595
0.82067340612411499 0.061606135219335556 0.78023374080657959
0.99138915538787842 0.063140630722045898 0.77898591756820679
1 0.07136613130569458 0.77097076177597046
0.040096312761306763 0.28595077991485596 0.76726424694061279
0.14302650094032288 0.28573349118232727 0.76994651556015015
0.34114143252372742 0.28339928388595581 0.76899486780166626
0.57633012533187866 0.27229902148246765 0.76654255390167236
0.8081250786781311 0.26297739148139954 0.76629430055618286
0.98759603500366211 0.25805696845054626 0.7654997706413269
1 0.25188115239143372 0.75411272048950195
0.0013742933515459299 0.53066885471343994 0.75765663385391235
0.067991055548191071 0.52760016918182373 0.75877672433853149
0.29103896021842957 0.52352511882781982 0.75338798761367798
0.55008703470230103 0.51766127347946167 0.75137007236480713
0.7766425609588623 0.51547330617904663 0.75079667568206787
0.96555542945861816 0.5100288987159729 0.7484668493270874
1 0.49389395117759705 0.73447889089584351
0 0.74965834617614746 0.7442779541015625
0.00095608283299952745 0.74945628643035889 0.74475198984146118
0.18834677338600159 0.74395626783370972 0.73753267526626587
0.50270789861679077 0.73986595869064331 0.73427027463912964
0.73870337009429932 0.73683315515518188 0.73515397310256958
0.92319011688232422 0.73295998573303223 0.7362983226776123
1 0.72103160619735718 0.72298288345336914
0 0.91681092977523804 0.73067045211791992
0.00058366364100947976 0.91685158014297485 0.73411554098129272
0.19336353242397308 0.91281783580780029 0.729400634765625
0.49964559078216553 0.91115266084671021 0.72566670179367065
0.71822118759155273 0.90849405527114868 0.72727465629577637
0.88511824607849121 0.9067453145980835 0.73139870166778564
0.99257963895797729 0.90237820148468018 0.71967589855194092
0.014210076071321964 0.99975335597991943 0.72039741277694702
0.062086082994937897 1 0.72379618883132935
0.29989814758300781 0.99911141395568848 0.72535300254821777
0.56021451950073242 0.99888038635253906 0.72166413068771362
0.73182410001754761 0.99965530633926392 0.71907263994216919
0.8747180700302124 0.99945068359375 0.72366845607757568
0.98204737901687622 0.99709093570709229 0.71863466501235962
0.050853803753852844 0.00099761062301695347 0.94506430625915527
0.18588647246360779 0 0.93712759017944336
0.36324870586395264 0.00092071830295026302 0.94056552648544312
0.58460217714309692 0.0007408590754494071 0.94702774286270142
0.82387685775756836 0.0012795242946594954 0.9506719708442688
0.991962730884552 0.0064056995324790478 0.94039499759674072
1 0.0083308946341276169 0.94305312633514404
0.070207156240940094 0.072942294180393219 0.92660617828369141
0.18092721700668335 0.073802858591079712 0.92868494987487793
0.35937321186065674 0.081209249794483185 0.931721031665802
0.58600294589996338 0.064832083880901337 0.93275892734527588
0.82367956638336182 0.055843189358711243 0.93792575597763062
0.98871141672134399 0.063948236405849457 0.94566643238067627
1 0.05858142301440239 0.94306439161300659
0.048890326172113419 0.27110791206359863 0.91796988248825073
0.15179283916950226 0.27086383104324341 0.92745935916900635
0.35031124949455261 0.26909223198890686 0.9316403865814209
0.58303934335708618 0.25628417730331421 0.9269481897354126
0.81306356191635132 0.24763371050357819 0.92975127696990967
0.98590201139450073 0.24152810871601105 0.93354696035385132
1 0.23245337605476379 0.92355227470397949
0.0055078393779695034 0.51450049877166748 0.9194183349609375
0.064839564263820648 0.51456922292709351 0.92345303297042847
0.3017420768737793 0.50898730754852295 0.92511004209518433
0.56383645534515381 0.5056954026222229 0.91800719499588013
0.78363996744155884 0.50386351346969604 0.91772890090942383
0.96528971195220947 0.4918237030506134 0.91201096773147583
1 0.47923430800437927 0.89835220575332642
0 0.73591917753219604 0.91444528102874756
0.0018422743305563927 0.73619216680526733 0.91189432144165039
0.21818721294403076 0.72865420579910278 0.90734398365020752
0.52146965265274048 0.72702765464782715 0.89883685111999512
0.75121241807937622 0.72573345899581909 0.89830547571182251
0.93273395299911499 0.71846705675125122 0.9021497368812561
1 0.70763862133026123 0.8881838321685791
0 0.90242582559585571 0.89775913953781128
0.0062999501824378967 0.9032326340675354 0.89897733926773071
0.22972023487091064 0.89573746919631958 0.89493060111999512
0.51912760734558105 0.8942992091178894 0.88939923048019409
0.7314760684967041 0.89539831876754761 0.88963258266448975
0.89465856552124023 0.89352917671203613 0.8953016996383667
0.99599677324295044 0.88520067930221558 0.88625597953796387
0.023605106398463249 0.99567162990570068 0.89038538932800293
0.083676569163799286 0.99839520454406738 0.88603395223617554
0.33249983191490173 0.99562948942184448 0.88556063175201416
0.57731360197067261 0.99556493759155273 0.88155102729797363
0.74542438983917236 0.99652868509292603 0.88074159622192383
0.88443911075592041 0.99637264013290405 0.88517993688583374
0.98783773183822632 0.99298763275146484 0.88138461112976074
0.086173534393310547 0 1
0.20556055009365082 0 1
0.37620088458061218 0.0001595889771124348 1
0.5938689112663269 5.4931639169808477e-05 1
0.83129185438156128 0.00032139199902303517 1
0.99252700805664062 0.012223681434988976 0.99949651956558228
1 0.025337040424346924 1
0.07878817617893219 0.04807676374912262 0.9970170259475708
0.17615205049514771 0.053308598697185516 0.99758142232894897
0.35951867699623108 0.072433903813362122 1
0.58911913633346558 0.050816182047128677 0.99938803911209106
0.81750142574310303 0.052119806408882141 0.9997592568397522
0.97155678272247314 0.083999291062355042 1
1 0.10096601396799088 1
0.043062590062618256 0.26456478238105774 0.99718689918518066
0.13703122735023499 0.26107397675514221 0.99942845106124878
0.33588695526123047 0.25970661640167236 1
0.57583159208297729 0.24667048454284668 0.99998635053634644
0.79835671186447144 0.24367201328277588 1
0.95960038900375366 0.25142177939414978 1
1 0.25930905342102051 1
0 0.5026087760925293 0.99883705377578735
0.028082814067602158 0.50576692819595337 0.99802654981613159
0.28702577948570251 0.50004673004150391 0.99970072507858276
0.55744916200637817 0.49467414617538452 0.9990878701210022
0.77700072526931763 0.4900907576084137 0.99978172779083252
0.95488893985748291 0.48432114720344543 0.99911665916442871
1 0.48027685284614563 0.99714738130569458
0 0.71954822540283203 0.99955499172210693
0.02857595682144165 0.72116464376449585 0.9989590048789978
0.26811468601226807 0.71526378393173218 0.99781596660614014
0.53340214490890503 0.71451032161712646 0.99446952342987061
0.75135654211044312 0.71238189935684204 0.99552518129348755
0.93558543920516968 0.70835685729980469 0.99533754587173462
1 0.7014126181602478 0.99271565675735474
0.0057081184349954128 0.89693135023117065 0.99552589654922485
0.077125206589698792 0.88830733299255371 0.99745279550552368
0.29039323329925537 0.88047057390213013 0.99614328145980835
0.53568315505981445 0.87903916835784912 0.99362653493881226
0.73505258560180664 0.88103938102722168 0.99272030591964722
0.89479976892471313 0.88041394948959351 0.99442744255065918
0.99200880527496338 0.87758100032806396 0.99303692579269409
0.067856930196285248 0.99218297004699707 0.9887891411781311
0.16641105711460114 0.9937673807144165 0.99216586351394653
0.36869347095489502 0.99246591329574585 0.99123847484588623
0.57904654741287231 0.99113357067108154 0.98962068557739258
0.74762624502182007 0.99068963527679443 0.9887382984161377
0.88863307237625122 0.99018651247024536 0.9893944263458252
0.98827344179153442 0.98970842361450195 0.98992884159088135
