films/fuji_superia_200_xpro.cube
# Created by: G'MIC (https://gmic.eu)
TITLE "fuji_superia_200_xpro"
# LUT size
LUT_3D_SIZE 13
# Data domain
DOMAIN_MIN 0.0 0.0 0.0
DOMAIN_MAX 1.0 1.0 1.0
# LUT data points
0.000303769571473822 0.036495417356491089 0.20419524610042572
0.00040450750384479761 0.042487125843763351 0.2233191579580307
0.00059548171702772379 0.051649264991283417 0.24276365339756012
0.0010151582537218928 0.063512884080410004 0.24979963898658752
0.0023146835155785084 0.076227553188800812 0.25957503914833069
0.0082462979480624199 0.07584545761346817 0.26779136061668396
0.018765168264508247 0.071782656013965607 0.26982074975967407
0.046578694134950638 0.067302122712135315 0.27626696228981018
0.093736432492733002 0.066702090203762054 0.27686917781829834
0.14995385706424713 0.067290693521499634 0.27934566140174866
0.21199247241020203 0.071257360279560089 0.28311911225318909
0.27661165595054626 0.07759469747543335 0.28880491852760315
0.34445714950561523 0.088224045932292938 0.29325386881828308
0.0015476301778107882 0.12888982892036438 0.28643116354942322
0.0020981882698833942 0.13584573566913605 0.29551145434379578
0.0033203724306076765 0.14625269174575806 0.30729559063911438
0.0073863910511136055 0.15696553885936737 0.31678980588912964
0.018136207014322281 0.16846689581871033 0.32238709926605225
0.03008708544075489 0.16602101922035217 0.32598876953125
0.047435387969017029 0.15380704402923584 0.32741677761077881
0.079434938728809357 0.14179442822933197 0.3235422670841217
0.12470342963933945 0.13349257409572601 0.31803649663925171
0.17905034124851227 0.13054126501083374 0.31651708483695984
0.24156211316585541 0.13204535841941833 0.31648200750350952
0.30727735161781311 0.13574683666229248 0.31759664416313171
0.37346729636192322 0.14094553887844086 0.32046693563461304
0.0021701438818126917 0.22177852690219879 0.35341319441795349
0.0026981427799910307 0.22500313818454742 0.35768964886665344
0.0048503503203392029 0.23021665215492249 0.36224856972694397
0.010801068507134914 0.23570668697357178 0.36942726373672485
0.024391040205955505 0.24188275635242462 0.37446963787078857
0.039283677935600281 0.24016889929771423 0.37756440043449402
0.061493474990129471 0.22805958986282349 0.37831178307533264
0.10058288276195526 0.21123121678829193 0.37056699395179749
0.15036921203136444 0.19886218011379242 0.36142393946647644
0.20519803464412689 0.19329047203063965 0.35664457082748413
0.26523524522781372 0.19057841598987579 0.35546258091926575
0.33164533972740173 0.19054915010929108 0.35333561897277832
0.40103060007095337 0.19243854284286499 0.35044047236442566
0.0025110582355409861 0.30948105454444885 0.41328608989715576
0.0030155256390571594 0.31085708737373352 0.41366115212440491
0.0033554076217114925 0.31217411160469055 0.4163055419921875
0.0076563968323171139 0.31383854150772095 0.42177081108093262
0.019299210980534554 0.31624072790145874 0.42481538653373718
0.031966205686330795 0.31563067436218262 0.42485836148262024
0.052970483899116516 0.30644094944000244 0.42135071754455566
0.098373576998710632 0.28998017311096191 0.413246750831604
0.16413399577140808 0.27282020449638367 0.40421372652053833
0.22977644205093384 0.26060640811920166 0.39707702398300171
0.29337349534034729 0.25237977504730225 0.39234936237335205
0.36045515537261963 0.24667981266975403 0.38719788193702698
0.43017217516899109 0.24369563162326813 0.38165870308876038
0.00067521637538447976 0.40049150586128235 0.4734346866607666
0.0011757944012060761 0.40105316042900085 0.47037807106971741
0.00011104509030701593 0.4030705988407135 0.4723905622959137
0.00039584591286256909 0.40436691045761108 0.47728797793388367
0.0062558194622397423 0.40518081188201904 0.47798696160316467
0.022344088181853294 0.40422430634498596 0.47438022494316101
0.048281874507665634 0.39528527855873108 0.46769583225250244
0.10530473291873932 0.37685912847518921 0.45861613750457764
0.18792305886745453 0.35363665223121643 0.44833278656005859
0.26174771785736084 0.33476963639259338 0.43725800514221191
0.32888489961624146 0.31989449262619019 0.42779320478439331
0.39606514573097229 0.3083442747592926 0.41986179351806641
0.46399113535881042 0.3001464307308197 0.41339579224586487
0 0.51304101943969727 0.5335012674331665
0 0.51181483268737793 0.53121662139892578
0 0.51575702428817749 0.5318981409072876
0 0.5179254412651062 0.53317755460739136
0.002168124308809638 0.51601052284240723 0.53164803981781006
0.024015270173549652 0.50968629121780396 0.52707397937774658
0.068052597343921661 0.49660652875900269 0.51959329843521118
0.14159269630908966 0.47388336062431335 0.50882464647293091
0.22728559374809265 0.4463464617729187 0.49509090185165405
0.30215173959732056 0.41975599527359009 0.48008295893669128
0.36960840225219727 0.39634412527084351 0.46724382042884827
0.4359813928604126 0.37932112812995911 0.45613512396812439
0.50224733352661133 0.36761713027954102 0.44781243801116943
0 0.64997237920761108 0.59595972299575806
0 0.64884287118911743 0.59512054920196533
0 0.65141898393630981 0.59438705444335938
0 0.65020167827606201 0.59284532070159912
0.0016626245342195034 0.64165568351745605 0.58916831016540527
0.029733365401625633 0.6299787163734436 0.58450901508331299
0.088951855897903442 0.61383628845214844 0.57631534337997437
0.17443445324897766 0.58840000629425049 0.56234610080718994
0.26703941822052002 0.55571717023849487 0.54445046186447144
0.34604161977767944 0.52065092325210571 0.52580219507217407
0.41431352496147156 0.48787638545036316 0.50952476263046265
0.48030868172645569 0.46240472793579102 0.49557980895042419
0.54571318626403809 0.4433082640171051 0.48467567563056946
0 0.79324793815612793 0.65991443395614624
0 0.79173010587692261 0.66097140312194824
0 0.79680603742599487 0.65919554233551025
0 0.79387706518173218 0.65681374073028564
0.0011468176962807775 0.77646750211715698 0.65362221002578735
0.035242851823568344 0.76071953773498535 0.64787226915359497
0.10814816504716873 0.7432900071144104 0.63823753595352173
0.20621386170387268 0.71609807014465332 0.62148904800415039
0.30935579538345337 0.67591285705566406 0.59920161962509155
0.39214920997619629 0.63378119468688965 0.57575315237045288
0.4625268280506134 0.59341162443161011 0.55539751052856445
0.52892547845840454 0.55716001987457275 0.53830903768539429
0.59468287229537964 0.52707856893539429 0.52471637725830078
0.0044680428691208363 0.92577528953552246 0.72261571884155273
0.01405829656869173 0.92178446054458618 0.72500503063201904
0.0044287289492785931 0.93061119318008423 0.72469824552536011
0.0013236250961199403 0.93172305822372437 0.72266662120819092
0.0061698462814092636 0.91756469011306763 0.71953892707824707
0.066089227795600891 0.89658612012863159 0.71374839544296265
0.15239687263965607 0.88032221794128418 0.70318084955215454
0.24758340418338776 0.85716283321380615 0.68536520004272461
0.35333389043807983 0.80876731872558594 0.66028797626495361
0.43979072570800781 0.75935167074203491 0.63278806209564209
0.51444780826568604 0.7090650200843811 0.6083868145942688
0.58184307813644409 0.66416257619857788 0.58753025531768799
0.64836210012435913 0.62322843074798584 0.56965714693069458
0.15219104290008545 0.99598175287246704 0.78579592704772949
0.16764320433139801 0.99420207738876343 0.78831493854522705
0.15225787460803986 0.99739575386047363 0.79040461778640747
0.14457111060619354 0.99827831983566284 0.79053348302841187
0.15159538388252258 0.99631547927856445 0.78922253847122192
0.2116585373878479 0.98692691326141357 0.78582990169525146
0.28327342867851257 0.98058092594146729 0.77631372213363647
0.34602445363998413 0.97504955530166626 0.75953638553619385
0.41793331503868103 0.94553172588348389 0.73371535539627075
0.49227970838546753 0.90091598033905029 0.70118808746337891
0.56903111934661865 0.84187400341033936 0.67066818475723267
0.637889564037323 0.78525936603546143 0.64404135942459106
0.70767229795455933 0.7342115044593811 0.62003278732299805
0.45944106578826904 1 0.85189664363861084
0.44941273331642151 1 0.85464471578598022
0.45585212111473083 1 0.85829752683639526
0.47513070702552795 1 0.86055964231491089
0.46614846587181091 1 0.86378693580627441
0.47907420992851257 1 0.86648863554000854
0.51906204223632812 1 0.8636479377746582
0.55228590965270996 1 0.85143804550170898
0.5740591287612915 0.99924105405807495 0.82746773958206177
0.60366678237915039 0.99379366636276245 0.79192882776260376
0.64720076322555542 0.97285550832748413 0.74893802404403687
0.70560288429260254 0.92096954584121704 0.7067757248878479
0.77526164054870605 0.86115807294845581 0.6733245849609375
0.72780877351760864 1 0.92007070779800415
0.72698569297790527 1 0.92343533039093018
0.73467803001403809 1 0.92903882265090942
0.74339473247528076 1 0.9319911003112793
0.74723589420318604 1 0.93593251705169678
0.75262343883514404 1 0.94539749622344971
0.76995581388473511 1 0.95417505502700806
0.78410285711288452 1 0.95209342241287231
0.7923014760017395 1 0.93452727794647217
0.80542618036270142 1 0.91194015741348267
0.81241726875305176 1 0.86049050092697144
0.83170896768569946 0.99698150157928467 0.79499566555023193
0.86996191740036011 0.9722629189491272 0.74574226140975952
0.9513440728187561 1 0.9855312705039978
0.95257294178009033 1 0.98498952388763428
0.95585525035858154 1 0.98914170265197754
0.95596206188201904 1 0.99074888229370117
0.96005713939666748 1 0.99261289834976196
0.9640040397644043 1 0.99633157253265381
0.96956562995910645 1 0.99930214881896973
0.97345072031021118 1 0.99968260526657104
0.97594296932220459 1 0.9981265664100647
0.98099219799041748 1 0.99637860059738159
0.9782867431640625 1 0.97815501689910889
0.98025184869766235 1 0.93054860830307007
0.98745310306549072 0.9964214563369751 0.85889112949371338
0 0.04188111424446106 0.31017193198204041
0 0.051949921995401382 0.32070571184158325
0 0.064909301698207855 0.3341028094291687
0 0.076606050133705139 0.34034496545791626
7.677265239180997e-05 0.086424462497234344 0.34307730197906494
0.0019241631962358952 0.088208936154842377 0.34392252564430237
0.0052601681090891361 0.077276311814785004 0.33705240488052368
0.023734148591756821 0.065320886671543121 0.33048126101493835
0.068188071250915527 0.060658041387796402 0.3243662416934967
0.12663182616233826 0.064330518245697021 0.32247185707092285
0.19133204221725464 0.071406252682209015 0.32452237606048584
0.26026132702827454 0.080438472330570221 0.32798755168914795
0.33500048518180847 0.095628775656223297 0.32873106002807617
0 0.13813064992427826 0.36646375060081482
0 0.14656482636928558 0.37400734424591064
3.1789142667548731e-05 0.15788336098194122 0.38009971380233765
0.000649500812869519 0.1646793931722641 0.38811299204826355
0.0056084576062858105 0.17175894975662231 0.39019423723220825
0.016549637541174889 0.16973789036273956 0.38765788078308105
0.030972618609666824 0.15634810924530029 0.38058710098266602
0.058355264365673065 0.14007149636745453 0.37013468146324158
0.10378461331129074 0.12882685661315918 0.36080098152160645
0.15953738987445831 0.12757913768291473 0.35560452938079834
0.22371867299079895 0.13201852142810822 0.35369125008583069
0.29354512691497803 0.13860681653022766 0.35336807370185852
0.36567643284797668 0.14724591374397278 0.35255330801010132
0 0.22816793620586395 0.41383978724479675
0 0.23198120296001434 0.41759660840034485
0.00082033942453563213 0.23684418201446533 0.4211077094078064
0.0043662725947797298 0.23922662436962128 0.42644628882408142
0.013867352157831192 0.24185141921043396 0.42835155129432678
0.027869999408721924 0.23918753862380981 0.42628347873687744
0.048304121941328049 0.22666622698307037 0.42073291540145874
0.083459846675395966 0.20915047824382782 0.40947791934013367
0.13339899480342865 0.19594557583332062 0.39778622984886169
0.19011132419109344 0.19107766449451447 0.39011433720588684
0.25321677327156067 0.19041919708251953 0.38599091768264771
0.32266348600387573 0.19315269589424133 0.38204726576805115
0.39484414458274841 0.19734147191047668 0.37799546122550964
0 0.31290322542190552 0.4594573974609375
0 0.31447464227676392 0.45927274227142334
0.00081238092388957739 0.31632515788078308 0.46147525310516357
0.0061085717752575874 0.31699541211128235 0.4655340313911438
0.015859715640544891 0.3175426721572876 0.46582043170928955
0.023463590070605278 0.31317019462585449 0.46445813775062561
0.041784666478633881 0.30268591642379761 0.45831933617591858
0.082939296960830688 0.28668016195297241 0.44660449028015137
0.1479487419128418 0.26973548531532288 0.43431985378265381
0.21657149493694305 0.25792962312698364 0.4243934154510498
0.28300678730010986 0.25204935669898987 0.41730454564094543
0.35192584991455078 0.24851119518280029 0.41140580177307129
0.42256346344947815 0.24751411378383636 0.4063020646572113
0 0.40456673502922058 0.50675266981124878
0 0.4050193727016449 0.5046306848526001
0 0.40721362829208374 0.50780278444290161
0.00047004548832774162 0.40809205174446106 0.51136285066604614
0.0033060559071600437 0.40682774782180786 0.51107335090637207
0.0098837763071060181 0.40177139639854431 0.50803452730178833
0.034663721919059753 0.39040917158126831 0.49954533576965332
0.09245772659778595 0.37229633331298828 0.48664209246635437
0.1725572943687439 0.35056847333908081 0.47243219614028931
0.2503722608089447 0.33127650618553162 0.45911931991577148
0.3191373348236084 0.3187967836856842 0.44884258508682251
0.38648286461830139 0.30934768915176392 0.44137692451477051
0.45458224415779114 0.30285924673080444 0.43605771660804749
0 0.51638555526733398 0.56189805269241333
0 0.51619517803192139 0.56009852886199951
0 0.51810640096664429 0.56187325716018677
0 0.51877623796463013 0.56294316053390503
1.5438305126735941e-05 0.51531881093978882 0.56109654903411865
0.0080301174893975258 0.50717777013778687 0.5561637282371521
0.051596697419881821 0.49199089407920837 0.54668116569519043
0.13130711019039154 0.46801930665969849 0.53243803977966309
0.21659785509109497 0.44159600138664246 0.51478540897369385
0.29425486922264099 0.41536200046539307 0.498310387134552
0.36184236407279968 0.39373275637626648 0.48575091361999512
0.4270566999912262 0.37802615761756897 0.47605165839195251
0.49282413721084595 0.36709636449813843 0.46836081147193909
0 0.65091317892074585 0.6219366192817688
0 0.64991229772567749 0.62061280012130737
0 0.64960145950317383 0.61999905109405518
0 0.64740192890167236 0.61852836608886719
2.2738588540960336e-06 0.64016216993331909 0.61498665809631348
0.011162432841956615 0.62810778617858887 0.6088862419128418
0.068558499217033386 0.61074429750442505 0.59832918643951416
0.16114425659179688 0.58337879180908203 0.58220309019088745
0.25967791676521301 0.54864287376403809 0.56244635581970215
0.34074056148529053 0.51429063081741333 0.5426180362701416
0.40787428617477417 0.48298254609107971 0.52714312076568604
0.4723164439201355 0.45845365524291992 0.51409792900085449
0.53678840398788452 0.44107258319854736 0.50341337919235229
0 0.79385906457901001 0.68314701318740845
0 0.79165458679199219 0.68219631910324097
0 0.78971964120864868 0.68059855699539185
0 0.78702306747436523 0.67815899848937988
0 0.77733141183853149 0.67413848638534546
0.012156826443970203 0.7616572380065918 0.6669914722442627
0.084278911352157593 0.74069786071777344 0.6555633544921875
0.19362564384937286 0.70920592546463013 0.63821017742156982
0.30555060505867004 0.66558009386062622 0.61622929573059082
0.38803067803382874 0.62404447793960571 0.59217190742492676
0.45688188076019287 0.58506399393081665 0.57278627157211304
0.52158623933792114 0.55183321237564087 0.5562480092048645
0.58609825372695923 0.52514785528182983 0.54196500778198242
0.015738453716039658 0.91913753747940063 0.7452121376991272
0.021691879257559776 0.91730779409408569 0.74483311176300049
0.016575861722230911 0.91751962900161743 0.74372631311416626
0.0061924504116177559 0.91981655359268188 0.74158185720443726
0.0026288351509720087 0.91659575700759888 0.73679053783416748
0.032882090657949448 0.90099012851715088 0.72923809289932251
0.11960999667644501 0.88145947456359863 0.71681636571884155
0.23347099125385284 0.84906625747680664 0.698932945728302
0.34886175394058228 0.79777711629867554 0.67534470558166504
0.4363398551940918 0.74733084440231323 0.64783340692520142
0.50963717699050903 0.69984543323516846 0.62439596652984619
0.57490307092666626 0.658863365650177 0.60427963733673096
0.64065045118331909 0.62215518951416016 0.58495771884918213
0.17397210001945496 0.98990249633789062 0.80935192108154297
0.18374821543693542 0.98960268497467041 0.80889260768890381
0.17577274143695831 0.99081408977508545 0.80975264310836792
0.15237388014793396 0.99403840303421021 0.81022578477859497
0.14107251167297363 0.99546068906784058 0.8073309063911438
0.18127754330635071 0.99125266075134277 0.8017084002494812
0.2465289980173111 0.98708420991897583 0.78933632373809814
0.33143711090087891 0.96863919496536255 0.77193474769592285
0.41108539700508118 0.93423092365264893 0.74660283327102661
0.48547938466072083 0.89027899503707886 0.71428018808364868
0.56164109706878662 0.83436435461044312 0.68406218290328979
0.63102853298187256 0.7804294228553772 0.6580582857131958
0.70251506567001343 0.73031449317932129 0.63183778524398804
0.44634759426116943 1 0.87689816951751709
0.4558502733707428 1 0.87556761503219604
0.45561569929122925 1 0.87803190946578979
0.44372022151947021 1 0.88342833518981934
0.44382500648498535 1 0.88610732555389404
0.46547964215278625 1 0.88753175735473633
0.50449997186660767 1 0.88216167688369751
0.54350548982620239 0.99997079372406006 0.86626726388931274
0.56173771619796753 0.99838864803314209 0.84128600358963013
0.59320664405822754 0.99055111408233643 0.80472195148468018
0.63743108510971069 0.9670984148979187 0.76024305820465088
0.69892460107803345 0.91616731882095337 0.71859472990036011
0.77233803272247314 0.85636818408966064 0.68251866102218628
0.71459507942199707 1 0.94402861595153809
0.72306591272354126 1 0.94288051128387451
0.72602617740631104 1 0.94650429487228394
0.72374475002288818 1 0.95235329866409302
0.7278626561164856 1 0.95677441358566284
0.74162065982818604 1 0.96337926387786865
0.75969433784484863 1 0.97131586074829102
0.77300018072128296 1 0.96676492691040039
0.78185379505157471 1 0.94723153114318848
0.79374122619628906 1 0.92335367202758789
0.80283737182617188 0.99995636940002441 0.87379050254821777
0.82278859615325928 0.99626457691192627 0.80699682235717773
0.86276525259017944 0.97191351652145386 0.75301480293273926
0.94307279586791992 1 0.99272942543029785
0.94970160722732544 1 0.99179357290267944
0.95078784227371216 1 0.99434971809387207
0.94992703199386597 1 0.99619567394256592
0.9527403712272644 1 0.99633544683456421
0.9582216739654541 1 0.99820792675018311
0.96309608221054077 1 0.99999892711639404
0.96680551767349243 1 1
0.97189509868621826 1 0.99896001815795898
0.97640949487686157 0.99912875890731812 0.9973442554473877
0.97439455986022949 0.99963247776031494 0.98321700096130371
0.97699260711669922 1 0.93513625860214233
0.98446416854858398 0.99889481067657471 0.86293715238571167
0 0.054524321109056473 0.37644684314727783
0 0.068195119500160217 0.38256758451461792
0 0.079129599034786224 0.38890048861503601
0 0.086895138025283813 0.39329531788825989
0 0.092142291367053986 0.39342167973518372
0.00015653722221031785 0.090511038899421692 0.39041703939437866
0.0015475404215976596 0.078850582242012024 0.38213685154914856
0.011614751070737839 0.064323797821998596 0.3722347617149353
0.048618525266647339 0.056899230927228928 0.36542955040931702
0.11025601625442505 0.066495381295681 0.36237749457359314
0.1811540275812149 0.080893710255622864 0.36220863461494446
0.25695914030075073 0.094792969524860382 0.36347177624702454
0.33449307084083557 0.11107304692268372 0.363273024559021
0 0.14938020706176758 0.42510008811950684
0 0.15733662247657776 0.42954373359680176
0 0.16452199220657349 0.43320760130882263
0 0.16935214400291443 0.43611234426498413
0.0014330844860523939 0.17345641553401947 0.43411582708358765
0.008818487636744976 0.17011891305446625 0.42834857106208801
0.021677877753973007 0.15549324452877045 0.41960960626602173
0.045811373740434647 0.13834904134273529 0.40820968151092529
0.088642895221710205 0.12715427577495575 0.39862856268882751
0.14586107432842255 0.12960149347782135 0.39243161678314209
0.21325567364692688 0.13823473453521729 0.38937610387802124
0.28705644607543945 0.14758114516735077 0.38760408759117126
0.36178246140480042 0.15828508138656616 0.38561040163040161
0 0.23576214909553528 0.46622028946876526
0 0.23883043229579926 0.46843209862709045
0 0.24215707182884216 0.47022899985313416
0.0013303868472576141 0.24383546411991119 0.4716026782989502
0.0078422399237751961 0.24393366277217865 0.46967214345932007
0.022109700366854668 0.23747149109840393 0.46457070112228394
0.043561585247516632 0.22355207800865173 0.45594605803489685
0.074146240949630737 0.20775303244590759 0.44364696741104126
0.12277735024690628 0.19489036500453949 0.4316871166229248
0.17939913272857666 0.19155691564083099 0.42289355397224426
0.24409957230091095 0.19386419653892517 0.41708430647850037
0.31549075245857239 0.19784125685691833 0.41255417466163635
0.38838821649551392 0.2037348598241806 0.40846306085586548
0.00015267764683812857 0.31874492764472961 0.5053945779800415
2.0599365598172881e-05 0.31920614838600159 0.50556528568267822
7.7789909482817166e-06 0.32063716650009155 0.50715023279190063
0.0018892325460910797 0.32143700122833252 0.50703537464141846
0.0072070104070007801 0.31892085075378418 0.50580823421478271
0.018955724313855171 0.31083667278289795 0.50109684467315674
0.042631637305021286 0.2978871762752533 0.49212649464607239
0.077534772455692291 0.28432387113571167 0.47817587852478027
0.13773863017559052 0.26872497797012329 0.46428948640823364
0.2068859189748764 0.2571985125541687 0.45299747586250305
0.27443662285804749 0.25237715244293213 0.44519650936126709
0.34383043646812439 0.25126898288726807 0.4392082691192627
0.41417449712753296 0.25155565142631531 0.43441888689994812
0.0014184539904817939 0.40888741612434387 0.54712456464767456
0.00030634264112450182 0.40909719467163086 0.54677295684814453
0 0.41078317165374756 0.54868674278259277
3.1804102036403492e-05 0.41218221187591553 0.54848164319992065
0.00040779862320050597 0.40889397263526917 0.54636943340301514
0.0027967565692961216 0.39958822727203369 0.54171639680862427
0.028328750282526016 0.38606777787208557 0.53119254112243652
0.082820147275924683 0.36982101202011108 0.51536667346954346
0.16092656552791595 0.34827739000320435 0.49871191382408142
0.24067977070808411 0.32815092802047729 0.48445969820022583
0.30951964855194092 0.31700882315635681 0.47495701909065247
0.37693274021148682 0.30977678298950195 0.46798399090766907
0.44493654370307922 0.30575278401374817 0.4624352753162384
0.00012371587217785418 0.5165705680847168 0.59573256969451904
7.4797986826524721e-07 0.51870298385620117 0.5947757363319397
0 0.52038264274597168 0.59579670429229736
0 0.52030438184738159 0.59518754482269287
0 0.51583069562911987 0.59208369255065918
0.0010426839580759406 0.50474685430526733 0.58609956502914429
0.034986697137355804 0.48778122663497925 0.57478725910186768
0.1138761043548584 0.46401625871658325 0.55808693170547485
0.20385585725307465 0.43611562252044678 0.53862184286117554
0.28380265831947327 0.40971356630325317 0.52141916751861572
0.35112184286117554 0.39114096760749817 0.51008254289627075
0.41636940836906433 0.37732654809951782 0.50091761350631714
0.48263251781463623 0.36854520440101624 0.49319502711296082
0 0.64877474308013916 0.65063941478729248
0 0.64873212575912476 0.6491275429725647
0 0.6464921236038208 0.64835411310195923
0 0.64381223917007446 0.64682990312576294
0 0.63719433546066284 0.64274299144744873
0.0027031542267650366 0.62394553422927856 0.63545465469360352
0.048027321696281433 0.60401880741119385 0.62339621782302856
0.14116685092449188 0.57458794116973877 0.60604763031005859
0.24290284514427185 0.53941565752029419 0.58548897504806519
0.32694336771965027 0.50629574060440063 0.56632304191589355
0.39577117562294006 0.47880083322525024 0.55095428228378296
0.46113517880439758 0.45683848857879639 0.53798621892929077
0.52671080827713013 0.44122537970542908 0.52675348520278931
0 0.790485680103302 0.70882171392440796
