films/fuji_superia_100.cube
# Created by: G'MIC (https://gmic.eu)
TITLE "fuji_superia_100"
# LUT size
LUT_3D_SIZE 13
# Data domain
DOMAIN_MIN 0.0 0.0 0.0
DOMAIN_MAX 1.0 1.0 1.0
# LUT data points
0.01492703054100275 0.026501120999455452 0.022239206358790398
0.048057109117507935 0.033618807792663574 0.023222276940941811
0.11801805347204208 0.043199129402637482 0.023820720613002777
0.21333760023117065 0.055436812341213226 0.01807200163602829
0.31754323840141296 0.067704141139984131 0.0096401739865541458
0.42227494716644287 0.08217766135931015 0.003093913896009326
0.52806413173675537 0.09881940484046936 0.0011295991716906428
0.62773823738098145 0.12046459317207336 1.6335879990947433e-05
0.71296632289886475 0.1381814181804657 0
0.78705638647079468 0.15326209366321564 0
0.85791951417922974 0.17246516048908234 0
0.92590880393981934 0.19168649613857269 0
0.9849507212638855 0.21352528035640717 0
0.0055227391421794891 0.07482069730758667 0.029168670997023582
0.039069186896085739 0.084613695740699768 0.027905946597456932
0.12314730137586594 0.10036716610193253 0.018828867003321648
0.22689402103424072 0.11780785769224167 0.0087703177705407143
0.33435875177383423 0.133895143866539 0.0036946465261280537
0.44053658843040466 0.14596608281135559 0.0030023462604731321
0.54468375444412231 0.16251222789287567 0.00066905299900099635
0.64075905084609985 0.17753760516643524 9.8733344202628359e-06
0.72419875860214233 0.18895433843135834 0.0001534854673082009
0.79739236831665039 0.20244362950325012 0
0.86749303340911865 0.21433459222316742 0
0.93439364433288574 0.22672644257545471 0
0.98941540718078613 0.24994288384914398 0
8.9757586465566419e-06 0.17090295255184174 0.050384521484375
0.010612203739583492 0.17464995384216309 0.040167085826396942
0.098558507859706879 0.1792277991771698 0.027518194168806076
0.2315608412027359 0.19590535759925842 0.012056777253746986
0.35294827818870544 0.21565505862236023 0.0036821551620960236
0.46518394351005554 0.2289649099111557 0.0025449865497648716
0.56739193201065063 0.24310538172721863 0.00058432185323908925
0.65792858600616455 0.25074964761734009 0.00048706951201893389
0.7379487156867981 0.25378862023353577 0.0022559820208698511
0.8089633584022522 0.26313075423240662 7.9166187788359821e-05
0.87695091962814331 0.27113455533981323 0
0.94111734628677368 0.28053867816925049 0
0.9923241138458252 0.29911413788795471 0
0 0.29044586420059204 0.085495635867118835
0.00076608097879216075 0.29076293110847473 0.072105631232261658
0.066742599010467529 0.29107779264450073 0.056025277823209763
0.21753232181072235 0.29636290669441223 0.033244669437408447
0.36069819331169128 0.31161504983901978 0.011460667476058006
0.48226043581962585 0.32568466663360596 0.0019641951657831669
0.5853380560874939 0.33395782113075256 0.00036136401467956603
0.67190974950790405 0.33617666363716125 0.00020141601271461695
0.74869304895401001 0.33543297648429871 0.00060469686286523938
0.81925415992736816 0.33764225244522095 2.5850184101727791e-05
0.88626432418823242 0.34153574705123901 0
0.94830530881881714 0.34801527857780457 0
0.99487823247909546 0.3609001636505127 0
0 0.41804686188697815 0.12554571032524109
0 0.42022353410720825 0.11802100390195847
0.038430023938417435 0.41992515325546265 0.10895843803882599
0.18302874267101288 0.41678515076637268 0.086511366069316864
0.34438842535018921 0.419036865234375 0.056877885013818741
0.48084783554077148 0.42120775580406189 0.022981785237789154
0.58881241083145142 0.42419865727424622 0.0046081990003585815
0.67549258470535278 0.42634066939353943 0.00042850270983763039
0.75338363647460938 0.42362987995147705 3.0158547815517522e-05
0.82631659507751465 0.42114108800888062 0
0.89504635334014893 0.41990676522254944 0
0.9566270112991333 0.42232879996299744 0
0.99734926223754883 0.43075945973396301 0.00046848971396684647
0 0.53756183385848999 0.17542475461959839
0 0.54201686382293701 0.17790418863296509
0.017111251130700111 0.54324465990066528 0.17930734157562256
0.13639132678508759 0.53699517250061035 0.16585862636566162
0.30058148503303528 0.53043889999389648 0.14161500334739685
0.45321348309516907 0.52016478776931763 0.099784806370735168
0.57086277008056641 0.51231664419174194 0.056452836841344833
0.66524118185043335 0.51244580745697021 0.028844647109508514
0.74874716997146606 0.51234006881713867 0.0074533200822770596
0.82688367366790771 0.50907117128372192 0.00068905402440577745
0.89968568086624146 0.50407028198242188 0.0008109897025860846
0.96378260850906372 0.50178253650665283 0.0011187534546479583
0.9987369179725647 0.50705254077911377 0.0041560451500117779
0 0.6358950138092041 0.24779114127159119
0 0.64193809032440186 0.2520325779914856
0.010067464783787727 0.64387893676757812 0.2548389732837677
0.095106251537799835 0.6396181583404541 0.2495875358581543
0.24022106826305389 0.63183528184890747 0.23413953185081482
0.3987458348274231 0.6187741756439209 0.20232598483562469
0.53126484155654907 0.60405075550079346 0.15972761809825897
0.64044731855392456 0.59844124317169189 0.11849691718816757
0.73478245735168457 0.59873420000076294 0.075086362659931183
0.81967425346374512 0.59671580791473389 0.043013971298933029
0.89526534080505371 0.59146368503570557 0.029309157282114029
0.96172535419464111 0.58736199140548706 0.031384531408548355
0.99859923124313354 0.58940011262893677 0.040044702589511871
0.0065866056829690933 0.72024530172348022 0.32820254564285278
0.0073227528482675552 0.72630387544631958 0.33202221989631653
0.022787041962146759 0.72893446683883667 0.33408325910568237
0.075139991939067841 0.72652202844619751 0.33256915211677551
0.19286008179187775 0.71944791078567505 0.32074365019798279
0.35182005167007446 0.70836329460144043 0.29524272680282593
0.49077853560447693 0.69611024856567383 0.26195523142814636
0.60726982355117798 0.68802660703659058 0.22534029185771942
0.71201974153518677 0.68435209989547729 0.18714520335197449
0.80489629507064819 0.68170809745788574 0.14835768938064575
0.88456052541732788 0.67795103788375854 0.11771919578313828
0.95578962564468384 0.67468851804733276 0.11707302927970886
0.99846065044403076 0.67454469203948975 0.12934954464435577
0.047274675220251083 0.79830282926559448 0.40601649880409241
0.058823172003030777 0.80309140682220459 0.41019508242607117
0.082465678453445435 0.80471742153167725 0.4134863018989563
0.12443052977323532 0.80282598733901978 0.41337266564369202
0.21676240861415863 0.79752928018569946 0.40545547008514404
0.34899860620498657 0.78986316919326782 0.38808515667915344
0.47159969806671143 0.78144514560699463 0.36473965644836426
0.58019477128982544 0.77369898557662964 0.33592298626899719
0.68269538879394531 0.76721477508544922 0.3025975227355957
0.77933359146118164 0.76286423206329346 0.26711800694465637
0.86891388893127441 0.75926667451858521 0.23893529176712036
0.94745826721191406 0.75797337293624878 0.23175705969333649
0.99744099378585815 0.75759387016296387 0.23712258040904999
0.12592965364456177 0.86787176132202148 0.48643890023231506
0.15424758195877075 0.87072932720184326 0.49082815647125244
0.19006514549255371 0.8708917498588562 0.49378615617752075
0.23609250783920288 0.86932200193405151 0.49388650059700012
0.30504107475280762 0.86557853221893311 0.49040770530700684
0.39393296837806702 0.86076235771179199 0.48228362202644348
0.48419076204299927 0.85674422979354858 0.46869164705276489
0.57223796844482422 0.85119354724884033 0.44716206192970276
0.66210955381393433 0.84353876113891602 0.41858673095703125
0.75124990940093994 0.8387259840965271 0.38879543542861938
0.84409791231155396 0.83594554662704468 0.36344274878501892
0.93036198616027832 0.83584243059158325 0.34847715497016907
0.99294841289520264 0.83532118797302246 0.34348413348197937
0.26663699746131897 0.9227977991104126 0.57370591163635254
0.29517713189125061 0.92499762773513794 0.57721590995788574
0.33074772357940674 0.92476880550384521 0.57886046171188354
0.37078967690467834 0.92448282241821289 0.57818233966827393
0.41664740443229675 0.92107713222503662 0.57807463407516479
0.47197198867797852 0.91786730289459229 0.57657313346862793
0.53246796131134033 0.9159359335899353 0.56988984346389771
0.59636586904525757 0.91276305913925171 0.55489319562911987
0.66397190093994141 0.90779680013656616 0.5333670973777771
0.73460787534713745 0.90449321269989014 0.51106864213943481
0.81918579339981079 0.90341877937316895 0.4889436662197113
0.90793442726135254 0.90358585119247437 0.46952813863754272
0.98191899061203003 0.90314412117004395 0.45684066414833069
0.44431841373443604 0.96548032760620117 0.66448360681533813
0.45979189872741699 0.96749073266983032 0.66668051481246948
0.48292055726051331 0.96601206064224243 0.66756755113601685
0.50766032934188843 0.96504402160644531 0.66616111993789673
0.5332949161529541 0.96331322193145752 0.66663724184036255
0.56597548723220825 0.9615517258644104 0.66892474889755249
0.60552704334259033 0.96040433645248413 0.66779661178588867
0.64807230234146118 0.95916944742202759 0.6586182713508606
0.69513314962387085 0.95733755826950073 0.64442414045333862
0.74922198057174683 0.95601844787597656 0.62916481494903564
0.81556051969528198 0.95553994178771973 0.61208325624465942
0.88787645101547241 0.95536863803863525 0.59795850515365601
0.95399212837219238 0.95317047834396362 0.58695048093795776
0.60515671968460083 0.99648940563201904 0.7480396032333374
0.60937356948852539 0.99696236848831177 0.74920660257339478
0.62146174907684326 0.99614381790161133 0.75077605247497559
0.63208973407745361 0.99511855840682983 0.74984079599380493
0.64191091060638428 0.99485719203948975 0.74969714879989624
0.65996521711349487 0.99462401866912842 0.75392484664916992
0.68582212924957275 0.99400514364242554 0.7581525444984436
0.71274393796920776 0.99388498067855835 0.7537570595741272
0.74420446157455444 0.99369615316390991 0.74623006582260132
0.78343504667282104 0.99341630935668945 0.73581475019454956
0.82975375652313232 0.99322128295898438 0.72318321466445923
0.88010221719741821 0.9928620457649231 0.71623003482818604
0.93164771795272827 0.99064099788665771 0.71058350801467896
0.013571540825068951 0.028195744380354881 0.074691012501716614
0.053168561309576035 0.027874890714883804 0.075312748551368713
0.12477405369281769 0.030132278800010681 0.075843900442123413
0.22058892250061035 0.024637753143906593 0.07487863302230835
0.32502266764640808 0.021576406434178352 0.067010186612606049
0.42938196659088135 0.03979714959859848 0.058598551899194717
0.53487521409988403 0.053423352539539337 0.052894994616508484
0.63392525911331177 0.072936788201332092 0.038863550871610641
0.71555370092391968 0.094878226518630981 0.029223408550024033
0.78587514162063599 0.11679823696613312 0.022057102993130684
0.85683584213256836 0.14886707067489624 0.012585434131324291
0.92829084396362305 0.1777411550283432 0.010169369168579578
0.98915231227874756 0.20044094324111938 0.012718933634459972
0.0030767703428864479 0.083030804991722107 0.083530992269515991
0.046721663326025009 0.086634136736392975 0.084565088152885437
0.13213355839252472 0.094308309257030487 0.080621831119060516
0.23143947124481201 0.098258614540100098 0.069670327007770538
0.33980607986450195 0.099480018019676208 0.060433287173509598
0.44710430502891541 0.11444433033466339 0.056038036942481995
0.55031341314315796 0.12834687530994415 0.04634426161646843
0.64303761720657349 0.14090761542320251 0.037167686969041824
0.72274649143218994 0.15554630756378174 0.032647285610437393
0.79305392503738403 0.17659783363342285 0.018708441406488419
0.86310911178588867 0.19733472168445587 0.016605975106358528
0.93262338638305664 0.21601210534572601 0.021245440468192101
0.99058908224105835 0.23850685358047485 0.02183481864631176
0.00035238827695138752 0.17556476593017578 0.1091967299580574
0.029199188575148582 0.17802494764328003 0.10658123344182968
0.1174396425485611 0.18280011415481567 0.095434702932834625
0.23775224387645721 0.19155554473400116 0.080023474991321564
0.35960686206817627 0.20197340846061707 0.06422126293182373
0.47378259897232056 0.21388983726501465 0.055787298828363419
0.57420921325683594 0.22486546635627747 0.04444904625415802
0.6593327522277832 0.232176274061203 0.038718730211257935
0.73446494340896606 0.23731160163879395 0.04060981422662735
0.80369925498962402 0.24763143062591553 0.027770368382334709
0.87231189012527466 0.25891700387001038 0.020848367363214493
0.93849939107894897 0.27024120092391968 0.019591551274061203
0.99174028635025024 0.28740802407264709 0.018665120005607605
0.00012637868348974735 0.29170477390289307 0.15072634816169739
0.015969235450029373 0.29303234815597534 0.14216534793376923
0.08629772812128067 0.29568579792976379 0.12953005731105804
0.22315739095211029 0.29871159791946411 0.11206313222646713
0.36951649188995361 0.30914542078971863 0.084505118429660797
0.49344733357429504 0.322214275598526 0.063455827534198761
0.59404987096786499 0.32810503244400024 0.050473697483539581
0.67435795068740845 0.32784059643745422 0.044231940060853958
0.74699163436889648 0.32581818103790283 0.043786786496639252
0.81508934497833252 0.32663461565971375 0.033391840755939484
0.88192617893218994 0.33108916878700256 0.017869912087917328
0.9448859691619873 0.33803719282150269 0.013808740302920341
0.9938543438911438 0.34943154454231262 0.0224941186606884
0.00066734763095155358 0.41843721270561218 0.19311629235744476
0.0076933465898036957 0.42230337858200073 0.18373590707778931
0.046198930591344833 0.42523092031478882 0.17998847365379333
0.18733705580234528 0.42356237769126892 0.16375453770160675
0.35666576027870178 0.42173826694488525 0.13452017307281494
0.48857685923576355 0.42127972841262817 0.10124234855175018
0.59375238418579102 0.42413514852523804 0.068577036261558533
0.67932409048080444 0.42415064573287964 0.04910004511475563
0.75400328636169434 0.41758033633232117 0.044800553470849991
0.82465982437133789 0.41280952095985413 0.036523062735795975
0.89179068803787231 0.4117094874382019 0.026959137991070747
0.95164555311203003 0.41424709558486938 0.025374738499522209
0.99517971277236938 0.42175725102424622 0.037312556058168411
0.0067188488319516182 0.5355604887008667 0.24092987179756165
0.0073813642375171185 0.54235303401947021 0.23505653440952301
0.037176620215177536 0.54409652948379517 0.23615457117557526
0.15562927722930908 0.5399433970451355 0.22805160284042358
0.31467354297637939 0.53126770257949829 0.2065618485212326
0.45668542385101318 0.5188259482383728 0.17392352223396301
0.57319772243499756 0.51402544975280762 0.1304379403591156
0.66858810186386108 0.5139695405960083 0.092581853270530701
0.75117373466491699 0.50944769382476807 0.066385932266712189
0.82797092199325562 0.50390774011611938 0.05184447392821312
0.89777857065200806 0.49891835451126099 0.048527780920267105
0.95522689819335938 0.49743330478668213 0.045517072081565857
0.99507564306259155 0.50145429372787476 0.049508530646562576
0.011156164109706879 0.63385248184204102 0.30113509297370911
0.01167590543627739 0.64135932922363281 0.30018147826194763
0.03604724258184433 0.64376389980316162 0.30133306980133057
0.12699557840824127 0.64066869020462036 0.29819378256797791
0.26618248224258423 0.63193756341934204 0.28442981839179993
0.4122556746006012 0.61768406629562378 0.25648921728134155
0.53859621286392212 0.60631448030471802 0.21666629612445831
0.64347392320632935 0.60092306137084961 0.17359472811222076
0.73531216382980347 0.59746956825256348 0.13285396993160248
0.81957411766052246 0.59345555305480957 0.10530896484851837
0.89431881904602051 0.58866590261459351 0.093093797564506531
0.95490330457687378 0.58561080694198608 0.084297344088554382
0.99490660429000854 0.58690929412841797 0.080127716064453125
0.029720650985836983 0.71946674585342407 0.36758872866630554
0.037776544690132141 0.7265700101852417 0.37004444003105164
0.063796743750572205 0.7294730544090271 0.37227335572242737
0.12968537211418152 0.72731035947799683 0.37124580144882202
0.24368005990982056 0.72028118371963501 0.36067473888397217
0.38279962539672852 0.70927804708480835 0.33720049262046814
0.50546908378601074 0.69722253084182739 0.30617040395736694
0.61091494560241699 0.68777227401733398 0.27001667022705078
0.70880389213562012 0.68181526660919189 0.23136074841022491
0.80159181356430054 0.67908966541290283 0.19693176448345184
0.88446331024169922 0.67634958028793335 0.17355531454086304
0.95457679033279419 0.67388266324996948 0.16635583341121674
0.99786794185638428 0.6733362078666687 0.16983151435852051
0.085672758519649506 0.79834717512130737 0.43537083268165588
0.099836535751819611 0.80367273092269897 0.44031000137329102
0.12830278277397156 0.80509293079376221 0.44468986988067627
0.17945656180381775 0.80354505777359009 0.44478094577789307
0.26786726713180542 0.79870527982711792 0.4371374249458313
0.38173085451126099 0.79093706607818604 0.42124861478805542
0.48844867944717407 0.78127086162567139 0.39890137314796448
0.58521503210067749 0.77120435237884521 0.37035346031188965
0.68092972040176392 0.76378870010375977 0.33698791265487671
0.77763044834136963 0.76089483499526978 0.30295190215110779
0.86898607015609741 0.75906294584274292 0.27701452374458313
0.94819974899291992 0.75816458463668823 0.26799577474594116
0.9976499080657959 0.75733262300491333 0.26992976665496826
0.17591328918933868 0.86763423681259155 0.50752413272857666
0.19707630574703217 0.87102770805358887 0.51387137174606323
0.22921882569789886 0.87107235193252563 0.51881974935531616
0.27347782254219055 0.86950027942657471 0.51978898048400879
0.33738422393798828 0.86624258756637573 0.51658874750137329
0.41729417443275452 0.8615715503692627 0.5082363486289978
0.49896743893623352 0.85580122470855713 0.49370786547660828
0.57981747388839722 0.84835195541381836 0.47130903601646423
0.66449850797653198 0.84150892496109009 0.44308692216873169
0.75449913740158081 0.83776992559432983 0.41373962163925171
0.84676128625869751 0.83636659383773804 0.38896432518959045
0.93263798952102661 0.83731257915496826 0.37279698252677917
0.99342000484466553 0.83578145503997803 0.36692911386489868
0.30813795328140259 0.92327111959457397 0.58977985382080078
0.32935991883277893 0.92566782236099243 0.59454488754272461
0.35861250758171082 0.92470258474349976 0.59775048494338989
0.39316520094871521 0.92336893081665039 0.59827315807342529
0.43570560216903687 0.92104649543762207 0.59861093759536743
0.48635536432266235 0.9190528392791748 0.59623926877975464
0.54243892431259155 0.91649150848388672 0.58765053749084473
0.60158950090408325 0.91266536712646484 0.57032006978988647
0.66704297065734863 0.90795260667800903 0.54795318841934204
0.74194765090942383 0.90436512231826782 0.52657967805862427
0.82556366920471191 0.90358453989028931 0.50545549392700195
0.91027539968490601 0.90403610467910767 0.48617428541183472
0.98219507932662964 0.90333414077758789 0.47296541929244995
0.46363800764083862 0.96758490800857544 0.67515748739242554
0.47940278053283691 0.96933287382125854 0.67839276790618896
0.49977362155914307 0.96618318557739258 0.67954355478286743
0.52245640754699707 0.96408730745315552 0.67984044551849365
0.54597669839859009 0.96319383382797241 0.68129962682723999
0.57511389255523682 0.96337205171585083 0.68286067247390747
0.61013823747634888 0.96272695064544678 0.67930507659912109
0.6486893892288208 0.96142804622650146 0.66723871231079102
0.69435745477676392 0.95994174480438232 0.65134382247924805
0.75216132402420044 0.95799440145492554 0.63852721452713013
0.81878143548965454 0.95650172233581543 0.62397176027297974
0.88891983032226562 0.95624786615371704 0.60963237285614014
0.95552217960357666 0.95399850606918335 0.597412109375
0.60694241523742676 0.99724996089935303 0.75370550155639648
0.61823326349258423 0.99748009443283081 0.75685197114944458
0.63072061538696289 0.99632686376571655 0.75785678625106812
0.64303416013717651 0.99426281452178955 0.75748592615127563
0.65258598327636719 0.99477499723434448 0.76001989841461182
0.66666281223297119 0.99550515413284302 0.76408261060714722
0.68722212314605713 0.99572741985321045 0.765281081199646
0.71212691068649292 0.99554717540740967 0.75965958833694458
0.74306958913803101 0.99546569585800171 0.75087785720825195
0.78306430578231812 0.99545443058013916 0.74236494302749634
0.83000308275222778 0.99531662464141846 0.73302322626113892
0.88106447458267212 0.9932207465171814 0.72527945041656494
0.93477344512939453 0.99162733554840088 0.71628141403198242
0.013455200009047985 0.024474874138832092 0.16852454841136932
0.061463702470064163 0.020841650664806366 0.16678349673748016
0.13948602974414825 0.019239043816924095 0.16592417657375336
0.23542758822441101 0.011811619624495506 0.16487684845924377
0.33694562315940857 0.0058401967398822308 0.15984375774860382
0.44067558646202087 0.01368478499352932 0.15473896265029907
0.54566127061843872 0.016255427151918411 0.14767822623252869
0.64133697748184204 0.019330641254782677 0.13423635065555573
0.71651726961135864 0.032115336507558823 0.1247580274939537
0.78345263004302979 0.059366427361965179 0.11408907175064087
0.85328644514083862 0.099793635308742523 0.101798415184021
0.92643177509307861 0.14248308539390564 0.094772994518280029
0.98932343721389771 0.17594540119171143 0.08987242728471756
0.0048656240105628967 0.089113034307956696 0.17404162883758545
0.050067197531461716 0.088243685662746429 0.1741824597120285
0.13785436749458313 0.089874327182769775 0.17212450504302979
0.23800277709960938 0.089735917747020721 0.16759185492992401
0.34555321931838989 0.082086808979511261 0.16170297563076019
0.45437169075012207 0.084335550665855408 0.15642306208610535
0.55686408281326294 0.081188037991523743 0.1456696093082428
0.64551061391830444 0.086105048656463623 0.13562500476837158
0.72130006551742554 0.10126803815364838 0.12269362062215805
0.78958296775817871 0.12892672419548035 0.10822767019271851
0.85879611968994141 0.16071516275405884 0.10372947156429291
0.9290318489074707 0.18974593281745911 0.10348466038703918
0.98930078744888306 0.21983061730861664 0.09909386932849884
0.0015460294671356678 0.18343374133110046 0.18629051744937897
0.035849105566740036 0.18328900635242462 0.18901340663433075
0.13164608180522919 0.18372386693954468 0.18448345363140106
0.24612855911254883 0.18921041488647461 0.17716033756732941
0.36353424191474915 0.18996050953865051 0.16918578743934631
0.4761279821395874 0.18818876147270203 0.15966273844242096
0.57580339908599854 0.18621350824832916 0.14512680470943451
0.65714943408966064 0.19872061908245087 0.13763436675071716
0.72929549217224121 0.20830570161342621 0.13034346699714661
0.7976110577583313 0.22046548128128052 0.11874011158943176
0.86718684434890747 0.23889361321926117 0.11447089910507202
0.93527305126190186 0.25444397330284119 0.10799859464168549
0.99077677726745605 0.27446633577346802 0.098125383257865906
0.0040388219058513641 0.29566124081611633 0.22196130454540253
0.054750792682170868 0.29547271132469177 0.22050777077674866
0.14275583624839783 0.29623803496360779 0.21436807513237
0.25061601400375366 0.30128201842308044 0.20361383259296417
0.37926283478736877 0.30537930130958557 0.18809346854686737
0.4965609610080719 0.30836746096611023 0.1711806058883667
0.59380561113357544 0.30816003680229187 0.15493957698345184
0.67204189300537109 0.30903097987174988 0.14718744158744812
0.7415158748626709 0.30916690826416016 0.14134612679481506
0.80767190456390381 0.31113952398300171 0.13254560530185699
0.87616568803787231 0.31914788484573364 0.12064149230718613
0.94182252883911133 0.32753121852874756 0.11162091791629791
0.99245226383209229 0.33902889490127563 0.11142386496067047
0.028566129505634308 0.41662466526031494 0.27173337340354919
0.074668869376182556 0.41960909962654114 0.26392003893852234
0.13700832426548004 0.42256003618240356 0.26168626546859741
0.23422920703887939 0.42576068639755249 0.25110030174255371
0.37072774767875671 0.4242326021194458 0.22954671084880829
0.49604576826095581 0.42107543349266052 0.20289675891399384
0.59758037328720093 0.41767081618309021 0.17682477831840515
0.68009114265441895 0.41202256083488464 0.16126623749732971
0.75177669525146484 0.40605145692825317 0.15240322053432465
0.81988441944122314 0.4023590087890625 0.14505018293857574
0.88694971799850464 0.40369638800621033 0.13536073267459869
