films/fuji_neopan_1600_3_+.cube
TITLE "data/luts/rawtherapee/HaldCLUT/Black-and-White/Fuji/Fuji Neopan 1600 3 +.png"
LUT_3D_SIZE 64
DOMAIN_MIN 0 0 0
DOMAIN_MAX 1 1 1
0.094118 0.094118 0.094118
0.094118 0.094118 0.094118
0.094118 0.094118 0.094118
0.094118 0.094118 0.094118
0.094118 0.094118 0.094118
0.094118 0.094118 0.094118
0.094118 0.094118 0.094118
0.094118 0.094118 0.094118
0.094118 0.094118 0.094118
0.094118 0.094118 0.094118
0.094118 0.094118 0.094118
0.094118 0.094118 0.094118
0.094118 0.094118 0.094118
0.096047 0.096047 0.096047
0.094989 0.094989 0.094989
0.098039 0.098039 0.098039
0.096794 0.096794 0.096794
0.098039 0.098039 0.098039
0.098599 0.098599 0.098599
0.101961 0.101961 0.101961
0.101961 0.101961 0.101961
0.100654 0.100654 0.100654
0.101961 0.101961 0.101961
0.105073 0.105073 0.105073
0.105882 0.105882 0.105882
0.108808 0.108808 0.108808
0.109866 0.109866 0.109866
0.114846 0.114846 0.114846
0.115904 0.115904 0.115904
0.121569 0.121569 0.121569
0.125864 0.125864 0.125864
0.130843 0.130843 0.130843
0.138313 0.138313 0.138313
0.144725 0.144725 0.144725
0.145783 0.145783 0.145783
0.154684 0.154684 0.154684
0.163585 0.163585 0.163585
0.172425 0.172425 0.172425
0.177467 0.177467 0.177467
0.186368 0.186368 0.186368
0.195269 0.195269 0.195269
0.204171 0.204171 0.204171
0.209150 0.209150 0.209150
0.221973 0.221973 0.221973
0.227451 0.227451 0.227451
0.235854 0.235854 0.235854
0.246374 0.246374 0.246374
0.253657 0.253657 0.253657
0.262745 0.262745 0.262745
0.275381 0.275381 0.275381
0.286275 0.286275 0.286275
0.297106 0.297106 0.297106
0.310053 0.310053 0.310053
0.322751 0.322751 0.322751
0.333894 0.333894 0.333894
0.348397 0.348397 0.348397
0.361656 0.361656 0.361656
0.379458 0.379458 0.379458
0.393340 0.393340 0.393340
0.411142 0.411142 0.411142
0.425023 0.425023 0.425023
0.446748 0.446748 0.446748
0.470277 0.470277 0.470277
0.509804 0.509804 0.509804
0.094118 0.094118 0.094118
0.094118 0.094118 0.094118
0.094118 0.094118 0.094118
0.094118 0.094118 0.094118
0.094202 0.094202 0.094202
0.096981 0.096981 0.096981
0.094773 0.094773 0.094773
0.094118 0.094118 0.094118
0.094118 0.094118 0.094118
0.094118 0.094118 0.094118
0.094118 0.094118 0.094118
0.095142 0.095142 0.095142
0.097787 0.097787 0.097787
0.095572 0.095572 0.095572
0.097168 0.097168 0.097168
0.095312 0.095312 0.095312
0.098039 0.098039 0.098039
0.098039 0.098039 0.098039
0.101401 0.101401 0.101401
0.101463 0.101463 0.101463
0.100234 0.100234 0.100234
0.103870 0.103870 0.103870
0.105882 0.105882 0.105882
0.105882 0.105882 0.105882
0.106386 0.106386 0.106386
0.110593 0.110593 0.110593
0.112701 0.112701 0.112701
0.116891 0.116891 0.116891
0.118235 0.118235 0.118235
0.123932 0.123932 0.123932
0.126821 0.126821 0.126821
0.133720 0.133720 0.133720
0.139745 0.139745 0.139745
0.142134 0.142134 0.142134
0.149704 0.149704 0.149704
0.155272 0.155272 0.155272
0.164341 0.164341 0.164341
0.172487 0.172487 0.172487
0.181119 0.181119 0.181119
0.189735 0.189735 0.189735
0.197760 0.197760 0.197760
0.205229 0.205229 0.205229
0.213072 0.213072 0.213072
0.221973 0.221973 0.221973
0.230511 0.230511 0.230511
0.239367 0.239367 0.239367
0.245814 0.245814 0.245814
0.257579 0.257579 0.257579
0.270215 0.270215 0.270215
0.276204 0.276204 0.276204
0.288725 0.288725 0.288725
0.298164 0.298164 0.298164
0.310053 0.310053 0.310053
0.323490 0.323490 0.323490
0.337815 0.337815 0.337815
0.351864 0.351864 0.351864
0.365142 0.365142 0.365142
0.379458 0.379458 0.379458
0.394709 0.394709 0.394709
0.411142 0.411142 0.411142
0.428945 0.428945 0.428945
0.448066 0.448066 0.448066
0.471335 0.471335 0.471335
0.509804 0.509804 0.509804
0.094118 0.094118 0.094118
0.095663 0.095663 0.095663
0.094118 0.094118 0.094118
0.094118 0.094118 0.094118
0.095780 0.095780 0.095780
0.095292 0.095292 0.095292
0.094924 0.094924 0.094924
0.095722 0.095722 0.095722
0.097753 0.097753 0.097753
0.096830 0.096830 0.096830
0.094662 0.094662 0.094662
0.097915 0.097915 0.097915
0.095997 0.095997 0.095997
0.096998 0.096998 0.096998
0.095764 0.095764 0.095764
0.098140 0.098140 0.098140
0.098039 0.098039 0.098039
0.099282 0.099282 0.099282
0.101703 0.101703 0.101703
0.100385 0.100385 0.100385
0.101961 0.101961 0.101961
0.101961 0.101961 0.101961
0.104057 0.104057 0.104057
0.106319 0.106319 0.106319
0.109804 0.109804 0.109804
0.111151 0.111151 0.111151
0.113754 0.113754 0.113754
0.118252 0.118252 0.118252
0.120766 0.120766 0.120766
0.124805 0.124805 0.124805
0.129785 0.129785 0.129785
0.135450 0.135450 0.135450
0.139745 0.139745 0.139745
0.147013 0.147013 0.147013
0.153256 0.153256 0.153256
0.158606 0.158606 0.158606
0.167507 0.167507 0.167507
0.174603 0.174603 0.174603
0.181388 0.181388 0.181388
0.191297 0.191297 0.191297
0.200870 0.200870 0.200870
0.208092 0.208092 0.208092
0.214275 0.214275 0.214275
0.224339 0.224339 0.224339
0.230875 0.230875 0.230875
0.239776 0.239776 0.239776
0.249737 0.249737 0.249737
0.260927 0.260927 0.260927
0.268386 0.268386 0.268386
0.277899 0.277899 0.277899
0.289279 0.289279 0.289279
0.301027 0.301027 0.301027
0.313850 0.313850 0.313850
0.326050 0.326050 0.326050
0.340705 0.340705 0.340705
0.351983 0.351983 0.351983
0.365577 0.365577 0.365577
0.382692 0.382692 0.382692
0.397261 0.397261 0.397261
0.413402 0.413402 0.413402
0.429289 0.429289 0.429289
0.449527 0.449527 0.449527
0.472881 0.472881 0.472881
0.509804 0.509804 0.509804
0.094118 0.094118 0.094118
0.095520 0.095520 0.095520
0.094118 0.094118 0.094118
0.094118 0.094118 0.094118
0.094805 0.094805 0.094805
0.094378 0.094378 0.094378
0.094118 0.094118 0.094118
0.094118 0.094118 0.094118
0.096907 0.096907 0.096907
0.097292 0.097292 0.097292
0.095822 0.095822 0.095822
0.094865 0.094865 0.094865
0.097283 0.097283 0.097283
0.097660 0.097660 0.097660
0.098039 0.098039 0.098039
0.098039 0.098039 0.098039
0.098276 0.098276 0.098276
0.101214 0.101214 0.101214
0.100760 0.100760 0.100760
0.101961 0.101961 0.101961
0.102708 0.102708 0.102708
0.103019 0.103019 0.103019
0.108855 0.108855 0.108855
0.105882 0.105882 0.105882
0.109804 0.109804 0.109804
0.113536 0.113536 0.113536
0.117647 0.117647 0.117647
0.120822 0.120822 0.120822
0.121569 0.121569 0.121569
0.128727 0.128727 0.128727
0.132658 0.132658 0.132658
0.137255 0.137255 0.137255
0.143192 0.143192 0.143192
0.148948 0.148948 0.148948
0.153626 0.153626 0.153626
0.160017 0.160017 0.160017
0.168414 0.168414 0.168414
0.176408 0.176408 0.176408
0.185120 0.185120 0.185120
0.193464 0.193464 0.193464
0.202520 0.202520 0.202520
0.208092 0.208092 0.208092
0.218052 0.218052 0.218052
0.225444 0.225444 0.225444
0.234049 0.234049 0.234049
0.243057 0.243057 0.243057
0.252160 0.252160 0.252160
0.261500 0.261500 0.261500
0.273389 0.273389 0.273389
0.279469 0.279469 0.279469
0.293688 0.293688 0.293688
0.301596 0.301596 0.301596
0.313951 0.313951 0.313951
0.327856 0.327856 0.327856
0.339496 0.339496 0.339496
0.352829 0.352829 0.352829
0.365577 0.365577 0.365577
0.382171 0.382171 0.382171
0.398370 0.398370 0.398370
0.414376 0.414376 0.414376
0.429087 0.429087 0.429087
0.448209 0.448209 0.448209
0.472393 0.472393 0.472393
0.509804 0.509804 0.509804
0.094118 0.094118 0.094118
0.094345 0.094345 0.094345
0.094118 0.094118 0.094118
0.094118 0.094118 0.094118
0.094118 0.094118 0.094118
0.094429 0.094429 0.094429
0.094236 0.094236 0.094236
0.094519 0.094519 0.094519
0.097990 0.097990 0.097990
0.094295 0.094295 0.094295
0.098039 0.098039 0.098039
0.098039 0.098039 0.098039
0.098039 0.098039 0.098039
0.098197 0.098197 0.098197
0.098039 0.098039 0.098039
0.098039 0.098039 0.098039
0.098350 0.098350 0.098350
0.099840 0.099840 0.099840
0.102228 0.102228 0.102228
0.102691 0.102691 0.102691
0.103517 0.103517 0.103517
0.104886 0.104886 0.104886
0.106194 0.106194 0.106194
0.109868 0.109868 0.109868
0.111834 0.111834 0.111834
0.116651 0.116651 0.116651
0.121200 0.121200 0.121200
0.121880 0.121880 0.121880
0.125891 0.125891 0.125891
0.132649 0.132649 0.132649
0.137285 0.137285 0.137285
0.141176 0.141176 0.141176
0.146270 0.146270 0.146270
0.152568 0.152568 0.152568
0.157547 0.157547 0.157547
0.162838 0.162838 0.162838
0.174096 0.174096 0.174096
0.180335 0.180335 0.180335
0.189231 0.189231 0.189231
0.196413 0.196413 0.196413
0.203359 0.203359 0.203359
0.212014 0.212014 0.212014
0.218508 0.218508 0.218508
0.227639 0.227639 0.227639
0.235526 0.235526 0.235526
0.244480 0.244480 0.244480
0.254089 0.254089 0.254089
0.264063 0.264063 0.264063
0.274308 0.274308 0.274308
0.283224 0.283224 0.283224
0.294055 0.294055 0.294055
0.304089 0.304089 0.304089
0.317772 0.317772 0.317772
0.328073 0.328073 0.328073
0.343417 0.343417 0.343417
0.355667 0.355667 0.355667
0.369340 0.369340 0.369340
0.383499 0.383499 0.383499
0.397370 0.397370 0.397370
0.415064 0.415064 0.415064
0.429197 0.429197 0.429197
0.450812 0.450812 0.450812
0.475257 0.475257 0.475257
0.513725 0.513725 0.513725
0.094118 0.094118 0.094118
0.095118 0.095118 0.095118
0.094118 0.094118 0.094118
0.095226 0.095226 0.095226
0.094429 0.094429 0.094429
0.096378 0.096378 0.096378
0.097067 0.097067 0.097067
0.095487 0.095487 0.095487
0.094335 0.094335 0.094335
0.098039 0.098039 0.098039
0.098039 0.098039 0.098039
0.100554 0.100554 0.100554
0.101027 0.101027 0.101027
0.098735 0.098735 0.098735
0.101089 0.101089 0.101089
0.100657 0.100657 0.100657
0.101961 0.101961 0.101961
0.102765 0.102765 0.102765
0.104148 0.104148 0.104148
0.105558 0.105558 0.105558
0.107252 0.107252 0.107252
0.107252 0.107252 0.107252
0.109804 0.109804 0.109804
0.111983 0.111983 0.111983
0.113725 0.113725 0.113725
0.116999 0.116999 0.116999
0.119057 0.119057 0.119057
0.123667 0.123667 0.123667
0.129038 0.129038 0.129038
0.134703 0.134703 0.134703
0.138998 0.138998 0.138998
0.144847 0.144847 0.144847
0.149889 0.149889 0.149889
0.154068 0.154068 0.154068
0.161023 0.161023 0.161023
0.168579 0.168579 0.168579
0.176720 0.176720 0.176720
0.184233 0.184233 0.184233
0.190601 0.190601 0.190601
0.200219 0.200219 0.200219
0.206378 0.206378 0.206378
0.217305 0.217305 0.217305
0.223654 0.223654 0.223654
0.231729 0.231729 0.231729
0.237859 0.237859 0.237859
0.248988 0.248988 0.248988
0.256391 0.256391 0.256391
0.267226 0.267226 0.267226
0.275692 0.275692 0.275692
0.285963 0.285963 0.285963
0.296816 0.296816 0.296816
0.307361 0.307361 0.307361
0.319184 0.319184 0.319184
0.333333 0.333333 0.333333
0.344476 0.344476 0.344476
0.358762 0.358762 0.358762
0.369686 0.369686 0.369686
0.383567 0.383567 0.383567
0.397926 0.397926 0.397926
0.412698 0.412698 0.412698
0.427949 0.427949 0.427949
0.448498 0.448498 0.448498
0.466924 0.466924 0.466924
0.494865 0.494865 0.494865
0.095612 0.095612 0.095612
0.094118 0.094118 0.094118
0.095923 0.095923 0.095923
0.096083 0.096083 0.096083
0.095686 0.095686 0.095686
0.096670 0.096670 0.096670
0.097470 0.097470 0.097470
0.095715 0.095715 0.095715
0.096782 0.096782 0.096782
0.099080 0.099080 0.099080
0.098039 0.098039 0.098039
0.098039 0.098039 0.098039
0.101383 0.101383 0.101383
0.101961 0.101961 0.101961
0.101961 0.101961 0.101961
0.102076 0.102076 0.102076
0.103206 0.103206 0.103206
0.105005 0.105005 0.105005
0.107750 0.107750 0.107750
0.106191 0.106191 0.106191
0.109804 0.109804 0.109804
0.110613 0.110613 0.110613
0.113725 0.113725 0.113725
0.114535 0.114535 0.114535
0.117647 0.117647 0.117647
0.122763 0.122763 0.122763
0.124059 0.124059 0.124059
0.128345 0.128345 0.128345
0.134682 0.134682 0.134682
0.140492 0.140492 0.140492
0.141550 0.141550 0.141550
0.148071 0.148071 0.148071
0.153344 0.153344 0.153344
0.160642 0.160642 0.160642
0.167818 0.167818 0.167818
0.174292 0.174292 0.174292
0.183887 0.183887 0.183887
0.190601 0.190601 0.190601
0.197074 0.197074 0.197074
0.207132 0.207132 0.207132
0.214877 0.214877 0.214877
0.222379 0.222379 0.222379
0.231186 0.231186 0.231186
0.239717 0.239717 0.239717
0.246561 0.246561 0.246561
0.254315 0.254315 0.254315
0.264364 0.264364 0.264364
0.273265 0.273265 0.273265
0.284478 0.284478 0.284478
0.294989 0.294989 0.294989
0.303132 0.303132 0.303132
0.315219 0.315219 0.315219
0.325662 0.325662 0.325662
0.339170 0.339170 0.339170
0.352648 0.352648 0.352648
0.365340 0.365340 0.365340
0.378836 0.378836 0.378836
0.393651 0.393651 0.393651
0.410606 0.410606 0.410606
0.426829 0.426829 0.426829
0.444631 0.444631 0.444631
0.462745 0.462745 0.462745
0.487300 0.487300 0.487300
0.525490 0.525490 0.525490
0.097603 0.097603 0.097603
0.095058 0.095058 0.095058
0.096234 0.096234 0.096234
0.097603 0.097603 0.097603
0.097638 0.097638 0.097638
0.095618 0.095618 0.095618
0.098039 0.098039 0.098039
0.097991 0.097991 0.097991
0.098039 0.098039 0.098039
0.098039 0.098039 0.098039
0.098475 0.098475 0.098475
0.101850 0.101850 0.101850
0.101961 0.101961 0.101961
0.101961 0.101961 0.101961
0.104769 0.104769 0.104769
0.105882 0.105882 0.105882
0.105882 0.105882 0.105882
0.105882 0.105882 0.105882
0.106256 0.106256 0.106256
0.109804 0.109804 0.109804
0.111187 0.111187 0.111187
0.113580 0.113580 0.113580
0.113947 0.113947 0.113947
0.117301 0.117301 0.117301
0.121340 0.121340 0.121340
0.125054 0.125054 0.125054
0.132842 0.132842 0.132842
0.134143 0.134143 0.134143
0.140741 0.140741 0.140741
0.144054 0.144054 0.144054
0.148625 0.148625 0.148625
0.153937 0.153937 0.153937
0.159076 0.159076 0.159076
0.167818 0.167818 0.167818
0.172874 0.172874 0.172874
0.181941 0.181941 0.181941
0.186990 0.186990 0.186990
0.195587 0.195587 0.195587
0.203707 0.203707 0.203707
0.213383 0.213383 0.213383
0.221565 0.221565 0.221565
0.227700 0.227700 0.227700
0.232825 0.232825 0.232825
0.242964 0.242964 0.242964
0.250482 0.250482 0.250482
0.258948 0.258948 0.258948
0.268285 0.268285 0.268285
0.279427 0.279427 0.279427
0.289387 0.289387 0.289387
0.294989 0.294989 0.294989
0.307598 0.307598 0.307598
0.317045 0.317045 0.317045
0.329536 0.329536 0.329536
0.342055 0.342055 0.342055
0.357174 0.357174 0.357174
0.371235 0.371235 0.371235
0.381651 0.381651 0.381651
0.398631 0.398631 0.398631
0.414165 0.414165 0.414165
0.430349 0.430349 0.430349
0.448117 0.448117 0.448117
0.466355 0.466355 0.466355
0.490825 0.490825 0.490825
0.532462 0.532462 0.532462
0.094118 0.094118 0.094118
0.096694 0.096694 0.096694
0.094404 0.094404 0.094404
0.094622 0.094622 0.094622
0.095002 0.095002 0.095002
0.098039 0.098039 0.098039
0.098039 0.098039 0.098039
0.098108 0.098108 0.098108
0.098662 0.098662 0.098662
0.098039 0.098039 0.098039
0.100966 0.100966 0.100966
0.101961 0.101961 0.101961
0.105097 0.105097 0.105097
0.104259 0.104259 0.104259
0.106366 0.106366 0.106366
0.109211 0.109211 0.109211
0.107552 0.107552 0.107552
0.112107 0.112107 0.112107
0.113725 0.113725 0.113725
0.114269 0.114269 0.114269
0.117894 0.117894 0.117894
0.120261 0.120261 0.120261
0.121569 0.121569 0.121569
0.125984 0.125984 0.125984
0.126409 0.126409 0.126409
0.132495 0.132495 0.132495
0.137877 0.137877 0.137877
0.139442 0.139442 0.139442
0.143632 0.143632 0.143632
0.149533 0.149533 0.149533
0.156608 0.156608 0.156608
0.158690 0.158690 0.158690
0.163897 0.163897 0.163897
0.172798 0.172798 0.172798
0.180501 0.180501 0.180501
0.186679 0.186679 0.186679
0.195136 0.195136 0.195136
0.200622 0.200622 0.200622
0.209462 0.209462 0.209462
0.218363 0.218363 0.218363
0.226770 0.226770 0.226770
0.232244 0.232244 0.232244
0.240938 0.240938 0.240938
0.247681 0.247681 0.247681
0.255445 0.255445 0.255445
0.266133 0.266133 0.266133
0.273825 0.273825 0.273825
0.281730 0.281730 0.281730
0.290632 0.290632 0.290632
0.302832 0.302832 0.302832
0.313979 0.313979 0.313979
0.321257 0.321257 0.321257
0.334080 0.334080 0.334080
0.347463 0.347463 0.347463
0.361611 0.361611 0.361611
0.375324 0.375324 0.375324
0.388740 0.388740 0.388740
0.403373 0.403373 0.403373
0.417491 0.417491 0.417491
0.434672 0.434672 0.434672
0.449175 0.449175 0.449175
0.470564 0.470564 0.470564
0.494865 0.494865 0.494865
0.533333 0.533333 0.533333
0.098039 0.098039 0.098039
0.098039 0.098039 0.098039
0.097008 0.097008 0.097008
0.098039 0.098039 0.098039
0.098039 0.098039 0.098039
0.098039 0.098039 0.098039
0.098039 0.098039 0.098039
0.100031 0.100031 0.100031
0.098395 0.098395 0.098395
0.101240 0.101240 0.101240
0.101961 0.101961 0.101961
0.104131 0.104131 0.104131
0.105349 0.105349 0.105349
0.106709 0.106709 0.106709
0.105882 0.105882 0.105882
0.107670 0.107670 0.107670
0.111867 0.111867 0.111867
0.113725 0.113725 0.113725
0.115406 0.115406 0.115406
0.121284 0.121284 0.121284
0.123249 0.123249 0.123249
0.124370 0.124370 0.124370
0.127171 0.127171 0.127171
0.131555 0.131555 0.131555
0.135014 0.135014 0.135014
0.138366 0.138366 0.138366
0.142857 0.142857 0.142857
0.146779 0.146779 0.146779
0.151945 0.151945 0.151945
0.157859 0.157859 0.157859
0.160944 0.160944 0.160944
0.166138 0.166138 0.166138
0.172798 0.172798 0.172798
0.179672 0.179672 0.179672
0.186679 0.186679 0.186679
0.192904 0.192904 0.192904
0.202801 0.202801 0.202801
0.207808 0.207808 0.207808
0.214441 0.214441 0.214441
0.223343 0.223343 0.223343
0.232244 0.232244 0.232244
0.239322 0.239322 0.239322
0.245565 0.245565 0.245565
0.254013 0.254013 0.254013
0.260006 0.260006 0.260006
0.268908 0.268908 0.268908
0.277809 0.277809 0.277809
0.287422 0.287422 0.287422
0.295718 0.295718 0.295718
0.308434 0.308434 0.308434
0.317620 0.317620 0.317620
0.327945 0.327945 0.327945
0.339185 0.339185 0.339185
0.354124 0.354124 0.354124
0.366947 0.366947 0.366947
0.380828 0.380828 0.380828
0.394709 0.394709 0.394709
0.407950 0.407950 0.407950
0.423254 0.423254 0.423254
0.438727 0.438727 0.438727
0.455969 0.455969 0.455969
0.474972 0.474972 0.474972
0.498786 0.498786 0.498786
0.537255 0.537255 0.537255
0.098039 0.098039 0.098039
0.098039 0.098039 0.098039
0.099517 0.099517 0.099517
0.098039 0.098039 0.098039
0.098257 0.098257 0.098257
0.098809 0.098809 0.098809
0.099533 0.099533 0.099533
0.100474 0.100474 0.100474
0.100966 0.100966 0.100966
0.101961 0.101961 0.101961
0.104700 0.104700 0.104700
0.104613 0.104613 0.104613
0.105882 0.105882 0.105882
0.109203 0.109203 0.109203
0.110150 0.110150 0.110150
0.112599 0.112599 0.112599
0.114595 0.114595 0.114595
0.117647 0.117647 0.117647
0.121008 0.121008 0.121008
0.124458 0.124458 0.124458
0.128229 0.128229 0.128229
0.132151 0.132151 0.132151
0.136072 0.136072 0.136072
0.136881 0.136881 0.136881
0.140557 0.140557 0.140557
0.144798 0.144798 0.144798
0.149063 0.149063 0.149063
0.153724 0.153724 0.153724
0.156337 0.156337 0.156337
0.161263 0.161263 0.161263
0.167445 0.167445 0.167445
0.172798 0.172798 0.172798
0.180948 0.180948 0.180948
0.189270 0.189270 0.189270
0.195580 0.195580 0.195580
0.202082 0.202082 0.202082
0.209799 0.209799 0.209799
0.215668 0.215668 0.215668
0.223343 0.223343 0.223343
0.230809 0.230809 0.230809
0.238972 0.238972 0.238972
0.246125 0.246125 0.246125
0.252288 0.252288 0.252288
0.259068 0.259068 0.259068
0.268908 0.268908 0.268908
0.275070 0.275070 0.275070
0.283971 0.283971 0.283971
0.294742 0.294742 0.294742
0.301774 0.301774 0.301774
0.310938 0.310938 0.310938
0.322316 0.322316 0.322316
0.334486 0.334486 0.334486
0.345309 0.345309 0.345309
0.356133 0.356133 0.356133
0.370361 0.370361 0.370361
0.383069 0.383069 0.383069
0.396646 0.396646 0.396646
0.408374 0.408374 0.408374
0.423699 0.423699 0.423699
0.439776 0.439776 0.439776
0.453135 0.453135 0.453135
0.473187 0.473187 0.473187
0.491752 0.491752 0.491752
0.516527 0.516527 0.516527
0.101961 0.101961 0.101961
0.100845 0.100845 0.100845
0.100146 0.100146 0.100146
0.101113 0.101113 0.101113
0.101961 0.101961 0.101961
0.100591 0.100591 0.100591
0.101961 0.101961 0.101961
0.101961 0.101961 0.101961
0.102066 0.102066 0.102066
0.105811 0.105811 0.105811
0.105845 0.105845 0.105845
0.105882 0.105882 0.105882
0.106881 0.106881 0.106881
0.111733 0.111733 0.111733
0.113725 0.113725 0.113725
0.117528 0.117528 0.117528
0.117687 0.117687 0.117687
0.121569 0.121569 0.121569
0.125472 0.125472 0.125472
0.129303 0.129303 0.129303
0.133258 0.133258 0.133258
0.138479 0.138479 0.138479
0.144725 0.144725 0.144725
0.148796 0.148796 0.148796
0.150768 0.150768 0.150768
0.152817 0.152817 0.152817
0.156923 0.156923 0.156923
0.164492 0.164492 0.164492
0.166815 0.166815 0.166815
0.171740 0.171740 0.171740
0.177081 0.177081 0.177081
0.184235 0.184235 0.184235
0.190601 0.190601 0.190601
0.199502 0.199502 0.199502
0.204585 0.204585 0.204585
0.211696 0.211696 0.211696
0.219448 0.219448 0.219448
0.227142 0.227142 0.227142
0.235170 0.235170 0.235170
0.241145 0.241145 0.241145
0.246934 0.246934 0.246934
0.255034 0.255034 0.255034
0.263928 0.263928 0.263928
0.272829 0.272829 0.272829
0.281232 0.281232 0.281232
0.286710 0.286710 0.286710
0.295612 0.295612 0.295612
0.304513 0.304513 0.304513
0.313414 0.313414 0.313414
0.326237 0.326237 0.326237
0.333270 0.333270 0.333270
0.347028 0.347028 0.347028
0.356863 0.356863 0.356863
0.369636 0.369636 0.369636
0.382509 0.382509 0.382509
0.397923 0.397923 0.397923
0.408715 0.408715 0.408715
0.426345 0.426345 0.426345
0.440398 0.440398 0.440398
0.454466 0.454466 0.454466
0.475879 0.475879 0.475879
0.493682 0.493682 0.493682
0.517211 0.517211 0.517211
0.556738 0.556738 0.556738
0.101961 0.101961 0.101961
0.102213 0.102213 0.102213
0.101961 0.101961 0.101961
0.101961 0.101961 0.101961
0.102035 0.102035 0.102035
0.101961 0.101961 0.101961
0.102316 0.102316 0.102316
0.103226 0.103226 0.103226
0.105882 0.105882 0.105882
0.106283 0.106283 0.106283
0.106164 0.106164 0.106164
0.106881 0.106881 0.106881
0.110026 0.110026 0.110026
0.112208 0.112208 0.112208
0.116049 0.116049 0.116049
0.121569 0.121569 0.121569
0.123451 0.123451 0.123451
0.126424 0.126424 0.126424
0.129785 0.129785 0.129785
0.134765 0.134765 0.134765
0.138811 0.138811 0.138811
0.144725 0.144725 0.144725
0.149894 0.149894 0.149894
0.157055 0.157055 0.157055
0.161229 0.161229 0.161229
0.164644 0.164644 0.164644
0.165702 0.165702 0.165702
0.170682 0.170682 0.170682
0.179583 0.179583 0.179583
0.183792 0.183792 0.183792
0.190387 0.190387 0.190387
0.194522 0.194522 0.194522
0.202674 0.202674 0.202674
0.208777 0.208777 0.208777
0.214154 0.214154 0.214154
0.222284 0.222284 0.222284
0.229052 0.229052 0.229052
0.236213 0.236213 0.236213
0.241382 0.241382 0.241382
0.251914 0.251914 0.251914
0.258948 0.258948 0.258948
0.267600 0.267600 0.267600
0.272829 0.272829 0.272829
0.280797 0.280797 0.280797
0.286710 0.286710 0.286710
0.293051 0.293051 0.293051
0.304513 0.304513 0.304513
0.312777 0.312777 0.312777
0.322316 0.322316 0.322316
0.331881 0.331881 0.331881
0.342048 0.342048 0.342048
0.352941 0.352941 0.352941
0.365734 0.365734 0.365734
0.377653 0.377653 0.377653
0.389302 0.389302 0.389302
0.402825 0.402825 0.402825
0.417388 0.417388 0.417388
0.431373 0.431373 0.431373
0.447231 0.447231 0.447231
0.465807 0.465807 0.465807
0.480681 0.480681 0.480681
0.498662 0.498662 0.498662
0.523931 0.523931 0.523931
0.564706 0.564706 0.564706
0.103890 0.103890 0.103890
0.105345 0.105345 0.105345
0.104994 0.104994 0.104994
0.104320 0.104320 0.104320
0.105729 0.105729 0.105729
0.104627 0.104627 0.104627
0.105882 0.105882 0.105882
0.107653 0.107653 0.107653
0.107558 0.107558 0.107558
0.108977 0.108977 0.108977
0.109804 0.109804 0.109804
0.113601 0.113601 0.113601
0.110738 0.110738 0.110738
0.113725 0.113725 0.113725
0.119196 0.119196 0.119196
0.121755 0.121755 0.121755
0.129412 0.129412 0.129412
0.132537 0.132537 0.132537
0.138687 0.138687 0.138687
0.139492 0.139492 0.139492
0.145926 0.145926 0.145926
0.151634 0.151634 0.151634
0.156799 0.156799 0.156799
0.161195 0.161195 0.161195
0.167522 0.167522 0.167522
0.174541 0.174541 0.174541
0.178462 0.178462 0.178462
0.184376 0.184376 0.184376
0.190476 0.190476 0.190476
0.197386 0.197386 0.197386
0.200620 0.200620 0.200620
0.207345 0.207345 0.207345
0.213757 0.213757 0.213757
0.219424 0.219424 0.219424
0.226206 0.226206 0.226206
0.232043 0.232043 0.232043
0.240087 0.240087 0.240087
0.247028 0.247028 0.247028
0.253462 0.253462 0.253462
0.260815 0.260815 0.260815
0.266318 0.266318 0.266318
0.272829 0.272829 0.272829
0.281067 0.281067 0.281067
0.286710 0.286710 0.286710
0.295865 0.295865 0.295865
0.304237 0.304237 0.304237
0.311796 0.311796 0.311796
0.322316 0.322316 0.322316
0.331217 0.331217 0.331217
0.340118 0.340118 0.340118
0.350000 0.350000 0.350000
