films/fuji_provia_400x.cube
# Created by: G'MIC (https://gmic.eu)
TITLE "fuji_provia_400x"
# LUT size
LUT_3D_SIZE 13
# Data domain
DOMAIN_MIN 0.0 0.0 0.0
DOMAIN_MAX 1.0 1.0 1.0
# LUT data points
0.042435485869646072 0.037456363439559937 0.034913424402475357
0.12013088911771774 0.036898024380207062 0.033486369997262955
0.20231230556964874 0.037181615829467773 0.033735103905200958
0.28813308477401733 0.035600040107965469 0.035078730434179306
0.38107460737228394 0.033272087574005127 0.037083763629198074
0.48061057925224304 0.03382478654384613 0.036791469901800156
0.58262556791305542 0.035059507936239243 0.033520225435495377
0.68223422765731812 0.033330477774143219 0.027046607807278633
0.77523410320281982 0.028045818209648132 0.019104123115539551
0.86059683561325073 0.021919803693890572 0.010432658717036247
0.93618887662887573 0.0204123854637146 0.0031516430899500847
0.99045222997665405 0.022474745288491249 0.00012673770834226161
1 0.026267781853675842 0
0.063945993781089783 0.11907970905303955 0.058478530496358871
0.12318481504917145 0.11911530047655106 0.055173628032207489
0.19962744414806366 0.1157156229019165 0.053631339222192764
0.28632700443267822 0.11096081882715225 0.05244692787528038
0.3817175030708313 0.10560275614261627 0.05482107400894165
0.48429217934608459 0.10205625742673874 0.055988896638154984
0.58971279859542847 0.098587855696678162 0.053423773497343063
0.69192206859588623 0.092221245169639587 0.047234896570444107
0.7868647575378418 0.081541530787944794 0.038457520306110382
0.87335526943206787 0.069107890129089355 0.027266243472695351
0.94882893562316895 0.062330387532711029 0.014053554274141788
0.99510031938552856 0.064097851514816284 0.0038126029539853334
1 0.069888077676296234 0.00036980124423280358
0.08877977728843689 0.20058204233646393 0.084186702966690063
0.13493284583091736 0.20016868412494659 0.082032792270183563
0.20180018246173859 0.19727422297000885 0.080219760537147522
0.28608003258705139 0.19248402118682861 0.077951647341251373
0.38256484270095825 0.18687449395656586 0.077782712876796722
0.48797032237052917 0.18073742091655731 0.07835368812084198
0.59708529710769653 0.1738644540309906 0.0761384516954422
0.70191735029220581 0.16481767594814301 0.069336146116256714
0.79838544130325317 0.15174007415771484 0.059307560324668884
0.88634556531906128 0.1363203227519989 0.047229256480932236
0.96055847406387329 0.12499444931745529 0.032828252762556076
0.99760180711746216 0.12386970967054367 0.017809608951210976
1 0.12887828052043915 0.0069745681248605251
0.090794928371906281 0.28674161434173584 0.108185775578022
0.12987171113491058 0.28598931431770325 0.10739456117153168
0.19416943192481995 0.28290620446205139 0.10723941028118134
0.28154966235160828 0.27941831946372986 0.10495750606060028
0.38225942850112915 0.27500763535499573 0.10174386948347092
0.49157655239105225 0.26849716901779175 0.10067110508680344
0.60490000247955322 0.26025906205177307 0.098610460758209229
0.71162378787994385 0.25133383274078369 0.090934604406356812
0.80853015184402466 0.23936299979686737 0.079753667116165161
0.89393043518066406 0.22507141530513763 0.06696898490190506
0.95998603105545044 0.21265903115272522 0.052562251687049866
0.99514025449752808 0.20546187460422516 0.037776123732328415
1 0.20440812408924103 0.023626260459423065
0.062480088323354721 0.37966045737266541 0.12781862914562225
0.10662999004125595 0.37825724482536316 0.12780283391475677
0.17716467380523682 0.37500089406967163 0.12813103199005127
0.27307596802711487 0.37291240692138672 0.12603425979614258
0.38274261355400085 0.37014859914779663 0.12187816947698593
0.49758371710777283 0.3641207218170166 0.11845657974481583
0.61232620477676392 0.35651135444641113 0.11428596824407578
0.71966052055358887 0.34835910797119141 0.10718678683042526
0.81639736890792847 0.33858135342597961 0.097394399344921112
0.89948171377182007 0.32706233859062195 0.085515581071376801
0.96044498682022095 0.31534963846206665 0.071163982152938843
0.99158966541290283 0.30391040444374084 0.055834438651800156
0.99965167045593262 0.29623502492904663 0.040736313909292221
0.032258052378892899 0.47349387407302856 0.14402928948402405
0.083594337105751038 0.47143846750259399 0.14284303784370422
0.16041997075080872 0.46915397047996521 0.14229010045528412
0.26286652684211731 0.46875384449958801 0.1407618373632431
0.38067254424095154 0.46696436405181885 0.13715118169784546
0.50267040729522705 0.46090918779373169 0.13116279244422913
0.61967575550079346 0.45380315184593201 0.12512850761413574
0.72711211442947388 0.44744756817817688 0.11918580532073975
0.82306587696075439 0.44004607200622559 0.11222147941589355
0.90579521656036377 0.4314734935760498 0.10138121992349625
0.965565025806427 0.42202866077423096 0.086860015988349915
0.99363690614700317 0.41117870807647705 0.070336587727069855
0.9998856782913208 0.40189829468727112 0.053522221744060516
0.013516190461814404 0.56015843152999878 0.15228292346000671
0.067063756287097931 0.55772382020950317 0.15139514207839966
0.14611577987670898 0.55597877502441406 0.15014712512493134
0.25192517042160034 0.55622440576553345 0.1486547440290451
0.37719625234603882 0.55566692352294922 0.14544613659381866
0.50783777236938477 0.54962873458862305 0.13698786497116089
0.62882018089294434 0.54370886087417603 0.13051675260066986
0.73584377765655518 0.53920441865921021 0.12762561440467834
0.83034533262252808 0.5351148247718811 0.12449294328689575
0.91224658489227295 0.52823126316070557 0.11444394290447235
0.97042578458786011 0.52046579122543335 0.098698556423187256
0.99554443359375 0.51354539394378662 0.080227874219417572
1 0.50660210847854614 0.061285190284252167
0.0090662641450762749 0.63389790058135986 0.14942532777786255
0.056562058627605438 0.63311052322387695 0.15043659508228302
0.13332313299179077 0.63192212581634521 0.14992454648017883
0.24321183562278748 0.63155782222747803 0.1475234180688858
0.37740260362625122 0.62964057922363281 0.14196740090847015
0.51678979396820068 0.62580597400665283 0.1332574337720871
0.64104795455932617 0.62173187732696533 0.12819942831993103
0.74691349267959595 0.61888837814331055 0.12785522639751434
0.84127628803253174 0.61689931154251099 0.12696483731269836
0.92421996593475342 0.61116749048233032 0.11876127868890762
0.97999012470245361 0.60498476028442383 0.10358887910842896
0.99874836206436157 0.60079646110534668 0.083582513034343719
1 0.59577512741088867 0.062458470463752747
0.007449430413544178 0.70020461082458496 0.13908189535140991
0.04674123227596283 0.70047551393508911 0.14105737209320068
0.11851357668638229 0.69916951656341553 0.14050079882144928
0.2346581369638443 0.69734561443328857 0.13652567565441132
0.381328284740448 0.69527930021286011 0.13057279586791992
0.52746963500976562 0.6923973560333252 0.12476915866136551
0.65369391441345215 0.68997746706008911 0.1207369938492775
0.75977599620819092 0.68838155269622803 0.11721210926771164
0.85525053739547729 0.68668198585510254 0.11317215114831924
0.94084393978118896 0.68226814270019531 0.10892636328935623
0.99324733018875122 0.67746829986572266 0.097857490181922913
1 0.67353928089141846 0.07720685750246048
1 0.66753202676773071 0.055813375860452652
0.0060189040377736092 0.76475143432617188 0.11838071048259735
0.036305863410234451 0.76543933153152466 0.11973191797733307
0.099013432860374451 0.76364749670028687 0.11868568509817123
0.22655744850635529 0.76140677928924561 0.1125582829117775
0.39217653870582581 0.75825721025466919 0.10541470348834991
0.54398906230926514 0.755379319190979 0.1048971563577652
0.66921299695968628 0.75433039665222168 0.10403595119714737
0.77633208036422729 0.75460106134414673 0.09691283106803894
0.87200134992599487 0.75361555814743042 0.089435949921607971
0.95387578010559082 0.75099843740463257 0.083142422139644623
0.99747109413146973 0.74701410531997681 0.073101222515106201
1 0.74212366342544556 0.057739570736885071
1 0.73511898517608643 0.040945149958133698
0.0029878504574298859 0.83261066675186157 0.077671915292739868
0.029437091201543808 0.83362191915512085 0.079494208097457886
0.092550627887248993 0.83224248886108398 0.079349622130393982
0.22529378533363342 0.82930839061737061 0.072272852063179016
0.40788906812667847 0.82488960027694702 0.060154080390930176
0.56600546836853027 0.82182782888412476 0.058211352676153183
0.68891215324401855 0.82182919979095459 0.064546145498752594
0.79558509588241577 0.82348424196243286 0.063742756843566895
0.89044868946075439 0.82397627830505371 0.056962557137012482
0.96785229444503784 0.82251840829849243 0.047142539173364639
0.99963545799255371 0.81920218467712402 0.036422997713088989
1 0.81377291679382324 0.024673221632838249
1 0.80654728412628174 0.012954427860677242
0.00050657684914767742 0.90416455268859863 0.021972447633743286
0.021789895370602608 0.90625542402267456 0.02528412826359272
0.080843277275562286 0.90674096345901489 0.02841605432331562
0.19400228559970856 0.90447670221328735 0.027159193530678749
0.36467164754867554 0.90082919597625732 0.014970218762755394
0.53359794616699219 0.89726614952087402 0.008110973984003067
0.68260860443115234 0.89609611034393311 0.015035307966172695
0.80166357755661011 0.89783990383148193 0.020148588344454765
0.89952397346496582 0.89975720643997192 0.019851848483085632
0.97849935293197632 0.89949637651443481 0.014213921502232552
1 0.89628863334655762 0.0051647857762873173
1 0.88937890529632568 0.00070890539791435003
1 0.88116645812988281 2.3696002244832925e-05
0 0.97451549768447876 0
0.010718655772507191 0.97765403985977173 5.1700368203455582e-05
0.053704116493463516 0.97955501079559326 0.00051000260282307863
0.12413173168897629 0.98106765747070312 0.001025031553581357
0.22561004757881165 0.98150122165679932 0.00048558853450231254
0.41162091493606567 0.97863858938217163 0
0.61334323883056641 0.975047767162323 0
0.7643933892250061 0.97473716735839844 0
0.8797343373298645 0.97603625059127808 9.3347889560391195e-06
0.97055912017822266 0.9778212308883667 0.0003926445497199893
0.99985027313232422 0.97373831272125244 0
1 0.96523302793502808 0
1 0.95486718416213989 0
0.032846413552761078 0.028876585885882378 0.086844578385353088
0.10484040528535843 0.029778424650430679 0.084450066089630127
0.18702667951583862 0.027874141931533813 0.083701111376285553
0.27287063002586365 0.022592807188630104 0.084654040634632111
0.36546453833580017 0.018328377977013588 0.085505448281764984
0.46678411960601807 0.020486479625105858 0.082612432539463043
0.57066011428833008 0.023260228335857391 0.076859340071678162
0.67160683870315552 0.023402240127325058 0.06861819326877594
0.76394736766815186 0.017629256471991539 0.059828560799360275
0.84817337989807129 0.010668945498764515 0.049609076231718063
0.92754369974136353 0.0095104146748781204 0.03500797227025032
0.98838502168655396 0.01120732631534338 0.017370231449604034
1 0.011276619508862495 0.0058628157712519169
0.052721720188856125 0.11045137047767639 0.10729736834764481
0.11023574322462082 0.10736208409070969 0.10609584301710129
0.18630710244178772 0.10278897732496262 0.1039678230881691
0.27286496758460999 0.096084877848625183 0.1028621718287468
0.36772599816322327 0.090215541422367096 0.10325034707784653
0.47096899151802063 0.08808465301990509 0.10117800533771515
0.57724529504776001 0.086713708937168121 0.096432708203792572
0.67932945489883423 0.080800615251064301 0.088773690164089203
0.77173525094985962 0.068014301359653473 0.07988293468952179
0.85352259874343872 0.05234840139746666 0.068812906742095947
0.92969107627868652 0.046483762562274933 0.053282748907804489
0.98686122894287109 0.047927975654602051 0.033755943179130554
1 0.05143960565328598 0.018560580909252167
0.076132066547870636 0.19151534140110016 0.12850223481655121
0.12017351388931274 0.18989858031272888 0.1276085376739502
0.18912981450557709 0.18615961074829102 0.12659993767738342
0.27327251434326172 0.18030261993408203 0.12453778088092804
0.3695281445980072 0.17421932518482208 0.12323524802923203
0.47517693042755127 0.1693158745765686 0.12161700427532196
0.58470314741134644 0.16383153200149536 0.11732149124145508
0.68921047449111938 0.15463627874851227 0.10996829718351364
0.78325247764587402 0.13924345374107361 0.10083000361919403
0.8665626049041748 0.12113789469003677 0.089127004146575928
0.93896234035491943 0.11072568595409393 0.073695212602615356
0.98940372467041016 0.10921349376440048 0.056103769689798355
1 0.11310332268476486 0.040568720549345016
0.069457016885280609 0.27964463829994202 0.1491536945104599
0.10663948953151703 0.27864861488342285 0.1475200355052948
0.17548036575317383 0.27558135986328125 0.14747416973114014
0.26726743578910828 0.27115225791931152 0.14596152305603027
0.36995059251785278 0.26591575145721436 0.1436723917722702
0.4794449508190155 0.26023852825164795 0.14107964932918549
0.59280496835708618 0.2536788284778595 0.13750061392784119
0.69957256317138672 0.24423658847808838 0.13029772043228149
0.79593741893768311 0.23021157085895538 0.12070361524820328
0.880756676197052 0.21450498700141907 0.10885606706142426
0.94922631978988647 0.20204241573810577 0.094262383878231049
0.99231797456741333 0.19518473744392395 0.077986352145671844
1 0.1943420022726059 0.062922470271587372
0.041335612535476685 0.37386533617973328 0.16792303323745728
0.076396405696868896 0.37328293919563293 0.16587677597999573
0.15144936740398407 0.37071132659912109 0.16558025777339935
0.25676324963569641 0.36758503317832947 0.16347900032997131
0.3726220428943634 0.36394825577735901 0.16008239984512329
0.48796042799949646 0.35875499248504639 0.15763922035694122
0.60178947448730469 0.35254189372062683 0.15346471965312958
0.70893865823745728 0.34457686543464661 0.14658528566360474
0.80647796392440796 0.33387500047683716 0.13799099624156952
0.89317244291305542 0.32168367505073547 0.12675252556800842
0.96047312021255493 0.3101290762424469 0.11257278174161911
0.99583512544631958 0.29923126101493835 0.096741683781147003
1 0.29236873984336853 0.081236518919467926
0.01738465204834938 0.46833333373069763 0.18402993679046631
0.05905475839972496 0.46783775091171265 0.1818900853395462
0.13493375480175018 0.46594393253326416 0.18063314259052277
0.24435068666934967 0.46434217691421509 0.17805378139019012
0.37037992477416992 0.46204116940498352 0.17378005385398865
0.49354803562164307 0.45749968290328979 0.17017662525177002
0.61005574464797974 0.45234742760658264 0.16489768028259277
0.71677887439727783 0.44703462719917297 0.158039391040802
0.813770592212677 0.43929827213287354 0.150860995054245
0.90251880884170532 0.43099531531333923 0.14078254997730255
0.97281372547149658 0.42251101136207581 0.12705762684345245
0.9992719292640686 0.41056206822395325 0.11085354536771774
1 0.3998209536075592 0.093742191791534424
0.0063558989204466343 0.55587226152420044 0.19263339042663574
0.047776613384485245 0.55552774667739868 0.19219286739826202
0.12132067233324051 0.55424755811691284 0.19153295457363129
0.22934545576572418 0.55319064855575562 0.18901361525058746
0.36160871386528015 0.55156421661376953 0.18433484435081482
0.49639013409614563 0.54779821634292603 0.17788030207157135
0.61799025535583496 0.54343694448471069 0.17195393145084381
0.72393596172332764 0.53971928358078003 0.16669751703739166
0.81844174861907959 0.53551673889160156 0.16015644371509552
0.90616559982299805 0.52954089641571045 0.15044800937175751
0.97498661279678345 0.52248287200927734 0.13728807866573334
0.99964159727096558 0.51384556293487549 0.11938829720020294
1 0.5040162205696106 0.10013529658317566
0.0040498021990060806 0.63280600309371948 0.19241009652614594
0.041458923369646072 0.63281106948852539 0.19491799175739288
0.11151199042797089 0.63138210773468018 0.19549930095672607
0.2204371839761734 0.62980419397354126 0.19260227680206299
0.35909879207611084 0.62802153825759888 0.18639667332172394
0.50257140398025513 0.62484431266784668 0.17795506119728088
0.6280328631401062 0.62152791023254395 0.17195086181163788
0.73314523696899414 0.61905145645141602 0.16858041286468506
0.82720142602920532 0.61663389205932617 0.16289141774177551
0.91410660743713379 0.61215060949325562 0.15440705418586731
0.97865980863571167 0.6066131591796875 0.14055587351322174
0.99988114833831787 0.60081607103347778 0.12045835703611374
1 0.59306436777114868 0.098628729581832886
0.0033322353847324848 0.7009580135345459 0.18696108460426331
0.036595199257135391 0.70089840888977051 0.19052399694919586
0.10464930534362793 0.69921022653579712 0.19083188474178314
0.21806561946868896 0.69693416357040405 0.18653149902820587
0.36434280872344971 0.69426137208938599 0.17945012450218201
0.5125662088394165 0.69163364171981812 0.17178377509117126
0.63907313346862793 0.68919003009796143 0.16610275208950043
0.74338245391845703 0.6875796914100647 0.16033256053924561
0.83813416957855225 0.6856805682182312 0.15317517518997192
0.92571097612380981 0.68240392208099365 0.14613190293312073
0.98497104644775391 0.67825466394424438 0.13312414288520813
1 0.67347818613052368 0.11184889823198318
1 0.66640287637710571 0.089194744825363159
0.002450217492878437 0.76625257730484009 0.17030464112758636
0.031040625646710396 0.76595443487167358 0.1739976704120636
0.097399570047855377 0.76394534111022949 0.17248930037021637
0.21749536693096161 0.76089978218078613 0.16594560444355011
0.37521517276763916 0.75734841823577881 0.15701781213283539
0.52807909250259399 0.75444740056991577 0.15192456543445587
0.65258699655532837 0.7533574104309082 0.14906202256679535
0.75654608011245728 0.75273716449737549 0.14204607903957367
0.85310095548629761 0.75137794017791748 0.13107070326805115
0.93904989957809448 0.74860334396362305 0.12054510414600372
0.99185764789581299 0.74525433778762817 0.10717372596263885
1 0.74101424217224121 0.09044945240020752
1 0.73472762107849121 0.072791680693626404
0.0011549257906153798 0.83463937044143677 0.12993925809860229
0.025319043546915054 0.83433616161346436 0.13443227112293243
0.089380152523517609 0.83233565092086792 0.13275930285453796
0.21260440349578857 0.82867801189422607 0.12494651973247528
0.38276097178459167 0.82367414236068726 0.10908683389425278
0.54492592811584473 0.82087117433547974 0.10132386535406113
0.66699987649917603 0.82090860605239868 0.10671316087245941
0.77157586812973022 0.82148116827011108 0.10583882033824921
0.87346959114074707 0.82050299644470215 0.093617714941501617
0.95796316862106323 0.81744897365570068 0.073869459331035614
0.99845391511917114 0.81490504741668701 0.060105208307504654
1 0.81204330921173096 0.051459740847349167
1 0.80665189027786255 0.03950665146112442
0.00027573530678637326 0.90769416093826294 0.061883814632892609
0.01722341775894165 0.90792226791381836 0.068111374974250793
0.073186688125133514 0.90760576725006104 0.071876734495162964
0.1839788407087326 0.90437036752700806 0.069410912692546844
0.3503478467464447 0.89928048849105835 0.049191895872354507
0.52481305599212646 0.89702343940734863 0.031625859439373016
0.66399341821670532 0.89794385433197021 0.039711881428956985
0.78157031536102295 0.89835959672927856 0.046727586537599564
0.88741111755371094 0.89730429649353027 0.040972348302602768
0.97381097078323364 0.89379894733428955 0.018351715058088303
1 0.89152759313583374 0.0086978692561388016
1 0.88905364274978638 0.007299505639821291
1 0.88341015577316284 0.0035273234825581312
0 0.981048583984375 0.0037705963477492332
0.0071565215475857258 0.98251569271087646 0.0067573846317827702
0.049411114305257797 0.98225712776184082 0.012418635189533234
0.13423311710357666 0.98136186599731445 0.017993956804275513
0.26766404509544373 0.98000091314315796 0.010910887271165848
0.44278380274772644 0.978770911693573 0.0017734452849254012
0.61550122499465942 0.97861826419830322 0.00066303927451372147
0.75774091482162476 0.97767263650894165 0.002440224401652813
0.87510287761688232 0.97681677341461182 0.0026013094466179609
0.96722882986068726 0.97517842054367065 0.00018368889868725091
0.99985414743423462 0.97277706861495972 0
1 0.96831381320953369 0
1 0.96067959070205688 0
0.025926074013113976 0.024411505088210106 0.13735537230968475
0.09417068213224411 0.025696339085698128 0.13544109463691711
0.17435550689697266 0.022131377831101418 0.1352970153093338
0.25886037945747375 0.015190169215202332 0.13621573150157928
0.35168761014938354 0.011800504289567471 0.13586039841175079
0.45173618197441101 0.012616834603250027 0.13205677270889282
0.55442023277282715 0.014636724255979061 0.12552663683891296
0.65412312746047974 0.014793156646192074 0.1169302836060524
0.7449842095375061 0.010311800055205822 0.10817142575979233
0.82818830013275146 0.005445143673568964 0.097954243421554565
0.90612959861755371 0.004551996011286974 0.08207295835018158
0.96832048892974854 0.0035524256527423859 0.060610197484493256
0.9980628490447998 0.0016764472238719463 0.04085247591137886
0.04847291111946106 0.099819362163543701 0.1557447612285614
0.10325095802545547 0.097359120845794678 0.15495368838310242
0.17537479102611542 0.091839566826820374 0.1545349657535553
0.26004621386528015 0.084157176315784454 0.15484607219696045
0.3542996346950531 0.078192375600337982 0.15405432879924774
0.45640954375267029 0.076626993715763092 0.15084190666675568
0.56090915203094482 0.075504079461097717 0.14492729306221008
0.66079896688461304 0.06989569216966629 0.1370704174041748
0.75077927112579346 0.05725465714931488 0.12846517562866211
0.83107876777648926 0.042401064187288284 0.11738994717597961
0.90657609701156616 0.036663923412561417 0.10033832490444183
0.96757179498672485 0.035326369106769562 0.078184299170970917
0.99843567609786987 0.035148888826370239 0.058176692575216293
0.073111891746520996 0.18001963198184967 0.17535394430160522
0.11166168004274368 0.1783333420753479 0.17464981973171234
0.17662760615348816 0.17401830852031708 0.17437586188316345
0.26115560531616211 0.16777364909648895 0.17432716488838196
0.35797244310379028 0.16234332323074341 0.17325954139232635
0.46252349019050598 0.15816491842269897 0.17057958245277405
0.56913566589355469 0.15368252992630005 0.16516810655593872
0.67094606161117554 0.14456498622894287 0.15741720795631409
0.76141250133514404 0.12780168652534485 0.14932186901569366
0.84205776453018188 0.10895507037639618 0.13816851377487183
0.9154394268989563 0.098610974848270416 0.12211278080940247
0.97438400983810425 0.096669137477874756 0.10256313532590866
0.99976754188537598 0.099707812070846558 0.085355781018733978
0.060963034629821777 0.26961046457290649 0.19543184340000153
0.095035403966903687 0.26860344409942627 0.19294144213199615
0.16224730014801025 0.26546895503997803 0.19298489391803741
0.25540712475776672 0.26088818907737732 0.19318901002407074
0.3602319061756134 0.2559019923210144 0.19176429510116577
0.46905165910720825 0.2510535717010498 0.18967103958129883
0.57819223403930664 0.24536991119384766 0.18488210439682007
0.68150782585144043 0.235706627368927 0.17780666053295135
0.77475130558013916 0.22036631405353546 0.16982834041118622
0.85858595371246338 0.20338001847267151 0.15893295407295227
0.93059492111206055 0.1908172070980072 0.14386598765850067
0.98432683944702148 0.18414926528930664 0.12649992108345032
1 0.18382343649864197 0.11033774167299271
0.032585322856903076 0.36575540900230408 0.2143765389919281
0.062837265431880951 0.36558452248573303 0.21046493947505951
0.13615253567695618 0.36301961541175842 0.21017244458198547
0.24255718290805817 0.35951539874076843 0.20964096486568451
0.36065974831581116 0.35581204295158386 0.20760266482830048
0.47612833976745605 0.35135349631309509 0.2060369998216629
0.58701086044311523 0.34610012173652649 0.20222093164920807
0.69073963165283203 0.33809733390808105 0.1959366500377655
0.78635448217391968 0.32654023170471191 0.18813329935073853
0.87330389022827148 0.31333258748054504 0.17733412981033325
0.94542449712753296 0.30101752281188965 0.1632152646780014
0.99151742458343506 0.29087585210800171 0.14638511836528778
1 0.28496840596199036 0.13025069236755371
0.011205545626580715 0.46184620261192322 0.23097670078277588
0.045016717165708542 0.46192675828933716 0.22858811914920807
0.114686019718647 0.46020194888114929 0.22712841629981995
0.22343526780605316 0.45792496204376221 0.22467777132987976
0.35366123914718628 0.45535165071487427 0.221678227186203
