films/fuji_neopan_1600_3_+.cube
TITLE "data/luts/rawtherapee/HaldCLUT/Black-and-White/Fuji/Fuji Neopan 1600 3 +.png"
LUT_3D_SIZE 8
DOMAIN_MIN 0 0 0
DOMAIN_MAX 1 1 1
0.094118 0.094118 0.094118
0.094118 0.094118 0.094118
0.098599 0.098599 0.098599
0.114846 0.114846 0.114846
0.163585 0.163585 0.163585
0.235854 0.235854 0.235854
0.333894 0.333894 0.333894
0.509804 0.509804 0.509804
0.098039 0.098039 0.098039
0.101240 0.101240 0.101240
0.115406 0.115406 0.115406
0.146779 0.146779 0.146779
0.202801 0.202801 0.202801
0.268908 0.268908 0.268908
0.366947 0.366947 0.366947
0.537255 0.537255 0.537255
0.124930 0.124930 0.124930
0.133013 0.133013 0.133013
0.164066 0.164066 0.164066
0.235294 0.235294 0.235294
0.305162 0.305162 0.305162
0.361265 0.361265 0.361265
0.454342 0.454342 0.454342
0.622969 0.622969 0.622969
0.214006 0.214006 0.214006
0.232493 0.232493 0.232493
0.252661 0.252661 0.252661
0.303401 0.303401 0.303401
0.396879 0.396879 0.396879
0.488515 0.488515 0.488515
0.598239 0.598239 0.598239
0.727731 0.727731 0.727731
0.332213 0.332213 0.332213
0.350700 0.350700 0.350700
0.359664 0.359664 0.359664
0.403601 0.403601 0.403601
0.469548 0.469548 0.469548
0.588235 0.588235 0.588235
0.699160 0.699160 0.699160
0.818487 0.818487 0.818487
0.499160 0.499160 0.499160
0.512925 0.512925 0.512925
0.522209 0.522209 0.522209
0.551821 0.551821 0.551821
0.615286 0.615286 0.615286
0.680592 0.680592 0.680592
0.785114 0.785114 0.785114
0.875070 0.875070 0.875070
0.729972 0.729972 0.729972
0.739496 0.739496 0.739496
0.743657 0.743657 0.743657
0.754142 0.754142 0.754142
0.789356 0.789356 0.789356
0.830252 0.830252 0.830252
0.875310 0.875310 0.875310
0.941176 0.941176 0.941176
0.925490 0.925490 0.925490
0.925490 0.925490 0.925490
0.929412 0.929412 0.929412
0.933333 0.933333 0.933333
0.945098 0.945098 0.945098
0.964706 0.964706 0.964706
0.980392 0.980392 0.980392
0.996078 0.996078 0.996078
0.094118 0.094118 0.094118
0.097079 0.097079 0.097079
0.105562 0.105562 0.105562
0.129892 0.129892 0.129892
0.183193 0.183193 0.183193
0.245378 0.245378 0.245378
0.337255 0.337255 0.337255
0.480672 0.480672 0.480672
0.101961 0.101961 0.101961
0.111073 0.111073 0.111073
0.125490 0.125490 0.125490
0.161985 0.161985 0.161985
0.217927 0.217927 0.217927
0.282216 0.282216 0.282216
0.371280 0.371280 0.371280
0.518928 0.518928 0.518928
0.152061 0.152061 0.152061
0.158303 0.158303 0.158303
0.189070 0.189070 0.189070
0.255371 0.255371 0.255371
0.310353 0.310353 0.310353
0.366592 0.366592 0.366592
0.459304 0.459304 0.459304
0.615126 0.615126 0.615126
0.242017 0.242017 0.242017
0.258869 0.258869 0.258869
0.275322 0.275322 0.275322
0.324427 0.324427 0.324427
0.410118 0.410118 0.410118
0.500760 0.500760 0.500760
0.602035 0.602035 0.602035
0.727731 0.727731 0.727731
0.356303 0.356303 0.356303
0.377717 0.377717 0.377717
0.383845 0.383845 0.383845
0.423975 0.423975 0.423975
0.484777 0.484777 0.484777
0.602721 0.602721 0.602721
0.705128 0.705128 0.705128
0.822409 0.822409 0.822409
0.519008 0.519008 0.519008
0.537998 0.537998 0.537998
0.546138 0.546138 0.546138
0.572000 0.572000 0.572000
0.629440 0.629440 0.629440
0.690185 0.690185 0.690185
0.789104 0.789104 0.789104
0.878992 0.878992 0.878992
0.741737 0.741737 0.741737
0.751261 0.751261 0.751261
0.755182 0.755182 0.755182
0.763986 0.763986 0.763986
0.797473 0.797473 0.797473
0.835134 0.835134 0.835134
0.878443 0.878443 0.878443
0.943417 0.943417 0.943417
0.925490 0.925490 0.925490
0.928131 0.928131 0.928131
0.931413 0.931413 0.931413
0.936615 0.936615 0.936615
0.948379 0.948379 0.948379
0.964706 0.964706 0.964706
0.983353 0.983353 0.983353
0.994398 0.994398 0.994398
0.101961 0.101961 0.101961
0.109244 0.109244 0.109244
0.136134 0.136134 0.136134
0.157983 0.157983 0.157983
0.214166 0.214166 0.214166
0.275550 0.275550 0.275550
0.362225 0.362225 0.362225
0.498039 0.498039 0.498039
0.117087 0.117087 0.117087
0.136455 0.136455 0.136455
0.165518 0.165518 0.165518
0.193986 0.193986 0.193986
0.244075 0.244075 0.244075
0.305882 0.305882 0.305882
0.391597 0.391597 0.391597
0.539416 0.539416 0.539416
0.156303 0.156303 0.156303
0.181753 0.181753 0.181753
0.238575 0.238575 0.238575
0.280695 0.280695 0.280695
0.326828 0.326828 0.326828
0.387606 0.387606 0.387606
0.478031 0.478031 0.478031
0.626891 0.626891 0.626891
0.279552 0.279552 0.279552
0.313142 0.313142 0.313142
0.330304 0.330304 0.330304
0.371108 0.371108 0.371108
0.448888 0.448888 0.448888
0.526428 0.526428 0.526428
0.613285 0.613285 0.613285
0.732053 0.732053 0.732053
0.414006 0.414006 0.414006
0.438793 0.438793 0.438793
0.444532 0.444532 0.444532
0.466392 0.466392 0.466392
0.523364 0.523364 0.523364
0.630275 0.630275 0.630275
0.726050 0.726050 0.726050
0.825370 0.825370 0.825370
0.569668 0.569668 0.569668
0.591196 0.591196 0.591196
0.599520 0.599520 0.599520
0.609387 0.609387 0.609387
0.658401 0.658401 0.658401
0.711816 0.711816 0.711816
0.803956 0.803956 0.803956
0.889716 0.889716 0.889716
0.764706 0.764706 0.764706
0.775224 0.775224 0.775224
0.778266 0.778266 0.778266
0.785674 0.785674 0.785674
0.810015 0.810015 0.810015
0.847139 0.847139 0.847139
0.886012 0.886012 0.886012
0.949020 0.949020 0.949020
0.932773 0.932773 0.932773
0.935254 0.935254 0.935254
0.937255 0.937255 0.937255
0.942137 0.942137 0.942137
0.949420 0.949420 0.949420
0.968067 0.968067 0.968067
0.984074 0.984074 0.984074
0.996078 0.996078 0.996078
0.133333 0.133333 0.133333
0.147899 0.147899 0.147899
0.195518 0.195518 0.195518
0.238335 0.238335 0.238335
0.262745 0.262745 0.262745
0.329972 0.329972 0.329972
0.411204 0.411204 0.411204
0.547339 0.547339 0.547339
0.167507 0.167507 0.167507
0.184520 0.184520 0.184520
0.221666 0.221666 0.221666
0.273229 0.273229 0.273229
0.294678 0.294678 0.294678
0.357320 0.357320 0.357320
0.438050 0.438050 0.438050
0.573669 0.573669 0.573669
0.195118 0.195118 0.195118
0.231624 0.231624 0.231624
0.298382 0.298382 0.298382
0.345544 0.345544 0.345544
0.371269 0.371269 0.371269
0.427588 0.427588 0.427588
0.506534 0.506534 0.506534
0.637295 0.637295 0.637295
0.281473 0.281473 0.281473
0.316584 0.316584 0.316584
0.365312 0.365312 0.365312
0.442600 0.442600 0.442600
0.483245 0.483245 0.483245
0.543017 0.543017 0.543017
0.623632 0.623632 0.623632
0.736455 0.736455 0.736455
0.436975 0.436975 0.436975
0.477471 0.477471 0.477471
0.515932 0.515932 0.515932
0.544526 0.544526 0.544526
0.586315 0.586315 0.586315
0.671949 0.671949 0.671949
0.749088 0.749088 0.749088
0.829932 0.829932 0.829932
0.632093 0.632093 0.632093
0.660081 0.660081 0.660081
0.665512 0.665512 0.665512
0.673584 0.673584 0.673584
0.698279 0.698279 0.698279
0.745532 0.745532 0.745532
0.822821 0.822821 0.822821
0.901961 0.901961 0.901961
0.796639 0.796639 0.796639
0.806574 0.806574 0.806574
0.810256 0.810256 0.810256
0.817241 0.817241 0.817241
0.828411 0.828411 0.828411
0.861385 0.861385 0.861385
0.897731 0.897731 0.897731
0.956863 0.956863 0.956863
0.941176 0.941176 0.941176
0.945098 0.945098 0.945098
0.948860 0.948860 0.948860
0.951821 0.951821 0.951821
0.956863 0.956863 0.956863
0.971589 0.971589 0.971589
0.984314 0.984314 0.984314
0.996078 0.996078 0.996078
0.206723 0.206723 0.206723
0.222409 0.222409 0.222409
0.264026 0.264026 0.264026
0.339176 0.339176 0.339176
0.380072 0.380072 0.380072
0.391196 0.391196 0.391196
0.488035 0.488035 0.488035
0.634174 0.634174 0.634174
0.235854 0.235854 0.235854
0.258423 0.258423 0.258423
0.300852 0.300852 0.300852
0.368765 0.368765 0.368765
0.410004 0.410004 0.410004
0.419619 0.419619 0.419619
0.513200 0.513200 0.513200
0.653782 0.653782 0.653782
0.300840 0.300840 0.300840
0.337346 0.337346 0.337346
0.370605 0.370605 0.370605
0.428297 0.428297 0.428297
0.473915 0.473915 0.473915
0.493443 0.493443 0.493443
0.580015 0.580015 0.580015
0.698039 0.698039 0.698039
0.330212 0.330212 0.330212
0.364157 0.364157 0.364157
0.410233 0.410233 0.410233
0.509552 0.509552 0.509552
0.562156 0.562156 0.562156
0.597713 0.597713 0.597713
0.660264 0.660264 0.660264
0.745898 0.745898 0.745898
0.436975 0.436975 0.436975
0.472932 0.472932 0.472932
0.510353 0.510353 0.510353
0.574778 0.574778 0.574778
0.658561 0.658561 0.658561
0.697765 0.697765 0.697765
0.749340 0.749340 0.749340
0.822409 0.822409 0.822409
0.636415 0.636415 0.636415
0.662265 0.662265 0.662265
0.686995 0.686995 0.686995
0.724381 0.724381 0.724381
0.749866 0.749866 0.749866
0.782393 0.782393 0.782393
0.848339 0.848339 0.848339
0.914286 0.914286 0.914286
0.812325 0.812325 0.812325
0.825827 0.825827 0.825827
0.838244 0.838244 0.838244
0.852764 0.852764 0.852764
0.860721 0.860721 0.860721
0.880901 0.880901 0.880901
0.915177 0.915177 0.915177
0.966947 0.966947 0.966947
0.956863 0.956863 0.956863
0.956863 0.956863 0.956863
0.957983 0.957983 0.957983
0.964386 0.964386 0.964386
0.968307 0.968307 0.968307
0.976471 0.976471 0.976471
0.988235 0.988235 0.988235
0.997199 0.997199 0.997199
0.322689 0.322689 0.322689
0.338375 0.338375 0.338375
0.378071 0.378071 0.378071
0.442977 0.442977 0.442977
0.540616 0.540616 0.540616
0.574790 0.574790 0.574790
0.564146 0.564146 0.564146
0.706443 0.706443 0.706443
0.350140 0.350140 0.350140
0.374767 0.374767 0.374767
0.410884 0.410884 0.410884
0.471697 0.471697 0.471697
0.563928 0.563928 0.563928
0.598274 0.598274 0.598274
0.585331 0.585331 0.585331
0.722689 0.722689 0.722689
0.412405 0.412405 0.412405
0.441948 0.441948 0.441948
0.474590 0.474590 0.474590
0.532110 0.532110 0.532110
0.612931 0.612931 0.612931
0.648659 0.648659 0.648659
0.649334 0.649334 0.649334
0.761345 0.761345 0.761345
0.431533 0.431533 0.431533
0.477128 0.477128 0.477128
0.548597 0.548597 0.548597
0.603133 0.603133 0.603133
0.669388 0.669388 0.669388
0.707483 0.707483 0.707483
0.719191 0.719191 0.719191
0.804482 0.804482 0.804482
0.500280 0.500280 0.500280
0.535414 0.535414 0.535414
0.570605 0.570605 0.570605
0.628057 0.628057 0.628057
0.720482 0.720482 0.720482
0.762625 0.762625 0.762625
0.787023 0.787023 0.787023
0.846499 0.846499 0.846499
0.633053 0.633053 0.633053
0.654822 0.654822 0.654822
0.679620 0.679620 0.679620
0.720631 0.720631 0.720631
0.773647 0.773647 0.773647
0.832424 0.832424 0.832424
0.863866 0.863866 0.863866
0.910364 0.910364 0.910364
0.814326 0.814326 0.814326
0.827188 0.827188 0.827188
0.839662 0.839662 0.839662
0.859784 0.859784 0.859784
0.890288 0.890288 0.890288
0.912605 0.912605 0.912605
0.937644 0.937644 0.937644
0.978711 0.978711 0.978711
0.956863 0.956863 0.956863
0.959024 0.959024 0.959024
0.964226 0.964226 0.964226
0.972549 0.972549 0.972549
0.980392 0.980392 0.980392
0.985274 0.985274 0.985274
0.992717 0.992717 0.992717
1.000000 1.000000 1.000000
0.514846 0.514846 0.514846
0.528291 0.528291 0.528291
0.563665 0.563665 0.563665
0.625770 0.625770 0.625770
0.695798 0.695798 0.695798
0.763665 0.763665 0.763665
0.777991 0.777991 0.777991
0.773109 0.773109 0.773109
0.531253 0.531253 0.531253
0.559252 0.559252 0.559252
0.593677 0.593677 0.593677
0.647573 0.647573 0.647573
0.708318 0.708318 0.708318
0.772195 0.772195 0.772195
0.786566 0.786566 0.786566
0.781353 0.781353 0.781353
0.582953 0.582953 0.582953
0.613354 0.613354 0.613354
0.641457 0.641457 0.641457
0.685406 0.685406 0.685406
0.738044 0.738044 0.738044
0.794512 0.794512 0.794512
0.808723 0.808723 0.808723
0.811765 0.811765 0.811765
0.635134 0.635134 0.635134
0.665626 0.665626 0.665626
0.691305 0.691305 0.691305
0.725044 0.725044 0.725044
0.770125 0.770125 0.770125
0.819128 0.819128 0.819128
0.837809 0.837809 0.837809
0.846499 0.846499 0.846499
0.593437 0.593437 0.593437
0.627451 0.627451 0.627451
0.678934 0.678934 0.678934
0.751821 0.751821 0.751821
0.800126 0.800126 0.800126
0.842428 0.842428 0.842428
0.867913 0.867913 0.867913
0.887875 0.887875 0.887875
0.708443 0.708443 0.708443
0.724233 0.724233 0.724233
0.741497 0.741497 0.741497
0.771520 0.771520 0.771520
0.813217 0.813217 0.813217
0.880752 0.880752 0.880752
0.913382 0.913382 0.913382
0.939736 0.939736 0.939736
0.819208 0.819208 0.819208
0.827462 0.827462 0.827462
0.840462 0.840462 0.840462
0.862596 0.862596 0.862596
0.892163 0.892163 0.892163
0.927331 0.927331 0.927331
0.966947 0.966947 0.966947
0.983353 0.983353 0.983353
0.956863 0.956863 0.956863
0.960064 0.960064 0.960064
0.962785 0.962785 0.962785
0.972549 0.972549 0.972549
0.981032 0.981032 0.981032
0.992157 0.992157 0.992157
0.996799 0.996799 0.996799
0.997759 0.997759 0.997759
0.780392 0.780392 0.780392
0.788235 0.788235 0.788235
0.803922 0.803922 0.803922
0.830252 0.830252 0.830252
0.862745 0.862745 0.862745
0.901961 0.901961 0.901961
0.935574 0.935574 0.935574
0.941176 0.941176 0.941176
0.780392 0.780392 0.780392
0.794158 0.794158 0.794158
0.809284 0.809284 0.809284
0.834734 0.834734 0.834734
0.868747 0.868747 0.868747
0.902281 0.902281 0.902281
0.936535 0.936535 0.936535
0.945098 0.945098 0.945098
0.800000 0.800000 0.800000
0.815686 0.815686 0.815686
0.830332 0.830332 0.830332
0.850980 0.850980 0.850980
0.881793 0.881793 0.881793
0.910364 0.910364 0.910364
0.941176 0.941176 0.941176
0.952941 0.952941 0.952941
0.819608 0.819608 0.819608
0.832573 0.832573 0.832573
0.847059 0.847059 0.847059
0.866667 0.866667 0.866667
0.894118 0.894118 0.894118
0.924530 0.924530 0.924530
0.952461 0.952461 0.952461
0.964706 0.964706 0.964706
0.803922 0.803922 0.803922
0.820248 0.820248 0.820248
0.844498 0.844498 0.844498
0.873709 0.873709 0.873709
0.901961 0.901961 0.901961
0.933894 0.933894 0.933894
0.963585 0.963585 0.963585
0.975350 0.975350 0.975350
0.801120 0.801120 0.801120
0.812325 0.812325 0.812325
0.820168 0.820168 0.820168
0.854502 0.854502 0.854502
0.910204 0.910204 0.910204
0.950060 0.950060 0.950060
0.978952 0.978952 0.978952
0.991597 0.991597 0.991597
0.901961 0.901961 0.901961
0.904202 0.904202 0.904202
0.909804 0.909804 0.909804
0.923810 0.923810 0.923810
0.938856 0.938856 0.938856
0.959344 0.959344 0.959344
0.990476 0.990476 0.990476
0.996078 0.996078 0.996078
0.964706 0.964706 0.964706
0.968627 0.968627 0.968627
0.969188 0.969188 0.969188
0.977591 0.977591 0.977591
0.985434 0.985434 0.985434
0.992717 0.992717 0.992717
0.997759 0.997759 0.997759
1.000000 1.000000 1.000000
