films/fuji_superia_800.cube
# Created by: G'MIC (https://gmic.eu)
TITLE "fuji_superia_800"
# LUT size
LUT_3D_SIZE 5
# Data domain
DOMAIN_MIN 0.0 0.0 0.0
DOMAIN_MAX 1.0 1.0 1.0
# LUT data points
0.0012839074479416013 0.069070734083652496 0.071510404348373413
0.15921278297901154 0.085564553737640381 0.070060208439826965
0.48020407557487488 0.073557205498218536 0.053951308131217957
0.78842693567276001 0.096816569566726685 0.03124440461397171
0.99311143159866333 0.23218333721160889 0.018783599138259888
0 0.26174372434616089 0.092531777918338776
0.1872619241476059 0.28867059946060181 0.051273509860038757
0.55866140127182007 0.26691272854804993 0.039731446653604507
0.82082360982894897 0.28129905462265015 0.013090799562633038
0.99697393178939819 0.36739915609359741 0.0093540120869874954
0.0035435245372354984 0.6550060510635376 0.19025124609470367
0.14274242520332336 0.65462589263916016 0.16983421146869659
0.61101394891738892 0.66221421957015991 0.029963010922074318
0.87326568365097046 0.60677838325500488 0.00079701741924509406
0.99869072437286377 0.58533728122711182 0.042134705930948257
0.339925616979599 0.87482404708862305 0.4446205198764801
0.44304382801055908 0.87208104133605957 0.44484648108482361
0.62680745124816895 0.86964815855026245 0.40671095252037048
0.84493356943130493 0.86829429864883423 0.27240252494812012
0.99990719556808472 0.84797126054763794 0.21727003157138824
0.7288888692855835 0.97802698612213135 0.74044203758239746
0.73881691694259644 0.97848623991012573 0.7347140908241272
0.7889360785484314 0.97287708520889282 0.74274009466171265
0.85627692937850952 0.9786067008972168 0.70874297618865967
0.96111732721328735 0.97646796703338623 0.65031546354293823
0.0038370168767869473 0.072065375745296478 0.21054655313491821
0.1698918342590332 0.078682050108909607 0.22292102873325348
0.49960458278656006 0.039839591830968857 0.2275615930557251
0.79240900278091431 0.067966416478157043 0.2116730809211731
0.99284845590591431 0.2427627295255661 0.21293354034423828
0 0.2541750967502594 0.26101058721542358
0.22486695647239685 0.27386322617530823 0.26818376779556274
0.55075627565383911 0.26992565393447876 0.25300711393356323
0.80790257453918457 0.30215868353843689 0.23608559370040894
0.99504560232162476 0.37729364633560181 0.22550193965435028
0.11464698612689972 0.63864409923553467 0.38544654846191406
0.30085262656211853 0.63947838544845581 0.37641224265098572
0.60979878902435303 0.63455319404602051 0.31093612313270569
0.85397517681121826 0.58643728494644165 0.26096925139427185
0.99809920787811279 0.59079384803771973 0.27130287885665894
0.47515827417373657 0.86792641878128052 0.56493741273880005
0.53220576047897339 0.866321861743927 0.56347286701202393
0.65670788288116455 0.86471295356750488 0.54919803142547607
0.84849900007247925 0.86782670021057129 0.45396065711975098
0.99998652935028076 0.84635782241821289 0.39632496237754822
0.74745190143585205 0.97553038597106934 0.77177584171295166
0.76630723476409912 0.97396039962768555 0.77394360303878784
0.80144113302230835 0.97367984056472778 0.77713310718536377
0.86294925212860107 0.97585785388946533 0.75784647464752197
0.96274954080581665 0.97587358951568604 0.70356976985931396
0.0037157845217734575 0.083191752433776855 0.47067591547966003
0.21675930917263031 0.082149267196655273 0.47741276025772095
0.51643186807632446 0.063840337097644806 0.48948925733566284
0.81415748596191406 0.12781430780887604 0.50616455078125
0.99607580900192261 0.14673709869384766 0.46741968393325806
0.00043758316314779222 0.23776023089885712 0.4974072277545929
0.26783058047294617 0.26395216584205627 0.51147615909576416
0.56031638383865356 0.2857048511505127 0.52424997091293335
0.82525861263275146 0.33075064420700073 0.51798707246780396
0.99561774730682373 0.3404068648815155 0.46855828166007996
0.15616361796855927 0.5932043194770813 0.58021718263626099
0.37252858281135559 0.58936768770217896 0.57879507541656494
0.60123246908187866 0.58967477083206177 0.5728033185005188
0.82295054197311401 0.58334243297576904 0.53774064779281616
0.9902108907699585 0.60248386859893799 0.50800305604934692
0.60803991556167603 0.85857462882995605 0.72143340110778809
0.64757829904556274 0.85569471120834351 0.72283577919006348
0.71361011266708374 0.85395669937133789 0.71649599075317383
0.84988212585449219 0.85877567529678345 0.66621345281600952
0.99058079719543457 0.8337395191192627 0.61696392297744751
0.80261820554733276 0.97305142879486084 0.83955389261245728
0.80329984426498413 0.97181957960128784 0.83037549257278442
0.83024293184280396 0.97230362892150879 0.83560764789581299
0.8783104419708252 0.97363752126693726 0.83066219091415405
0.97038555145263672 0.97989481687545776 0.78947347402572632
0.13004006445407867 0.10711392015218735 0.73753935098648071
0.32953736186027527 0.10201888531446457 0.73542362451553345
0.58058756589889526 0.10349185764789581 0.73665004968643188
0.81507563591003418 0.16041195392608643 0.74200809001922607
0.9925118088722229 0.3737148642539978 0.76368862390518188
0.20840595662593842 0.26773533225059509 0.74576389789581299
0.36282491683959961 0.26956304907798767 0.74451738595962524
0.59655237197875977 0.28919598460197449 0.75037235021591187
0.81708413362503052 0.34505325555801392 0.75019842386245728
0.98729413747787476 0.4893016517162323 0.76961904764175415
0.042683649808168411 0.48872029781341553 0.74698370695114136
0.31271150708198547 0.5030474066734314 0.74916201829910278
0.59196573495864868 0.54234272241592407 0.75736069679260254
0.81634646654129028 0.60008269548416138 0.76975911855697632
0.97405886650085449 0.68205839395523071 0.78579467535018921
0.53993690013885498 0.82583880424499512 0.81032019853591919
0.59860485792160034 0.82564270496368408 0.81416529417037964
0.69944590330123901 0.822887122631073 0.80976384878158569
0.82907891273498535 0.82323914766311646 0.8024904727935791
0.96783840656280518 0.82041358947753906 0.78373396396636963
0.82612597942352295 0.96951735019683838 0.89694690704345703
0.84978103637695312 0.96960783004760742 0.89808213710784912
0.87994480133056641 0.97081840038299561 0.90270519256591797
0.90886425971984863 0.97193628549575806 0.8991883397102356
0.97148454189300537 0.97642159461975098 0.88099366426467896
0.53287923336029053 0.28717663884162903 0.94331091642379761
0.60154670476913452 0.29961070418357849 0.94172465801239014
0.73849284648895264 0.33602258563041687 0.93848472833633423
0.88826197385787964 0.40262705087661743 0.93308728933334351
0.9965827465057373 0.52048641443252563 0.93383443355560303
0.541878342628479 0.4075377881526947 0.94103771448135376
0.60626029968261719 0.41558018326759338 0.94154411554336548
0.74030256271362305 0.44823926687240601 0.93756216764450073
0.88582992553710938 0.50947505235671997 0.93443143367767334
0.9984886646270752 0.58252745866775513 0.93331301212310791
0.48541051149368286 0.5705532431602478 0.9375150203704834
0.56385356187820435 0.58052676916122437 0.93754786252975464
0.71721071004867554 0.60667258501052856 0.93488854169845581
0.86738115549087524 0.65279895067214966 0.93180602788925171
0.98841178417205811 0.70722430944442749 0.9319838285446167
0.52993398904800415 0.79487335681915283 0.93463879823684692
0.55561661720275879 0.78388988971710205 0.93115460872650146
0.66041034460067749 0.78119534254074097 0.93291735649108887
0.83363831043243408 0.80428934097290039 0.93564498424530029
0.97127401828765869 0.84694927930831909 0.94209963083267212
0.79619705677032471 0.96432375907897949 0.95684337615966797
0.80900633335113525 0.96411687135696411 0.95726007223129272
0.847747802734375 0.9667389988899231 0.96417021751403809
0.9058380126953125 0.96745073795318604 0.96450197696685791
0.98753201961517334 0.98151481151580811 0.97749710083007812
