films/fuji_400h.cube
# Created by: G'MIC (https://gmic.eu)
TITLE "fuji_400h"
# LUT size
LUT_3D_SIZE 13
# Data domain
DOMAIN_MIN 0.0 0.0 0.0
DOMAIN_MAX 1.0 1.0 1.0
# LUT data points
0.043377581983804703 0.048464622348546982 0.037953693419694901
0.091513268649578094 0.045556027442216873 0.031782455742359161
0.16284768283367157 0.045975133776664734 0.030518939718604088
0.25863152742385864 0.039073854684829712 0.029721204191446304
0.37474772334098816 0.02484608069062233 0.027268294245004654
0.49938791990280151 0.014177270233631134 0.024322090670466423
0.62136602401733398 0.011270022019743919 0.017764925956726074
0.72994178533554077 0.014387123286724091 0.008646378293633461
0.81648898124694824 0.025049440562725067 0.0062667997553944588
0.88673043251037598 0.04715321958065033 0.0083930669352412224
0.94718718528747559 0.1026141569018364 0.0072112740017473698
0.98753082752227783 0.17489972710609436 0.0095346486195921898
0.99965870380401611 0.23529140651226044 0.019678197801113129
0.022096775472164154 0.094732441008090973 0.034055087715387344
0.0770096555352211 0.095519781112670898 0.030466550961136818
0.15810422599315643 0.10143585503101349 0.028266787528991699
0.25838378071784973 0.10156110674142838 0.023628085851669312
0.37625548243522644 0.091349057853221893 0.018445797264575958
0.50158077478408813 0.078621461987495422 0.016809860244393349
0.62362831830978394 0.070782527327537537 0.015125020407140255
0.73019832372665405 0.072424344718456268 0.010920610278844833
0.81543451547622681 0.089703008532524109 0.0048595950938761234
0.88585984706878662 0.11574398726224899 0.0020113927312195301
0.9477081298828125 0.16251632571220398 0.0052487840875983238
0.99062323570251465 0.22360357642173767 0.0082763973623514175
1 0.27514904737472534 0.010804045014083385
0.005862935446202755 0.16603006422519684 0.029048904776573181
0.047448266297578812 0.16536828875541687 0.028866158798336983
0.13412655889987946 0.17176418006420135 0.026241542771458626
0.2508852481842041 0.1788334846496582 0.016571404412388802
0.37375789880752563 0.17904843389987946 0.0082727018743753433
0.49927666783332825 0.17337930202484131 0.0050395592115819454
0.61925607919692993 0.16938577592372894 0.0029037175700068474
0.72376960515975952 0.17483778297901154 0.0018882452277466655
0.80897903442382812 0.19415666162967682 0.00095593323931097984
0.87945806980133057 0.21717521548271179 7.5396368629299104e-05
0.93889820575714111 0.24734562635421753 0.00083754298975691199
0.98125278949737549 0.28606027364730835 0.00099758070427924395
0.99946218729019165 0.32572656869888306 0.0010693419026210904
0.00030934950336813927 0.25286218523979187 0.022129746153950691
0.015892866998910904 0.25068706274032593 0.025334691628813744
0.094495542347431183 0.25476309657096863 0.021327553316950798
0.22564485669136047 0.26619100570678711 0.0088015086948871613
0.35991436243057251 0.27529391646385193 0.0016393025871366262
0.48912891745567322 0.27890518307685852 0.00010375976853538305
0.60710567235946655 0.28017339110374451 0
0.71045851707458496 0.28657004237174988 0
0.79685252904891968 0.30026012659072876 0
0.86851263046264648 0.31662172079086304 0
0.92843860387802124 0.33554065227508545 0
0.97361207008361816 0.36001598834991455 0
0.99871611595153809 0.38627663254737854 0.00016335879627149552
0 0.35215723514556885 0.017967822030186653
0.0082785515114665031 0.3505510687828064 0.020433418452739716
0.074823372066020966 0.35113134980201721 0.015872027724981308
0.19709064066410065 0.359617680311203 0.0045227501541376114
0.3356177806854248 0.37106046080589294 0.0001035802488331683
0.46939465403556824 0.37866508960723877 0
0.58885902166366577 0.38157784938812256 0
0.69350606203079224 0.38620132207870483 0
0.78110116720199585 0.39572986960411072 0
0.85466861724853516 0.40767228603363037 0
0.9177095890045166 0.42022949457168579 0
0.96950817108154297 0.43464428186416626 0
0.99887245893478394 0.45100867748260498 0.00014002183161210269
0 0.45238456130027771 0.014831947162747383
0.0066717709414660931 0.45120331645011902 0.019115254282951355
0.060759123414754868 0.44658675789833069 0.018159125000238419
0.16766992211341858 0.44847089052200317 0.008149540051817894
0.30635809898376465 0.45640259981155396 0.00052974926074966788
0.44290611147880554 0.4646187424659729 0
0.56460446119308472 0.4709494411945343 0
0.67085945606231689 0.47797989845275879 0
0.76127195358276367 0.48642200231552124 0
0.83754920959472656 0.49310702085494995 0
0.9035680890083313 0.49789494276046753 0
0.96054315567016602 0.50493669509887695 0
0.99740451574325562 0.51418089866638184 0
0 0.54111915826797485 0.012171352282166481
0.0032961079850792885 0.53811579942703247 0.021926671266555786
0.049249373376369476 0.53195697069168091 0.029659973457455635
0.15045224130153656 0.52994447946548462 0.021983381360769272
0.28549793362617493 0.53368782997131348 0.0065356236882507801
0.41927710175514221 0.5398024320602417 0.0015311746392399073
0.53913342952728271 0.54724752902984619 0.00030481675639748573
0.64538371562957764 0.55613517761230469 7.5396369538793806e-06
0.73784995079040527 0.56548738479614258 0
0.8163679838180542 0.56854718923568726 0
0.88572657108306885 0.56909632682800293 0
0.94807982444763184 0.57040011882781982 0
0.99453943967819214 0.57464933395385742 6.3204301113728434e-05
0 0.61881214380264282 0.026078617200255394
0.0022357865236699581 0.61386549472808838 0.043838486075401306
0.050431061536073685 0.60781866312026978 0.05849042534828186
0.15187627077102661 0.6042252779006958 0.060290992259979248
0.2781502902507782 0.60482805967330933 0.048635877668857574
0.40434330701828003 0.60824573040008545 0.029835944995284081
0.519489586353302 0.61363273859024048 0.011726962402462959
0.62166637182235718 0.62107682228088379 0.0031036077998578548
0.71188801527023315 0.62786012887954712 0.00012926588533446193
0.79225713014602661 0.63249850273132324 0
0.86582750082015991 0.63413757085800171 0
0.93377530574798584 0.63472294807434082 0
0.98973411321640015 0.63689428567886353 0.00013399311865214258
9.8015283583663404e-05 0.68625169992446899 0.087783008813858032
0.007143103051930666 0.68231695890426636 0.097064971923828125
0.072056695818901062 0.67673736810684204 0.11040839552879333
0.17637848854064941 0.67260062694549561 0.1197870597243309
0.29215428233146667 0.67156654596328735 0.12047572433948517
0.4058825671672821 0.67276465892791748 0.099525853991508484
0.51088100671768188 0.67594879865646362 0.06501421332359314
0.60460895299911499 0.6805800199508667 0.044011659920215607
0.68967735767364502 0.68526321649551392 0.023998454213142395
0.76877182722091675 0.69030427932739258 0.0060148350894451141
0.84497493505477905 0.69459128379821777 0.0011347302934154868
0.91886419057846069 0.69800412654876709 0.00035986807779408991
0.98290365934371948 0.70180219411849976 0.0013733807718381286
0.017499107867479324 0.7491571307182312 0.17205770313739777
0.040143884718418121 0.74630832672119141 0.17328207194805145
0.12914124131202698 0.74141585826873779 0.18021377921104431
0.23263384401798248 0.73765277862548828 0.19086593389511108
0.33178120851516724 0.73652821779251099 0.20052452385425568
0.42649814486503601 0.73697036504745483 0.1899506002664566
0.5151526927947998 0.73843288421630859 0.16554032266139984
0.59734523296356201 0.7408907413482666 0.14376012980937958
0.67467647790908813 0.74412906169891357 0.11682450771331787
0.74945616722106934 0.74791234731674194 0.079539462924003601
0.82566154003143311 0.75258404016494751 0.06123289093375206
0.90382951498031616 0.7589605450630188 0.054388906806707382
0.97522473335266113 0.76567322015762329 0.055344868451356888
0.1212393045425415 0.81091445684432983 0.26478150486946106
0.14629341661930084 0.80909055471420288 0.26314720511436462
0.226448655128479 0.8050837516784668 0.26460817456245422
0.31450921297073364 0.80159425735473633 0.27255529165267944
0.3893338143825531 0.80106574296951294 0.28754213452339172
0.46159812808036804 0.80185824632644653 0.29113000631332397
0.53214198350906372 0.80289697647094727 0.28182229399681091
0.60102075338363647 0.80424004793167114 0.26569285988807678
0.6689874529838562 0.80642801523208618 0.24465607106685638
0.73783373832702637 0.80880838632583618 0.21947427093982697
0.81025207042694092 0.81199663877487183 0.20153693854808807
0.89028185606002808 0.82010143995285034 0.18761759996414185
0.96607047319412231 0.82815074920654297 0.18170581758022308
0.27407670021057129 0.87388336658477783 0.37009784579277039
0.28886756300926208 0.87260454893112183 0.36643198132514954
0.33534008264541626 0.86954289674758911 0.36562341451644897
0.39456212520599365 0.86700904369354248 0.37299385666847229
0.44973385334014893 0.86654508113861084 0.38894850015640259
0.50416451692581177 0.86766529083251953 0.40317922830581665
0.55956244468688965 0.86877316236495972 0.40552359819412231
0.61553704738616943 0.86974608898162842 0.39553385972976685
0.67364352941513062 0.87217503786087036 0.3847920298576355
0.73595273494720459 0.87511372566223145 0.37325271964073181
0.80456197261810303 0.8776015043258667 0.35445067286491394
0.87950104475021362 0.88277906179428101 0.33327797055244446
0.95144784450531006 0.88777619600296021 0.31543734669685364
0.40877172350883484 0.9367985725402832 0.47865772247314453
0.41192519664764404 0.93390733003616333 0.46986979246139526
0.43338626623153687 0.93173998594284058 0.46747905015945435
0.46811014413833618 0.93009620904922485 0.47477483749389648
0.50743591785430908 0.92984867095947266 0.48985269665718079
0.54925882816314697 0.9314429759979248 0.5108027458190918
0.59352046251296997 0.93302518129348755 0.52263516187667847
0.63912749290466309 0.93366152048110962 0.51644676923751831
0.68861949443817139 0.93679803609848022 0.51394617557525635
0.74376016855239868 0.94049626588821411 0.51114225387573242
0.80694550275802612 0.94175052642822266 0.48868945240974426
0.87408298254013062 0.94381463527679443 0.46218734979629517
0.93976002931594849 0.94498026371002197 0.43588364124298096
0.049954045563936234 0.048582248389720917 0.083349712193012238
0.099985726177692413 0.048494316637516022 0.080175988376140594
0.1695377379655838 0.045912183821201324 0.081686325371265411
0.26263922452926636 0.033609040081501007 0.083380661904811859
0.37895610928535461 0.014930142089724541 0.085752807557582855
0.50735998153686523 0.0054275812581181526 0.086285896599292755
0.63235372304916382 0.0044930251315236092 0.081114687025547028
0.73968440294265747 0.0027807047590613365 0.073335342109203339
0.8240399956703186 0.014433064498007298 0.070296928286552429
0.89286607503890991 0.055606544017791748 0.06830432265996933
0.95277178287506104 0.11836713552474976 0.064724192023277283
0.9903455376625061 0.18693770468235016 0.073021113872528076
1 0.24328228831291199 0.09344000369310379
0.030285241082310677 0.10219701379537582 0.082088395953178406
0.089973613619804382 0.1025640144944191 0.082733809947967529
0.16932742297649384 0.10589496046304703 0.083105675876140594
0.26773476600646973 0.10073664039373398 0.080339722335338593
0.38504764437675476 0.08396555483341217 0.079420052468776703
0.51143985986709595 0.068344965577125549 0.081070676445960999
0.63343364000320435 0.062424231320619583 0.077742695808410645
0.73742812871932983 0.056807812303304672 0.070183545351028442
0.82003283500671387 0.079600363969802856 0.059759251773357391
0.88848835229873657 0.12601269781589508 0.050009991973638535
0.94889342784881592 0.17584362626075745 0.059649523347616196
0.98815113306045532 0.22967842221260071 0.068692497909069061
0.99981957674026489 0.27883729338645935 0.078347913920879364
0.0080307302996516228 0.17912338674068451 0.083429761230945587
0.064413748681545258 0.1782316118478775 0.084549099206924438
0.1570022851228714 0.18088789284229279 0.083448745310306549
0.26505330204963684 0.18412782251834869 0.076822184026241302
0.38742950558662415 0.18115192651748657 0.068155892193317413
0.51346457004547119 0.17436285316944122 0.062549740076065063
0.63026899099349976 0.1722898930311203 0.051371928304433823
0.72978222370147705 0.17494238913059235 0.042090814560651779
0.8109174370765686 0.19241343438625336 0.036231469362974167
0.8800046443939209 0.22198383510112762 0.03623473271727562
0.93961054086685181 0.25366270542144775 0.045878078788518906
0.98027718067169189 0.28934717178344727 0.048963777720928192
0.99839657545089722 0.3275485634803772 0.050486203283071518
0.0020735797006636858 0.26873409748077393 0.081470951437950134
0.039335962384939194 0.26818400621414185 0.084897555410861969
0.1280428022146225 0.26792588829994202 0.083042338490486145
0.24477760493755341 0.27407729625701904 0.070894576609134674
0.37695622444152832 0.28270754218101501 0.05328591912984848
0.50664371252059937 0.28564637899398804 0.037775002419948578
0.62199121713638306 0.28564903140068054 0.026133637875318527
0.719684898853302 0.29055175185203552 0.022401861846446991
0.79993796348571777 0.30256631970405579 0.017861578613519669
0.86937332153320312 0.31935808062553406 0.020436933264136314
0.92847377061843872 0.33934947848320007 0.022733276709914207
0.97149431705474854 0.36219435930252075 0.02608083002269268
0.99665772914886475 0.38711333274841309 0.039173111319541931
0.00038398292963393033 0.36777889728546143 0.079436913132667542
0.022462897002696991 0.36595538258552551 0.083765901625156403
0.097489364445209503 0.36360803246498108 0.082581751048564911
0.21429349482059479 0.36862248182296753 0.0673089399933815
0.35201546549797058 0.38001164793968201 0.044061653316020966
0.48706093430519104 0.38737761974334717 0.023245373740792274
0.60539299249649048 0.38798072934150696 0.01170584000647068
0.70575982332229614 0.39024743437767029 0.01274083461612463
0.78748965263366699 0.39735817909240723 0.012832432053983212
0.85709160566329956 0.40918681025505066 0.0088970111683011055
0.9177248477935791 0.42269891500473022 0.0046395245008170605
0.96601146459579468 0.4364616870880127 0.0068020541220903397
0.99662744998931885 0.45116245746612549 0.021229060366749763
9.8733344202628359e-06 0.46361997723579407 0.076432265341281891
0.0094333570450544357 0.46138480305671692 0.084516294300556183
0.064550317823886871 0.45594039559364319 0.089894331991672516
0.1708131730556488 0.45590314269065857 0.079405121505260468
0.31561008095741272 0.46352240443229675 0.052768394351005554
0.45511183142662048 0.47164401412010193 0.029181536287069321
0.57867938280105591 0.47892457246780396 0.011441653594374657
0.68230485916137695 0.4827485978603363 0.007178198080509901
0.76727074384689331 0.48701441287994385 0.0031585993710905313
0.83958536386489868 0.49310103058815002 0.00054286880185827613
0.90377318859100342 0.49864077568054199 0.00011189778888365254
0.95819145441055298 0.50490576028823853 0.00036710849963128567
0.99573820829391479 0.51384997367858887 0.0034583148080855608
0 0.5498625636100769 0.079226188361644745
0.00098004809115082026 0.54657471179962158 0.089418552815914154
0.041128374636173248 0.53969764709472656 0.1009490042924881
0.1460702121257782 0.53618580102920532 0.096882164478302002
0.28993046283721924 0.53934025764465332 0.073918722569942474
0.42770624160766602 0.54512542486190796 0.055075116455554962
0.54929244518280029 0.55253452062606812 0.037883114069700241
0.65429234504699707 0.55918747186660767 0.020266978070139885
0.74237555265426636 0.56493669748306274 0.0044338302686810493
0.8185502290725708 0.56840246915817261 0.00010367000504629686
0.88637864589691162 0.57018208503723145 0
0.94715821743011475 0.57112640142440796 0
0.99407315254211426 0.57518786191940308 0.00081134872743859887
1.0696111530705821e-05 0.62557262182235718 0.097147099673748016
2.5177001589327119e-05 0.62112390995025635 0.10790774971246719
0.037880107760429382 0.61428427696228027 0.12172304093837738
0.14798767864704132 0.60975033044815063 0.12482154369354248
0.28245669603347778 0.60900402069091797 0.11549848318099976
0.41140040755271912 0.61139702796936035 0.10162512212991714
0.52677208185195923 0.61645269393920898 0.08224913477897644
0.62787455320358276 0.62267804145812988 0.051166906952857971
0.71587926149368286 0.62832397222518921 0.016623193398118019
0.7947382926940918 0.63381844758987427 0.0054151345975697041
0.86673873662948608 0.637581467628479 0.00094574573449790478
0.93424403667449951 0.63788646459579468 0
0.9900367259979248 0.63855314254760742 0.00042959474376402795
0.0066569759510457516 0.69140070676803589 0.14497625827789307
0.0095642535015940666 0.68749254941940308 0.1505291759967804
0.066589131951332092 0.68142616748809814 0.16258704662322998
0.17574769258499146 0.67621785402297974 0.17070199549198151
0.29821053147315979 0.67353707551956177 0.17064578831195831
0.41283425688743591 0.67397475242614746 0.15978626906871796
0.51549625396728516 0.67677253484725952 0.13813938200473785
0.60796463489532471 0.68069535493850708 0.11038210988044739
0.69214737415313721 0.68553560972213745 0.075750105082988739
0.77152454853057861 0.69246953725814819 0.050194684416055679
0.84696614742279053 0.69859135150909424 0.028617080301046371
0.91981112957000732 0.70122116804122925 0.012120833620429039
0.98408859968185425 0.70305967330932617 0.010667149908840656
0.057455684989690781 0.752094566822052 0.21217714250087738
0.071130953729152679 0.74941045045852661 0.21352049708366394
0.13972246646881104 0.74439853429794312 0.22087004780769348
0.23856587707996368 0.73958861827850342 0.23007981479167938
0.33936536312103271 0.73684650659561157 0.2370186448097229
0.43264490365982056 0.73624688386917114 0.23290617763996124
0.51796847581863403 0.73717546463012695 0.21828891336917877
0.59786003828048706 0.73946976661682129 0.20185786485671997
0.6749226450920105 0.74273169040679932 0.18041491508483887
0.75080734491348267 0.7489626407623291 0.14858387410640717
0.82691353559494019 0.75489884614944458 0.12240655720233917
0.90367335081100464 0.76081782579421997 0.096240505576133728
0.97458350658416748 0.76569837331771851 0.084233678877353668
0.16268563270568848 0.81062895059585571 0.2893775999546051
0.1811903715133667 0.81055039167404175 0.29222705960273743
0.24416166543960571 0.80714559555053711 0.29658377170562744
0.32387515902519226 0.80323797464370728 0.30485224723815918
0.39643099904060364 0.80119717121124268 0.31750679016113281
0.46585550904273987 0.80046659708023071 0.32161912322044373
0.53297328948974609 0.80032509565353394 0.31478002667427063
0.59878545999526978 0.80090039968490601 0.30197173357009888
0.66614151000976562 0.8038557767868042 0.28760084509849548
0.73627924919128418 0.80844205617904663 0.2695624828338623
0.80938071012496948 0.81326699256896973 0.2508050799369812
0.88787859678268433 0.82067418098449707 0.22900731861591339
0.96157717704772949 0.82727169990539551 0.21475806832313538
0.29571548104286194 0.87186437845230103 0.37961670756340027
0.31063532829284668 0.87340116500854492 0.38643687963485718
0.35169574618339539 0.87157189846038818 0.39139619469642639
0.40515106916427612 0.86899495124816895 0.39966294169425964
0.45619881153106689 0.86714696884155273 0.41251343488693237
0.5069391131401062 0.86626791954040527 0.42222133278846741
0.55861169099807739 0.86583727598190308 0.42174637317657471
0.61150228977203369 0.86577105522155762 0.41194042563438416
0.66965436935424805 0.86878365278244019 0.40570977330207825
0.73318731784820557 0.87347626686096191 0.40122660994529724
0.80201804637908936 0.87813955545425415 0.39023855328559875
0.87538528442382812 0.88410419225692749 0.37186166644096375
0.94720244407653809 0.88820093870162964 0.34959223866462708
0.41330188512802124 0.93373537063598633 0.48360618948936462
0.42423605918884277 0.9348188042640686 0.48650103807449341
0.4462815523147583 0.934428870677948 0.48982280492782593
0.47821936011314392 0.9330480694770813 0.49768191576004028
0.51335799694061279 0.93157440423965454 0.50945574045181274
0.55115610361099243 0.93085604906082153 0.5221143364906311
0.59254461526870728 0.93068885803222656 0.52785992622375488
0.63593375682830811 0.93136793375015259 0.52501893043518066
0.68546700477600098 0.93432992696762085 0.52456516027450562
0.74179887771606445 0.93884766101837158 0.52493810653686523
0.8037722110748291 0.9430084228515625 0.51691198348999023
0.8694998025894165 0.94689780473709106 0.50264090299606323
0.93600070476531982 0.94820564985275269 0.47324272990226746
0.06131318211555481 0.050550259649753571 0.14885605871677399
0.11198679357767105 0.05307421088218689 0.15026694536209106
0.18005050718784332 0.048705935478210449 0.15406471490859985
0.26784300804138184 0.033676985651254654 0.15596690773963928
0.38584274053573608 0.014209612272679806 0.16082972288131714
0.51789367198944092 0.0064983293414115906 0.16415463387966156
0.64329695701599121 0.0053495368920266628 0.1653401255607605
0.74574166536331177 0.0010782728204503655 0.17157459259033203
0.82622957229614258 0.0098070036619901657 0.17970512807369232
0.89348554611206055 0.056632425636053085 0.18028885126113892
0.95142686367034912 0.13466490805149078 0.17926453053951263
0.98881715536117554 0.21247027814388275 0.18925745785236359
0.99997198581695557 0.26244574785232544 0.20079891383647919
0.043633762747049332 0.1058545708656311 0.1546163409948349
0.107878677546978 0.10934022068977356 0.15717372298240662
0.18524879217147827 0.1104564443230629 0.15967538952827454
0.28088778257369995 0.10153738409280777 0.16033418476581573
0.39716362953186035 0.080713354051113129 0.16212661564350128
0.52400338649749756 0.06634259968996048 0.16710229218006134
0.64428102970123291 0.060646641999483109 0.17011080682277679
0.74451243877410889 0.05331401526927948 0.17110010981559753
0.82349556684494019 0.08016514778137207 0.1718650609254837
0.88992917537689209 0.13369525969028473 0.17075346410274506
0.94848173856735229 0.19330072402954102 0.17541781067848206
0.98780417442321777 0.24831627309322357 0.18404893577098846
0.99943792819976807 0.2924969494342804 0.1917632669210434
0.014090848155319691 0.18651624023914337 0.16194240748882294
0.0810202956199646 0.18597753345966339 0.16461440920829773
0.18019026517868042 0.19014663994312286 0.16643773019313812
0.28628590703010559 0.19021089375019073 0.16482973098754883
0.40524530410766602 0.1832028329372406 0.16219678521156311
0.53024494647979736 0.17924444377422333 0.16311328113079071
0.64443063735961914 0.17467030882835388 0.1593620777130127
0.73886525630950928 0.17495572566986084 0.15568327903747559
0.81517302989959717 0.20041798055171967 0.15549500286579132
0.88095927238464355 0.23410695791244507 0.15755780041217804
0.93986892700195312 0.2687319815158844 0.16367539763450623
0.98301690816879272 0.30247429013252258 0.1691364049911499
0.99922794103622437 0.33814260363578796 0.17590485513210297
0.0015613032737746835 0.28753525018692017 0.16744537651538849
0.04467812180519104 0.28725507855415344 0.16988249123096466
0.16233378648757935 0.28481501340866089 0.17147305607795715
0.27504104375839233 0.28634968400001526 0.16722062230110168
0.39926424622535706 0.29059240221977234 0.15769237279891968
0.52522653341293335 0.29271808266639709 0.14783494174480438
0.63726186752319336 0.28979948163032532 0.1372053474187851
0.72939491271972656 0.29396212100982666 0.13440525531768799
0.80450344085693359 0.3090636134147644 0.1362251341342926
0.87033224105834961 0.32697266340255737 0.13680015504360199
0.92861467599868774 0.34678909182548523 0.13761204481124878
0.97289586067199707 0.36991629004478455 0.14431151747703552
0.9973604679107666 0.39361828565597534 0.16451825201511383
0.00058952783001586795 0.39100828766822815 0.17082127928733826
0.032400783151388168 0.38885951042175293 0.17472173273563385
0.13076227903366089 0.38241258263587952 0.17556607723236084
0.24921827018260956 0.38193577527999878 0.16969795525074005
0.37664172053337097 0.38795182108879089 0.15563879907131195
0.50421237945556641 0.39073815941810608 0.13395418226718903
0.61973845958709717 0.39113274216651917 0.11109384149312973
0.71462148427963257 0.39483553171157837 0.10687620937824249
0.79149967432022095 0.40099313855171204 0.10857551544904709
0.85826379060745239 0.4112321138381958 0.10812030732631683
0.9182811975479126 0.42500278353691101 0.10641391575336456
0.96731436252593994 0.43919083476066589 0.11275528371334076
0.99685674905776978 0.45403501391410828 0.13051213324069977
0.00057265337090939283 0.48271945118904114 0.17365925014019012
