films/fuji_superia_200_xpro.cube
# Created by: G'MIC (https://gmic.eu)
TITLE "fuji_superia_200_xpro"
# LUT size
LUT_3D_SIZE 5
# Data domain
DOMAIN_MIN 0.0 0.0 0.0
DOMAIN_MAX 1.0 1.0 1.0
# LUT data points
0.000303769571473822 0.036495417356491089 0.20419524610042572
0.0010151582537218928 0.063512884080410004 0.24979963898658752
0.018765168264508247 0.071782656013965607 0.26982074975967407
0.14995385706424713 0.067290693521499634 0.27934566140174866
0.34445714950561523 0.088224045932292938 0.29325386881828308
0.0025110582355409861 0.30948105454444885 0.41328608989715576
0.0076563968323171139 0.31383854150772095 0.42177081108093262
0.052970483899116516 0.30644094944000244 0.42135071754455566
0.22977644205093384 0.26060640811920166 0.39707702398300171
0.43017217516899109 0.24369563162326813 0.38165870308876038
0 0.64997237920761108 0.59595972299575806
0 0.65020167827606201 0.59284532070159912
0.088951855897903442 0.61383628845214844 0.57631534337997437
0.34604161977767944 0.52065092325210571 0.52580219507217407
0.54571318626403809 0.4433082640171051 0.48467567563056946
0.15219104290008545 0.99598175287246704 0.78579592704772949
0.14457111060619354 0.99827831983566284 0.79053348302841187
0.28327342867851257 0.98058092594146729 0.77631372213363647
0.49227970838546753 0.90091598033905029 0.70118808746337891
0.70767229795455933 0.7342115044593811 0.62003278732299805
0.9513440728187561 1 0.9855312705039978
0.95596206188201904 1 0.99074888229370117
0.96956562995910645 1 0.99930214881896973
0.98099219799041748 1 0.99637860059738159
0.98745310306549072 0.9964214563369751 0.85889112949371338
0 0.080306991934776306 0.43146321177482605
0 0.094712093472480774 0.43611833453178406
0.0012763827107846737 0.073497489094734192 0.41931977868080139
0.10237687081098557 0.073182724416255951 0.39958494901657104
0.33219233155250549 0.12423159927129745 0.39747735857963562
0.0013898513279855251 0.32718768715858459 0.55041778087615967
1.8714456018642522e-05 0.32482507824897766 0.54630029201507568
0.033988084644079208 0.29678961634635925 0.52364885807037354
0.19718718528747559 0.25797352194786072 0.48527222871780396
0.4026387631893158 0.25384372472763062 0.4668368399143219
0.00060537003446370363 0.64820867776870728 0.68399637937545776
0.00040431303204968572 0.64129972457885742 0.67801332473754883
0.035335030406713486 0.59463351964950562 0.65050631761550903
0.30947431921958923 0.49988445639610291 0.5953250527381897
0.51570123434066772 0.44230294227600098 0.553749680519104
0.11783288419246674 0.9978020191192627 0.87322545051574707
0.11170775443315506 0.99330651760101318 0.86600303649902344
0.1609090119600296 0.97452807426452637 0.83588868379592896
0.45909598469734192 0.86198437213897705 0.75710868835449219
0.685169517993927 0.72134160995483398 0.66836047172546387
0.91274064779281616 1 1
0.92584460973739624 1 1
0.94352710247039795 0.9981694221496582 1
0.95691758394241333 0.99820345640182495 0.99789327383041382
0.97067666053771973 0.99985063076019287 0.88021260499954224
0 0.1180548295378685 0.5644456148147583
0 0.11049290001392365 0.55325025320053101
0.014235477894544601 0.094987951219081879 0.52834504842758179
0.10545163601636887 0.10860149562358856 0.5125420093536377
0.31638941168785095 0.15106874704360962 0.4997500479221344
0 0.34441021084785461 0.66562622785568237
0.00017219992878381163 0.32815453410148621 0.65072309970855713
0.046780049800872803 0.29639282822608948 0.62584477663040161
0.17373839020729065 0.27027517557144165 0.5906524658203125
0.38396099209785461 0.27294826507568359 0.56699299812316895
0.0011819128412753344 0.6283562183380127 0.78555518388748169
0 0.60465943813323975 0.76813340187072754
0.071464091539382935 0.54769408702850342 0.73356932401657104
0.2919231653213501 0.48857006430625916 0.68801784515380859
0.49894139170646667 0.45171424746513367 0.64444565773010254
0.048863504081964493 0.98442971706390381 0.9544559121131897
0.049606308341026306 0.96915692090988159 0.93581622838973999
0.18979792296886444 0.92201524972915649 0.88969123363494873
0.45564332604408264 0.82056093215942383 0.82089680433273315
0.66475272178649902 0.70726394653320312 0.74858653545379639
0.86736029386520386 1 1
0.88109093904495239 1 1
0.90231180191040039 1 1
0.89985924959182739 1 0.99985641241073608
0.94222915172576904 0.99690824747085571 0.92769473791122437
7.5845155151910149e-06 0.15369231998920441 0.67421501874923706
0.00090311089297756553 0.15390436351299286 0.66153401136398315
0.039850540459156036 0.15786467492580414 0.64567780494689941
0.1351153701543808 0.16521501541137695 0.62750601768493652
0.32061433792114258 0.19931824505329132 0.60932224988937378
0 0.34584033489227295 0.75646913051605225
0.0052359635010361671 0.33091458678245544 0.74208724498748779
0.067959263920783997 0.31545048952102661 0.72387003898620605
0.20746198296546936 0.30543690919876099 0.69945484399795532
0.39895138144493103 0.32400357723236084 0.67432308197021484
0.00065819238079711795 0.57904523611068726 0.85175079107284546
0.042252618819475174 0.55920088291168213 0.83675861358642578
0.15600390732288361 0.52519804239273071 0.81102442741394043
0.33020228147506714 0.4952302873134613 0.78029334545135498
0.51081955432891846 0.48355603218078613 0.74338662624359131
0.10390692204236984 0.90370160341262817 0.97583723068237305
0.18907055258750916 0.88063615560531616 0.96605277061462402
0.33511602878570557 0.83911877870559692 0.93899166584014893
0.49347606301307678 0.77080166339874268 0.89401900768280029
0.66102266311645508 0.70392394065856934 0.83341497182846069
0.82914036512374878 1 1
0.81084305047988892 1 1
0.83852928876876831 1 1
0.83733034133911133 1 1
0.902992844581604 0.99114376306533813 0.97218948602676392
0.034649103879928589 0.22132652997970581 0.75944125652313232
0.046386748552322388 0.2245844304561615 0.76185035705566406
0.11062871664762497 0.22550018131732941 0.74827253818511963
0.21068276464939117 0.24626481533050537 0.73836749792098999
0.3857789933681488 0.29487475752830505 0.7263493537902832
0.041168723255395889 0.3692784309387207 0.82914704084396362
0.063844136893749237 0.36625617742538452 0.82720577716827393
0.14919000864028931 0.36272326111793518 0.81579822301864624
0.29705938696861267 0.37195348739624023 0.80182236433029175
0.45809844136238098 0.39409917593002319 0.77630078792572021
0.1468578428030014 0.55736702680587769 0.9033394455909729
0.21723613142967224 0.55262130498886108 0.90356576442718506
0.31673818826675415 0.54483604431152344 0.89105522632598877
0.42438474297523499 0.53477972745895386 0.86835867166519165
0.56515765190124512 0.53245973587036133 0.83530169725418091
0.40758359432220459 0.80413240194320679 0.98925596475601196
0.44046685099601746 0.79584556818008423 0.98859691619873047
0.50287508964538574 0.77562016248703003 0.97677028179168701
0.58300459384918213 0.74789458513259888 0.95479702949523926
0.70708310604095459 0.71486520767211914 0.91389334201812744
0.77671557664871216 1 1
0.80366069078445435 0.99855369329452515 1
0.81635946035385132 0.99942159652709961 1
0.84926164150238037 0.99675530195236206 1
0.93274670839309692 0.96788913011550903 0.99566638469696045
