films/fuji_fp-3000b.cube
# Created by: G'MIC (https://gmic.eu)
TITLE "fuji_fp-3000b"
# LUT size
LUT_3D_SIZE 5
# Data domain
DOMAIN_MIN 0.0 0.0 0.0
DOMAIN_MAX 1.0 1.0 1.0
# LUT data points
0.083674952387809753 0.083674952387809753 0.083674952387809753
0.14590039849281311 0.14590039849281311 0.14590039849281311
0.25835064053535461 0.25835064053535461 0.25835064053535461
0.44346019625663757 0.44346019625663757 0.44346019625663757
0.64758342504501343 0.64758342504501343 0.64758342504501343
0.13685199618339539 0.13685199618339539 0.13685199618339539
0.22327993810176849 0.22327993810176849 0.22327993810176849
0.36574575304985046 0.36574575304985046 0.36574575304985046
0.5074959397315979 0.5074959397315979 0.5074959397315979
0.68129491806030273 0.68129491806030273 0.68129491806030273
0.29237270355224609 0.29237270355224609 0.29237270355224609
0.31889265775680542 0.31889265775680542 0.31889265775680542
0.48484316468238831 0.48484316468238831 0.48484316468238831
0.6622161865234375 0.6622161865234375 0.6622161865234375
0.77779245376586914 0.77779245376586914 0.77779245376586914
0.50106346607208252 0.50106346607208252 0.50106346607208252
0.46318227052688599 0.46318227052688599 0.46318227052688599
0.56935226917266846 0.56935226917266846 0.56935226917266846
0.76736390590667725 0.76736390590667725 0.76736390590667725
0.87015235424041748 0.87015235424041748 0.87015235424041748
0.77865338325500488 0.77865338325500488 0.77865338325500488
0.7581782341003418 0.7581782341003418 0.7581782341003418
0.78123366832733154 0.78123366832733154 0.78123366832733154
0.87027662992477417 0.87027662992477417 0.87027662992477417
0.94533240795135498 0.94533240795135498 0.94533240795135498
0.16211768984794617 0.16211768984794617 0.16211768984794617
0.2152884304523468 0.2152884304523468 0.2152884304523468
0.33353433012962341 0.33353433012962341 0.33353433012962341
0.48865708708763123 0.48865708708763123 0.48865708708763123
0.66835331916809082 0.66835331916809082 0.66835331916809082
0.23205061256885529 0.23205061256885529 0.23205061256885529
0.27497121691703796 0.27497121691703796 0.27497121691703796
0.3904462456703186 0.3904462456703186 0.3904462456703186
0.53943866491317749 0.53943866491317749 0.53943866491317749
0.70510870218276978 0.70510870218276978 0.70510870218276978
0.40790393948554993 0.40790393948554993 0.40790393948554993
0.39690884947776794 0.39690884947776794 0.39690884947776794
0.52360904216766357 0.52360904216766357 0.52360904216766357
0.68102085590362549 0.68102085590362549 0.68102085590362549
0.79373419284820557 0.79373419284820557 0.79373419284820557
0.5942615270614624 0.5942615270614624 0.5942615270614624
0.55520123243331909 0.55520123243331909 0.55520123243331909
0.59609997272491455 0.59609997272491455 0.59609997272491455
0.77191734313964844 0.77191734313964844 0.77191734313964844
0.88421010971069336 0.88421010971069336 0.88421010971069336
0.80071568489074707 0.80071568489074707 0.80071568489074707
0.78385680913925171 0.78385680913925171 0.78385680913925171
0.78977352380752563 0.78977352380752563 0.78977352380752563
0.88008373975753784 0.88008373975753784 0.88008373975753784
0.95812845230102539 0.95812845230102539 0.95812845230102539
0.3302142322063446 0.3302142322063446 0.3302142322063446
0.38392382860183716 0.38392382860183716 0.38392382860183716
0.45619821548461914 0.45619821548461914 0.45619821548461914
0.60021328926086426 0.60021328926086426 0.60021328926086426
0.75619977712631226 0.75619977712631226 0.75619977712631226
0.38801589608192444 0.38801589608192444 0.38801589608192444
0.42785748839378357 0.42785748839378357 0.42785748839378357
0.52009779214859009 0.52009779214859009 0.52009779214859009
0.63085287809371948 0.63085287809371948 0.63085287809371948
0.76933717727661133 0.76933717727661133 0.76933717727661133
0.52543586492538452 0.52543586492538452 0.52543586492538452
0.53969496488571167 0.53969496488571167 0.53969496488571167
0.6051824688911438 0.6051824688911438 0.6051824688911438
0.70875328779220581 0.70875328779220581 0.70875328779220581
0.81726229190826416 0.81726229190826416 0.81726229190826416
0.71068829298019409 0.71068829298019409 0.71068829298019409
0.7150464653968811 0.7150464653968811 0.7150464653968811
0.6949581503868103 0.6949581503868103 0.6949581503868103
0.78462105989456177 0.78462105989456177 0.78462105989456177
0.89208674430847168 0.89208674430847168 0.89208674430847168
0.86373698711395264 0.86373698711395264 0.86373698711395264
0.86465764045715332 0.86465764045715332 0.86465764045715332
0.83987128734588623 0.83987128734588623 0.83987128734588623
0.88672512769699097 0.88672512769699097 0.88672512769699097
0.95906615257263184 0.95906615257263184 0.95906615257263184
0.60424506664276123 0.60424506664276123 0.60424506664276123
0.62720906734466553 0.62720906734466553 0.62720906734466553
0.68172043561935425 0.68172043561935425 0.68172043561935425
0.72803592681884766 0.72803592681884766 0.72803592681884766
0.82247501611709595 0.82247501611709595 0.82247501611709595
0.6267627477645874 0.6267627477645874 0.6267627477645874
0.65116328001022339 0.65116328001022339 0.65116328001022339
0.70733529329299927 0.70733529329299927 0.70733529329299927
0.75151705741882324 0.75151705741882324 0.75151705741882324
0.83616197109222412 0.83616197109222412 0.83616197109222412
0.66326701641082764 0.66326701641082764 0.66326701641082764
0.67819547653198242 0.67819547653198242 0.67819547653198242
0.7348862886428833 0.7348862886428833 0.7348862886428833
0.79034954309463501 0.79034954309463501 0.79034954309463501
0.86018097400665283 0.86018097400665283 0.86018097400665283
0.79285562038421631 0.79285562038421631 0.79285562038421631
0.78584522008895874 0.78584522008895874 0.78584522008895874
0.80396050214767456 0.80396050214767456 0.80396050214767456
0.84683442115783691 0.84683442115783691 0.84683442115783691
0.90809816122055054 0.90809816122055054 0.90809816122055054
0.90869367122650146 0.90869367122650146 0.90869367122650146
0.90344923734664917 0.90344923734664917 0.90344923734664917
0.90935295820236206 0.90935295820236206 0.90935295820236206
0.9255443811416626 0.9255443811416626 0.9255443811416626
0.96143805980682373 0.96143805980682373 0.96143805980682373
0.86127907037734985 0.86127907037734985 0.86127907037734985
0.85229295492172241 0.85229295492172241 0.85229295492172241
0.86757194995880127 0.86757194995880127 0.86757194995880127
0.89394313097000122 0.89394313097000122 0.89394313097000122
0.93155902624130249 0.93155902624130249 0.93155902624130249
0.86441469192504883 0.86441469192504883 0.86441469192504883
0.86976331472396851 0.86976331472396851 0.86976331472396851
0.88842719793319702 0.88842719793319702 0.88842719793319702
0.90910828113555908 0.90910828113555908 0.90910828113555908
0.94016116857528687 0.94016116857528687 0.94016116857528687
0.87497377395629883 0.87497377395629883 0.87497377395629883
0.86737573146820068 0.86737573146820068 0.86737573146820068
0.89242470264434814 0.89242470264434814 0.89242470264434814
0.91516298055648804 0.91516298055648804 0.91516298055648804
0.94739776849746704 0.94739776849746704 0.94739776849746704
0.89430242776870728 0.89430242776870728 0.89430242776870728
0.88875371217727661 0.88875371217727661 0.88875371217727661
0.90856599807739258 0.90856599807739258 0.90856599807739258
0.93359261751174927 0.93359261751174927 0.93359261751174927
0.96137988567352295 0.96137988567352295 0.96137988567352295
0.94426167011260986 0.94426167011260986 0.94426167011260986
0.94456177949905396 0.94456177949905396 0.94456177949905396
0.95875799655914307 0.95875799655914307 0.95875799655914307
0.97180730104446411 0.97180730104446411 0.97180730104446411
0.97799128293991089 0.97799128293991089 0.97799128293991089
