films/fuji_superia_200_xpro.cube
# Created by: G'MIC (https://gmic.eu)
TITLE "fuji_superia_200_xpro"
# LUT size
LUT_3D_SIZE 7
# Data domain
DOMAIN_MIN 0.0 0.0 0.0
DOMAIN_MAX 1.0 1.0 1.0
# LUT data points
0.000303769571473822 0.036495417356491089 0.20419524610042572
0.00059548171702772379 0.051649264991283417 0.24276365339756012
0.0023146835155785084 0.076227553188800812 0.25957503914833069
0.018765168264508247 0.071782656013965607 0.26982074975967407
0.093736432492733002 0.066702090203762054 0.27686917781829834
0.21199247241020203 0.071257360279560089 0.28311911225318909
0.34445714950561523 0.088224045932292938 0.29325386881828308
0.0021701438818126917 0.22177852690219879 0.35341319441795349
0.0048503503203392029 0.23021665215492249 0.36224856972694397
0.024391040205955505 0.24188275635242462 0.37446963787078857
0.061493474990129471 0.22805958986282349 0.37831178307533264
0.15036921203136444 0.19886218011379242 0.36142393946647644
0.26523524522781372 0.19057841598987579 0.35546258091926575
0.40103060007095337 0.19243854284286499 0.35044047236442566
0.00067521637538447976 0.40049150586128235 0.4734346866607666
0.00011104509030701593 0.4030705988407135 0.4723905622959137
0.0062558194622397423 0.40518081188201904 0.47798696160316467
0.048281874507665634 0.39528527855873108 0.46769583225250244
0.18792305886745453 0.35363665223121643 0.44833278656005859
0.32888489961624146 0.31989449262619019 0.42779320478439331
0.46399113535881042 0.3001464307308197 0.41339579224586487
0 0.64997237920761108 0.59595972299575806
0 0.65141898393630981 0.59438705444335938
0.0016626245342195034 0.64165568351745605 0.58916831016540527
0.088951855897903442 0.61383628845214844 0.57631534337997437
0.26703941822052002 0.55571717023849487 0.54445046186447144
0.41431352496147156 0.48787638545036316 0.50952476263046265
0.54571318626403809 0.4433082640171051 0.48467567563056946
0.0044680428691208363 0.92577528953552246 0.72261571884155273
0.0044287289492785931 0.93061119318008423 0.72469824552536011
0.0061698462814092636 0.91756469011306763 0.71953892707824707
0.15239687263965607 0.88032221794128418 0.70318084955215454
0.35333389043807983 0.80876731872558594 0.66028797626495361
0.51444780826568604 0.7090650200843811 0.6083868145942688
0.64836210012435913 0.62322843074798584 0.56965714693069458
0.45944106578826904 1 0.85189664363861084
0.45585212111473083 1 0.85829752683639526
0.46614846587181091 1 0.86378693580627441
0.51906204223632812 1 0.8636479377746582
0.5740591287612915 0.99924105405807495 0.82746773958206177
0.64720076322555542 0.97285550832748413 0.74893802404403687
0.77526164054870605 0.86115807294845581 0.6733245849609375
0.9513440728187561 1 0.9855312705039978
0.95585525035858154 1 0.98914170265197754
0.96005713939666748 1 0.99261289834976196
0.96956562995910645 1 0.99930214881896973
0.97594296932220459 1 0.9981265664100647
0.9782867431640625 1 0.97815501689910889
0.98745310306549072 0.9964214563369751 0.85889112949371338
0 0.054524321109056473 0.37644684314727783
0 0.079129599034786224 0.38890048861503601
0 0.092142291367053986 0.39342167973518372
0.0015475404215976596 0.078850582242012024 0.38213685154914856
0.048618525266647339 0.056899230927228928 0.36542955040931702
0.1811540275812149 0.080893710255622864 0.36220863461494446
0.33449307084083557 0.11107304692268372 0.363273024559021
0 0.23576214909553528 0.46622028946876526
0 0.24215707182884216 0.47022899985313416
0.0078422399237751961 0.24393366277217865 0.46967214345932007
0.043561585247516632 0.22355207800865173 0.45594605803489685
0.12277735024690628 0.19489036500453949 0.4316871166229248
0.24409957230091095 0.19386419653892517 0.41708430647850037
0.38838821649551392 0.2037348598241806 0.40846306085586548
0.0014184539904817939 0.40888741612434387 0.54712456464767456
0 0.41078317165374756 0.54868674278259277
0.00040779862320050597 0.40889397263526917 0.54636943340301514
0.028328750282526016 0.38606777787208557 0.53119254112243652
0.16092656552791595 0.34827739000320435 0.49871191382408142
0.30951964855194092 0.31700882315635681 0.47495701909065247
0.44493654370307922 0.30575278401374817 0.4624352753162384
0 0.64877474308013916 0.65063941478729248
0 0.6464921236038208 0.64835411310195923
0 0.63719433546066284 0.64274299144744873
0.048027321696281433 0.60401880741119385 0.62339621782302856
0.24290284514427185 0.53941565752029419 0.58548897504806519
0.39577117562294006 0.47880083322525024 0.55095428228378296
0.52671080827713013 0.44122537970542908 0.52675348520278931
0.014524556696414948 0.91888535022735596 0.7699928879737854
0.027105594053864479 0.90730661153793335 0.76767939329147339
0.0017447976861149073 0.90781354904174805 0.75930541753768921
0.093367904424667358 0.8654935359954834 0.73762279748916626
0.33208709955215454 0.78484594821929932 0.69595015048980713
0.49576154351234436 0.69163757562637329 0.64738756418228149
0.63156211376190186 0.61879777908325195 0.60472565889358521
0.43554309010505676 1 0.90642672777175903
0.43889921903610229 1 0.90814113616943359
0.43620511889457703 1 0.91109400987625122
0.47589400410652161 1 0.90699225664138794
0.52716517448425293 0.99921131134033203 0.85585975646972656
0.62979751825332642 0.95186048746109009 0.77642554044723511
0.7630687952041626 0.85064929723739624 0.69650381803512573
0.9283025860786438 1 0.99893647432327271
0.93540555238723755 1 0.99918478727340698
0.94002974033355713 1 0.99990761280059814
0.95375615358352661 0.99994254112243652 1
0.96303313970565796 0.99999219179153442 0.99844563007354736
0.9676472544670105 0.99873846769332886 0.98205280303955078
0.97700512409210205 0.9997708797454834 0.86947917938232422
0 0.09399133175611496 0.48013317584991455
0 0.10525856912136078 0.47906437516212463
1.1488970812933985e-05 0.095952741801738739 0.47127798199653625
0.0022733800578862429 0.076684929430484772 0.45521539449691772
0.049206975847482681 0.076893948018550873 0.4406941831111908
0.16949497163295746 0.097494266927242279 0.43433800339698792
0.32151448726654053 0.12923602759838104 0.43105143308639526
0 0.25624239444732666 0.55595004558563232
0 0.25258693099021912 0.55161488056182861
0.0020261576864868402 0.24172675609588623 0.54013347625732422
0.027901817113161087 0.22344185411930084 0.52176576852798462
0.11047949641942978 0.20311768352985382 0.49837970733642578
0.22583147883415222 0.20058527588844299 0.4854203462600708
0.36526334285736084 0.21033233404159546 0.47745409607887268
0.0039215688593685627 0.42524966597557068 0.62992221117019653
0.00090192904463037848 0.42138975858688354 0.62476825714111328
0 0.40864267945289612 0.61348414421081543
0.0088754994794726372 0.38072797656059265 0.59143990278244019
0.13947844505310059 0.34260055422782898 0.56252104043960571
0.28163066506385803 0.31607794761657715 0.54206383228302002
0.42335343360900879 0.31021755933761597 0.52548491954803467
0.0037270640023052692 0.64558833837509155 0.72024476528167725
0.0034763859584927559 0.64015042781829834 0.71480804681777954
4.434024594957009e-05 0.62325024604797363 0.70339667797088623
0.038933921605348587 0.58028650283813477 0.67806321382522583
0.21240667998790741 0.52083861827850342 0.64282715320587158
0.36605820059776306 0.47227689623832703 0.61139386892318726
0.50625598430633545 0.44408133625984192 0.5831294059753418
0.0014160305727273226 0.91041511297225952 0.83724707365036011
0.0014189177891239524 0.90243959426879883 0.83203083276748657
0 0.88259220123291016 0.81971448659896851
0.077864415943622589 0.83262050151824951 0.78890424966812134
0.31563135981559753 0.75248348712921143 0.7438855767250061
0.4716203510761261 0.67646467685699463 0.69751310348510742
0.61413335800170898 0.61566531658172607 0.65225052833557129
0.36676865816116333 1 0.98517215251922607
0.38043329119682312 1 0.97790008783340454
0.37577769160270691 1 0.96515345573425293
0.40213924646377563 0.99998921155929565 0.94335693120956421
0.49372252821922302 0.98898124694824219 0.88989639282226562
0.60633611679077148 0.93487453460693359 0.81311476230621338
0.74723166227340698 0.83332717418670654 0.73950093984603882
0.89909321069717407 1 1
0.90928244590759277 1 1
0.91864204406738281 1 1
0.93016225099563599 0.99957019090652466 1
0.94463425874710083 0.99950271844863892 0.99975579977035522
0.95024192333221436 0.99966335296630859 0.99299997091293335
0.96423357725143433 0.99918907880783081 0.89637964963912964
0 0.1180548295378685 0.5644456148147583
0 0.11524095386266708 0.55856955051422119
0.00074612488970160484 0.099264703691005707 0.54347163438796997
0.014235477894544601 0.094987951219081879 0.52834504842758179
0.064226649701595306 0.10613472014665604 0.51760739088058472
0.16004529595375061 0.11337438970804214 0.50785249471664429
0.31638941168785095 0.15106874704360962 0.4997500479221344
0 0.26681581139564514 0.63268208503723145
0 0.26055255532264709 0.62534302473068237
0.0072784572839736938 0.24429202079772949 0.61112940311431885
0.04407646507024765 0.2288825660943985 0.59391605854034424
0.1049015149474144 0.21855983138084412 0.57207214832305908
0.21543534100055695 0.21502111852169037 0.55694633722305298
0.35735884308815002 0.22989697754383087 0.54495710134506226
1.7951517293113284e-05 0.42978629469871521 0.70081609487533569
0 0.41961172223091125 0.69125354290008545
0.0024261025246232748 0.39834174513816833 0.67754286527633667
0.039819829165935516 0.36944425106048584 0.65751254558563232
0.12618669867515564 0.34412047266960144 0.63100522756576538
0.27343755960464478 0.32366248965263367 0.60927879810333252
0.41675916314125061 0.3229239284992218 0.58993828296661377
0.0011819128412753344 0.6283562183380127 0.78555518388748169
0 0.61593252420425415 0.77505910396575928
0.00084572588093578815 0.58987492322921753 0.75932008028030396
0.071464091539382935 0.54769408702850342 0.73356932401657104
0.21729710698127747 0.50675302743911743 0.70315885543823242
0.36244523525238037 0.47118905186653137 0.67284703254699707
0.49894139170646667 0.45171424746513367 0.64444565773010254
6.8455119617283344e-05 0.88316553831100464 0.89241784811019897
1.6036688975873403e-05 0.8631407618522644 0.8817097544670105
0.0017571243224665523 0.83255982398986816 0.86274272203445435
0.13022667169570923 0.78667753934860229 0.8307262659072876
0.33141002058982849 0.71985691785812378 0.79076796770095825
0.47104862332344055 0.66104531288146973 0.75068140029907227
0.60468530654907227 0.61425697803497314 0.71036010980606079
0.27998426556587219 0.99970197677612305 0.9972909688949585
0.28108081221580505 1 0.99146008491516113
0.33796441555023193 0.99977725744247437 0.98811137676239014
0.37298691272735596 0.99560171365737915 0.95557332038879395
0.47445076704025269 0.97347557544708252 0.91438084840774536
0.58702069520950317 0.9137420654296875 0.8548206090927124
0.7284398078918457 0.8127673864364624 0.79303693771362305
0.86736029386520386 1 1
0.86926275491714478 1 1
0.88946366310119629 1 1
0.90231180191040039 1 1
0.90334135293960571 0.99923717975616455 1
0.91134750843048096 1 0.995006263256073
0.94222915172576904 0.99690824747085571 0.92769473791122437
0 0.13238449394702911 0.64085817337036133
0 0.12862351536750793 0.63195943832397461
0.00241114292293787 0.13511115312576294 0.62126582860946655
0.028759811073541641 0.13489484786987305 0.60757315158843994
0.081968270242214203 0.14613522589206696 0.59722810983657837
0.17671340703964233 0.15092617273330688 0.5831763744354248
0.31635376811027527 0.18045207858085632 0.57169866561889648
0 0.27759760618209839 0.70041954517364502
0 0.26911520957946777 0.69225126504898071
0.010118686594069004 0.25841739773750305 0.67928367853164673
0.048510771244764328 0.24766474962234497 0.66439491510391235
0.11382489651441574 0.24249903857707977 0.64771652221679688
0.22506840527057648 0.24307143688201904 0.63094991445541382
0.36190891265869141 0.26144948601722717 0.61621391773223877
0 0.41965815424919128 0.75924497842788696
0 0.40619316697120667 0.74887955188751221
0.014276766218245029 0.39002010226249695 0.73606783151626587
0.065012224018573761 0.37101417779922485 0.71962392330169678
0.15597985684871674 0.35352241992950439 0.69882643222808838
0.29004892706871033 0.34344810247421265 0.67853927612304688
0.42381954193115234 0.35120949149131775 0.65929734706878662
0 0.59678637981414795 0.83219337463378906
0.0006660312064923346 0.58182340860366821 0.82225590944290161
0.034966517239809036 0.55885022878646851 0.8058774471282959
0.11582765728235245 0.52892780303955078 0.784229576587677
0.24641512334346771 0.5026019811630249 0.76179671287536621
0.37718158960342407 0.48009127378463745 0.7360880970954895
0.50369322299957275 0.47001880407333374 0.70984107255935669
0.00640106201171875 0.81439250707626343 0.92121589183807373
0.0079320874065160751 0.80854892730712891 0.91761624813079834
0.089101098477840424 0.77705365419387817 0.89648020267486572
0.23237286508083344 0.73227238655090332 0.86817342042922974
0.36243200302124023 0.69357669353485107 0.84047216176986694
0.4809061586856842 0.65171033143997192 0.80687588453292847
0.601531982421875 0.61844325065612793 0.77033823728561401
0.27657464146614075 0.99373453855514526 0.99473762512207031
0.24155253171920776 0.99699831008911133 0.99701905250549316
0.32125836610794067 0.98156285285949707 0.98520594835281372
0.40159845352172852 0.97061967849731445 0.97529393434524536
0.48577210307121277 0.94041270017623901 0.94548720121383667
0.59192371368408203 0.87767064571380615 0.89779359102249146
0.72124350070953369 0.79988449811935425 0.84330683946609497
0.84349238872528076 1 1
0.83180701732635498 1 1
0.84073948860168457 1 1
0.85313230752944946 1 1
0.84744453430175781 1 1
0.8765684962272644 1 0.99583429098129272
0.91366696357727051 0.99605512619018555 0.95682108402252197
0.0020105100702494383 0.17988294363021851 0.70490628480911255
0.0024908476043492556 0.17949384450912476 0.69997066259384155
0.019938688725233078 0.18091990053653717 0.69163399934768677
0.058225039392709732 0.17962467670440674 0.68230408430099487
0.11053553223609924 0.18081994354724884 0.67080581188201904
0.20534282922744751 0.19437915086746216 0.65898627042770386
0.33455610275268555 0.2271081805229187 0.64934957027435303
0.00046599144116044044 0.29521724581718445 0.75844895839691162
0.01124388724565506 0.28852084279060364 0.75271916389465332
0.028250735253095627 0.28257310390472412 0.74289494752883911
0.07695382833480835 0.27638986706733704 0.73258066177368164
0.15056157112121582 0.27582427859306335 0.72056323289871216
0.25734180212020874 0.28439581394195557 0.70628577470779419
0.38313561677932739 0.30606728792190552 0.6913256049156189
5.2897135901730508e-05 0.40933579206466675 0.80785244703292847
0.0036614211276173592 0.40297725796699524 0.80031293630599976
0.046036724001169205 0.39531219005584717 0.79183042049407959
0.11147924512624741 0.38516494631767273 0.78045821189880371
0.2110866904258728 0.37535956501960754 0.76583737134933472
0.32529118657112122 0.37800061702728271 0.74941861629486084
0.44626885652542114 0.39149194955825806 0.73066222667694092
0.020558211952447891 0.56468939781188965 0.8691064715385437
0.058679915964603424 0.55776298046112061 0.8635520339012146
0.12547756731510162 0.54422605037689209 0.85336828231811523
0.20418618619441986 0.52639949321746826 0.83842927217483521
0.30313017964363098 0.51030254364013672 0.82080209255218506
0.40874466300010681 0.50117295980453491 0.80031067132949829
0.52288150787353516 0.49907565116882324 0.77634680271148682
0.1327185332775116 0.75585401058197021 0.9473952054977417
0.17379823327064514 0.74870413541793823 0.9441225528717041
0.2360711544752121 0.73182839155197144 0.9296339750289917
0.32253879308700562 0.70731860399246216 0.91188150644302368
0.41344603896141052 0.67993402481079102 0.8898959755897522
0.50768238306045532 0.65283328294754028 0.86297237873077393
0.61554050445556641 0.63047653436660767 0.83097559213638306
0.32840192317962646 0.97937965393066406 0.99973767995834351
0.35258501768112183 0.97313123941421509 0.99918586015701294
0.39727678894996643 0.95389413833618164 0.99482458829879761
0.45524501800537109 0.93010574579238892 0.9897950291633606
0.52860677242279053 0.89337897300720215 0.97468441724777222
0.6202843189239502 0.84149372577667236 0.9420773983001709
0.72778224945068359 0.78748792409896851 0.89645910263061523
0.80647557973861694 1 1
0.79327797889709473 1 1
0.80587315559387207 1 1
0.81708955764770508 1 1
0.81829178333282471 1 1
0.83770090341567993 0.99972665309906006 0.999950110912323
0.89450365304946899 0.98521292209625244 0.98195093870162964
0.034649103879928589 0.22132652997970581 0.75944125652313232
0.03225230798125267 0.22791653871536255 0.76763081550598145
0.065666124224662781 0.22257378697395325 0.75598347187042236
0.11062871664762497 0.22550018131732941 0.74827253818511963
0.16722424328327179 0.23936864733695984 0.74355852603912354
0.26493662595748901 0.25849053263664246 0.73369556665420532
0.3857789933681488 0.29487475752830505 0.7263493537902832
0.03705240786075592 0.31994977593421936 0.80764228105545044
0.04121939092874527 0.31951785087585449 0.80984413623809814
0.075120128691196442 0.31466153264045715 0.80241721868515015
0.13215066492557526 0.31497952342033386 0.79501855373382568
0.21343563497066498 0.32415592670440674 0.7882455587387085
0.31678920984268188 0.33736774325370789 0.77615201473236084
0.42943131923675537 0.35809540748596191 0.75974494218826294
0.056154139339923859 0.42428687214851379 0.85139060020446777
0.061424598097801208 0.42327582836151123 0.85130369663238525
0.12154882401227951 0.41890078783035278 0.84686088562011719
0.19087821245193481 0.41596758365631104 0.8389776349067688
0.28560289740562439 0.41778042912483215 0.82883560657501221
0.38446512818336487 0.42361894249916077 0.81378906965255737
0.49046164751052856 0.43482139706611633 0.79401183128356934
0.1468578428030014 0.55736702680587769 0.9033394455909729
0.1814962774515152 0.55419009923934937 0.90389847755432129
0.25737932324409485 0.55014073848724365 0.90179097652435303
0.31673818826675415 0.54483604431152344 0.89105522632598877
0.38698741793632507 0.53859913349151611 0.87725210189819336
0.46663761138916016 0.53290814161300659 0.85861837863922119
0.56515765190124512 0.53245973587036133 0.83530169725418091
0.31524041295051575 0.71527808904647827 0.96391844749450684
0.34472158551216125 0.71071130037307739 0.96409755945205688
0.38851666450500488 0.70302146673202515 0.95957934856414795
0.44007250666618347 0.69254791736602783 0.94738221168518066
0.4958648681640625 0.67862093448638916 0.93303751945495605
0.56274259090423584 0.66403710842132568 0.91302061080932617
0.65509170293807983 0.64973753690719604 0.8853268027305603
0.49343419075012207 0.904521644115448 0.99972772598266602
0.50347506999969482 0.90203863382339478 0.99959897994995117
0.52924340963363647 0.88867062330245972 0.99938726425170898
0.56874746084213257 0.87092149257659912 0.99637758731842041
0.61471402645111084 0.85084050893783569 0.99170756340026855
0.6786733865737915 0.81683188676834106 0.97629272937774658
0.76654160022735596 0.78491169214248657 0.94365948438644409
0.77671557664871216 1 1
0.79279273748397827 0.99986737966537476 1
0.80349349975585938 0.9988749623298645 1
0.81635946035385132 0.99942159652709961 1
0.83896702527999878 0.99729734659194946 1
0.85981613397598267 0.99303948879241943 1
0.93274670839309692 0.96788913011550903 0.99566638469696045
