films/fuji_neopan_1600_++.cube
# Created by: G'MIC (https://gmic.eu)
TITLE "fuji_neopan_1600_++"
# LUT size
LUT_3D_SIZE 7
# Data domain
DOMAIN_MIN 0.0 0.0 0.0
DOMAIN_MAX 1.0 1.0 1.0
# LUT data points
0.14257007837295532 0.14257007837295532 0.14257007837295532
0.14140842854976654 0.14140842854976654 0.14140842854976654
0.16021332144737244 0.16021332144737244 0.16021332144737244
0.19434595108032227 0.19434595108032227 0.19434595108032227
0.2461521178483963 0.2461521178483963 0.2461521178483963
0.32949700951576233 0.32949700951576233 0.32949700951576233
0.43987852334976196 0.43987852334976196 0.43987852334976196
0.17130966484546661 0.17130966484546661 0.17130966484546661
0.17251026630401611 0.17251026630401611 0.17251026630401611
0.19718348979949951 0.19718348979949951 0.19718348979949951
0.23959587514400482 0.23959587514400482 0.23959587514400482
0.28958550095558167 0.28958550095558167 0.28958550095558167
0.38631343841552734 0.38631343841552734 0.38631343841552734
0.51295948028564453 0.51295948028564453 0.51295948028564453
0.22635179758071899 0.22635179758071899 0.22635179758071899
0.22983081638813019 0.22983081638813019 0.22983081638813019
0.25633624196052551 0.25633624196052551 0.25633624196052551
0.31387802958488464 0.31387802958488464 0.31387802958488464
0.39321905374526978 0.39321905374526978 0.39321905374526978
0.51511549949645996 0.51511549949645996 0.51511549949645996
0.63492637872695923 0.63492637872695923 0.63492637872695923
0.31038752198219299 0.31038752198219299 0.31038752198219299
0.32234588265419006 0.32234588265419006 0.32234588265419006
0.33986625075340271 0.33986625075340271 0.33986625075340271
0.40649318695068359 0.40649318695068359 0.40649318695068359
0.51486504077911377 0.51486504077911377 0.51486504077911377
0.6557152271270752 0.6557152271270752 0.6557152271270752
0.75933623313903809 0.75933623313903809 0.75933623313903809
0.46114090085029602 0.46114090085029602 0.46114090085029602
0.48430478572845459 0.48430478572845459 0.48430478572845459
0.50310444831848145 0.50310444831848145 0.50310444831848145
0.54874926805496216 0.54874926805496216 0.54874926805496216
0.63201767206192017 0.63201767206192017 0.63201767206192017
0.7454535961151123 0.7454535961151123 0.7454535961151123
0.83506840467453003 0.83506840467453003 0.83506840467453003
0.69474875926971436 0.69474875926971436 0.69474875926971436
0.70828157663345337 0.70828157663345337 0.70828157663345337
0.71919524669647217 0.71919524669647217 0.71919524669647217
0.74441051483154297 0.74441051483154297 0.74441051483154297
0.7930598258972168 0.7930598258972168 0.7930598258972168
0.85300171375274658 0.85300171375274658 0.85300171375274658
0.90801888704299927 0.90801888704299927 0.90801888704299927
0.90969616174697876 0.90969616174697876 0.90969616174697876
0.90595090389251709 0.90595090389251709 0.90595090389251709
0.91078734397888184 0.91078734397888184 0.91078734397888184
0.92860352993011475 0.92860352993011475 0.92860352993011475
0.94611901044845581 0.94611901044845581 0.94611901044845581
0.96705102920532227 0.96705102920532227 0.96705102920532227
0.98686683177947998 0.98686683177947998 0.98686683177947998
0.14275649189949036 0.14275649189949036 0.14275649189949036
0.1436435878276825 0.1436435878276825 0.1436435878276825
0.16432103514671326 0.16432103514671326 0.16432103514671326
0.19757585227489471 0.19757585227489471 0.19757585227489471
0.2493336945772171 0.2493336945772171 0.2493336945772171
0.33104589581489563 0.33104589581489563 0.33104589581489563
0.44359171390533447 0.44359171390533447 0.44359171390533447
0.17438961565494537 0.17438961565494537 0.17438961565494537
0.1801697164773941 0.1801697164773941 0.1801697164773941
0.20581617951393127 0.20581617951393127 0.20581617951393127
0.24568849802017212 0.24568849802017212 0.24568849802017212
0.30332866311073303 0.30332866311073303 0.30332866311073303
0.3970094621181488 0.3970094621181488 0.3970094621181488
0.51934331655502319 0.51934331655502319 0.51934331655502319
0.23981635272502899 0.23981635272502899 0.23981635272502899
0.25180593132972717 0.25180593132972717 0.25180593132972717
0.27653807401657104 0.27653807401657104 0.27653807401657104
0.32831081748008728 0.32831081748008728 0.32831081748008728
0.41132116317749023 0.41132116317749023 0.41132116317749023
0.52704405784606934 0.52704405784606934 0.52704405784606934
0.6449655294418335 0.6449655294418335 0.6449655294418335
0.34193485975265503 0.34193485975265503 0.34193485975265503
0.36018446087837219 0.36018446087837219 0.36018446087837219
0.37539994716644287 0.37539994716644287 0.37539994716644287
0.43494817614555359 0.43494817614555359 0.43494817614555359
0.53999179601669312 0.53999179601669312 0.53999179601669312
0.67025184631347656 0.67025184631347656 0.67025184631347656
0.77340251207351685 0.77340251207351685 0.77340251207351685
0.49754533171653748 0.49754533171653748 0.49754533171653748
0.51765704154968262 0.51765704154968262 0.51765704154968262
0.52155321836471558 0.52155321836471558 0.52155321836471558
0.57536393404006958 0.57536393404006958 0.57536393404006958
0.65766209363937378 0.65766209363937378 0.65766209363937378
0.75339072942733765 0.75339072942733765 0.75339072942733765
0.84548628330230713 0.84548628330230713 0.84548628330230713
0.71296936273574829 0.71296936273574829 0.71296936273574829
0.72455865144729614 0.72455865144729614 0.72455865144729614
0.73217499256134033 0.73217499256134033 0.73217499256134033
0.75703883171081543 0.75703883171081543 0.75703883171081543
0.79871249198913574 0.79871249198913574 0.79871249198913574
0.8510509729385376 0.8510509729385376 0.8510509729385376
0.91510581970214844 0.91510581970214844 0.91510581970214844
0.90044718980789185 0.90044718980789185 0.90044718980789185
0.90930896997451782 0.90930896997451782 0.90930896997451782
0.91446977853775024 0.91446977853775024 0.91446977853775024
0.92594462633132935 0.92594462633132935 0.92594462633132935
0.94312781095504761 0.94312781095504761 0.94312781095504761
0.96616798639297485 0.96616798639297485 0.96616798639297485
0.99290025234222412 0.99290025234222412 0.99290025234222412
0.16447106003761292 0.16447106003761292 0.16447106003761292
0.17237311601638794 0.17237311601638794 0.17237311601638794
0.20097123086452484 0.20097123086452484 0.20097123086452484
0.23167571425437927 0.23167571425437927 0.23167571425437927
0.2791503369808197 0.2791503369808197 0.2791503369808197
0.36551809310913086 0.36551809310913086 0.36551809310913086
0.48106753826141357 0.48106753826141357 0.48106753826141357
0.19952259957790375 0.19952259957790375 0.19952259957790375
0.2125132828950882 0.2125132828950882 0.2125132828950882
0.24880939722061157 0.24880939722061157 0.24880939722061157
0.28689870238304138 0.28689870238304138 0.28689870238304138
0.33276677131652832 0.33276677131652832 0.33276677131652832
0.42087733745574951 0.42087733745574951 0.42087733745574951
0.54858589172363281 0.54858589172363281 0.54858589172363281
0.26427778601646423 0.26427778601646423 0.26427778601646423
0.28668397665023804 0.28668397665023804 0.28668397665023804
0.32337185740470886 0.32337185740470886 0.32337185740470886
0.37355974316596985 0.37355974316596985 0.37355974316596985
0.43896675109863281 0.43896675109863281 0.43896675109863281
0.53091049194335938 0.53091049194335938 0.53091049194335938
0.65329456329345703 0.65329456329345703 0.65329456329345703
0.38298806548118591 0.38298806548118591 0.38298806548118591
0.41323566436767578 0.41323566436767578 0.41323566436767578
0.44034165143966675 0.44034165143966675 0.44034165143966675
0.49319490790367126 0.49319490790367126 0.49319490790367126
0.57607078552246094 0.57607078552246094 0.57607078552246094
0.68023598194122314 0.68023598194122314 0.68023598194122314
0.76851952075958252 0.76851952075958252 0.76851952075958252
0.57249665260314941 0.57249665260314941 0.57249665260314941
0.58981102705001831 0.58981102705001831 0.58981102705001831
0.60331535339355469 0.60331535339355469 0.60331535339355469
0.63921451568603516 0.63921451568603516 0.63921451568603516
0.69876551628112793 0.69876551628112793 0.69876551628112793
0.77409654855728149 0.77409654855728149 0.77409654855728149
0.85391128063201904 0.85391128063201904 0.85391128063201904
0.75685173273086548 0.75685173273086548 0.75685173273086548
0.76847380399703979 0.76847380399703979 0.76847380399703979
0.7774198055267334 0.7774198055267334 0.7774198055267334
0.79572111368179321 0.79572111368179321 0.79572111368179321
0.82545590400695801 0.82545590400695801 0.82545590400695801
0.86978179216384888 0.86978179216384888 0.86978179216384888
0.92924040555953979 0.92924040555953979 0.92924040555953979
0.90598791837692261 0.90598791837692261 0.90598791837692261
0.91884177923202515 0.91884177923202515 0.91884177923202515
0.92715591192245483 0.92715591192245483 0.92715591192245483
0.93749052286148071 0.93749052286148071 0.93749052286148071
0.95121520757675171 0.95121520757675171 0.95121520757675171
0.9741208553314209 0.9741208553314209 0.9741208553314209
0.99748581647872925 0.99748581647872925 0.99748581647872925
0.20932558178901672 0.20932558178901672 0.20932558178901672
0.23018342256546021 0.23018342256546021 0.23018342256546021
0.27650973200798035 0.27650973200798035 0.27650973200798035
0.31782826781272888 0.31782826781272888 0.31782826781272888
0.34266850352287292 0.34266850352287292 0.34266850352287292
0.43185055255889893 0.43185055255889893 0.43185055255889893
0.57121217250823975 0.57121217250823975 0.57121217250823975
0.25686672329902649 0.25686672329902649 0.25686672329902649
0.27211436629295349 0.27211436629295349 0.27211436629295349
0.32864797115325928 0.32864797115325928 0.32864797115325928
0.37688720226287842 0.37688720226287842 0.37688720226287842
0.38764676451683044 0.38764676451683044 0.38764676451683044
0.48105761408805847 0.48105761408805847 0.48105761408805847
0.62262177467346191 0.62262177467346191 0.62262177467346191
0.29989823698997498 0.29989823698997498 0.29989823698997498
0.32335123419761658 0.32335123419761658 0.32335123419761658
0.38589867949485779 0.38589867949485779 0.38589867949485779
0.44927024841308594 0.44927024841308594 0.44927024841308594
0.49778169393539429 0.49778169393539429 0.49778169393539429
0.57475590705871582 0.57475590705871582 0.57475590705871582
0.69554156064987183 0.69554156064987183 0.69554156064987183
0.39740076661109924 0.39740076661109924 0.39740076661109924
0.43877872824668884 0.43877872824668884 0.43877872824668884
0.49472552537918091 0.49472552537918091 0.49472552537918091
0.55931001901626587 0.55931001901626587 0.55931001901626587
0.62332850694656372 0.62332850694656372 0.62332850694656372
0.69655603170394897 0.69655603170394897 0.69655603170394897
0.78341555595397949 0.78341555595397949 0.78341555595397949
0.60332810878753662 0.60332810878753662 0.60332810878753662
0.63053625822067261 0.63053625822067261 0.63053625822067261
0.66678136587142944 0.66678136587142944 0.66678136587142944
0.70434808731079102 0.70434808731079102 0.70434808731079102
0.74376976490020752 0.74376976490020752 0.74376976490020752
0.80257445573806763 0.80257445573806763 0.80257445573806763
0.87160187959671021 0.87160187959671021 0.87160187959671021
0.78308355808258057 0.78308355808258057 0.78308355808258057
0.79808539152145386 0.79808539152145386 0.79808539152145386
0.81591188907623291 0.81591188907623291 0.81591188907623291
0.8364872932434082 0.8364872932434082 0.8364872932434082
0.86032223701477051 0.86032223701477051 0.86032223701477051
0.89951688051223755 0.89951688051223755 0.89951688051223755
0.95085710287094116 0.95085710287094116 0.95085710287094116
0.91337984800338745 0.91337984800338745 0.91337984800338745
0.92710238695144653 0.92710238695144653 0.92710238695144653
0.93934398889541626 0.93934398889541626 0.93934398889541626
0.95390647649765015 0.95390647649765015 0.95390647649765015
0.96706926822662354 0.96706926822662354 0.96706926822662354
0.98666495084762573 0.98666495084762573 0.98666495084762573
0.99980485439300537 0.99980485439300537 0.99980485439300537
0.2967279851436615 0.2967279851436615 0.2967279851436615
0.32994413375854492 0.32994413375854492 0.32994413375854492
0.38611257076263428 0.38611257076263428 0.38611257076263428
0.47151389718055725 0.47151389718055725 0.47151389718055725
0.51151084899902344 0.51151084899902344 0.51151084899902344
0.52736276388168335 0.52736276388168335 0.52736276388168335
0.66117489337921143 0.66117489337921143 0.66117489337921143
0.35331222414970398 0.35331222414970398 0.35331222414970398
0.37820982933044434 0.37820982933044434 0.37820982933044434
0.43852624297142029 0.43852624297142029 0.43852624297142029
0.52158093452453613 0.52158093452453613 0.52158093452453613
0.55882823467254639 0.55882823467254639 0.55882823467254639
0.58418136835098267 0.58418136835098267 0.58418136835098267
0.70258104801177979 0.70258104801177979 0.70258104801177979
0.39247620105743408 0.39247620105743408 0.39247620105743408
0.43107247352600098 0.43107247352600098 0.43107247352600098
0.49324071407318115 0.49324071407318115 0.49324071407318115
0.57450282573699951 0.57450282573699951 0.57450282573699951
0.63841718435287476 0.63841718435287476 0.63841718435287476
0.66103059053421021 0.66103059053421021 0.66103059053421021
0.75169599056243896 0.75169599056243896 0.75169599056243896
0.45013713836669922 0.45013713836669922 0.45013713836669922
0.50140398740768433 0.50140398740768433 0.50140398740768433
0.55223351716995239 0.55223351716995239 0.55223351716995239
0.6353650689125061 0.6353650689125061 0.6353650689125061
0.70211553573608398 0.70211553573608398 0.70211553573608398
0.74901491403579712 0.74901491403579712 0.74901491403579712
0.81151556968688965 0.81151556968688965 0.81151556968688965
0.62010359764099121 0.62010359764099121 0.62010359764099121
0.64352631568908691 0.64352631568908691 0.64352631568908691
0.68544399738311768 0.68544399738311768 0.68544399738311768
0.73755526542663574 0.73755526542663574 0.73755526542663574
0.78485256433486938 0.78485256433486938 0.78485256433486938
0.83013015985488892 0.83013015985488892 0.83013015985488892
0.88760846853256226 0.88760846853256226 0.88760846853256226
0.79148733615875244 0.79148733615875244 0.79148733615875244
0.80075114965438843 0.80075114965438843 0.80075114965438843
0.82275539636611938 0.82275539636611938 0.82275539636611938
0.85242408514022827 0.85242408514022827 0.85242408514022827
0.88513433933258057 0.88513433933258057 0.88513433933258057
0.91846811771392822 0.91846811771392822 0.91846811771392822
0.9592471718788147 0.9592471718788147 0.9592471718788147
0.91511929035186768 0.91511929035186768 0.91511929035186768
0.92603027820587158 0.92603027820587158 0.92603027820587158
0.93987947702407837 0.93987947702407837 0.93987947702407837
0.95887160301208496 0.95887160301208496 0.95887160301208496
0.98003178834915161 0.98003178834915161 0.98003178834915161
0.99285370111465454 0.99285370111465454 0.99285370111465454
0.99996340274810791 0.99996340274810791 0.99996340274810791
0.48039612174034119 0.48039612174034119 0.48039612174034119
0.51395189762115479 0.51395189762115479 0.51395189762115479
0.55990076065063477 0.55990076065063477 0.55990076065063477
0.64707005023956299 0.64707005023956299 0.64707005023956299
0.73212480545043945 0.73212480545043945 0.73212480545043945
0.73724102973937988 0.73724102973937988 0.73724102973937988
0.75367695093154907 0.75367695093154907 0.75367695093154907
0.52738744020462036 0.52738744020462036 0.52738744020462036
0.56055492162704468 0.56055492162704468 0.56055492162704468
0.60636919736862183 0.60636919736862183 0.60636919736862183
0.6809576153755188 0.6809576153755188 0.6809576153755188
0.74347221851348877 0.74347221851348877 0.74347221851348877
0.75901681184768677 0.75901681184768677 0.75901681184768677
0.79680776596069336 0.79680776596069336 0.79680776596069336
0.59202295541763306 0.59202295541763306 0.59202295541763306
0.62558269500732422 0.62558269500732422 0.62558269500732422
0.66075795888900757 0.66075795888900757 0.66075795888900757
0.72163301706314087 0.72163301706314087 0.72163301706314087
0.78160929679870605 0.78160929679870605 0.78160929679870605
0.79361641407012939 0.79361641407012939 0.79361641407012939
0.82004839181900024 0.82004839181900024 0.82004839181900024
0.61007893085479736 0.61007893085479736 0.61007893085479736
0.64128726720809937 0.64128726720809937 0.64128726720809937
0.69135260581970215 0.69135260581970215 0.69135260581970215
0.74818283319473267 0.74818283319473267 0.74818283319473267
0.80707770586013794 0.80707770586013794 0.80707770586013794
0.84013736248016357 0.84013736248016357 0.84013736248016357
0.85605347156524658 0.85605347156524658 0.85605347156524658
0.66983908414840698 0.66983908414840698 0.66983908414840698
0.69560766220092773 0.69560766220092773 0.69560766220092773
0.74543648958206177 0.74543648958206177 0.74543648958206177
0.78741610050201416 0.78741610050201416 0.78741610050201416
0.83992713689804077 0.83992713689804077 0.83992713689804077
0.88106745481491089 0.88106745481491089 0.88106745481491089
0.91601848602294922 0.91601848602294922 0.91601848602294922
0.80209177732467651 0.80209177732467651 0.80209177732467651
0.81569385528564453 0.81569385528564453 0.81569385528564453
0.83942645788192749 0.83942645788192749 0.83942645788192749
0.86585539579391479 0.86585539579391479 0.86585539579391479
0.90789580345153809 0.90789580345153809 0.90789580345153809
0.93822455406188965 0.93822455406188965 0.93822455406188965
0.96280109882354736 0.96280109882354736 0.96280109882354736
0.92319792509078979 0.92319792509078979 0.92319792509078979
0.93164664506912231 0.93164664506912231 0.93164664506912231
0.94498085975646973 0.94498085975646973 0.94498085975646973
0.96412891149520874 0.96412891149520874 0.96412891149520874
0.98788869380950928 0.98788869380950928 0.98788869380950928
0.99401372671127319 0.99401372671127319 0.99401372671127319
0.99885964393615723 0.99885964393615723 0.99885964393615723
0.7589002251625061 0.7589002251625061 0.7589002251625061
0.77001512050628662 0.77001512050628662 0.77001512050628662
0.79495716094970703 0.79495716094970703 0.79495716094970703
0.82980108261108398 0.82980108261108398 0.82980108261108398
0.88487857580184937 0.88487857580184937 0.88487857580184937
0.9143492579460144 0.9143492579460144 0.9143492579460144
0.90176188945770264 0.90176188945770264 0.90176188945770264
0.76878362894058228 0.76878362894058228 0.76878362894058228
0.78752666711807251 0.78752666711807251 0.78752666711807251
0.80840116739273071 0.80840116739273071 0.80840116739273071
0.84247404336929321 0.84247404336929321 0.84247404336929321
0.8879845142364502 0.8879845142364502 0.8879845142364502
0.9272879958152771 0.9272879958152771 0.9272879958152771
0.92406713962554932 0.92406713962554932 0.92406713962554932
0.80664098262786865 0.80664098262786865 0.80664098262786865
0.81555509567260742 0.81555509567260742 0.81555509567260742
0.83327698707580566 0.83327698707580566 0.83327698707580566
0.86451345682144165 0.86451345682144165 0.86451345682144165
0.90326452255249023 0.90326452255249023 0.90326452255249023
0.92986977100372314 0.92986977100372314 0.92986977100372314
0.9344407320022583 0.9344407320022583 0.9344407320022583
0.78202140331268311 0.78202140331268311 0.78202140331268311
0.80880057811737061 0.80880057811737061 0.80880057811737061
0.8487168550491333 0.8487168550491333 0.8487168550491333
0.87440556287765503 0.87440556287765503 0.87440556287765503
0.91245186328887939 0.91245186328887939 0.91245186328887939
0.94097405672073364 0.94097405672073364 0.94097405672073364
0.94896644353866577 0.94896644353866577 0.94896644353866577
0.77651667594909668 0.77651667594909668 0.77651667594909668
0.81145137548446655 0.81145137548446655 0.81145137548446655
0.85247576236724854 0.85247576236724854 0.85247576236724854
0.87241953611373901 0.87241953611373901 0.87241953611373901
0.91778647899627686 0.91778647899627686 0.91778647899627686
0.96047496795654297 0.96047496795654297 0.96047496795654297
0.97460556030273438 0.97460556030273438 0.97460556030273438
0.85983574390411377 0.85983574390411377 0.85983574390411377
0.87532967329025269 0.87532967329025269 0.87532967329025269
0.89557963609695435 0.89557963609695435 0.89557963609695435
0.91118258237838745 0.91118258237838745 0.91118258237838745
0.9481043815612793 0.9481043815612793 0.9481043815612793
0.97728043794631958 0.97728043794631958 0.97728043794631958
0.98978358507156372 0.98978358507156372 0.98978358507156372
0.95784473419189453 0.95784473419189453 0.95784473419189453
0.96427232027053833 0.96427232027053833 0.96427232027053833
0.97495067119598389 0.97495067119598389 0.97495067119598389
0.98709917068481445 0.98709917068481445 0.98709917068481445
0.99757373332977295 0.99757373332977295 0.99757373332977295
0.99935048818588257 0.99935048818588257 0.99935048818588257
0.99844539165496826 0.99844539165496826 0.99844539165496826
