films/fuji_superia_100.cube
# Created by: G'MIC (https://gmic.eu)
TITLE "fuji_superia_100"
# LUT size
LUT_3D_SIZE 5
# Data domain
DOMAIN_MIN 0.0 0.0 0.0
DOMAIN_MAX 1.0 1.0 1.0
# LUT data points
0.01492703054100275 0.026501120999455452 0.022239206358790398
0.21333760023117065 0.055436812341213226 0.01807200163602829
0.52806413173675537 0.09881940484046936 0.0011295991716906428
0.78705638647079468 0.15326209366321564 0
0.9849507212638855 0.21352528035640717 0
0 0.29044586420059204 0.085495635867118835
0.21753232181072235 0.29636290669441223 0.033244669437408447
0.5853380560874939 0.33395782113075256 0.00036136401467956603
0.81925415992736816 0.33764225244522095 2.5850184101727791e-05
0.99487823247909546 0.3609001636505127 0
0 0.6358950138092041 0.24779114127159119
0.095106251537799835 0.6396181583404541 0.2495875358581543
0.53126484155654907 0.60405075550079346 0.15972761809825897
0.81967425346374512 0.59671580791473389 0.043013971298933029
0.99859923124313354 0.58940011262893677 0.040044702589511871
0.12592965364456177 0.86787176132202148 0.48643890023231506
0.23609250783920288 0.86932200193405151 0.49388650059700012
0.48419076204299927 0.85674422979354858 0.46869164705276489
0.75124990940093994 0.8387259840965271 0.38879543542861938
0.99294841289520264 0.83532118797302246 0.34348413348197937
0.60515671968460083 0.99648940563201904 0.7480396032333374
0.63208973407745361 0.99511855840682983 0.74984079599380493
0.68582212924957275 0.99400514364242554 0.7581525444984436
0.78343504667282104 0.99341630935668945 0.73581475019454956
0.93164771795272827 0.99064099788665771 0.71058350801467896
0.011155356653034687 0.016011899337172508 0.28038990497589111
0.2621428370475769 0.011509719304740429 0.2756294310092926
0.55863732099533081 0.0098548438400030136 0.25259625911712646
0.7889634370803833 0.012030762620270252 0.21359659731388092
0.98828494548797607 0.12892179191112518 0.19314451515674591
0.0038656496908515692 0.29807299375534058 0.3004511296749115
0.28441116213798523 0.30203437805175781 0.30537694692611694
0.59187954664230347 0.29164731502532959 0.26660498976707458
0.80224448442459106 0.29476159811019897 0.23890580236911774
0.99268287420272827 0.32858115434646606 0.21691682934761047
0.2153283953666687 0.62169873714447021 0.44423758983612061
0.30398684740066528 0.6311718225479126 0.43500271439552307
0.56328111886978149 0.61127281188964844 0.37470170855522156
0.82007884979248047 0.58968901634216309 0.30798435211181641
0.99693000316619873 0.58246159553527832 0.28113475441932678
0.35954475402832031 0.85661882162094116 0.58344382047653198
0.40176153182983398 0.86126202344894409 0.58416479825973511
0.54459148645401001 0.85539895296096802 0.56915152072906494
0.76394593715667725 0.83385789394378662 0.49713727831840515
0.99014949798583984 0.8324694037437439 0.45416545867919922
0.64942765235900879 0.9968906044960022 0.7772526741027832
0.67538905143737793 0.99545049667358398 0.78346234560012817
0.71220749616622925 0.99672877788543701 0.78911787271499634
0.80038690567016602 0.99321192502975464 0.7687913179397583
0.93916749954223633 0.99003052711486816 0.74164837598800659
0.00059742649318650365 0.0022702685091644526 0.60877543687820435
0.31019145250320435 0.00095071230316534638 0.61984634399414062
0.6014830470085144 0.0036894106306135654 0.59584146738052368
0.82146149873733521 0.096442997455596924 0.53327399492263794
0.99420994520187378 0.14097142219543457 0.47432824969291687
0 0.29695972800254822 0.62522619962692261
0.29571187496185303 0.30835536122322083 0.62660199403762817
0.60847318172454834 0.32132533192634583 0.60222119092941284
0.81200683116912842 0.33824163675308228 0.54076695442199707
0.99184948205947876 0.29285010695457458 0.47973945736885071
0.23412352800369263 0.61499333381652832 0.61914575099945068
0.40147897601127625 0.61147725582122803 0.61663818359375
0.6018487811088562 0.60090833902359009 0.60094976425170898
0.80597364902496338 0.57475048303604126 0.55563092231750488
0.99193066358566284 0.55345511436462402 0.51501572132110596
0.54974055290222168 0.84612113237380981 0.71990561485290527
0.59436291456222534 0.84751588106155396 0.72414898872375488
0.65323460102081299 0.85056889057159424 0.71436423063278198
0.7913481593132019 0.83348274230957031 0.66018688678741455
0.98986256122589111 0.82222694158554077 0.6116870641708374
0.76641440391540527 0.99286568164825439 0.85693609714508057
0.78053027391433716 0.99206173419952393 0.86076837778091431
0.78661864995956421 0.99333453178405762 0.85451871156692505
0.83973151445388794 0.99093496799468994 0.84499967098236084
0.95317202806472778 0.98994630575180054 0.80995100736618042
0.017140826210379601 0.0014614330139011145 0.85461866855621338
0.30893057584762573 0.016272347420454025 0.85934031009674072
0.58541595935821533 0.040087487548589706 0.84920978546142578
0.83610755205154419 0.17436440289020538 0.82998514175415039
0.99850249290466309 0.30605402588844299 0.78544771671295166
0.055571999400854111 0.30286955833435059 0.85960954427719116
0.32807835936546326 0.3100527822971344 0.85578626394271851
0.59742867946624756 0.34235149621963501 0.8486703634262085
0.83552104234695435 0.38098400831222534 0.83029365539550781
0.9958004355430603 0.45311427116394043 0.79209905862808228
0.17312084138393402 0.58303928375244141 0.8384595513343811
0.36104413866996765 0.58718562126159668 0.83919483423233032
0.59760767221450806 0.59948354959487915 0.83368086814880371
0.82779049873352051 0.61827534437179565 0.8266330361366272
0.99257802963256836 0.62254363298416138 0.78280019760131836
0.48384734988212585 0.84345173835754395 0.84298831224441528
0.54395961761474609 0.84128791093826294 0.83946901559829712
0.67105597257614136 0.83831828832626343 0.83830493688583374
0.81887686252593994 0.82976466417312622 0.82739424705505371
0.98794358968734741 0.79146969318389893 0.77625584602355957
0.8002091646194458 0.98823690414428711 0.91591149568557739
0.82490140199661255 0.98752427101135254 0.91911965608596802
0.86783754825592041 0.98816323280334473 0.92486375570297241
0.90778583288192749 0.98941850662231445 0.92875730991363525
0.97236788272857666 0.99002444744110107 0.90553069114685059
0.15103748440742493 0.075669638812541962 0.9973333477973938
0.33769381046295166 0.099358052015304565 0.99779272079467773
0.56645447015762329 0.19103874266147614 0.99711400270462036
0.79974853992462158 0.31726336479187012 0.9959290623664856
0.99193793535232544 0.42926785349845886 0.99310767650604248
0.23291362822055817 0.33182275295257568 0.9991682767868042
0.37979987263679504 0.34613054990768433 0.9964185357093811
0.59077012538909912 0.38534992933273315 0.99889528751373291
0.8068082332611084 0.46043851971626282 0.99685478210449219
0.99030530452728271 0.52342128753662109 0.99241673946380615
0.32515057921409607 0.57660341262817383 0.99689942598342896
0.43364831805229187 0.58836400508880615 0.99557095766067505
0.62283515930175781 0.61387336254119873 0.99717950820922852
0.81391829252243042 0.65200710296630859 0.99376696348190308
0.98910713195800781 0.6896776556968689 0.98807775974273682
0.46827363967895508 0.80902791023254395 0.98981422185897827
0.51376014947891235 0.80790215730667114 0.98997718095779419
0.63958406448364258 0.8088371753692627 0.9904370903968811
0.8263620138168335 0.83449649810791016 0.99063336849212646
0.9865105152130127 0.8591378927230835 0.98465502262115479
0.76036012172698975 0.98638629913330078 0.98742806911468506
0.78183287382125854 0.9875408411026001 0.98773384094238281
0.84065717458724976 0.98739469051361084 0.99145233631134033
0.91212695837020874 0.99003523588180542 0.99425417184829712
0.99683427810668945 0.99255132675170898 0.99668276309967041
