films/fuji_400h.cube
# Created by: G'MIC (https://gmic.eu)
TITLE "fuji_400h"
# LUT size
LUT_3D_SIZE 5
# Data domain
DOMAIN_MIN 0.0 0.0 0.0
DOMAIN_MAX 1.0 1.0 1.0
# LUT data points
0.043377581983804703 0.048464622348546982 0.037953693419694901
0.25863152742385864 0.039073854684829712 0.029721204191446304
0.62136602401733398 0.011270022019743919 0.017764925956726074
0.88673043251037598 0.04715321958065033 0.0083930669352412224
0.99965870380401611 0.23529140651226044 0.019678197801113129
0.00030934950336813927 0.25286218523979187 0.022129746153950691
0.22564485669136047 0.26619100570678711 0.0088015086948871613
0.60710567235946655 0.28017339110374451 0
0.86851263046264648 0.31662172079086304 0
0.99871611595153809 0.38627663254737854 0.00016335879627149552
0 0.54111915826797485 0.012171352282166481
0.15045224130153656 0.52994447946548462 0.021983381360769272
0.53913342952728271 0.54724752902984619 0.00030481675639748573
0.8163679838180542 0.56854718923568726 0
0.99453943967819214 0.57464933395385742 6.3204301113728434e-05
0.017499107867479324 0.7491571307182312 0.17205770313739777
0.23263384401798248 0.73765277862548828 0.19086593389511108
0.5151526927947998 0.73843288421630859 0.16554032266139984
0.74945616722106934 0.74791234731674194 0.079539462924003601
0.97522473335266113 0.76567322015762329 0.055344868451356888
0.40877172350883484 0.9367985725402832 0.47865772247314453
0.46811014413833618 0.93009620904922485 0.47477483749389648
0.59352046251296997 0.93302518129348755 0.52263516187667847
0.74376016855239868 0.94049626588821411 0.51114225387573242
0.93976002931594849 0.94498026371002197 0.43588364124298096
0.069516904652118683 0.056364215910434723 0.24145500361919403
0.28854233026504517 0.038456395268440247 0.25284299254417419
0.64917129278182983 0.0037407518830150366 0.26401928067207336
0.8960995078086853 0.039904933422803879 0.28841254115104675
1 0.28293851017951965 0.31230577826499939
0.0014352088328450918 0.29117023944854736 0.26754724979400635
0.30127382278442383 0.29965940117835999 0.27707353234291077
0.65178418159484863 0.30007061362266541 0.2748771607875824
0.87366020679473877 0.34404045343399048 0.27992463111877441
0.99957156181335449 0.40939792990684509 0.29463657736778259
0.022324670106172562 0.58395200967788696 0.3051421046257019
0.26559716463088989 0.56882667541503906 0.30325999855995178
0.57692456245422363 0.56461876630783081 0.26907750964164734
0.82509297132492065 0.5706372857093811 0.21549001336097717
0.99313110113143921 0.57863360643386841 0.21559934318065643
0.17845925688743591 0.76170212030410767 0.35530027747154236
0.29966256022453308 0.7494208812713623 0.35615348815917969
0.53310292959213257 0.73974061012268066 0.35754066705703735
0.75847315788269043 0.75450247526168823 0.32998842000961304
0.97287678718566895 0.76492810249328613 0.29219451546669006
0.43518596887588501 0.93740129470825195 0.54020547866821289
0.49100658297538757 0.93567770719528198 0.54965788125991821
0.59698772430419922 0.92865574359893799 0.56303286552429199
0.74663537740707397 0.93957054615020752 0.56928491592407227
0.93704479932785034 0.94550943374633789 0.52530217170715332
0.16028045117855072 0.075235314667224884 0.54982548952102661
0.38122016191482544 0.065149284899234772 0.56403040885925293
0.66543817520141602 0.041626200079917908 0.57818162441253662
0.87944656610488892 0.053946282714605331 0.56515985727310181
1 0.25473678112030029 0.56296515464782715
0.12275703251361847 0.29240366816520691 0.561839759349823
0.38530963659286499 0.30783018469810486 0.57311272621154785
0.66553264856338501 0.33378872275352478 0.5940859317779541
0.86835449934005737 0.35714823007583618 0.58362966775894165
0.99946123361587524 0.44586032629013062 0.59239250421524048
0.025346718728542328 0.59475839138031006 0.58325362205505371
0.35280957818031311 0.59791082143783569 0.58712852001190186
0.63300156593322754 0.60397088527679443 0.59492212533950806
0.83031880855560303 0.60293674468994141 0.5858612060546875
0.99020123481750488 0.62214469909667969 0.59379738569259644
0.36824226379394531 0.79211413860321045 0.60560423135757446
0.46196380257606506 0.78449398279190063 0.60202276706695557
0.59178191423416138 0.7614629864692688 0.59034949541091919
0.76830768585205078 0.76148241758346558 0.57154315710067749
0.97374820709228516 0.76582193374633789 0.55308753252029419
0.49032071232795715 0.94483572244644165 0.6508299708366394
0.53646564483642578 0.93999803066253662 0.65442383289337158
0.61873608827590942 0.93589878082275391 0.65884160995483398
0.75355029106140137 0.93742960691452026 0.66361624002456665
0.94163459539413452 0.94790393114089966 0.65018337965011597
0.4159553050994873 0.13273562490940094 0.77267289161682129
0.52855026721954346 0.14996792376041412 0.77740210294723511
0.7134050726890564 0.21844735741615295 0.78332507610321045
0.87481176853179932 0.29605618119239807 0.78318089246749878
0.99960845708847046 0.32785418629646301 0.77239710092544556
0.4052315354347229 0.32849732041358948 0.76696789264678955
0.51968997716903687 0.34195131063461304 0.77243322134017944
0.70003998279571533 0.39332762360572815 0.77982854843139648
0.86179941892623901 0.45363304018974304 0.7866331934928894
0.99806666374206543 0.45868211984634399 0.76997929811477661
0.25495156645774841 0.53511506319046021 0.75185680389404297
0.41549673676490784 0.54808652400970459 0.75057011842727661
0.64918440580368042 0.59059089422225952 0.76690560579299927
0.83187198638916016 0.63965243101119995 0.78264474868774414
0.99001127481460571 0.64233022928237915 0.78289711475372314
0.3532777726650238 0.77874302864074707 0.77359801530838013
0.45170041918754578 0.7794795036315918 0.77545738220214844
0.62722361087799072 0.78362399339675903 0.78064048290252686
0.80716061592102051 0.78842127323150635 0.78115344047546387
0.98185580968856812 0.79425269365310669 0.78296834230422974
0.50041037797927856 0.96784478425979614 0.80483192205429077
0.55962485074996948 0.96638089418411255 0.80441057682037354
0.67435663938522339 0.95983028411865234 0.80298781394958496
0.79496484994888306 0.94565945863723755 0.79698377847671509
0.9623224139213562 0.95570093393325806 0.7928575873374939
0.63041388988494873 0.40957626700401306 0.94657802581787109
0.67445504665374756 0.42569372057914734 0.94585329294204712
0.76870781183242798 0.46621677279472351 0.94555109739303589
0.88880634307861328 0.54360520839691162 0.94368463754653931
0.99590909481048584 0.56626784801483154 0.94673371315002441
0.61815392971038818 0.50127500295639038 0.94094359874725342
0.66548651456832886 0.51884478330612183 0.94259202480316162
0.76067095994949341 0.55013775825500488 0.94151204824447632
0.88328748941421509 0.60447561740875244 0.94318455457687378
0.99763303995132446 0.62173205614089966 0.94319272041320801
0.56029653549194336 0.62054276466369629 0.93985182046890259
0.61949062347412109 0.63487619161605835 0.93955534696578979
0.73732370138168335 0.65921944379806519 0.93762898445129395
0.86994004249572754 0.69522345066070557 0.93966591358184814
0.99691897630691528 0.71336871385574341 0.94439423084259033
0.48411476612091064 0.76251578330993652 0.9401247501373291
0.52775275707244873 0.76148921251296997 0.93900567293167114
0.65206581354141235 0.76718318462371826 0.93717914819717407
0.83416885137557983 0.79551595449447632 0.93862825632095337
0.99417567253112793 0.83036428689956665 0.95053577423095703
0.49373340606689453 0.96115195751190186 0.95731091499328613
0.55750203132629395 0.96219944953918457 0.95237553119659424
0.66531831026077271 0.9612310528755188 0.95274597406387329
0.81485599279403687 0.95483160018920898 0.9542773962020874
0.98818075656890869 0.97017967700958252 0.96075564622879028
