films/fuji_neopan_1600_-.cube
# Created by: G'MIC (https://gmic.eu)
TITLE "fuji_neopan_1600_-"
# LUT size
LUT_3D_SIZE 7
# Data domain
DOMAIN_MIN 0.0 0.0 0.0
DOMAIN_MAX 1.0 1.0 1.0
# LUT data points
0.044128492474555969 0.044128492474555969 0.044128492474555969
0.034896552562713623 0.034896552562713623 0.034896552562713623
0.065069131553173065 0.065069131553173065 0.065069131553173065
0.13043093681335449 0.13043093681335449 0.13043093681335449
0.24299675226211548 0.24299675226211548 0.24299675226211548
0.3570246696472168 0.3570246696472168 0.3570246696472168
0.47786805033683777 0.47786805033683777 0.47786805033683777
0.089325487613677979 0.089325487613677979 0.089325487613677979
0.080919854342937469 0.080919854342937469 0.080919854342937469
0.14015835523605347 0.14015835523605347 0.14015835523605347
0.23412267863750458 0.23412267863750458 0.23412267863750458
0.32389190793037415 0.32389190793037415 0.32389190793037415
0.41209268569946289 0.41209268569946289 0.41209268569946289
0.52501559257507324 0.52501559257507324 0.52501559257507324
0.1876668781042099 0.1876668781042099 0.1876668781042099
0.18425484001636505 0.18425484001636505 0.18425484001636505
0.25293046236038208 0.25293046236038208 0.25293046236038208
0.34907564520835876 0.34907564520835876 0.34907564520835876
0.4269510805606842 0.4269510805606842 0.4269510805606842
0.50917786359786987 0.50917786359786987 0.50917786359786987
0.62066364288330078 0.62066364288330078 0.62066364288330078
0.3219703733921051 0.3219703733921051 0.3219703733921051
0.32650288939476013 0.32650288939476013 0.32650288939476013
0.36564391851425171 0.36564391851425171 0.36564391851425171
0.43436038494110107 0.43436038494110107 0.43436038494110107
0.51901930570602417 0.51901930570602417 0.51901930570602417
0.62506061792373657 0.62506061792373657 0.62506061792373657
0.75025397539138794 0.75025397539138794 0.75025397539138794
0.47572451829910278 0.47572451829910278 0.47572451829910278
0.48683243989944458 0.48683243989944458 0.48683243989944458
0.50443410873413086 0.50443410873413086 0.50443410873413086
0.54899477958679199 0.54899477958679199 0.54899477958679199
0.62282311916351318 0.62282311916351318 0.62282311916351318
0.71629250049591064 0.71629250049591064 0.71629250049591064
0.8345220685005188 0.8345220685005188 0.8345220685005188
0.69079530239105225 0.69079530239105225 0.69079530239105225
0.69494593143463135 0.69494593143463135 0.69494593143463135
0.70588523149490356 0.70588523149490356 0.70588523149490356
0.73109358549118042 0.73109358549118042 0.73109358549118042
0.76971656084060669 0.76971656084060669 0.76971656084060669
0.82540613412857056 0.82540613412857056 0.82540613412857056
0.9087064266204834 0.9087064266204834 0.9087064266204834
0.8999057412147522 0.8999057412147522 0.8999057412147522
0.90137535333633423 0.90137535333633423 0.90137535333633423
0.90681654214859009 0.90681654214859009 0.90681654214859009
0.91782313585281372 0.91782313585281372 0.91782313585281372
0.93423187732696533 0.93423187732696533 0.93423187732696533
0.95646113157272339 0.95646113157272339 0.95646113157272339
0.99415576457977295 0.99415576457977295 0.99415576457977295
0.056447871029376984 0.056447871029376984 0.056447871029376984
0.055296130478382111 0.055296130478382111 0.055296130478382111
0.092253021895885468 0.092253021895885468 0.092253021895885468
0.17444220185279846 0.17444220185279846 0.17444220185279846
0.26848292350769043 0.26848292350769043 0.26848292350769043
0.37006410956382751 0.37006410956382751 0.37006410956382751
0.48567396402359009 0.48567396402359009 0.48567396402359009
0.10968131572008133 0.10968131572008133 0.10968131572008133
0.118175208568573 0.118175208568573 0.118175208568573
0.17731073498725891 0.17731073498725891 0.17731073498725891
0.26070043444633484 0.26070043444633484 0.26070043444633484
0.33704781532287598 0.33704781532287598 0.33704781532287598
0.42119139432907104 0.42119139432907104 0.42119139432907104
0.53540527820587158 0.53540527820587158 0.53540527820587158
0.22312813997268677 0.22312813997268677 0.22312813997268677
0.23448853194713593 0.23448853194713593 0.23448853194713593
0.30006197094917297 0.30006197094917297 0.30006197094917297
0.37732616066932678 0.37732616066932678 0.37732616066932678
0.43881812691688538 0.43881812691688538 0.43881812691688538
0.5228884220123291 0.5228884220123291 0.5228884220123291
0.63409280776977539 0.63409280776977539 0.63409280776977539
0.37741628289222717 0.37741628289222717 0.37741628289222717
0.37120488286018372 0.37120488286018372 0.37120488286018372
0.40023967623710632 0.40023967623710632 0.40023967623710632
0.4594348669052124 0.4594348669052124 0.4594348669052124
0.53450149297714233 0.53450149297714233 0.53450149297714233
0.63957887887954712 0.63957887887954712 0.63957887887954712
0.75750452280044556 0.75750452280044556 0.75750452280044556
0.52312034368515015 0.52312034368515015 0.52312034368515015
0.51581650972366333 0.51581650972366333 0.51581650972366333
0.52699005603790283 0.52699005603790283 0.52699005603790283
0.56724005937576294 0.56724005937576294 0.56724005937576294
0.63149946928024292 0.63149946928024292 0.63149946928024292
0.73415422439575195 0.73415422439575195 0.73415422439575195
0.84310013055801392 0.84310013055801392 0.84310013055801392
0.71001887321472168 0.71001887321472168 0.71001887321472168
0.70659005641937256 0.70659005641937256 0.70659005641937256
0.71508526802062988 0.71508526802062988 0.71508526802062988
0.73617267608642578 0.73617267608642578 0.73617267608642578
0.77588307857513428 0.77588307857513428 0.77588307857513428
0.84031796455383301 0.84031796455383301 0.84031796455383301
0.9192732572555542 0.9192732572555542 0.9192732572555542
0.89803683757781982 0.89803683757781982 0.89803683757781982
0.90224498510360718 0.90224498510360718 0.90224498510360718
0.90404385328292847 0.90404385328292847 0.90404385328292847
0.91121780872344971 0.91121780872344971 0.91121780872344971
0.928355872631073 0.928355872631073 0.928355872631073
0.9597780704498291 0.9597780704498291 0.9597780704498291
0.99664926528930664 0.99664926528930664 0.99664926528930664
0.10194401443004608 0.10194401443004608 0.10194401443004608
0.12646424770355225 0.12646424770355225 0.12646424770355225
0.18447709083557129 0.18447709083557129 0.18447709083557129
0.25528031587600708 0.25528031587600708 0.25528031587600708
0.32178226113319397 0.32178226113319397 0.32178226113319397
0.40719246864318848 0.40719246864318848 0.40719246864318848
0.51730620861053467 0.51730620861053467 0.51730620861053467
0.15843603014945984 0.15843603014945984 0.15843603014945984
0.19081667065620422 0.19081667065620422 0.19081667065620422
0.25822824239730835 0.25822824239730835 0.25822824239730835
0.31625187397003174 0.31625187397003174 0.31625187397003174
0.37019068002700806 0.37019068002700806 0.37019068002700806
0.44111579656600952 0.44111579656600952 0.44111579656600952
0.55900126695632935 0.55900126695632935 0.55900126695632935
0.25612828135490417 0.25612828135490417 0.25612828135490417
0.29332846403121948 0.29332846403121948 0.29332846403121948
0.35694357752799988 0.35694357752799988 0.35694357752799988
0.41528379917144775 0.41528379917144775 0.41528379917144775
0.46916568279266357 0.46916568279266357 0.46916568279266357
0.54462301731109619 0.54462301731109619 0.54462301731109619
0.65002948045730591 0.65002948045730591 0.65002948045730591
0.41620495915412903 0.41620495915412903 0.41620495915412903
0.42026475071907043 0.42026475071907043 0.42026475071907043
0.4504057765007019 0.4504057765007019 0.4504057765007019
0.50525093078613281 0.50525093078613281 0.50525093078613281
0.57706660032272339 0.57706660032272339 0.57706660032272339
0.67062413692474365 0.67062413692474365 0.67062413692474365
0.76464259624481201 0.76464259624481201 0.76464259624481201
0.56981199979782104 0.56981199979782104 0.56981199979782104
0.57755821943283081 0.57755821943283081 0.57755821943283081
0.58144521713256836 0.58144521713256836 0.58144521713256836
0.61449754238128662 0.61449754238128662 0.61449754238128662
0.67353576421737671 0.67353576421737671 0.67353576421737671
0.76354670524597168 0.76354670524597168 0.76354670524597168
0.85366976261138916 0.85366976261138916 0.85366976261138916
0.74657148122787476 0.74657148122787476 0.74657148122787476
0.75342309474945068 0.75342309474945068 0.75342309474945068
0.75483793020248413 0.75483793020248413 0.75483793020248413
0.76568549871444702 0.76568549871444702 0.76568549871444702
0.79818034172058105 0.79818034172058105 0.79818034172058105
0.86013847589492798 0.86013847589492798 0.86013847589492798
0.93156009912490845 0.93156009912490845 0.93156009912490845
0.91421675682067871 0.91421675682067871 0.91421675682067871
0.91837698221206665 0.91837698221206665 0.91837698221206665
0.91596198081970215 0.91596198081970215 0.91596198081970215
0.91734069585800171 0.91734069585800171 0.91734069585800171
0.93226724863052368 0.93226724863052368 0.93226724863052368
0.96634012460708618 0.96634012460708618 0.96634012460708618
0.99855214357376099 0.99855214357376099 0.99855214357376099
0.18635155260562897 0.18635155260562897 0.18635155260562897
0.23581722378730774 0.23581722378730774 0.23581722378730774
0.31387138366699219 0.31387138366699219 0.31387138366699219
0.35841560363769531 0.35841560363769531 0.35841560363769531
0.3931269645690918 0.3931269645690918 0.3931269645690918
0.46042761206626892 0.46042761206626892 0.46042761206626892
0.57349538803100586 0.57349538803100586 0.57349538803100586
0.25874525308609009 0.25874525308609009 0.25874525308609009
0.2925848662853241 0.2925848662853241 0.2925848662853241
0.35898628830909729 0.35898628830909729 0.35898628830909729
0.39488741755485535 0.39488741755485535 0.39488741755485535
0.42547515034675598 0.42547515034675598 0.42547515034675598
0.49507376551628113 0.49507376551628113 0.49507376551628113
0.61304479837417603 0.61304479837417603 0.61304479837417603
0.33286738395690918 0.33286738395690918 0.33286738395690918
0.36318680644035339 0.36318680644035339 0.36318680644035339
0.42564153671264648 0.42564153671264648 0.42564153671264648
0.48370996117591858 0.48370996117591858 0.48370996117591858
0.52120828628540039 0.52120828628540039 0.52120828628540039
0.57805567979812622 0.57805567979812622 0.57805567979812622
0.67897129058837891 0.67897129058837891 0.67897129058837891
0.4209672212600708 0.4209672212600708 0.4209672212600708
0.44994845986366272 0.44994845986366272 0.44994845986366272
0.50359982252120972 0.50359982252120972 0.50359982252120972
0.56866252422332764 0.56866252422332764 0.56866252422332764
0.62886905670166016 0.62886905670166016 0.62886905670166016
0.69547832012176514 0.69547832012176514 0.69547832012176514
0.77356517314910889 0.77356517314910889 0.77356517314910889
0.58098936080932617 0.58098936080932617 0.58098936080932617
0.61083298921585083 0.61083298921585083 0.61083298921585083
0.64155417680740356 0.64155417680740356 0.64155417680740356
0.67565077543258667 0.67565077543258667 0.67565077543258667
0.72281026840209961 0.72281026840209961 0.72281026840209961
0.79124337434768677 0.79124337434768677 0.79124337434768677
0.86585152149200439 0.86585152149200439 0.86585152149200439
0.77013081312179565 0.77013081312179565 0.77013081312179565
0.78678631782531738 0.78678631782531738 0.78678631782531738
0.80215060710906982 0.80215060710906982 0.80215060710906982
0.80586713552474976 0.80586713552474976 0.80586713552474976
0.8255918025970459 0.8255918025970459 0.8255918025970459
0.88174170255661011 0.88174170255661011 0.88174170255661011
0.94632869958877563 0.94632869958877563 0.94632869958877563
0.93633019924163818 0.93633019924163818 0.93633019924163818
0.93633484840393066 0.93633484840393066 0.93633484840393066
0.93317705392837524 0.93317705392837524 0.93317705392837524
0.93265223503112793 0.93265223503112793 0.93265223503112793
0.94483417272567749 0.94483417272567749 0.94483417272567749
0.97600215673446655 0.97600215673446655 0.97600215673446655
0.99963217973709106 0.99963217973709106 0.99963217973709106
0.33494079113006592 0.33494079113006592 0.33494079113006592
0.3614751398563385 0.3614751398563385 0.3614751398563385
0.41479042172431946 0.41479042172431946 0.41479042172431946
0.47842103242874146 0.47842103242874146 0.47842103242874146
0.51486676931381226 0.51486676931381226 0.51486676931381226
0.53766214847564697 0.53766214847564697 0.53766214847564697
0.63621777296066284 0.63621777296066284 0.63621777296066284
0.38230419158935547 0.38230419158935547 0.38230419158935547
0.40564084053039551 0.40564084053039551 0.40564084053039551
0.45666408538818359 0.45666408538818359 0.45666408538818359
0.51561427116394043 0.51561427116394043 0.51561427116394043
0.54685664176940918 0.54685664176940918 0.54685664176940918
0.57855445146560669 0.57855445146560669 0.57855445146560669
0.68768179416656494 0.68768179416656494 0.68768179416656494
0.43726509809494019 0.43726509809494019 0.43726509809494019
0.45390036702156067 0.45390036702156067 0.45390036702156067
0.51045036315917969 0.51045036315917969 0.51045036315917969
0.58742570877075195 0.58742570877075195 0.58742570877075195
0.6166197657585144 0.6166197657585144 0.6166197657585144
0.63580185174942017 0.63580185174942017 0.63580185174942017
0.72338020801544189 0.72338020801544189 0.72338020801544189
0.47574180364608765 0.47574180364608765 0.47574180364608765
0.4969380795955658 0.4969380795955658 0.4969380795955658
0.56215465068817139 0.56215465068817139 0.56215465068817139
0.64220738410949707 0.64220738410949707 0.64220738410949707
0.69751733541488647 0.69751733541488647 0.69751733541488647
0.73601353168487549 0.73601353168487549 0.73601353168487549
0.79882466793060303 0.79882466793060303 0.79882466793060303
0.59631454944610596 0.59631454944610596 0.59631454944610596
0.61927473545074463 0.61927473545074463 0.61927473545074463
0.66765099763870239 0.66765099763870239 0.66765099763870239
0.72047275304794312 0.72047275304794312 0.72047275304794312
0.76968300342559814 0.76968300342559814 0.76968300342559814
0.81687843799591064 0.81687843799591064 0.81687843799591064
0.87963193655014038 0.87963193655014038 0.87963193655014038
0.77600723505020142 0.77600723505020142 0.77600723505020142
0.78774535655975342 0.78774535655975342 0.78774535655975342
0.80844944715499878 0.80844944715499878 0.80844944715499878
0.83035868406295776 0.83035868406295776 0.83035868406295776
0.86203330755233765 0.86203330755233765 0.86203330755233765
0.9040188193321228 0.9040188193321228 0.9040188193321228
0.95520496368408203 0.95520496368408203 0.95520496368408203
0.93923527002334595 0.93923527002334595 0.93923527002334595
0.93828344345092773 0.93828344345092773 0.93828344345092773
0.93767935037612915 0.93767935037612915 0.93767935037612915
0.94514018297195435 0.94514018297195435 0.94514018297195435
0.9639924168586731 0.9639924168586731 0.9639924168586731
0.98712992668151855 0.98712992668151855 0.98712992668151855
0.99985277652740479 0.99985277652740479 0.99985277652740479
0.51934444904327393 0.51934444904327393 0.51934444904327393
0.53030335903167725 0.53030335903167725 0.53030335903167725
0.55877077579498291 0.55877077579498291 0.55877077579498291
0.63872969150543213 0.63872969150543213 0.63872969150543213
0.7156415581703186 0.7156415581703186 0.7156415581703186
0.71285170316696167 0.71285170316696167 0.71285170316696167
0.73856246471405029 0.73856246471405029 0.73856246471405029
0.53110796213150024 0.53110796213150024 0.53110796213150024
0.55929082632064819 0.55929082632064819 0.55929082632064819
0.59897667169570923 0.59897667169570923 0.59897667169570923
0.66149884462356567 0.66149884462356567 0.66149884462356567
0.73224776983261108 0.73224776983261108 0.73224776983261108
0.74316626787185669 0.74316626787185669 0.74316626787185669
0.77590274810791016 0.77590274810791016 0.77590274810791016
0.57648217678070068 0.57648217678070068 0.57648217678070068
0.59600412845611572 0.59600412845611572 0.59600412845611572
0.64071738719940186 0.64071738719940186 0.64071738719940186
0.70416414737701416 0.70416414737701416 0.70416414737701416
0.7567858099937439 0.7567858099937439 0.7567858099937439
0.76664775609970093 0.76664775609970093 0.76664775609970093
0.80699586868286133 0.80699586868286133 0.80699586868286133
0.57916080951690674 0.57916080951690674 0.57916080951690674
0.60998201370239258 0.60998201370239258 0.60998201370239258
0.6655280590057373 0.6655280590057373 0.6655280590057373
0.73296290636062622 0.73296290636062622 0.73296290636062622
0.79614698886871338 0.79614698886871338 0.79614698886871338
0.82598304748535156 0.82598304748535156 0.82598304748535156
0.86324501037597656 0.86324501037597656 0.86324501037597656
0.6495354175567627 0.6495354175567627 0.6495354175567627
0.66795474290847778 0.66795474290847778 0.66795474290847778
0.7146068811416626 0.7146068811416626 0.7146068811416626
0.76796865463256836 0.76796865463256836 0.76796865463256836
0.82946658134460449 0.82946658134460449 0.82946658134460449
0.86041128635406494 0.86041128635406494 0.86041128635406494
0.90794521570205688 0.90794521570205688 0.90794521570205688
0.79622536897659302 0.79622536897659302 0.79622536897659302
0.80339312553405762 0.80339312553405762 0.80339312553405762
0.82263243198394775 0.82263243198394775 0.82263243198394775
0.85351276397705078 0.85351276397705078 0.85351276397705078
0.89985871315002441 0.89985871315002441 0.89985871315002441
0.92858207225799561 0.92858207225799561 0.92858207225799561
0.95661097764968872 0.95661097764968872 0.95661097764968872
0.93848329782485962 0.93848329782485962 0.93848329782485962
0.94121068716049194 0.94121068716049194 0.94121068716049194
0.94590884447097778 0.94590884447097778 0.94590884447097778
0.95944887399673462 0.95944887399673462 0.95944887399673462
0.98315179347991943 0.98315179347991943 0.98315179347991943
0.99336212873458862 0.99336212873458862 0.99336212873458862
0.99849492311477661 0.99849492311477661 0.99849492311477661
0.74147129058837891 0.74147129058837891 0.74147129058837891
0.74935334920883179 0.74935334920883179 0.74935334920883179
0.77738720178604126 0.77738720178604126 0.77738720178604126
0.80972415208816528 0.80972415208816528 0.80972415208816528
0.85711473226547241 0.85711473226547241 0.85711473226547241
0.88119232654571533 0.88119232654571533 0.88119232654571533
0.91627985239028931 0.91627985239028931 0.91627985239028931
0.74982041120529175 0.74982041120529175 0.74982041120529175
0.76268982887268066 0.76268982887268066 0.76268982887268066
0.7847665548324585 0.7847665548324585 0.7847665548324585
0.8220210075378418 0.8220210075378418 0.8220210075378418
0.87015074491500854 0.87015074491500854 0.87015074491500854
0.89317125082015991 0.89317125082015991 0.89317125082015991
0.91657286882400513 0.91657286882400513 0.91657286882400513
0.78577941656112671 0.78577941656112671 0.78577941656112671
0.78985708951950073 0.78985708951950073 0.78985708951950073
0.80734121799468994 0.80734121799468994 0.80734121799468994
0.84042799472808838 0.84042799472808838 0.84042799472808838
0.88307332992553711 0.88307332992553711 0.88307332992553711
0.90945470333099365 0.90945470333099365 0.90945470333099365
0.93430346250534058 0.93430346250534058 0.93430346250534058
0.78994190692901611 0.78994190692901611 0.78994190692901611
0.80333852767944336 0.80333852767944336 0.80333852767944336
0.82205665111541748 0.82205665111541748 0.82205665111541748
0.84836888313293457 0.84836888313293457 0.84836888313293457
0.89664351940155029 0.89664351940155029 0.89664351940155029
0.93730360269546509 0.93730360269546509 0.93730360269546509
0.96444845199584961 0.96444845199584961 0.96444845199584961
0.78293508291244507 0.78293508291244507 0.78293508291244507
0.78211754560470581 0.78211754560470581 0.78211754560470581
0.81933748722076416 0.81933748722076416 0.81933748722076416
0.85120874643325806 0.85120874643325806 0.85120874643325806
0.9120030403137207 0.9120030403137207 0.9120030403137207
0.95054888725280762 0.95054888725280762 0.95054888725280762
0.97761678695678711 0.97761678695678711 0.97761678695678711
0.85790622234344482 0.85790622234344482 0.85790622234344482
0.86908513307571411 0.86908513307571411 0.86908513307571411
0.88290262222290039 0.88290262222290039 0.88290262222290039
0.90729963779449463 0.90729963779449463 0.90729963779449463
0.95291256904602051 0.95291256904602051 0.95291256904602051
0.97478628158569336 0.97478628158569336 0.97478628158569336
0.98776906728744507 0.98776906728744507 0.98776906728744507
0.95368421077728271 0.95368421077728271 0.95368421077728271
0.96973735094070435 0.96973735094070435 0.96973735094070435
0.97889310121536255 0.97889310121536255 0.97889310121536255
0.98955839872360229 0.98955839872360229 0.98955839872360229
0.99874818325042725 0.99874818325042725 0.99874818325042725
0.99954473972320557 0.99954473972320557 0.99954473972320557
0.99829834699630737 0.99829834699630737 0.99829834699630737
