films/fuji_provia_100f.cube
# Created by: G'MIC (https://gmic.eu)
TITLE "fuji_provia_100f"
# LUT size
LUT_3D_SIZE 5
# Data domain
DOMAIN_MIN 0.0 0.0 0.0
DOMAIN_MAX 1.0 1.0 1.0
# LUT data points
0.032900448888540268 0.030439175665378571 0.027297239750623703
0.2547050416469574 0.030629521235823631 0.018697656691074371
0.51494681835174561 0.025173410773277283 0.015378840267658234
0.83476936817169189 0.011989413760602474 0.00091272988356649876
1 0.033266119658946991 0
0.10971648246049881 0.26840654015541077 0.13625901937484741
0.27977737784385681 0.26152348518371582 0.12803436815738678
0.53328776359558105 0.25441566109657288 0.1057405024766922
0.84592348337173462 0.22586007416248322 0.063285320997238159
1 0.22081539034843445 0.029271578416228294
0.13643556833267212 0.53216409683227539 0.26522886753082275
0.3044152557849884 0.52792179584503174 0.25653904676437378
0.55915814638137817 0.52608346939086914 0.23959565162658691
0.85450786352157593 0.51493149995803833 0.20428022742271423
1 0.5021355152130127 0.13479280471801758
0.240470290184021 0.81142586469650269 0.41343605518341064
0.36530187726020813 0.81665974855422974 0.41745981574058533
0.60261261463165283 0.8128851056098938 0.40293195843696594
0.8767012357711792 0.81456911563873291 0.37245273590087891
0.99998599290847778 0.80665159225463867 0.30778428912162781
0.50976204872131348 0.99933469295501709 0.57238203287124634
0.57035869359970093 1 0.57795155048370361
0.72705340385437012 1 0.57737535238265991
0.94586008787155151 0.99872738122940063 0.57544577121734619
1 0.99960792064666748 0.50077337026596069
0.01262060459703207 0.020410545170307159 0.15218132734298706
0.2160612940788269 0.011904608458280563 0.13915336132049561
0.48859074711799622 0.005980802234262228 0.12157709151506424
0.81352013349533081 0.0031949509866535664 0.079106241464614868
1 0.0039782952517271042 0.017822818830609322
0.074650436639785767 0.24817997217178345 0.25152331590652466
0.24282084405422211 0.24250614643096924 0.24371671676635742
0.50337684154510498 0.22834943234920502 0.22332069277763367
0.81882035732269287 0.20480169355869293 0.18422606587409973
1 0.16907328367233276 0.12246588617563248
0.076853610575199127 0.52170455455780029 0.36550676822662354
0.2654842734336853 0.51857525110244751 0.3573756217956543
0.53497308492660522 0.51323682069778442 0.34333270788192749
0.8331296443939209 0.50297832489013672 0.31452226638793945
1 0.48317128419876099 0.25845152139663696
0.17571470141410828 0.81248408555984497 0.50237208604812622
0.32758381962776184 0.81054353713989258 0.49826070666313171
0.58440166711807251 0.80579954385757446 0.48621904850006104
0.85399287939071655 0.80771487951278687 0.4610554575920105
1 0.79691606760025024 0.41545763611793518
0.51318895816802979 0.99927753210067749 0.66691488027572632
0.55822056531906128 1 0.65702968835830688
0.7115444540977478 1 0.6512255072593689
0.91647160053253174 0.99997413158416748 0.64256864786148071
1 1 0.59424018859863281
0.001570338848978281 0.0058034411631524563 0.29182857275009155
0.16874189674854279 0.001925928401760757 0.28110548853874207
0.44481107592582703 0.00034377153497189283 0.26739987730979919
0.76582878828048706 0 0.23783963918685913
0.99911785125732422 0 0.18210452795028687
0.03617483377456665 0.21343672275543213 0.38862565159797668
0.19571377336978912 0.21090427041053772 0.38243892788887024
0.46223351359367371 0.19332931935787201 0.37111863493919373
0.78134113550186157 0.16151811182498932 0.3466733992099762
1 0.13187061250209808 0.29589533805847168
0.020695989951491356 0.49595457315444946 0.50269883871078491
0.18874385952949524 0.49360600113868713 0.49837023019790649
0.49081268906593323 0.49137106537818909 0.49133902788162231
0.79797589778900146 0.4789888858795166 0.47035661339759827
1 0.45553025603294373 0.43161571025848389
0.098175808787345886 0.79196596145629883 0.6328616738319397
0.24771150946617126 0.79437923431396484 0.62824094295501709
0.53989976644515991 0.79147982597351074 0.62420558929443359
0.81186610460281372 0.79228693246841431 0.60592842102050781
1 0.77418696880340576 0.5755009651184082
0.45463785529136658 0.99779820442199707 0.77223026752471924
0.52413183450698853 1 0.76809698343276978
0.68822246789932251 1 0.76472616195678711
0.88729053735733032 0.99991744756698608 0.7571418285369873
1 0.99874770641326904 0.72524571418762207
0 0 0.45049488544464111
0.10251092165708542 0 0.44253259897232056
0.38245519995689392 0.00097950955387204885 0.43283525109291077
0.72086817026138306 0 0.41642904281616211
0.99998599290847778 0.0052818148396909237 0.38647240400314331
0.0081411777064204216 0.15835298597812653 0.5462307333946228
0.12961362302303314 0.14888750016689301 0.53976178169250488
0.40581059455871582 0.1402851790189743 0.5320553183555603
0.73125851154327393 0.10991984605789185 0.51640993356704712
0.99978172779083252 0.11377662420272827 0.48799687623977661
0 0.45792099833488464 0.6581760048866272
0.11286761611700058 0.4576544463634491 0.65606951713562012
0.4338703453540802 0.45091989636421204 0.65197783708572388
0.75049424171447754 0.43370711803436279 0.63745468854904175
1 0.40920969843864441 0.60999506711959839
7.3646093369461596e-05 0.77501571178436279 0.78017967939376831
0.13444961607456207 0.77475440502166748 0.77833569049835205
0.46359503269195557 0.77249801158905029 0.7762337327003479
0.76838284730911255 0.76691633462905884 0.7659304141998291
1 0.75038725137710571 0.74322652816772461
0.40058803558349609 0.9942205548286438 0.90222066640853882
0.48703265190124512 0.99567753076553345 0.89958751201629639
0.64432179927825928 0.99800699949264526 0.8959464430809021
0.85023283958435059 0.99767851829528809 0.8902316689491272
0.99965965747833252 0.99595040082931519 0.87049663066864014
0 0 0.60323786735534668
0.028300192207098007 0 0.60934138298034668
0.30358210206031799 0.0010042526992037892 0.60853582620620728
0.65789884328842163 6.4625460254319478e-06 0.59604573249816895
0.985676109790802 0.007389996200799942 0.57646441459655762
0 0.075862407684326172 0.69818830490112305
0.053024172782897949 0.065850622951984406 0.69722986221313477
0.33137968182563782 0.075529031455516815 0.69284003973007202
0.6713140606880188 0.045030046254396439 0.68176460266113281
0.98058223724365234 0.094554811716079712 0.66597843170166016
0 0.40453901886940002 0.80676048994064331
0.038253813982009888 0.3995729386806488 0.81135410070419312
0.3439999520778656 0.39036330580711365 0.80654740333557129
0.69057053327560425 0.36330878734588623 0.79781109094619751
0.98795241117477417 0.3276883065700531 0.78042352199554443
0.0057634538970887661 0.7311636209487915 0.91930204629898071
0.016976181417703629 0.73259979486465454 0.92280972003936768
0.38148143887519836 0.72648108005523682 0.92106509208679199
0.71279120445251465 0.7225220799446106 0.91435962915420532
0.99397283792495728 0.69839358329772949 0.89965856075286865
0.29538914561271667 0.98623323440551758 0.99585175514221191
0.2733595073223114 0.9887850284576416 0.99809187650680542
0.52946549654006958 0.9863390326499939 0.99743294715881348
0.80774557590484619 0.98688101768493652 0.99310845136642456
0.98861074447631836 0.98366266489028931 0.98762351274490356
