films/fuji_superia_800.cube
# Created by: G'MIC (https://gmic.eu)
TITLE "fuji_superia_800"
# LUT size
LUT_3D_SIZE 13
# Data domain
DOMAIN_MIN 0.0 0.0 0.0
DOMAIN_MAX 1.0 1.0 1.0
# LUT data points
0.0012839074479416013 0.069070734083652496 0.071510404348373413
0.02300993911921978 0.071865886449813843 0.072870530188083649
0.079981394112110138 0.077578708529472351 0.07287915050983429
0.15921278297901154 0.085564553737640381 0.070060208439826965
0.25508415699005127 0.091289371252059937 0.065107710659503937
0.36337378621101379 0.08863125741481781 0.060759734362363815
0.48020407557487488 0.073557205498218536 0.053951308131217957
0.59574562311172485 0.059764038771390915 0.046013880521059036
0.69991755485534668 0.065266117453575134 0.038666937500238419
0.78842693567276001 0.096816569566726685 0.03124440461397171
0.86768817901611328 0.13812726736068726 0.023077497258782387
0.93888229131698608 0.18402747809886932 0.01735534705221653
0.99311143159866333 0.23218333721160889 0.018783599138259888
0.00025419346638955176 0.096284396946430206 0.075622707605361938
0.021274611353874207 0.10045623779296875 0.07465101033449173
0.090050265192985535 0.10803678631782532 0.070418655872344971
0.1727931946516037 0.11414153128862381 0.070357047021389008
0.26659771800041199 0.11964091658592224 0.068590335547924042
0.37669768929481506 0.12293286621570587 0.062201913446187973
0.49371954798698425 0.11766312271356583 0.052206676453351974
0.60618942975997925 0.11249555647373199 0.043064087629318237
0.70830601453781128 0.11971495300531387 0.033688146620988846
0.797934889793396 0.14415761828422546 0.024124743416905403
0.87700128555297852 0.17822243273258209 0.016329282894730568
0.94564694166183472 0.22038403153419495 0.012449615634977818
0.99478596448898315 0.26661887764930725 0.015247688628733158
0 0.16423311829566956 0.080753818154335022
0.0070312349125742912 0.16638591885566711 0.077117174863815308
0.082913339138031006 0.17553997039794922 0.066976331174373627
0.19527097046375275 0.18038170039653778 0.059476979076862335
0.29921576380729675 0.17922733724117279 0.060837749391794205
0.40582120418548584 0.1767490953207016 0.060144208371639252
0.51787811517715454 0.17605143785476685 0.050760950893163681
0.62399476766586304 0.17624421417713165 0.040484156459569931
0.72162514925003052 0.18706610798835754 0.02886047400534153
0.80846625566482544 0.20673356950283051 0.017467034980654716
0.8855021595954895 0.23380096256732941 0.010408887639641762
0.95089763402938843 0.26978987455368042 0.0084386188536882401
0.99592632055282593 0.31143450736999512 0.012518116272985935
0 0.26174372434616089 0.092531777918338776
9.0505564003251493e-05 0.26786518096923828 0.088214665651321411
0.04326774924993515 0.27704879641532898 0.075827352702617645
0.1872619241476059 0.28867059946060181 0.051273509860038757
0.34634190797805786 0.29529294371604919 0.034527827054262161
0.46236243844032288 0.28290241956710815 0.036497510969638824
0.55866140127182007 0.26691272854804993 0.039731446653604507
0.65239238739013672 0.26150962710380554 0.033886615186929703
0.74029999971389771 0.26843360066413879 0.023842576891183853
0.82082360982894897 0.28129905462265015 0.013090799562633038
0.89410847425460815 0.30277815461158752 0.005274409893900156
0.95665597915649414 0.33227628469467163 0.0045293322764337063
0.99697393178939819 0.36739915609359741 0.0093540120869874954
0.00025028901291079819 0.39256975054740906 0.11234387010335922
0 0.40029948949813843 0.10824111104011536
0.01168930996209383 0.40618413686752319 0.098207823932170868
0.1390257328748703 0.41814011335372925 0.06858767569065094
0.344370037317276 0.43018344044685364 0.025922244414687157
0.50071120262145996 0.42455092072486877 0.0075225532054901123
0.61032760143280029 0.40713316202163696 0.012273452244699001
0.69587737321853638 0.38741934299468994 0.014655723236501217
0.76671123504638672 0.37025824189186096 0.01570536382496357
0.83464783430099487 0.36502274870872498 0.013094075955450535
0.90363419055938721 0.38094052672386169 0.0037488450761884451
0.96279096603393555 0.40384802222251892 0.0031887576915323734
0.9980010986328125 0.43278127908706665 0.0069495555944740772
0.00060423306422308087 0.53655755519866943 0.14184951782226562
0 0.53908860683441162 0.13873675465583801
0.0084770647808909416 0.53850984573364258 0.13270650804042816
0.12270227819681168 0.54270368814468384 0.10659800469875336
0.31163036823272705 0.54774230718612671 0.053448531776666641
0.49018806219100952 0.55261737108230591 0.010341315530240536
0.63753598928451538 0.55605471134185791 0.0010927985422313213
0.73097461462020874 0.53236263990402222 0.00043445662595331669
0.79452508687973022 0.49716204404830933 0.0028084698133170605
0.85256445407867432 0.47286126017570496 0.0081585152074694633
0.91450291872024536 0.47264140844345093 0.0084242727607488632
0.96983981132507324 0.48301386833190918 0.0078653972595930099
0.9983440637588501 0.50561314821243286 0.010885021649301052
0.0035435245372354984 0.6550060510635376 0.19025124609470367
0 0.65687096118927002 0.18705835938453674
0.018818709999322891 0.65417587757110596 0.18507468700408936
0.14274242520332336 0.65462589263916016 0.16983421146869659
0.30819427967071533 0.65577936172485352 0.13102714717388153
0.46767750382423401 0.65829646587371826 0.082274600863456726
0.61101394891738892 0.66221421957015991 0.029963010922074318
0.72420281171798706 0.65302497148513794 0.0013191222678869963
0.81122034788131714 0.63338631391525269 0
0.87326568365097046 0.60677838325500488 0.00079701741924509406
0.92563694715499878 0.58695429563522339 0.0079400008544325829
0.97398495674133301 0.57839548587799072 0.021227458491921425
0.99869072437286377 0.58533728122711182 0.042134705930948257
0.045356106013059616 0.74543964862823486 0.26082798838615417
0.016530325636267662 0.74889689683914185 0.25685489177703857
0.056939084082841873 0.74698859453201294 0.2559150755405426
0.19300268590450287 0.74591910839080811 0.24971042573451996
0.3352544903755188 0.74601185321807861 0.22880242764949799
0.46315866708755493 0.74659228324890137 0.19185501337051392
0.58318662643432617 0.74496740102767944 0.1264912337064743
0.69925886392593384 0.74506682157516479 0.058397479355335236
0.80825686454772949 0.74724280834197998 0.020292902365326881
0.88318425416946411 0.72930729389190674 0.0032925924751907587
0.9364657998085022 0.70403975248336792 0.0042623933404684067
0.97787016630172729 0.6841578483581543 0.037054084241390228
0.99935239553451538 0.67582231760025024 0.081094838678836823
0.1675400584936142 0.81925249099731445 0.3451530933380127
0.15750816464424133 0.82010823488235474 0.3428950309753418
0.20056819915771484 0.81831985712051392 0.34253662824630737
0.30355757474899292 0.81741565465927124 0.34052926301956177
0.40348368883132935 0.81697571277618408 0.33338800072669983
0.49687951803207397 0.81665664911270142 0.31122419238090515
0.59104639291763306 0.81528091430664062 0.26662015914916992
0.68741756677627563 0.81582868099212646 0.2129313200712204
0.78157001733779907 0.81871622800827026 0.15976472198963165
0.86881726980209351 0.8145027756690979 0.085149355232715607
0.93762356042861938 0.80152732133865356 0.042375363409519196
0.9812924861907959 0.78225070238113403 0.083373174071311951
1 0.76812899112701416 0.13287712633609772
0.339925616979599 0.87482404708862305 0.4446205198764801
0.36634230613708496 0.87393999099731445 0.44351506233215332
0.39461642503738403 0.87276393175125122 0.44319945573806763
0.44304382801055908 0.87208104133605957 0.44484648108482361
0.49802976846694946 0.87126642465591431 0.44626626372337341
0.55939477682113647 0.87051564455032349 0.43494316935539246
0.62680745124816895 0.86964815855026245 0.40671095252037048
0.69638252258300781 0.86949008703231812 0.37338855862617493
0.76717448234558105 0.86919432878494263 0.3376312255859375
0.84493356943130493 0.86829429864883423 0.27240252494812012
0.91809928417205811 0.865611732006073 0.20785737037658691
0.97373861074447632 0.85870522260665894 0.19673587381839752
0.99990719556808472 0.84797126054763794 0.21727003157138824
0.50685518980026245 0.91572928428649902 0.55492663383483887
0.52783083915710449 0.91684228181838989 0.55373048782348633
0.54130995273590088 0.91531282663345337 0.55128544569015503
0.56124359369277954 0.91440987586975098 0.55335026979446411
0.59203195571899414 0.91339284181594849 0.5578235387802124
0.63168501853942871 0.9119991660118103 0.55379915237426758
0.67738312482833862 0.91122472286224365 0.53530299663543701
0.72629773616790771 0.91125893592834473 0.5128212571144104
0.77762526273727417 0.91136962175369263 0.48942610621452332
0.83497875928878784 0.91206520795822144 0.45529672503471375
0.89665520191192627 0.91151100397109985 0.40282443165779114
0.95765519142150879 0.91417700052261353 0.3531709611415863
0.9973454475402832 0.90964251756668091 0.33827939629554749
0.6360505223274231 0.94906216859817505 0.65676528215408325
0.64744454622268677 0.95104151964187622 0.65476983785629272
0.65054720640182495 0.95014327764511108 0.65128171443939209
0.6593281626701355 0.94853943586349487 0.6517719030380249
0.6772308349609375 0.94702976942062378 0.65577340126037598
0.70341283082962036 0.94534260034561157 0.65663027763366699
0.73423558473587036 0.94440799951553345 0.64798551797866821
0.76623004674911499 0.94560801982879639 0.63249963521957397
0.80068373680114746 0.94770556688308716 0.61648786067962646
0.8397899866104126 0.94904530048370361 0.59766560792922974
0.88545852899551392 0.94885522127151489 0.56717932224273682
0.93531876802444458 0.95035630464553833 0.52716594934463501
0.98077851533889771 0.94815927743911743 0.4995843768119812
0.7288888692855835 0.97802698612213135 0.74044203758239746
0.73386573791503906 0.9801899790763855 0.73723673820495605
0.73457574844360352 0.97999352216720581 0.73386901617050171
0.73881691694259644 0.97848623991012573 0.7347140908241272
0.74978256225585938 0.97657680511474609 0.73921328783035278
0.76796388626098633 0.97414183616638184 0.74427884817123413
0.7889360785484314 0.97287708520889282 0.74274009466171265
0.80879348516464233 0.97486501932144165 0.73079788684844971
0.83054327964782715 0.9770851731300354 0.71887975931167603
0.85627692937850952 0.9786067008972168 0.70874297618865967
0.88674724102020264 0.97871297597885132 0.69642871618270874
0.92282336950302124 0.97826540470123291 0.67510801553726196
0.96111732721328735 0.97646796703338623 0.65031546354293823
0.0015927033964544535 0.070124201476573944 0.095052830874919891
0.024643108248710632 0.069854050874710083 0.097122266888618469
0.080814197659492493 0.073259122669696808 0.098160900175571442
0.1636054515838623 0.07363438606262207 0.098062522709369659
0.25756427645683289 0.078006789088249207 0.097690343856811523
0.36307057738304138 0.083579704165458679 0.10081849992275238
0.48059239983558655 0.06711084395647049 0.098824821412563324
0.59498101472854614 0.058096926659345627 0.094745472073554993
0.69660943746566772 0.070373117923736572 0.092470072209835052
0.78649163246154785 0.10113531351089478 0.087839893996715546
0.86794513463973999 0.13908691704273224 0.080789543688297272
0.93945842981338501 0.18383496999740601 0.074725925922393799
0.99302482604980469 0.23306816816329956 0.076527312397956848
0.00042166616185568273 0.099492646753787994 0.10608545690774918
0.023700131103396416 0.10039322823286057 0.10524310171604156
0.089607954025268555 0.10707850754261017 0.10447239875793457
0.17451150715351105 0.11090191453695297 0.10374462604522705
0.26910054683685303 0.11802945286035538 0.10460329055786133
0.37716826796531677 0.12325171381235123 0.10502394288778305
0.49419274926185608 0.11674327403306961 0.10091355443000793
0.60632646083831787 0.1136149987578392 0.095855697989463806
0.70652824640274048 0.1222350001335144 0.090302392840385437
0.79660642147064209 0.14485996961593628 0.083427026867866516
0.87768149375915527 0.17421537637710571 0.075908735394477844
0.94705027341842651 0.21724265813827515 0.070516563951969147
0.9950941801071167 0.26581862568855286 0.072797127068042755
0 0.16226939857006073 0.1196284294128418
0.012796873226761818 0.16486619412899017 0.11773362755775452
0.084809638559818268 0.17130869626998901 0.11412343382835388
0.19227974116802216 0.17596229910850525 0.10874303430318832
0.29985538125038147 0.17895928025245667 0.1088375598192215
0.40536516904830933 0.17953373491764069 0.11155801266431808
0.51742404699325562 0.18035215139389038 0.10591011494398117
0.62468361854553223 0.18150933086872101 0.09771418571472168
0.7200278639793396 0.18839584290981293 0.088735885918140411
0.80745989084243774 0.20611432194709778 0.078498139977455139
0.88673192262649536 0.22996175289154053 0.070002146065235138
0.95307350158691406 0.26602193713188171 0.066285930573940277
0.99648934602737427 0.30962944030761719 0.070009805262088776
0 0.25974828004837036 0.14187115430831909
0.00083257636288180947 0.26459163427352905 0.13929195702075958
0.045352935791015625 0.27058446407318115 0.13326050341129303
0.18964552879333496 0.28251251578330994 0.11366701126098633
0.34293806552886963 0.28800594806671143 0.097521401941776276
0.45574021339416504 0.27551239728927612 0.099026665091514587
0.55480241775512695 0.26426821947097778 0.10271956771612167
0.65073806047439575 0.2639363706111908 0.095856130123138428
0.73726540803909302 0.2682918906211853 0.086116373538970947
0.81888622045516968 0.2806384265422821 0.075012519955635071
0.89551091194152832 0.30046960711479187 0.063258782029151917
0.95979225635528564 0.32960811257362366 0.060727525502443314
0.99805814027786255 0.36625683307647705 0.067189536988735199
4.0450751839671284e-05 0.39359292387962341 0.16724547743797302
0 0.39785477519035339 0.16545550525188446
0.02246309258043766 0.39985814690589905 0.15934830904006958
0.16445493698120117 0.41153553128242493 0.13468556106090546
0.34860163927078247 0.42221608757972717 0.1005655899643898
0.50168877840042114 0.42075222730636597 0.065905563533306122
0.60535383224487305 0.39799672365188599 0.066341012716293335
0.68828737735748291 0.37879657745361328 0.075970955193042755
0.75994992256164551 0.36493271589279175 0.080012470483779907
0.83208644390106201 0.36462205648422241 0.075225174427032471
0.90388625860214233 0.37975656986236572 0.062299869954586029
0.96539688110351562 0.40239411592483521 0.060636915266513824
0.9984886646270752 0.43300297856330872 0.066289134323596954
0 0.53313678503036499 0.1937488466501236
0 0.53660076856613159 0.19349002838134766
0.026396060362458229 0.53510087728500366 0.18965958058834076
0.15364301204681396 0.53900241851806641 0.17043454945087433
0.32683086395263672 0.54539221525192261 0.12993410229682922
0.4979606568813324 0.55335825681686401 0.072707965970039368
0.63461124897003174 0.549671471118927 0.028064383193850517
0.72780495882034302 0.52565175294876099 0.027027323842048645
0.79002940654754639 0.49132996797561646 0.050000134855508804
0.85021907091140747 0.47170546650886536 0.06639225035905838
0.91204434633255005 0.47036576271057129 0.070611260831356049
0.96525150537490845 0.48316451907157898 0.070013023912906647
0.99660015106201172 0.50670653581619263 0.073280021548271179
0.005433310754597187 0.65164697170257568 0.23434779047966003
0.0034716587979346514 0.65497106313705444 0.23513437807559967
0.047895438969135284 0.65297782421112061 0.23514483869075775
0.17191042006015778 0.65259230136871338 0.22265037894248962
0.32434713840484619 0.65432280302047729 0.19145303964614868
0.47411635518074036 0.65665149688720703 0.14842456579208374
0.61287319660186768 0.66071426868438721 0.08601851761341095
0.73044919967651367 0.65635544061660767 0.028834069147706032
0.81261730194091797 0.63283175230026245 0.018172290176153183
0.87153345346450806 0.60400652885437012 0.039702951908111572
0.92319846153259277 0.58304643630981445 0.066366158425807953
0.96779662370681763 0.57619762420654297 0.083798274397850037
0.99615597724914551 0.58415329456329346 0.10376393795013428
0.077178537845611572 0.74470764398574829 0.30156078934669495
0.068476840853691101 0.74862045049667358 0.29925981163978577
0.12158501148223877 0.74695765972137451 0.29888501763343811
0.2319929450750351 0.7456434965133667 0.29266113042831421
0.3549409806728363 0.74498564004898071 0.27557575702667236
0.47206959128379822 0.74399954080581665 0.24546223878860474
0.58666831254959106 0.74371033906936646 0.19734063744544983
0.69997048377990723 0.74491912126541138 0.13095825910568237
0.8078954815864563 0.74653154611587524 0.048557579517364502
0.88220536708831787 0.72790288925170898 0.036379631608724594
0.93555939197540283 0.70294618606567383 0.058341141790151596
0.97610455751419067 0.68211299180984497 0.098304510116577148
0.99852585792541504 0.67247265577316284 0.14017200469970703
0.21469122171401978 0.81806260347366333 0.38360109925270081
0.21938954293727875 0.82070434093475342 0.38064354658126831
0.26347589492797852 0.81914395093917847 0.37911498546600342
0.34277978539466858 0.81821131706237793 0.37706461548805237
0.42522189021110535 0.81724733114242554 0.37114161252975464
0.5082276463508606 0.8156503438949585 0.35254272818565369
0.59498780965805054 0.81436359882354736 0.3198484480381012
0.68701326847076416 0.81428194046020508 0.27027145028114319
0.78037971258163452 0.81540238857269287 0.20367695391178131
0.86799585819244385 0.81324845552444458 0.13069471716880798
0.93703770637512207 0.8029170036315918 0.099136084318161011
0.98125368356704712 0.78408801555633545 0.14157490432262421
1 0.76773357391357422 0.18644575774669647
0.37889620661735535 0.87417387962341309 0.47630754113197327
0.3987916111946106 0.8755602240562439 0.47504135966300964
0.42881807684898376 0.87431544065475464 0.47397035360336304
0.47131109237670898 0.87364113330841064 0.47537478804588318
0.51749718189239502 0.872242271900177 0.47666439414024353
0.57114481925964355 0.87081098556518555 0.46778619289398193
0.63204622268676758 0.86979800462722778 0.44397115707397461
0.69835090637207031 0.86871659755706787 0.41154348850250244
0.76881533861160278 0.86763834953308105 0.37110930681228638
0.84653729200363159 0.86929839849472046 0.30404728651046753
0.91830658912658691 0.86790615320205688 0.24938328564167023
0.97290635108947754 0.85973745584487915 0.24729430675506592
0.99966555833816528 0.84749305248260498 0.26771533489227295
0.53103429079055786 0.91664797067642212 0.5751032829284668
0.54780679941177368 0.91882568597793579 0.57471591234207153
0.56287717819213867 0.9168054461479187 0.57482105493545532
0.58183813095092773 0.91518515348434448 0.57736325263977051
0.60828834772109985 0.91488766670227051 0.58086478710174561
0.64243137836456299 0.91329729557037354 0.5769658088684082
0.6832726001739502 0.91133517026901245 0.56048840284347534
0.72895115613937378 0.9112744927406311 0.53737479448318481
0.77992242574691772 0.9112744927406311 0.51297420263290405
0.83672630786895752 0.9112744927406311 0.47698363661766052
0.89613461494445801 0.91127526760101318 0.43310731649398804
0.95359057188034058 0.91115772724151611 0.39675739407539368
0.99477195739746094 0.90618914365768433 0.38657549023628235
0.64912885427474976 0.95013314485549927 0.66855204105377197
0.66001516580581665 0.95183473825454712 0.66892832517623901
0.66562461853027344 0.95090955495834351 0.66848951578140259
0.67413550615310669 0.94934689998626709 0.6703680157661438
0.68948984146118164 0.94790494441986084 0.67396044731140137
0.71161550283432007 0.94657224416732788 0.67363196611404419
0.73872882127761841 0.94587999582290649 0.66502130031585693
0.76893144845962524 0.94619011878967285 0.65014052391052246
0.80311918258666992 0.94690954685211182 0.63443803787231445
0.84171885251998901 0.94744592905044556 0.61526012420654297
0.88589358329772949 0.94747841358184814 0.58678972721099854
0.93371373414993286 0.94821363687515259 0.55292457342147827
0.97800111770629883 0.94626742601394653 0.52959096431732178
0.73585087060928345 0.97923314571380615 0.74821841716766357
0.74329078197479248 0.98060786724090576 0.74885571002960205
0.74579793214797974 0.98002427816390991 0.74823719263076782
0.75009399652481079 0.97867113351821899 0.7497258186340332
0.75936555862426758 0.97703444957733154 0.75340282917022705
0.7737116813659668 0.97570973634719849 0.75612491369247437
0.79135334491729736 0.97488349676132202 0.75315290689468384
0.81065088510513306 0.97571223974227905 0.74359613656997681
0.83246827125549316 0.97623354196548462 0.73297238349914551
0.85757499933242798 0.97710341215133667 0.72343277931213379
0.88772231340408325 0.97714930772781372 0.70872956514358521
0.92323052883148193 0.97733473777770996 0.68712568283081055
0.96185082197189331 0.97656822204589844 0.66335481405258179
0.0036625133361667395 0.069389820098876953 0.14493197202682495
0.030077243223786354 0.068097896873950958 0.1468544602394104
0.085770562291145325 0.071645669639110565 0.15052215754985809
0.16249999403953552 0.074444793164730072 0.15367896854877472
0.25692737102508545 0.066998712718486786 0.15130558609962463
0.37058082222938538 0.049348313361406326 0.1505931168794632
0.48937937617301941 0.040106784552335739 0.15194788575172424
0.59989142417907715 0.045633591711521149 0.14980496466159821
0.69801181554794312 0.062522739171981812 0.1480032354593277
0.78422641754150391 0.10383858531713486 0.15061083436012268
0.86568939685821533 0.14403071999549866 0.14652611315250397
0.93881916999816895 0.18647627532482147 0.14029562473297119
0.9924694299697876 0.23845061659812927 0.14267851412296295
0.00067777448566630483 0.09975084662437439 0.15731224417686462
0.022924251854419708 0.10287781059741974 0.15861065685749054
0.0892067551612854 0.10898458212614059 0.16055016219615936
0.17419905960559845 0.11187705397605896 0.16072431206703186
0.27048161625862122 0.11308435350656509 0.1599649041891098
0.38255777955055237 0.107613205909729 0.15937165915966034
0.50079828500747681 0.10333570837974548 0.15924035012722015
0.60883885622024536 0.11302514374256134 0.15758082270622253
0.70547783374786377 0.12230043858289719 0.15339174866676331
0.79291492700576782 0.14767950773239136 0.15048737823963165
0.8744577169418335 0.18126395344734192 0.14630907773971558
0.94426590204238892 0.22278003394603729 0.14128604531288147
0.9939037561416626 0.26932314038276672 0.14252084493637085
0 0.15974842011928558 0.17128682136535645
0.014920073561370373 0.16386376321315765 0.17422564327716827
0.089431554079055786 0.17056211829185486 0.17607989907264709
0.19293244183063507 0.17502015829086304 0.17286236584186554
0.29890426993370056 0.17754454910755157 0.17296470701694489
0.40814074873924255 0.18289107084274292 0.17404879629611969
0.52052766084671021 0.18652549386024475 0.17097611725330353
0.62379652261734009 0.19249293208122253 0.16512776911258698
0.7159542441368103 0.19855514168739319 0.15905953943729401
0.80206102132797241 0.21464841067790985 0.15210217237472534
0.8830944299697876 0.23753531277179718 0.14677384495735168
0.95052188634872437 0.27231833338737488 0.14265899360179901
0.9952971339225769 0.31349879503250122 0.14316152036190033
0 0.25722342729568481 0.19916094839572906
0.0061493068933486938 0.26165923476219177 0.19936779141426086
0.076853446662425995 0.26842892169952393 0.19886226952075958
0.21003477275371552 0.27841842174530029 0.18756562471389771
0.3387504518032074 0.277425616979599 0.18106599152088165
0.44837632775306702 0.26902145147323608 0.17911615967750549
0.55111473798751831 0.26534244418144226 0.17645950615406036
0.64663654565811157 0.27019557356834412 0.16987146437168121
0.73126304149627686 0.27696126699447632 0.16236075758934021
0.81298363208770752 0.28936293721199036 0.15501116216182709
0.89238762855529785 0.30576422810554504 0.14796836674213409
0.95819944143295288 0.33335146307945251 0.14426599442958832
0.99715638160705566 0.36950543522834778 0.14499408006668091
0 0.38957160711288452 0.23482225835323334
0.0077169830910861492 0.39337584376335144 0.23320424556732178
0.077672533690929413 0.39645677804946899 0.23066918551921844
0.20909196138381958 0.40429678559303284 0.21659077703952789
0.35515713691711426 0.40827363729476929 0.1962946355342865
0.49174624681472778 0.40405473113059998 0.16947813332080841
0.59409153461456299 0.38540968298912048 0.16431526839733124
0.67675697803497314 0.37199288606643677 0.170405313372612
0.75116217136383057 0.36494842171669006 0.16712678968906403
