films/fuji_neopan_1600_2.cube
TITLE "data/luts/rawtherapee/HaldCLUT/Black-and-White/Fuji/Fuji Neopan 1600 2.png"
LUT_3D_SIZE 8
DOMAIN_MIN 0 0 0
DOMAIN_MAX 1 1 1
0.039216 0.039216 0.039216
0.039216 0.039216 0.039216
0.043697 0.043697 0.043697
0.059944 0.059944 0.059944
0.116527 0.116527 0.116527
0.196639 0.196639 0.196639
0.302521 0.302521 0.302521
0.490196 0.490196 0.490196
0.043137 0.043137 0.043137
0.046339 0.046339 0.046339
0.064186 0.064186 0.064186
0.096919 0.096919 0.096919
0.157423 0.157423 0.157423
0.229692 0.229692 0.229692
0.338535 0.338535 0.338535
0.517647 0.517647 0.517647
0.070588 0.070588 0.070588
0.082033 0.082033 0.082033
0.117007 0.117007 0.117007
0.193677 0.193677 0.193677
0.269868 0.269868 0.269868
0.332853 0.332853 0.332853
0.431052 0.431052 0.431052
0.611204 0.611204 0.611204
0.170868 0.170868 0.170868
0.189836 0.189836 0.189836
0.213445 0.213445 0.213445
0.268908 0.268908 0.268908
0.369428 0.369428 0.369428
0.468908 0.468908 0.468908
0.584394 0.584394 0.584394
0.719888 0.719888 0.719888
0.299720 0.299720 0.299720
0.319328 0.319328 0.319328
0.330692 0.330692 0.330692
0.378471 0.378471 0.378471
0.447139 0.447139 0.447139
0.576070 0.576070 0.576070
0.691317 0.691317 0.691317
0.811765 0.811765 0.811765
0.479552 0.479552 0.479552
0.493317 0.493317 0.493317
0.503081 0.503081 0.503081
0.536134 0.536134 0.536134
0.603521 0.603521 0.603521
0.672269 0.672269 0.672269
0.777831 0.777831 0.777831
0.871148 0.871148 0.871148
0.722129 0.722129 0.722129
0.731653 0.731653 0.731653
0.735814 0.735814 0.735814
0.746779 0.746779 0.746779
0.784234 0.784234 0.784234
0.826331 0.826331 0.826331
0.872109 0.872109 0.872109
0.937255 0.937255 0.937255
0.921569 0.921569 0.921569
0.925490 0.925490 0.925490
0.926050 0.926050 0.926050
0.933333 0.933333 0.933333
0.945098 0.945098 0.945098
0.964706 0.964706 0.964706
0.980392 0.980392 0.980392
0.996078 0.996078 0.996078
0.039216 0.039216 0.039216
0.042177 0.042177 0.042177
0.050660 0.050660 0.050660
0.078912 0.078912 0.078912
0.136134 0.136134 0.136134
0.206162 0.206162 0.206162
0.305882 0.305882 0.305882
0.461064 0.461064 0.461064
0.047059 0.047059 0.047059
0.057726 0.057726 0.057726
0.074327 0.074327 0.074327
0.114354 0.114354 0.114354
0.174790 0.174790 0.174790
0.244246 0.244246 0.244246
0.342869 0.342869 0.342869
0.501000 0.501000 0.501000
0.103081 0.103081 0.103081
0.108249 0.108249 0.108249
0.142217 0.142217 0.142217
0.214554 0.214554 0.214554
0.276842 0.276842 0.276842
0.337141 0.337141 0.337141
0.436049 0.436049 0.436049
0.603041 0.603041 0.603041
0.202321 0.202321 0.202321
0.219654 0.219654 0.219654
0.236426 0.236426 0.236426
0.292597 0.292597 0.292597
0.385194 0.385194 0.385194
0.482181 0.482181 0.482181
0.587629 0.587629 0.587629
0.719408 0.719408 0.719408
0.324930 0.324930 0.324930
0.348940 0.348940 0.348940
0.355365 0.355365 0.355365
0.398765 0.398765 0.398765
0.463500 0.463500 0.463500
0.588075 0.588075 0.588075
0.697285 0.697285 0.697285
0.817287 0.817287 0.817287
0.499640 0.499640 0.499640
0.519534 0.519534 0.519534
0.528600 0.528600 0.528600
0.556543 0.556543 0.556543
0.617127 0.617127 0.617127
0.681507 0.681507 0.681507
0.783708 0.783708 0.783708
0.875070 0.875070 0.875070
0.733894 0.733894 0.733894
0.743417 0.743417 0.743417
0.748437 0.748437 0.748437
0.757697 0.757697 0.757697
0.792317 0.792317 0.792317
0.831212 0.831212 0.831212
0.874830 0.874830 0.874830
0.942457 0.942457 0.942457
0.925490 0.925490 0.925490
0.927171 0.927171 0.927171
0.929412 0.929412 0.929412
0.933814 0.933814 0.933814
0.947179 0.947179 0.947179
0.964706 0.964706 0.964706
0.983353 0.983353 0.983353
0.994398 0.994398 0.994398
0.047059 0.047059 0.047059
0.054582 0.054582 0.054582
0.085154 0.085154 0.085154
0.110364 0.110364 0.110364
0.171028 0.171028 0.171028
0.239216 0.239216 0.239216
0.331413 0.331413 0.331413
0.478431 0.478431 0.478431
0.063866 0.063866 0.063866
0.085474 0.085474 0.085474
0.118253 0.118253 0.118253
0.149157 0.149157 0.149157
0.203990 0.203990 0.203990
0.270588 0.270588 0.270588
0.364146 0.364146 0.364146
0.521569 0.521569 0.521569
0.108683 0.108683 0.108683
0.136615 0.136615 0.136615
0.198388 0.198388 0.198388
0.242120 0.242120 0.242120
0.292414 0.292414 0.292414
0.359744 0.359744 0.359744
0.457943 0.457943 0.457943
0.614646 0.614646 0.614646
0.241457 0.241457 0.241457
0.278431 0.278431 0.278431
0.298599 0.298599 0.298599
0.342743 0.342743 0.342743
0.426159 0.426159 0.426159
0.508123 0.508123 0.508123
0.599680 0.599680 0.599680
0.724210 0.724210 0.724210
0.388956 0.388956 0.388956
0.415263 0.415263 0.415263
0.421346 0.421346 0.421346
0.446339 0.446339 0.446339
0.506957 0.506957 0.506957
0.617687 0.617687 0.617687
0.718207 0.718207 0.718207
0.821289 0.821289 0.821289
0.553982 0.553982 0.553982
0.576791 0.576791 0.576791
0.584805 0.584805 0.584805
0.596719 0.596719 0.596719
0.647002 0.647002 0.647002
0.703493 0.703493 0.703493
0.798594 0.798594 0.798594
0.885794 0.885794 0.885794
0.756863 0.756863 0.756863
0.767804 0.767804 0.767804
0.772549 0.772549 0.772549
0.780724 0.780724 0.780724
0.805316 0.805316 0.805316
0.841983 0.841983 0.841983
0.882090 0.882090 0.882090
0.949020 0.949020 0.949020
0.932773 0.932773 0.932773
0.933093 0.933093 0.933093
0.937255 0.937255 0.937255
0.941176 0.941176 0.941176
0.948860 0.948860 0.948860
0.965186 0.965186 0.965186
0.982633 0.982633 0.982633
0.995518 0.995518 0.995518
0.082353 0.082353 0.082353
0.100360 0.100360 0.100360
0.148619 0.148619 0.148619
0.197519 0.197519 0.197519
0.223529 0.223529 0.223529
0.294678 0.294678 0.294678
0.387195 0.387195 0.387195
0.530532 0.530532 0.530532
0.119808 0.119808 0.119808
0.138581 0.138581 0.138581
0.178940 0.178940 0.178940
0.236014 0.236014 0.236014
0.258526 0.258526 0.258526
0.327731 0.327731 0.327731
0.414520 0.414520 0.414520
0.559664 0.559664 0.559664
0.148619 0.148619 0.148619
0.190545 0.190545 0.190545
0.263088 0.263088 0.263088
0.313886 0.313886 0.313886
0.343017 0.343017 0.343017
0.403521 0.403521 0.403521
0.487018 0.487018 0.487018
0.625530 0.625530 0.625530
0.245378 0.245378 0.245378
0.283816 0.283816 0.283816
0.335128 0.335128 0.335128
0.419070 0.419070 0.419070
0.462402 0.462402 0.462402
0.524644 0.524644 0.524644
0.611090 0.611090 0.611090
0.728611 0.728611 0.728611
0.413445 0.413445 0.413445
0.455942 0.455942 0.455942
0.496759 0.496759 0.496759
0.527948 0.527948 0.527948
0.571429 0.571429 0.571429
0.662185 0.662185 0.662185
0.742160 0.742160 0.742160
0.822409 0.822409 0.822409
0.620328 0.620328 0.620328
0.648820 0.648820 0.648820
0.656708 0.656708 0.656708
0.663866 0.663866 0.663866
0.689064 0.689064 0.689064
0.738513 0.738513 0.738513
0.818259 0.818259 0.818259
0.898039 0.898039 0.898039
0.789916 0.789916 0.789916
0.802138 0.802138 0.802138
0.804482 0.804482 0.804482
0.811868 0.811868 0.811868
0.824170 0.824170 0.824170
0.857463 0.857463 0.857463
0.895638 0.895638 0.895638
0.956863 0.956863 0.956863
0.941176 0.941176 0.941176
0.945098 0.945098 0.945098
0.947499 0.947499 0.947499
0.949020 0.949020 0.949020
0.954062 0.954062 0.954062
0.971589 0.971589 0.971589
0.984314 0.984314 0.984314
0.996078 0.996078 0.996078
0.160784 0.160784 0.160784
0.180472 0.180472 0.180472
0.224810 0.224810 0.224810
0.307803 0.307803 0.307803
0.351020 0.351020 0.351020
0.360384 0.360384 0.360384
0.468427 0.468427 0.468427
0.622409 0.622409 0.622409
0.195438 0.195438 0.195438
0.219894 0.219894 0.219894
0.265466 0.265466 0.265466
0.337918 0.337918 0.337918
0.384680 0.384680 0.384680
0.394329 0.394329 0.394329
0.495192 0.495192 0.495192
0.642497 0.642497 0.642497
0.265946 0.265946 0.265946
0.305882 0.305882 0.305882
0.342857 0.342857 0.342857
0.404482 0.404482 0.404482
0.452535 0.452535 0.452535
0.473812 0.473812 0.473812
0.565906 0.565906 0.565906
0.689076 0.689076 0.689076
0.298840 0.298840 0.298840
0.335391 0.335391 0.335391
0.386475 0.386475 0.386475
0.489945 0.489945 0.489945
0.546470 0.546470 0.546470
0.584188 0.584188 0.584188
0.649780 0.649780 0.649780
0.738055 0.738055 0.738055
0.413445 0.413445 0.413445
0.450203 0.450203 0.450203
0.492163 0.492163 0.492163
0.559664 0.559664 0.559664
0.647939 0.647939 0.647939
0.688836 0.688836 0.688836
0.741497 0.741497 0.741497
0.818487 0.818487 0.818487
0.624810 0.624810 0.624810
0.650569 0.650569 0.650569
0.675710 0.675710 0.675710
0.715852 0.715852 0.715852
0.742754 0.742754 0.742754
0.777568 0.777568 0.777568
0.844418 0.844418 0.844418
0.910764 0.910764 0.910764
0.806803 0.806803 0.806803
0.821426 0.821426 0.821426
0.833774 0.833774 0.833774
0.848842 0.848842 0.848842
0.856800 0.856800 0.856800
0.878683 0.878683 0.878683
0.912731 0.912731 0.912731
0.966947 0.966947 0.966947
0.956863 0.956863 0.956863
0.954782 0.954782 0.954782
0.956863 0.956863 0.956863
0.962785 0.962785 0.962785
0.966307 0.966307 0.966307
0.973669 0.973669 0.973669
0.988235 0.988235 0.988235
0.997199 0.997199 0.997199
0.291317 0.291317 0.291317
0.307563 0.307563 0.307563
0.350140 0.350140 0.350140
0.419848 0.419848 0.419848
0.521569 0.521569 0.521569
0.559104 0.559104 0.559104
0.548459 0.548459 0.548459
0.698599 0.698599 0.698599
0.319008 0.319008 0.319008
0.347213 0.347213 0.347213
0.385640 0.385640 0.385640
0.450820 0.450820 0.450820
0.548059 0.548059 0.548059
0.585994 0.585994 0.585994
0.571886 0.571886 0.571886
0.714606 0.714606 0.714606
0.385914 0.385914 0.385914
0.418693 0.418693 0.418693
0.452032 0.452032 0.452032
0.513348 0.513348 0.513348
0.599977 0.599977 0.599977
0.637318 0.637318 0.637318
0.637844 0.637844 0.637844
0.756383 0.756383 0.756383
0.408003 0.408003 0.408003
0.457520 0.457520 0.457520
0.530795 0.530795 0.530795
0.590762 0.590762 0.590762
0.658469 0.658469 0.658469
0.698279 0.698279 0.698279
0.709975 0.709975 0.709975
0.799200 0.799200 0.799200
0.480672 0.480672 0.480672
0.517235 0.517235 0.517235
0.554919 0.554919 0.554919
0.615320 0.615320 0.615320
0.712319 0.712319 0.712319
0.757663 0.757663 0.757663
0.781032 0.781032 0.781032
0.840176 0.840176 0.840176
0.621289 0.621289 0.621289
0.644292 0.644292 0.644292
0.671228 0.671228 0.671228
0.712788 0.712788 0.712788
0.768204 0.768204 0.768204
0.828503 0.828503 0.828503
0.859944 0.859944 0.859944
0.907483 0.907483 0.907483
0.810404 0.810404 0.810404
0.822169 0.822169 0.822169
0.835740 0.835740 0.835740
0.855862 0.855862 0.855862
0.888035 0.888035 0.888035
0.909198 0.909198 0.909198
0.935814 0.935814 0.935814
0.977271 0.977271 0.977271
0.952941 0.952941 0.952941
0.957103 0.957103 0.957103
0.964226 0.964226 0.964226
0.972549 0.972549 0.972549
0.979992 0.979992 0.979992
0.984794 0.984794 0.984794
0.992477 0.992477 0.992477
0.999440 0.999440 0.999440
0.495238 0.495238 0.495238
0.509964 0.509964 0.509964
0.549900 0.549900 0.549900
0.614006 0.614006 0.614006
0.685714 0.685714 0.685714
0.757743 0.757743 0.757743
0.773109 0.773109 0.773109
0.765266 0.765266 0.765266
0.512605 0.512605 0.512605
0.543566 0.543566 0.543566
0.579820 0.579820 0.579820
0.636495 0.636495 0.636495
0.700200 0.700200 0.700200
0.764454 0.764454 0.764454
0.779683 0.779683 0.779683
0.775510 0.775510 0.775510
0.567507 0.567507 0.567507
0.600663 0.600663 0.600663
0.629692 0.629692 0.629692
0.675950 0.675950 0.675950
0.730749 0.730749 0.730749
0.787629 0.787629 0.787629
0.804482 0.804482 0.804482
0.806162 0.806162 0.806162
0.623369 0.623369 0.623369
0.655416 0.655416 0.655416
0.680021 0.680021 0.680021
0.717201 0.717201 0.717201
0.764626 0.764626 0.764626
0.815115 0.815115 0.815115
0.832996 0.832996 0.832996
0.842577 0.842577 0.842577
0.577751 0.577751 0.577751
0.614726 0.614726 0.614726
0.667879 0.667879 0.667879
0.743978 0.743978 0.743978
0.795404 0.795404 0.795404
0.838507 0.838507 0.838507
0.863991 0.863991 0.863991
0.884594 0.884594 0.884594
0.700600 0.700600 0.700600
0.715486 0.715486 0.715486
0.733653 0.733653 0.733653
0.763745 0.763745 0.763745
0.806803 0.806803 0.806803
0.877139 0.877139 0.877139
0.910467 0.910467 0.910467
0.936134 0.936134 0.936134
0.813285 0.813285 0.813285
0.822992 0.822992 0.822992
0.835717 0.835717 0.835717
0.858675 0.858675 0.858675
0.888927 0.888927 0.888927
0.927045 0.927045 0.927045
0.966215 0.966215 0.966215
0.983353 0.983353 0.983353
0.954622 0.954622 0.954622
0.957823 0.957823 0.957823
0.962465 0.962465 0.962465
0.970948 0.970948 0.970948
0.981032 0.981032 0.981032
0.992157 0.992157 0.992157
0.996078 0.996078 0.996078
0.997759 0.997759 0.997759
0.772549 0.772549 0.772549
0.782073 0.782073 0.782073
0.796078 0.796078 0.796078
0.823529 0.823529 0.823529
0.858824 0.858824 0.858824
0.898599 0.898599 0.898599
0.931653 0.931653 0.931653
0.941176 0.941176 0.941176
0.774230 0.774230 0.774230
0.788235 0.788235 0.788235
0.803922 0.803922 0.803922
0.830172 0.830172 0.830172
0.864826 0.864826 0.864826
0.900520 0.900520 0.900520
0.932613 0.932613 0.932613
0.941176 0.941176 0.941176
0.795518 0.795518 0.795518
0.808083 0.808083 0.808083
0.826411 0.826411 0.826411
0.847059 0.847059 0.847059
0.877871 0.877871 0.877871
0.909804 0.909804 0.909804
0.941176 0.941176 0.941176
0.952381 0.952381 0.952381
0.815686 0.815686 0.815686
0.828651 0.828651 0.828651
0.843137 0.843137 0.843137
0.862745 0.862745 0.862745
0.890196 0.890196 0.890196
0.921569 0.921569 0.921569
0.951261 0.951261 0.951261
0.963585 0.963585 0.963585
0.796078 0.796078 0.796078
0.815686 0.815686 0.815686
0.840176 0.840176 0.840176
0.871389 0.871389 0.871389
0.899160 0.899160 0.899160
0.932373 0.932373 0.932373
0.961905 0.961905 0.961905
0.975350 0.975350 0.975350
0.797199 0.797199 0.797199
0.804722 0.804722 0.804722
0.815766 0.815766 0.815766
0.850420 0.850420 0.850420
0.909644 0.909644 0.909644
0.949580 0.949580 0.949580
0.978952 0.978952 0.978952
0.991597 0.991597 0.991597
0.900280 0.900280 0.900280
0.901240 0.901240 0.901240
0.905882 0.905882 0.905882
0.919888 0.919888 0.919888
0.938856 0.938856 0.938856
0.957423 0.957423 0.957423
0.990476 0.990476 0.990476
0.996078 0.996078 0.996078
0.964706 0.964706 0.964706
0.968627 0.968627 0.968627
0.969188 0.969188 0.969188
0.977591 0.977591 0.977591
0.985434 0.985434 0.985434
0.992717 0.992717 0.992717
0.997759 0.997759 0.997759
1.000000 1.000000 1.000000
