films/fuji_160c.cube
# Created by: G'MIC (https://gmic.eu)
TITLE "fuji_160c"
# LUT size
LUT_3D_SIZE 7
# Data domain
DOMAIN_MIN 0.0 0.0 0.0
DOMAIN_MAX 1.0 1.0 1.0
# LUT data points
0.040036894381046295 0.040624596178531647 0.032284770160913467
0.16944393515586853 0.030416151508688927 0.028656424954533577
0.38751506805419922 0.0023726071231067181 0.028448950499296188
0.62020373344421387 0.0024256387259811163 0.017760451883077621
0.8040650486946106 0.0019180447561666369 0.013530462048947811
0.94305640459060669 0.071196973323822021 0.0056108660064637661
1 0.2116445004940033 0.023308457806706429
0.0019688175525516272 0.17029067873954773 0.020068209618330002
0.14888375997543335 0.17329739034175873 0.018599342554807663
0.38553711771965027 0.16651096940040588 0.0058553656563162804
0.61297571659088135 0.13879694044589996 0.0039131166413426399
0.79247820377349854 0.15985628962516785 0.0036640390753746033
0.93250876665115356 0.22980658710002899 0.0010240293340757489
0.99831879138946533 0.31831863522529602 0.0017805062234401703
0 0.36581090092658997 0.0017634073738008738
0.048083674162626266 0.36235728859901428 0.0042298710905015469
0.3368624746799469 0.37223827838897705 0.00064374139765277505
0.581523597240448 0.37772095203399658 0
0.76586794853210449 0.37468460202217102 0
0.90694648027420044 0.4060361385345459 0
0.99653398990631104 0.44394117593765259 0.003092148806899786
0 0.54780250787734985 0.00038992188638076186
0.031329404562711716 0.53788942098617554 0
0.27249905467033386 0.53685665130615234 4.1288487409474328e-05
0.52534657716751099 0.54816603660583496 0.00025850185193121433
0.72719287872314453 0.56206023693084717 0
0.87684214115142822 0.56582260131835938 0
0.99295341968536377 0.57486838102340698 0.0014951219782233238
0 0.6903458833694458 0.00063973222859203815
0.045576386153697968 0.68432456254959106 0.0034280815161764622
0.25325611233711243 0.67921185493469238 0.0010632084449753165
0.49275249242782593 0.68346774578094482 0.00063970230985432863
0.67979490756988525 0.69119000434875488 0.0010692820651456714
0.83400899171829224 0.70586735010147095 0.00030727012199349701
0.97448748350143433 0.71518301963806152 7.9345700214616954e-05
0.034864850342273712 0.82507646083831787 0.097055427730083466
0.13313966989517212 0.82335501909255981 0.12372244894504547
0.2986086905002594 0.81770014762878418 0.12412137538194656
0.48756605386734009 0.81815284490585327 0.13516427576541901
0.65118789672851562 0.81779247522354126 0.12542372941970825
0.79669272899627686 0.821635901927948 0.10089556872844696
0.93957740068435669 0.83812218904495239 0.12046215683221817
0.22991740703582764 0.96100747585296631 0.34123104810714722
0.29034101963043213 0.95865470170974731 0.34652280807495117
0.39450779557228088 0.95383983850479126 0.35885301232337952
0.51694780588150024 0.95319819450378418 0.38451021909713745
0.64892631769180298 0.95512014627456665 0.38779231905937195
0.78223210573196411 0.95627260208129883 0.38881206512451172
0.91451084613800049 0.96109592914581299 0.41235923767089844
0.063243702054023743 0.043830409646034241 0.14499044418334961
0.19751162827014923 0.038703154772520065 0.15197578072547913
0.41148993372917175 0.0071841818280518055 0.14554506540298462
0.63844794034957886 0.0061911488883197308 0.15785367786884308
0.81131410598754883 0.021976711228489876 0.17342519760131836
0.94212764501571655 0.13488973677158356 0.18390439450740814
1 0.26163145899772644 0.20401924848556519
0.023334413766860962 0.18426541984081268 0.1568320244550705
0.2010938823223114 0.18942669034004211 0.16189377009868622
0.41487407684326172 0.1833680272102356 0.16111926734447479
0.63164025545120239 0.16711190342903137 0.14962947368621826
0.79932922124862671 0.20181232690811157 0.15894347429275513
0.93005478382110596 0.27040308713912964 0.17480692267417908
0.99851995706558228 0.34167051315307617 0.18791177868843079
0.00082912069046869874 0.39242905378341675 0.16066105663776398
0.13688565790653229 0.38373002409934998 0.15411287546157837
0.3749811053276062 0.38399291038513184 0.14242856204509735
0.60382390022277832 0.38237938284873962 0.11597622185945511
0.77429944276809692 0.39000797271728516 0.11419302225112915
0.91078919172286987 0.41946431994438171 0.11993317306041718
0.99702674150466919 0.45674771070480347 0.15877149999141693
0.012765548191964626 0.56473088264465332 0.13847962021827698
0.047444138675928116 0.55641156435012817 0.14390140771865845
0.30407741665840149 0.54453456401824951 0.13880510628223419
0.54675173759460449 0.5540735125541687 0.13041935861110687
0.73317122459411621 0.5653386116027832 0.095559827983379364
0.87959796190261841 0.57042348384857178 0.084708206355571747
0.99324661493301392 0.5798761248588562 0.098173476755619049
0.001629937905818224 0.70121777057647705 0.15428970754146576
0.021464014425873756 0.69532102346420288 0.16638877987861633
0.27171948552131653 0.68449908494949341 0.16409721970558167
0.50606954097747803 0.68348443508148193 0.16747172176837921
0.6841437816619873 0.69250500202178955 0.14830787479877472
0.84123247861862183 0.71121597290039062 0.12936314940452576
0.97975659370422363 0.71624916791915894 0.090787895023822784
0.037846598774194717 0.83146864175796509 0.24098904430866241
0.12111405283212662 0.82656687498092651 0.241217240691185
0.31154918670654297 0.8189588189125061 0.23913067579269409
0.49540293216705322 0.81695735454559326 0.25093379616737366
0.65269124507904053 0.8179008960723877 0.24793088436126709
0.79732692241668701 0.8244093656539917 0.24897357821464539
0.94247007369995117 0.84024357795715332 0.24169501662254333
0.2398349940776825 0.96113044023513794 0.39409342408180237
0.28194379806518555 0.95662504434585571 0.39035075902938843
0.39546233415603638 0.95193737745285034 0.39958465099334717
0.52186280488967896 0.95258092880249023 0.4249330461025238
0.64867973327636719 0.95316427946090698 0.42760589718818665
0.77986222505569458 0.95613044500350952 0.44261601567268372
0.91336655616760254 0.9602581262588501 0.44640734791755676
0.097071930766105652 0.059163127094507217 0.34043526649475098
0.23347660899162292 0.052950810641050339 0.34858715534210205
0.43427965044975281 0.013667162507772446 0.35959628224372864
0.64459115266799927 0.0034116858150810003 0.3463347852230072
0.81929910182952881 0.018984163179993629 0.35168638825416565
0.94285118579864502 0.15371432900428772 0.37777334451675415
1 0.28993609547615051 0.4013955295085907
0.077356182038784027 0.18898148834705353 0.34991669654846191
0.24731017649173737 0.19923989474773407 0.35642227530479431
0.44825911521911621 0.20855782926082611 0.36948850750923157
0.64847135543823242 0.18277211487293243 0.36276540160179138
0.80849343538284302 0.21496731042861938 0.37956207990646362
0.93204355239868164 0.30394777655601501 0.39856740832328796
1 0.37181150913238525 0.40611949563026428
0.016082076355814934 0.40108031034469604 0.36949878931045532
0.20839481055736542 0.40053677558898926 0.37425893545150757
0.43443655967712402 0.40499544143676758 0.37688073515892029
0.63064360618591309 0.41073352098464966 0.38191395998001099
0.7853243350982666 0.4233953058719635 0.38231158256530762
0.91300439834594727 0.44954660534858704 0.38964107632637024
0.99885612726211548 0.48745912313461304 0.40319618582725525
0.07323126494884491 0.59430950880050659 0.39733478426933289
0.24967627227306366 0.58576691150665283 0.39826586842536926
0.41792559623718262 0.57651877403259277 0.39057892560958862
0.58752530813217163 0.5742567777633667 0.37997221946716309
0.74789124727249146 0.57701504230499268 0.36583393812179565
0.88564133644104004 0.57810318470001221 0.35498818755149841
0.99533206224441528 0.59058082103729248 0.36119702458381653
0.15413472056388855 0.7170412540435791 0.40205547213554382
0.21680927276611328 0.71470755338668823 0.39061763882637024
0.37904295325279236 0.7039458155632019 0.38718137145042419
0.53501689434051514 0.69471365213394165 0.38251659274101257
0.69460028409957886 0.70056098699569702 0.37561047077178955
0.84832876920700073 0.71027392148971558 0.35605034232139587
0.98205059766769409 0.71209001541137695 0.34281089901924133
0.10605793446302414 0.83677387237548828 0.40400862693786621
0.21917779743671417 0.83271229267120361 0.40449279546737671
0.36188185214996338 0.82606208324432373 0.40232247114181519
0.50647497177124023 0.81900757551193237 0.40283647179603577
0.65418517589569092 0.81891250610351562 0.3989042341709137
0.80227112770080566 0.82784199714660645 0.40505436062812805
0.94879865646362305 0.84449124336242676 0.40902650356292725
0.24611207842826843 0.95723038911819458 0.47925928235054016
0.30146902799606323 0.95461875200271606 0.47578608989715576
0.4010520875453949 0.95244038105010986 0.4849664568901062
0.52047455310821533 0.95138198137283325 0.50240075588226318
0.6456790566444397 0.95007681846618652 0.50475603342056274
0.77926445007324219 0.95518863201141357 0.52326178550720215
0.91571497917175293 0.96124869585037231 0.52752667665481567
0.16926075518131256 0.074801333248615265 0.5368226170539856
0.3048514723777771 0.073216065764427185 0.54193902015686035
0.47895577549934387 0.069663688540458679 0.55652236938476562
0.65558457374572754 0.044221512973308563 0.56758028268814087
0.80948919057846069 0.048707835376262665 0.55927807092666626
0.93489515781402588 0.14391475915908813 0.54943490028381348
0.99923586845397949 0.26476183533668518 0.5588265061378479
0.17616753280162811 0.20423701405525208 0.5389406681060791
0.30540913343429565 0.21297544240951538 0.54502803087234497
0.47999778389930725 0.22925084829330444 0.56117409467697144
0.65849179029464722 0.2340979278087616 0.56891137361526489
0.80230051279067993 0.22789846360683441 0.56174272298812866
0.93506640195846558 0.28032410144805908 0.55986678600311279
1 0.36081448197364807 0.57496124505996704
0.10272001475095749 0.36740443110466003 0.54260522127151489
0.2704775333404541 0.37912747263908386 0.54737478494644165
0.46629860997200012 0.40820768475532532 0.56452363729476929
0.64688777923583984 0.43682181835174561 0.57971739768981934
0.79367738962173462 0.43298590183258057 0.57515037059783936
0.91328686475753784 0.46256154775619507 0.58131080865859985
0.99632740020751953 0.50942730903625488 0.59980684518814087
0.080287948250770569 0.58419185876846313 0.57294386625289917
0.26803860068321228 0.58197104930877686 0.5730900764465332
0.45438984036445618 0.58858412504196167 0.57955408096313477
0.61818462610244751 0.59222209453582764 0.58232128620147705
0.76240372657775879 0.59867435693740845 0.58082908391952515
0.88425987958908081 0.60435026884078979 0.58112889528274536
0.99257320165634155 0.61206185817718506 0.57718867063522339
0.23806335031986237 0.73952680826187134 0.59363836050033569
0.33806887269020081 0.74208486080169678 0.59392976760864258
0.46715235710144043 0.73520493507385254 0.59010297060012817
0.58149212598800659 0.71623766422271729 0.57399833202362061
0.71384263038635254 0.71336847543716431 0.56495845317840576
0.85457247495651245 0.71741461753845215 0.55078446865081787
0.98460692167282104 0.71562522649765015 0.5457465648651123
0.33163464069366455 0.8514673113822937 0.59685337543487549
0.3862018883228302 0.84901458024978638 0.59757512807846069
0.45601651072502136 0.8398061990737915 0.58194088935852051
0.55189764499664307 0.83156412839889526 0.56824451684951782
0.67062848806381226 0.82765716314315796 0.56092733144760132
0.80792033672332764 0.82942265272140503 0.56210869550704956
0.95745372772216797 0.84622067213058472 0.56214851140975952
0.36386382579803467 0.96229547262191772 0.61648446321487427
0.40034985542297363 0.96048253774642944 0.61363738775253296
0.45894473791122437 0.95651066303253174 0.61044740676879883
0.53923892974853516 0.95312774181365967 0.60429143905639648
0.65182548761367798 0.94922733306884766 0.60812187194824219
0.78115558624267578 0.9526132345199585 0.61812955141067505
0.91953021287918091 0.96115332841873169 0.62814128398895264
0.3203696608543396 0.1180560514330864 0.7026711106300354
0.40921697020530701 0.11428225785493851 0.7066304087638855
0.53779619932174683 0.12666383385658264 0.71229457855224609
0.69035440683364868 0.17183823883533478 0.72973263263702393
0.81585007905960083 0.21206024289131165 0.73186856508255005
0.9140087366104126 0.21689659357070923 0.71353745460510254
0.99920493364334106 0.27687975764274597 0.70936942100524902
0.32962623238563538 0.23855295777320862 0.70185518264770508
0.4070221483707428 0.23829634487628937 0.7058899998664856
0.53574264049530029 0.25526043772697449 0.71272808313369751
0.6820341944694519 0.29989075660705566 0.72627979516983032
0.80389857292175293 0.32785609364509583 0.73037397861480713
0.91819608211517334 0.32572406530380249 0.7189018726348877
0.99995404481887817 0.36549371480941772 0.71638733148574829
0.26814371347427368 0.38136866688728333 0.69650071859359741
0.36238008737564087 0.38637638092041016 0.6972004771232605
0.5194513201713562 0.41577741503715515 0.7103043794631958
0.66527831554412842 0.45165470242500305 0.72558087110519409
0.79356926679611206 0.4727637767791748 0.73071914911270142
0.90902513265609741 0.47125959396362305 0.72092938423156738
0.99925321340560913 0.48907724022865295 0.71394503116607666
0.2025989294052124 0.54069852828979492 0.69907349348068237
0.30642539262771606 0.54277873039245605 0.69623088836669922
0.46648052334785461 0.55470114946365356 0.70390886068344116
0.62829065322875977 0.58858603239059448 0.72242319583892822
0.77073615789413452 0.62017530202865601 0.73795253038406372
0.88849407434463501 0.61617481708526611 0.73456275463104248
0.99465274810791016 0.61966007947921753 0.72297161817550659
0.25864312052726746 0.72717529535293579 0.72457051277160645
0.3427792489528656 0.7231937050819397 0.72388118505477905
0.46693393588066101 0.72622305154800415 0.72806853055953979
0.60875290632247925 0.7245141863822937 0.73148781061172485
0.73662781715393066 0.73011785745620728 0.7300838828086853
0.86639583110809326 0.73379373550415039 0.72921597957611084
0.98375487327575684 0.73856270313262939 0.72860395908355713
0.34831678867340088 0.86784690618515015 0.74312406778335571
0.404558926820755 0.86752092838287354 0.74315172433853149
0.5008731484413147 0.86274969577789307 0.74149280786514282
0.60970771312713623 0.85679417848587036 0.73754972219467163
0.71433240175247192 0.84838986396789551 0.72843188047409058
0.83020806312561035 0.84470731019973755 0.71869134902954102
0.96312868595123291 0.83985084295272827 0.70788335800170898
0.44498118758201599 0.97351419925689697 0.7579529881477356
0.47421789169311523 0.97127890586853027 0.75222843885421753
0.53838729858398438 0.96856862306594849 0.75495082139968872
0.59943979978561401 0.96339184045791626 0.7405468225479126
0.6894608736038208 0.9550778865814209 0.73533117771148682
0.79279011487960815 0.95668494701385498 0.73344814777374268
0.92605209350585938 0.95754384994506836 0.74131625890731812
0.48502451181411743 0.20533405244350433 0.84890484809875488
0.53015005588531494 0.21552208065986633 0.84848886728286743
0.6149783730506897 0.23607288300991058 0.84980851411819458
0.72495394945144653 0.28096818923950195 0.85536867380142212
0.83302915096282959 0.35776498913764954 0.86244088411331177
0.92185664176940918 0.37600627541542053 0.8559233546257019
0.99748450517654419 0.37251430749893188 0.85015547275543213
0.48158985376358032 0.29953756928443909 0.84453916549682617
0.52656000852584839 0.3074495792388916 0.84616833925247192
0.61069440841674805 0.32446256279945374 0.84792143106460571
0.7179909348487854 0.36286088824272156 0.85439008474349976
0.82287096977233887 0.42503094673156738 0.86103516817092896
0.91727316379547119 0.4437459409236908 0.85647428035736084
0.99711799621582031 0.44555357098579407 0.85242795944213867
0.44919773936271667 0.42934408783912659 0.83801770210266113
0.49762770533561707 0.43299299478530884 0.83994185924530029
0.59144145250320435 0.45180231332778931 0.843292236328125
0.69836676120758057 0.48421734571456909 0.84995138645172119
0.80413204431533813 0.52390605211257935 0.85691827535629272
0.90653592348098755 0.54118102788925171 0.85328525304794312
0.99681752920150757 0.54252332448959351 0.84657198190689087
0.33257851004600525 0.53466331958770752 0.82892519235610962
0.40084052085876465 0.5431632399559021 0.83120369911193848
0.51885038614273071 0.55655241012573242 0.83286547660827637
0.65481019020080566 0.58926230669021606 0.84138429164886475
0.78129714727401733 0.63208979368209839 0.85527390241622925
0.89060670137405396 0.650066077709198 0.85929012298583984
0.99300682544708252 0.6413646936416626 0.85057187080383301
0.29743793606758118 0.68676137924194336 0.83449816703796387
0.34597259759902954 0.68275696039199829 0.83314973115921021
0.4538077712059021 0.68232375383377075 0.8347432017326355
0.59627050161361694 0.69623738527297974 0.8397793173789978
0.74352800846099854 0.72175705432891846 0.8464043140411377
0.87586897611618042 0.75746375322341919 0.86206585168838501
0.98450189828872681 0.75584161281585693 0.85601770877838135
0.34406992793083191 0.84386223554611206 0.85198545455932617
0.39420366287231445 0.84367376565933228 0.8511500358581543
0.48385477066040039 0.8426935076713562 0.85216349363327026
0.60209232568740845 0.84381222724914551 0.85492336750030518
0.73139220476150513 0.84884124994277954 0.85775578022003174
0.85162687301635742 0.85356765985488892 0.8577466607093811
0.97014099359512329 0.85737675428390503 0.85514646768569946
0.43114343285560608 0.97771269083023071 0.86687004566192627
0.467754065990448 0.97355633974075317 0.86207103729248047
0.54103618860244751 0.97754585742950439 0.86623728275299072
0.64631682634353638 0.97225832939147949 0.8679506778717041
0.7500113844871521 0.96571582555770874 0.86871463060379028
0.83339524269104004 0.96257829666137695 0.86149877309799194
0.94145631790161133 0.9591754674911499 0.86185789108276367
0.62331944704055786 0.40344855189323425 0.97115176916122437
0.64746284484863281 0.40771612524986267 0.96903997659683228
0.69828158617019653 0.41983306407928467 0.96807640790939331
0.76614534854888916 0.45834746956825256 0.96648788452148438
0.84717470407485962 0.48840761184692383 0.96547764539718628
0.92935127019882202 0.55358541011810303 0.96537870168685913
0.99880695343017578 0.54292875528335571 0.96087020635604858
0.61391496658325195 0.45107424259185791 0.96866583824157715
0.64251589775085449 0.46410009264945984 0.96899509429931641
0.69360101222991943 0.47191125154495239 0.96743977069854736
0.76153135299682617 0.50401616096496582 0.96569985151290894
0.84103679656982422 0.53569960594177246 0.96646726131439209
0.92698699235916138 0.5863683819770813 0.96399426460266113
0.99810564517974854 0.58431398868560791 0.96351271867752075
0.6009400486946106 0.53680169582366943 0.9641680121421814
0.62996286153793335 0.53933930397033691 0.96507352590560913
0.68238818645477295 0.55305910110473633 0.964927077293396
0.7499348521232605 0.57861274480819702 0.96228688955307007
0.82967811822891235 0.59960281848907471 0.96362173557281494
0.91852104663848877 0.63992798328399658 0.96296799182891846
0.99728256464004517 0.64588266611099243 0.96179467439651489
0.52802658081054688 0.6090894341468811 0.96089494228363037
0.57353568077087402 0.62129735946655273 0.96184289455413818
0.64094722270965576 0.63100022077560425 0.96170502901077271
0.72791409492492676 0.65134036540985107 0.9611583948135376
0.81596958637237549 0.67142939567565918 0.96308475732803345
0.90701806545257568 0.71227097511291504 0.96343058347702026
0.99306744337081909 0.71301060914993286 0.96559494733810425
0.4409671425819397 0.70426338911056519 0.95669275522232056
0.47355955839157104 0.70154887437820435 0.95579689741134644
0.54302531480789185 0.70120447874069214 0.95580780506134033
0.65557211637496948 0.72038865089416504 0.95604419708251953
0.78411853313446045 0.74923813343048096 0.96043950319290161
0.89008039236068726 0.78437119722366333 0.96346169710159302
0.986858069896698 0.79784923791885376 0.96400487422943115
0.4439035952091217 0.8308178186416626 0.96281355619430542
0.47362029552459717 0.82805389165878296 0.96237832307815552
0.52631175518035889 0.8259701132774353 0.95991593599319458
0.61802214384078979 0.8247978687286377 0.95697128772735596
0.73401886224746704 0.83178716897964478 0.95738434791564941
0.86026090383529663 0.85557162761688232 0.96262472867965698
0.98006510734558105 0.88940179347991943 0.96553194522857666
0.48487573862075806 0.96304512023925781 0.97355622053146362
0.50520455837249756 0.9654662013053894 0.97117185592651367
0.56175106763839722 0.96603620052337646 0.97155123949050903
0.66072708368301392 0.96454036235809326 0.97129100561141968
0.76500552892684937 0.96825838088989258 0.97100198268890381
0.86214441061019897 0.96390467882156372 0.97035890817642212
0.96595126390457153 0.97087979316711426 0.97068876028060913
