films/fuji_neopan_1600_++.cube
# Created by: G'MIC (https://gmic.eu)
TITLE "fuji_neopan_1600_++"
# LUT size
LUT_3D_SIZE 5
# Data domain
DOMAIN_MIN 0.0 0.0 0.0
DOMAIN_MAX 1.0 1.0 1.0
# LUT data points
0.14257007837295532 0.14257007837295532 0.14257007837295532
0.14874756336212158 0.14874756336212158 0.14874756336212158
0.19434595108032227 0.19434595108032227 0.19434595108032227
0.28332436084747314 0.28332436084747314 0.28332436084747314
0.43987852334976196 0.43987852334976196 0.43987852334976196
0.19563442468643188 0.19563442468643188 0.19563442468643188
0.20803430676460266 0.20803430676460266 0.20803430676460266
0.27566105127334595 0.27566105127334595 0.27566105127334595
0.37679430842399597 0.37679430842399597 0.37679430842399597
0.56900006532669067 0.56900006532669067 0.56900006532669067
0.31038752198219299 0.31038752198219299 0.31038752198219299
0.32928016781806946 0.32928016781806946 0.32928016781806946
0.40649318695068359 0.40649318695068359 0.40649318695068359
0.5846867561340332 0.5846867561340332 0.5846867561340332
0.75933623313903809 0.75933623313903809 0.75933623313903809
0.57522368431091309 0.57522368431091309 0.57522368431091309
0.60108453035354614 0.60108453035354614 0.60108453035354614
0.64348751306533813 0.64348751306533813 0.64348751306533813
0.75311410427093506 0.75311410427093506 0.75311410427093506
0.87024140357971191 0.87024140357971191 0.87024140357971191
0.90969616174697876 0.90969616174697876 0.90969616174697876
0.90719789266586304 0.90719789266586304 0.90719789266586304
0.92860352993011475 0.92860352993011475 0.92860352993011475
0.95823431015014648 0.95823431015014648 0.95823431015014648
0.98686683177947998 0.98686683177947998 0.98686683177947998
0.15098322927951813 0.15098322927951813 0.15098322927951813
0.16474458575248718 0.16474458575248718 0.16474458575248718
0.21004775166511536 0.21004775166511536 0.21004775166511536
0.29845318198204041 0.29845318198204041 0.29845318198204041
0.45486703515052795 0.45486703515052795 0.45486703515052795
0.21356374025344849 0.21356374025344849 0.21356374025344849
0.23945261538028717 0.23945261538028717 0.23945261538028717
0.30048948526382446 0.30048948526382446 0.30048948526382446
0.40730440616607666 0.40730440616607666 0.40730440616607666
0.58391094207763672 0.58391094207763672 0.58391094207763672
0.36556431651115417 0.36556431651115417 0.36556431651115417
0.39620500802993774 0.39620500802993774 0.39620500802993774
0.46175727248191833 0.46175727248191833 0.46175727248191833
0.62045705318450928 0.62045705318450928 0.62045705318450928
0.76951152086257935 0.76951152086257935 0.76951152086257935
0.635142982006073 0.635142982006073 0.635142982006073
0.65110784769058228 0.65110784769058228 0.65110784769058228
0.68751037120819092 0.68751037120819092 0.68751037120819092
0.76783931255340576 0.76783931255340576 0.76783931255340576
0.88304322957992554 0.88304322957992554 0.88304322957992554
0.90167069435119629 0.90167069435119629 0.90167069435119629
0.91618877649307251 0.91618877649307251 0.91618877649307251
0.92988568544387817 0.92988568544387817 0.92988568544387817
0.95568859577178955 0.95568859577178955 0.95568859577178955
0.9954569935798645 0.9954569935798645 0.9954569935798645
0.20932558178901672 0.20932558178901672 0.20932558178901672
0.25139027833938599 0.25139027833938599 0.25139027833938599
0.31782826781272888 0.31782826781272888 0.31782826781272888
0.37734341621398926 0.37734341621398926 0.37734341621398926
0.57121217250823975 0.57121217250823975 0.57121217250823975
0.28128471970558167 0.28128471970558167 0.28128471970558167
0.32152080535888672 0.32152080535888672 0.32152080535888672
0.40868011116981506 0.40868011116981506 0.40868011116981506
0.47022527456283569 0.47022527456283569 0.47022527456283569
0.65472424030303955 0.65472424030303955 0.65472424030303955
0.39740076661109924 0.39740076661109924 0.39740076661109924
0.46514981985092163 0.46514981985092163 0.46514981985092163
0.55931001901626587 0.55931001901626587 0.55931001901626587
0.65786290168762207 0.65786290168762207 0.65786290168762207
0.78341555595397949 0.78341555595397949 0.78341555595397949
0.70189738273620605 0.70189738273620605 0.70189738273620605
0.73336011171340942 0.73336011171340942 0.73336011171340942
0.77316141128540039 0.77316141128540039 0.77316141128540039
0.82464396953582764 0.82464396953582764 0.82464396953582764
0.91394233703613281 0.91394233703613281 0.91394233703613281
0.91337984800338745 0.91337984800338745 0.91337984800338745
0.93272453546524048 0.93272453546524048 0.93272453546524048
0.95390647649765015 0.95390647649765015 0.95390647649765015
0.97622227668762207 0.97622227668762207 0.97622227668762207
0.99980485439300537 0.99980485439300537 0.99980485439300537
0.37241348624229431 0.37241348624229431 0.37241348624229431
0.4283294677734375 0.4283294677734375 0.4283294677734375
0.55257993936538696 0.55257993936538696 0.55257993936538696
0.62332606315612793 0.62332606315612793 0.62332606315612793
0.704670250415802 0.704670250415802 0.704670250415802
0.45521318912506104 0.45521318912506104 0.45521318912506104
0.51617944240570068 0.51617944240570068 0.51617944240570068
0.62746989727020264 0.62746989727020264 0.62746989727020264
0.69021540880203247 0.69021540880203247 0.69021540880203247
0.75827926397323608 0.75827926397323608 0.75827926397323608
0.51479047536849976 0.51479047536849976 0.51479047536849976
0.58977335691452026 0.58977335691452026 0.58977335691452026
0.68752539157867432 0.68752539157867432 0.68752539157867432
0.77312463521957397 0.77312463521957397 0.77312463521957397
0.82871538400650024 0.82871538400650024 0.82871538400650024
0.71837764978408813 0.71837764978408813 0.71837764978408813
0.7495233416557312 0.7495233416557312 0.7495233416557312
0.80571389198303223 0.80571389198303223 0.80571389198303223
0.86949747800827026 0.86949747800827026 0.86949747800827026
0.93033993244171143 0.93033993244171143 0.93033993244171143
0.91675776243209839 0.91675776243209839 0.91675776243209839
0.93267238140106201 0.93267238140106201 0.93267238140106201
0.96052145957946777 0.96052145957946777 0.96052145957946777
0.99103391170501709 0.99103391170501709 0.99103391170501709
0.99972265958786011 0.99972265958786011 0.99972265958786011
0.7589002251625061 0.7589002251625061 0.7589002251625061
0.78552126884460449 0.78552126884460449 0.78552126884460449
0.82980108261108398 0.82980108261108398 0.82980108261108398
0.90687626600265503 0.90687626600265503 0.90687626600265503
0.90176188945770264 0.90176188945770264 0.90176188945770264
0.78901010751724243 0.78901010751724243 0.78901010751724243
0.81032007932662964 0.81032007932662964 0.81032007932662964
0.85282248258590698 0.85282248258590698 0.85282248258590698
0.91537779569625854 0.91537779569625854 0.91537779569625854
0.93030762672424316 0.93030762672424316 0.93030762672424316
0.78202140331268311 0.78202140331268311 0.78202140331268311
0.83135008811950684 0.83135008811950684 0.83135008811950684
0.87440556287765503 0.87440556287765503 0.87440556287765503
0.93058234453201294 0.93058234453201294 0.93058234453201294
0.94896644353866577 0.94896644353866577 0.94896644353866577
0.81280648708343506 0.81280648708343506 0.81280648708343506
0.85421586036682129 0.85421586036682129 0.85421586036682129
0.88222038745880127 0.88222038745880127 0.88222038745880127
0.95258563756942749 0.95258563756942749 0.95258563756942749
0.98420053720474243 0.98420053720474243 0.98420053720474243
0.95784473419189453 0.95784473419189453 0.95784473419189453
0.9695553183555603 0.9695553183555603 0.9695553183555603
0.98709917068481445 0.98709917068481445 0.98709917068481445
0.99916172027587891 0.99916172027587891 0.99916172027587891
0.99844539165496826 0.99844539165496826 0.99844539165496826
