films/fuji_neopan_1600_+.cube
# Created by: G'MIC (https://gmic.eu)
TITLE "fuji_neopan_1600_+"
# LUT size
LUT_3D_SIZE 7
# Data domain
DOMAIN_MIN 0.0 0.0 0.0
DOMAIN_MAX 1.0 1.0 1.0
# LUT data points
0.084896281361579895 0.084896281361579895 0.084896281361579895
0.081811480224132538 0.081811480224132538 0.081811480224132538
0.10632928460836411 0.10632928460836411 0.10632928460836411
0.14780585467815399 0.14780585467815399 0.14780585467815399
0.22259749472141266 0.22259749472141266 0.22259749472141266
0.32671186327934265 0.32671186327934265 0.32671186327934265
0.45591875910758972 0.45591875910758972 0.45591875910758972
0.11233572661876678 0.11233572661876678 0.11233572661876678
0.11102759838104248 0.11102759838104248 0.11102759838104248
0.14923299849033356 0.14923299849033356 0.14923299849033356
0.20958548784255981 0.20958548784255981 0.20958548784255981
0.28685414791107178 0.28685414791107178 0.28685414791107178
0.37676265835762024 0.37676265835762024 0.37676265835762024
0.50858598947525024 0.50858598947525024 0.50858598947525024
0.18646237254142761 0.18646237254142761 0.18646237254142761
0.1947578638792038 0.1947578638792038 0.1947578638792038
0.23714342713356018 0.23714342713356018 0.23714342713356018
0.31006002426147461 0.31006002426147461 0.31006002426147461
0.40245252847671509 0.40245252847671509 0.40245252847671509
0.50877493619918823 0.50877493619918823 0.50877493619918823
0.62803053855895996 0.62803053855895996 0.62803053855895996
0.30120435357093811 0.30120435357093811 0.30120435357093811
0.31902730464935303 0.31902730464935303 0.31902730464935303
0.35075724124908447 0.35075724124908447 0.35075724124908447
0.41004329919815063 0.41004329919815063 0.41004329919815063
0.51310503482818604 0.51310503482818604 0.51310503482818604
0.64035218954086304 0.64035218954086304 0.64035218954086304
0.7658042311668396 0.7658042311668396 0.7658042311668396
0.47490859031677246 0.47490859031677246 0.47490859031677246
0.48484304547309875 0.48484304547309875 0.48484304547309875
0.50308138132095337 0.50308138132095337 0.50308138132095337
0.54191213846206665 0.54191213846206665 0.54191213846206665
0.62430405616760254 0.62430405616760254 0.62430405616760254
0.72457790374755859 0.72457790374755859 0.72457790374755859
0.83945918083190918 0.83945918083190918 0.83945918083190918
0.69068628549575806 0.69068628549575806 0.69068628549575806
0.69254493713378906 0.69254493713378906 0.69254493713378906
0.70466434955596924 0.70466434955596924 0.70466434955596924
0.73529309034347534 0.73529309034347534 0.73529309034347534
0.781158447265625 0.781158447265625 0.781158447265625
0.83568751811981201 0.83568751811981201 0.83568751811981201
0.91226083040237427 0.91226083040237427 0.91226083040237427
0.90417927503585815 0.90417927503585815 0.90417927503585815
0.8928985595703125 0.8928985595703125 0.8928985595703125
0.90090262889862061 0.90090262889862061 0.90090262889862061
0.92382025718688965 0.92382025718688965 0.92382025718688965
0.94695472717285156 0.94695472717285156 0.94695472717285156
0.96950280666351318 0.96950280666351318 0.96950280666351318
0.9955260157585144 0.9955260157585144 0.9955260157585144
0.088924884796142578 0.088924884796142578 0.088924884796142578
0.096659444272518158 0.096659444272518158 0.096659444272518158
0.12949194014072418 0.12949194014072418 0.12949194014072418
0.17409497499465942 0.17409497499465942 0.17409497499465942
0.23811204731464386 0.23811204731464386 0.23811204731464386
0.33555993437767029 0.33555993437767029 0.33555993437767029
0.46342149376869202 0.46342149376869202 0.46342149376869202
0.1161249652504921 0.1161249652504921 0.1161249652504921
0.13281317055225372 0.13281317055225372 0.13281317055225372
0.17694908380508423 0.17694908380508423 0.17694908380508423
0.23684100806713104 0.23684100806713104 0.23684100806713104
0.30395358800888062 0.30395358800888062 0.30395358800888062
0.3933899998664856 0.3933899998664856 0.3933899998664856
0.52023470401763916 0.52023470401763916 0.52023470401763916
0.21223136782646179 0.21223136782646179 0.21223136782646179
0.22919818758964539 0.22919818758964539 0.22919818758964539
0.26987305283546448 0.26987305283546448 0.26987305283546448
0.34497293829917908 0.34497293829917908 0.34497293829917908
0.4208991527557373 0.4208991527557373 0.4208991527557373
0.51619422435760498 0.51619422435760498 0.51619422435760498
0.63382232189178467 0.63382232189178467 0.63382232189178467
0.34523594379425049 0.34523594379425049 0.34523594379425049
0.35689201951026917 0.35689201951026917 0.35689201951026917
0.38061937689781189 0.38061937689781189 0.38061937689781189
0.4369768500328064 0.4369768500328064 0.4369768500328064
0.5293886661529541 0.5293886661529541 0.5293886661529541
0.64998573064804077 0.64998573064804077 0.64998573064804077
0.76900935173034668 0.76900935173034668 0.76900935173034668
0.50094693899154663 0.50094693899154663 0.50094693899154663
0.51109015941619873 0.51109015941619873 0.51109015941619873
0.51732581853866577 0.51732581853866577 0.51732581853866577
0.56790721416473389 0.56790721416473389 0.56790721416473389
0.64684921503067017 0.64684921503067017 0.64684921503067017
0.74908006191253662 0.74908006191253662 0.74908006191253662
0.84899759292602539 0.84899759292602539 0.84899759292602539
0.70517575740814209 0.70517575740814209 0.70517575740814209
0.71083927154541016 0.71083927154541016 0.71083927154541016
0.71893531084060669 0.71893531084060669 0.71893531084060669
0.74737691879272461 0.74737691879272461 0.74737691879272461
0.79288411140441895 0.79288411140441895 0.79288411140441895
0.85098052024841309 0.85098052024841309 0.85098052024841309
0.91765666007995605 0.91765666007995605 0.91765666007995605
0.89998400211334229 0.89998400211334229 0.89998400211334229
0.90166819095611572 0.90166819095611572 0.90166819095611572
0.90589046478271484 0.90589046478271484 0.90589046478271484
0.91969853639602661 0.91969853639602661 0.91969853639602661
0.93984389305114746 0.93984389305114746 0.93984389305114746
0.9651983380317688 0.9651983380317688 0.9651983380317688
0.99409300088882446 0.99409300088882446 0.99409300088882446
0.12581326067447662 0.12581326067447662 0.12581326067447662
0.14503371715545654 0.14503371715545654 0.14503371715545654
0.19017449021339417 0.19017449021339417 0.19017449021339417
0.22864587604999542 0.22864587604999542 0.22864587604999542
0.27156922221183777 0.27156922221183777 0.27156922221183777
0.36565759778022766 0.36565759778022766 0.36565759778022766
0.49925780296325684 0.49925780296325684 0.49925780296325684
0.14645682275295258 0.14645682275295258 0.14645682275295258
0.18013131618499756 0.18013131618499756 0.18013131618499756
0.23106428980827332 0.23106428980827332 0.23106428980827332
0.27788156270980835 0.27788156270980835 0.27788156270980835
0.32871788740158081 0.32871788740158081 0.32871788740158081
0.41295963525772095 0.41295963525772095 0.41295963525772095
0.5466877818107605 0.5466877818107605 0.5466877818107605
0.24182011187076569 0.24182011187076569 0.24182011187076569
0.27235326170921326 0.27235326170921326 0.27235326170921326
0.32225137948989868 0.32225137948989868 0.32225137948989868
0.37722262740135193 0.37722262740135193 0.37722262740135193
0.44125404953956604 0.44125404953956604 0.44125404953956604
0.52920997142791748 0.52920997142791748 0.52920997142791748
0.63844037055969238 0.63844037055969238 0.63844037055969238
0.3827909529209137 0.3827909529209137 0.3827909529209137
0.40358904004096985 0.40358904004096985 0.40358904004096985
0.4525827169418335 0.4525827169418335 0.4525827169418335
0.49428519606590271 0.49428519606590271 0.49428519606590271
0.57221478223800659 0.57221478223800659 0.57221478223800659
0.67435652017593384 0.67435652017593384 0.67435652017593384
0.75963491201400757 0.75963491201400757 0.75963491201400757
0.57076215744018555 0.57076215744018555 0.57076215744018555
0.57216590642929077 0.57216590642929077 0.57216590642929077
0.59249073266983032 0.59249073266983032 0.59249073266983032
0.62880975008010864 0.62880975008010864 0.62880975008010864
0.69466686248779297 0.69466686248779297 0.69466686248779297
0.78035229444503784 0.78035229444503784 0.78035229444503784
0.85483133792877197 0.85483133792877197 0.85483133792877197
0.7520449161529541 0.7520449161529541 0.7520449161529541
0.75645095109939575 0.75645095109939575 0.75645095109939575
0.76421540975570679 0.76421540975570679 0.76421540975570679
0.78409171104431152 0.78409171104431152 0.78409171104431152
0.82158279418945312 0.82158279418945312 0.82158279418945312
0.87220722436904907 0.87220722436904907 0.87220722436904907
0.92520630359649658 0.92520630359649658 0.92520630359649658
0.91791039705276489 0.91791039705276489 0.91791039705276489
0.92180848121643066 0.92180848121643066 0.92180848121643066
0.92240387201309204 0.92240387201309204 0.92240387201309204
0.92907381057739258 0.92907381057739258 0.92907381057739258
0.94441962242126465 0.94441962242126465 0.94441962242126465
0.96691370010375977 0.96691370010375977 0.96691370010375977
0.99141734838485718 0.99141734838485718 0.99141734838485718
0.19815813004970551 0.19815813004970551 0.19815813004970551
0.22244566679000854 0.22244566679000854 0.22244566679000854
0.28466460108757019 0.28466460108757019 0.28466460108757019
0.33090373873710632 0.33090373873710632 0.33090373873710632
0.34335410594940186 0.34335410594940186 0.34335410594940186
0.4247647225856781 0.4247647225856781 0.4247647225856781
0.56823086738586426 0.56823086738586426 0.56823086738586426
0.22665479779243469 0.22665479779243469 0.22665479779243469
0.25953418016433716 0.25953418016433716 0.25953418016433716
0.31691604852676392 0.31691604852676392 0.31691604852676392
0.36309191584587097 0.36309191584587097 0.36309191584587097
0.39616957306861877 0.39616957306861877 0.39616957306861877
0.47593393921852112 0.47593393921852112 0.47593393921852112
0.61103993654251099 0.61103993654251099 0.61103993654251099
0.29384118318557739 0.29384118318557739 0.29384118318557739
0.32946375012397766 0.32946375012397766 0.32946375012397766
0.39086005091667175 0.39086005091667175 0.39086005091667175
0.44626441597938538 0.44626441597938538 0.44626441597938538
0.48956632614135742 0.48956632614135742 0.48956632614135742
0.56807518005371094 0.56807518005371094 0.56807518005371094
0.66411924362182617 0.66411924362182617 0.66411924362182617
0.39474198222160339 0.39474198222160339 0.39474198222160339
0.42640551924705505 0.42640551924705505 0.42640551924705505
0.50319761037826538 0.50319761037826538 0.50319761037826538
0.57067614793777466 0.57067614793777466 0.57067614793777466
0.63170582056045532 0.63170582056045532 0.63170582056045532
0.69769573211669922 0.69769573211669922 0.69769573211669922
0.76324498653411865 0.76324498653411865 0.76324498653411865
0.58872151374816895 0.58872151374816895 0.58872151374816895
0.60641628503799438 0.60641628503799438 0.60641628503799438
0.6506306529045105 0.6506306529045105 0.6506306529045105
0.69281381368637085 0.69281381368637085 0.69281381368637085
0.74540424346923828 0.74540424346923828 0.74540424346923828
0.80630326271057129 0.80630326271057129 0.80630326271057129
0.86696046590805054 0.86696046590805054 0.86696046590805054
0.77858501672744751 0.77858501672744751 0.77858501672744751
0.78997552394866943 0.78997552394866943 0.78997552394866943
0.81073808670043945 0.81073808670043945 0.81073808670043945
0.82310181856155396 0.82310181856155396 0.82310181856155396
0.85238564014434814 0.85238564014434814 0.85238564014434814
0.89462161064147949 0.89462161064147949 0.89462161064147949
0.9415048360824585 0.9415048360824585 0.9415048360824585
0.94009244441986084 0.94009244441986084 0.94009244441986084
0.9400634765625 0.9400634765625 0.9400634765625
0.93960058689117432 0.93960058689117432 0.93960058689117432
0.94335317611694336 0.94335317611694336 0.94335317611694336
0.95625299215316772 0.95625299215316772 0.95625299215316772
0.97686153650283813 0.97686153650283813 0.97686153650283813
0.99707388877868652 0.99707388877868652 0.99707388877868652
0.30452233552932739 0.30452233552932739 0.30452233552932739
0.32673949003219604 0.32673949003219604 0.32673949003219604
0.3924541175365448 0.3924541175365448 0.3924541175365448
0.47227534651756287 0.47227534651756287 0.47227534651756287
0.50843971967697144 0.50843971967697144 0.50843971967697144
0.52537506818771362 0.52537506818771362 0.52537506818771362
0.63555502891540527 0.63555502891540527 0.63555502891540527
0.3449055552482605 0.3449055552482605 0.3449055552482605
0.38139665126800537 0.38139665126800537 0.38139665126800537
0.43964329361915588 0.43964329361915588 0.43964329361915588
0.51586949825286865 0.51586949825286865 0.51586949825286865
0.56611162424087524 0.56611162424087524 0.56611162424087524
0.58844524621963501 0.58844524621963501 0.58844524621963501
0.69479495286941528 0.69479495286941528 0.69479495286941528
0.41025042533874512 0.41025042533874512 0.41025042533874512
0.4498826265335083 0.4498826265335083 0.4498826265335083
0.49838128685951233 0.49838128685951233 0.49838128685951233
0.57088750600814819 0.57088750600814819 0.57088750600814819
0.61841636896133423 0.61841636896133423 0.61841636896133423
0.66401523351669312 0.66401523351669312 0.66401523351669312
0.72987502813339233 0.72987502813339233 0.72987502813339233
0.46639719605445862 0.46639719605445862 0.46639719605445862
0.50152939558029175 0.50152939558029175 0.50152939558029175
0.55676263570785522 0.55676263570785522 0.55676263570785522
0.64759558439254761 0.64759558439254761 0.64759558439254761
0.70641118288040161 0.70641118288040161 0.70641118288040161
0.74774205684661865 0.74774205684661865 0.74774205684661865
0.79758173227310181 0.79758173227310181 0.79758173227310181
0.60060626268386841 0.60060626268386841 0.60060626268386841
0.62506520748138428 0.62506520748138428 0.62506520748138428
0.66948544979095459 0.66948544979095459 0.66948544979095459
0.73096895217895508 0.73096895217895508 0.73096895217895508
0.78445005416870117 0.78445005416870117 0.78445005416870117
0.82777929306030273 0.82777929306030273 0.82777929306030273
0.88407731056213379 0.88407731056213379 0.88407731056213379
0.78223174810409546 0.78223174810409546 0.78223174810409546
0.79270046949386597 0.79270046949386597 0.79270046949386597
0.81399095058441162 0.81399095058441162 0.81399095058441162
0.84068095684051514 0.84068095684051514 0.84068095684051514
0.87522763013839722 0.87522763013839722 0.87522763013839722
0.91160851716995239 0.91160851716995239 0.91160851716995239
0.95385396480560303 0.95385396480560303 0.95385396480560303
0.943428635597229 0.943428635597229 0.943428635597229
0.94067305326461792 0.94067305326461792 0.94067305326461792
0.9412376880645752 0.9412376880645752 0.9412376880645752
0.95013225078582764 0.95013225078582764 0.95013225078582764
0.9681212306022644 0.9681212306022644 0.9681212306022644
0.98633784055709839 0.98633784055709839 0.98633784055709839
0.99910962581634521 0.99910962581634521 0.99910962581634521
0.48032042384147644 0.48032042384147644 0.48032042384147644
0.51359599828720093 0.51359599828720093 0.51359599828720093
0.56493121385574341 0.56493121385574341 0.56493121385574341
0.63049995899200439 0.63049995899200439 0.63049995899200439
0.71963590383529663 0.71963590383529663 0.71963590383529663
0.72109508514404297 0.72109508514404297 0.72109508514404297
0.74779200553894043 0.74779200553894043 0.74779200553894043
0.52364397048950195 0.52364397048950195 0.52364397048950195
0.55864495038986206 0.55864495038986206 0.55864495038986206
0.6046750545501709 0.6046750545501709 0.6046750545501709
0.66883444786071777 0.66883444786071777 0.66883444786071777
0.73427414894104004 0.73427414894104004 0.73427414894104004
0.74822902679443359 0.74822902679443359 0.74822902679443359
0.76478654146194458 0.76478654146194458 0.76478654146194458
0.57188981771469116 0.57188981771469116 0.57188981771469116
0.60618585348129272 0.60618585348129272 0.60618585348129272
0.64553409814834595 0.64553409814834595 0.64553409814834595
0.7071533203125 0.7071533203125 0.7071533203125
0.76873177289962769 0.76873177289962769 0.76873177289962769
0.79691082239151001 0.79691082239151001 0.79691082239151001
0.80548763275146484 0.80548763275146484 0.80548763275146484
0.58249592781066895 0.58249592781066895 0.58249592781066895
0.62708169221878052 0.62708169221878052 0.62708169221878052
0.66740310192108154 0.66740310192108154 0.66740310192108154
0.73554015159606934 0.73554015159606934 0.73554015159606934
0.80057722330093384 0.80057722330093384 0.80057722330093384
0.83664214611053467 0.83664214611053467 0.83664214611053467
0.8533439040184021 0.8533439040184021 0.8533439040184021
0.65310823917388916 0.65310823917388916 0.65310823917388916
0.67990964651107788 0.67990964651107788 0.67990964651107788
0.72130089998245239 0.72130089998245239 0.72130089998245239
0.7762528657913208 0.7762528657913208 0.7762528657913208
0.83341747522354126 0.83341747522354126 0.83341747522354126
0.86973458528518677 0.86973458528518677 0.86973458528518677
0.91147196292877197 0.91147196292877197 0.91147196292877197
0.7988203763961792 0.7988203763961792 0.7988203763961792
0.80493998527526855 0.80493998527526855 0.80493998527526855
0.82543563842773438 0.82543563842773438 0.82543563842773438
0.8568955659866333 0.8568955659866333 0.8568955659866333
0.90112626552581787 0.90112626552581787 0.90112626552581787
0.93158262968063354 0.93158262968063354 0.93158262968063354
0.95811688899993896 0.95811688899993896 0.95811688899993896
0.94131231307983398 0.94131231307983398 0.94131231307983398
0.93812006711959839 0.93812006711959839 0.93812006711959839
0.94231182336807251 0.94231182336807251 0.94231182336807251
0.95735496282577515 0.95735496282577515 0.95735496282577515
0.98255831003189087 0.98255831003189087 0.98255831003189087
0.9932790994644165 0.9932790994644165 0.9932790994644165
0.99785828590393066 0.99785828590393066 0.99785828590393066
0.74576175212860107 0.74576175212860107 0.74576175212860107
0.7585442066192627 0.7585442066192627 0.7585442066192627
0.78465431928634644 0.78465431928634644 0.78465431928634644
0.81454473733901978 0.81454473733901978 0.81454473733901978
0.86436170339584351 0.86436170339584351 0.86436170339584351
0.89468091726303101 0.89468091726303101 0.89468091726303101
0.92164754867553711 0.92164754867553711 0.92164754867553711
0.74564492702484131 0.74564492702484131 0.74564492702484131
0.77034509181976318 0.77034509181976318 0.77034509181976318
0.79575318098068237 0.79575318098068237 0.79575318098068237
0.82947582006454468 0.82947582006454468 0.82947582006454468
0.8743889331817627 0.8743889331817627 0.8743889331817627
0.91752272844314575 0.91752272844314575 0.91752272844314575
0.92257601022720337 0.92257601022720337 0.92257601022720337
0.77391046285629272 0.77391046285629272 0.77391046285629272
0.79573583602905273 0.79573583602905273 0.79573583602905273
0.81495177745819092 0.81495177745819092 0.81495177745819092
0.84643715620040894 0.84643715620040894 0.84643715620040894
0.89272642135620117 0.89272642135620117 0.89272642135620117
0.93077784776687622 0.93077784776687622 0.93077784776687622
0.93216794729232788 0.93216794729232788 0.93216794729232788
0.79915148019790649 0.79915148019790649 0.79915148019790649
0.81166225671768188 0.81166225671768188 0.81166225671768188
0.82724267244338989 0.82724267244338989 0.82724267244338989
0.8529742956161499 0.8529742956161499 0.8529742956161499
0.90127921104431152 0.90127921104431152 0.90127921104431152
0.94157665967941284 0.94157665967941284 0.94157665967941284
0.95372766256332397 0.95372766256332397 0.95372766256332397
0.78143590688705444 0.78143590688705444 0.78143590688705444
0.79440391063690186 0.79440391063690186 0.79440391063690186
0.82784163951873779 0.82784163951873779 0.82784163951873779
0.8553849458694458 0.8553849458694458 0.8553849458694458
0.90728771686553955 0.90728771686553955 0.90728771686553955
0.95176345109939575 0.95176345109939575 0.95176345109939575
0.97738057374954224 0.97738057374954224 0.97738057374954224
0.85540002584457397 0.85540002584457397 0.85540002584457397
0.86058175563812256 0.86058175563812256 0.86058175563812256
0.87814193964004517 0.87814193964004517 0.87814193964004517
0.90008097887039185 0.90008097887039185 0.90008097887039185
0.94125580787658691 0.94125580787658691 0.94125580787658691
0.96852535009384155 0.96852535009384155 0.96852535009384155
0.98703145980834961 0.98703145980834961 0.98703145980834961
0.95516842603683472 0.95516842603683472 0.95516842603683472
0.95977556705474854 0.95977556705474854 0.95977556705474854
0.96798884868621826 0.96798884868621826 0.96798884868621826
0.98219245672225952 0.98219245672225952 0.98219245672225952
0.99637520313262939 0.99637520313262939 0.99637520313262939
0.99904710054397583 0.99904710054397583 0.99904710054397583
0.99823516607284546 0.99823516607284546 0.99823516607284546
