films/fuji_neopan_1600_4_++.cube
TITLE "data/luts/rawtherapee/HaldCLUT/Black-and-White/Fuji/Fuji Neopan 1600 4 ++.png"
LUT_3D_SIZE 4
DOMAIN_MIN 0 0 0
DOMAIN_MAX 1 1 1
0.145098 0.145098 0.145098
0.149020 0.149020 0.149020
0.224837 0.224837 0.224837
0.513725 0.513725 0.513725
0.185621 0.185621 0.185621
0.226144 0.226144 0.226144
0.383442 0.383442 0.383442
0.660131 0.660131 0.660131
0.439216 0.439216 0.439216
0.464488 0.464488 0.464488
0.619608 0.619608 0.619608
0.858824 0.858824 0.858824
0.929412 0.929412 0.929412
0.935948 0.935948 0.935948
0.963399 0.963399 0.963399
0.996078 0.996078 0.996078
0.152941 0.152941 0.152941
0.193900 0.193900 0.193900
0.273638 0.273638 0.273638
0.505882 0.505882 0.505882
0.220044 0.220044 0.220044
0.303994 0.303994 0.303994
0.408279 0.408279 0.408279
0.668410 0.668410 0.668410
0.549455 0.549455 0.549455
0.573566 0.573566 0.573566
0.675527 0.675527 0.675527
0.875817 0.875817 0.875817
0.939869 0.939869 0.939869
0.945969 0.945969 0.945969
0.965577 0.965577 0.965577
0.996078 0.996078 0.996078
0.279739 0.279739 0.279739
0.353813 0.353813 0.353813
0.507625 0.507625 0.507625
0.698039 0.698039 0.698039
0.402179 0.402179 0.402179
0.480029 0.480029 0.480029
0.622367 0.622367 0.622367
0.763834 0.763834 0.763834
0.579521 0.579521 0.579521
0.651561 0.651561 0.651561
0.793174 0.793174 0.793174
0.885839 0.885839 0.885839
0.960784 0.960784 0.960784
0.968627 0.968627 0.968627
0.981264 0.981264 0.981264
1.000000 1.000000 1.000000
0.792157 0.792157 0.792157
0.822222 0.822222 0.822222
0.895425 0.895425 0.895425
0.945098 0.945098 0.945098
0.823529 0.823529 0.823529
0.849673 0.849673 0.849673
0.911547 0.911547 0.911547
0.958170 0.958170 0.958170
0.786928 0.786928 0.786928
0.842266 0.842266 0.842266
0.936819 0.936819 0.936819
0.988235 0.988235 0.988235
0.968627 0.968627 0.968627
0.976471 0.976471 0.976471
0.992157 0.992157 0.992157
1.000000 1.000000 1.000000
