films/fuji_sensia_100.cube
# Created by: G'MIC (https://gmic.eu)
TITLE "fuji_sensia_100"
# LUT size
LUT_3D_SIZE 13
# Data domain
DOMAIN_MIN 0.0 0.0 0.0
DOMAIN_MAX 1.0 1.0 1.0
# LUT data points
0.051896218210458755 0.047336593270301819 0.045897867530584335
0.11500418931245804 0.047895707190036774 0.040954187512397766
0.18003974854946136 0.048381701111793518 0.033814687281847
0.2445896714925766 0.049403008073568344 0.028919428586959839
0.31121498346328735 0.048587288707494736 0.022549154236912727
0.38409250974655151 0.045359294861555099 0.015866613015532494
0.46410086750984192 0.040522154420614243 0.010560727678239346
0.55492997169494629 0.042400375008583069 0.0052408403716981411
0.6485210657119751 0.047273434698581696 0.0022345748730003834
0.73161357641220093 0.052074089646339417 0.0019577625207602978
0.79649680852890015 0.057481039315462112 0.0057002645917236805
0.84666305780410767 0.064271695911884308 0.019194614142179489
0.88661521673202515 0.073451235890388489 0.039793815463781357
0.099028013646602631 0.13918866217136383 0.084458611905574799
0.14524674415588379 0.1410565972328186 0.079653918743133545
0.20209524035453796 0.13989003002643585 0.071605667471885681
0.2630915641784668 0.13516423106193542 0.064890049397945404
0.33013340830802917 0.13242696225643158 0.053324442356824875
0.40636071562767029 0.12822140753269196 0.042287848889827728
0.49180722236633301 0.12362717092037201 0.032793845981359482
0.58668619394302368 0.12159304320812225 0.023494226858019829
0.68506240844726562 0.12063435465097427 0.016769872978329659
0.77254855632781982 0.12096939235925674 0.015632076188921928
0.8355942964553833 0.1235073134303093 0.02547881193459034
0.88359940052032471 0.12799003720283508 0.04352303221821785
0.92144322395324707 0.13533996045589447 0.066251672804355621
0.13474304974079132 0.2247166633605957 0.1249520406126976
0.17145414650440216 0.2228153795003891 0.12216582894325256
0.22034665942192078 0.22262077033519745 0.1156560555100441
0.27983295917510986 0.2193305641412735 0.10789313167333603
0.34902769327163696 0.2166888564825058 0.094439305365085602
0.42885425686836243 0.2134723961353302 0.080149799585342407
0.51847869157791138 0.20963694155216217 0.067180216312408447
0.6156582236289978 0.20558016002178192 0.055864758789539337
0.71393692493438721 0.20146691799163818 0.048512957990169525
0.80072170495986938 0.19918712973594666 0.047242287546396255
0.86621123552322388 0.19941213726997375 0.056373115628957748
0.91590750217437744 0.20106068253517151 0.074475124478340149
0.95355528593063354 0.20599375665187836 0.098087877035140991
0.15162648260593414 0.31118291616439819 0.16227442026138306
0.18920870125293732 0.30937871336936951 0.15913738310337067
0.23806072771549225 0.30966246128082275 0.15450586378574371
0.29789787530899048 0.30757796764373779 0.14809519052505493
0.36883434653282166 0.30393803119659424 0.13800221681594849
0.45149511098861694 0.30110931396484375 0.12399808317422867
0.54466873407363892 0.29771283268928528 0.10953161120414734
0.64283490180969238 0.29280111193656921 0.097512684762477875
0.73887860774993896 0.28926932811737061 0.088468603789806366
0.82377147674560547 0.28649124503135681 0.085972681641578674
0.89121121168136597 0.28563112020492554 0.093658283352851868
0.94325160980224609 0.28538644313812256 0.11163445562124252
0.98191243410110474 0.28689718246459961 0.1355859786272049
0.16575126349925995 0.403972327709198 0.19914053380489349
0.20573824644088745 0.40360867977142334 0.19573512673377991
0.2566063404083252 0.40567746758460999 0.19137872755527496
0.31838494539260864 0.40387159585952759 0.18611632287502289
0.39126911759376526 0.39911940693855286 0.17869435250759125
0.47754251956939697 0.39689522981643677 0.16601584851741791
0.57289296388626099 0.39432281255722046 0.15205098688602448
0.67100447416305542 0.38982108235359192 0.13993565738201141
0.76519739627838135 0.38750970363616943 0.13015878200531006
0.84808850288391113 0.3848535418510437 0.12710845470428467
0.9143059253692627 0.38432565331459045 0.13514219224452972
0.96409589052200317 0.3842027485370636 0.153813436627388
0.99623030424118042 0.38419419527053833 0.17784509062767029
0.18121150135993958 0.50829070806503296 0.23542936146259308
0.22286203503608704 0.50934034585952759 0.23151732981204987
0.27583092451095581 0.51114660501480103 0.22582311928272247
0.34144300222396851 0.50852048397064209 0.21985596418380737
0.41926354169845581 0.50435370206832886 0.21255777776241302
0.50825977325439453 0.50187903642654419 0.20178844034671783
0.60468924045562744 0.50114542245864868 0.18916748464107513
0.70209544897079468 0.49920171499252319 0.17769317328929901
0.79414761066436768 0.496317058801651 0.16913698613643646
0.87394064664840698 0.49379068613052368 0.16761438548564911
0.93618375062942505 0.49366971850395203 0.17704121768474579
0.97822713851928711 0.49533045291900635 0.19762326776981354
0.99916630983352661 0.49572855234146118 0.22205923497676849
0.1997876912355423 0.61570924520492554 0.26979705691337585
0.24234697222709656 0.61777293682098389 0.26510852575302124
0.29704189300537109 0.61780226230621338 0.25680938363075256
0.36703923344612122 0.61316156387329102 0.24942973256111145
0.44934704899787903 0.60856819152832031 0.24137295782566071
0.54123616218566895 0.60708779096603394 0.23149088025093079
0.63861793279647827 0.60851311683654785 0.22062960267066956
0.73548746109008789 0.60931575298309326 0.21050149202346802
0.82544821500778198 0.60508555173873901 0.20290881395339966
0.90172630548477173 0.60116738080978394 0.20252874493598938
0.95723044872283936 0.60131055116653442 0.21342815458774567
0.98848313093185425 0.60468125343322754 0.2367757260799408
0.99963921308517456 0.60598468780517578 0.2644411027431488
0.22402399778366089 0.71479576826095581 0.29834166169166565
0.26703053712844849 0.71488678455352783 0.29370427131652832
0.32391172647476196 0.7119937539100647 0.28396868705749512
0.39624160528182983 0.70639783143997192 0.27383100986480713
0.48103547096252441 0.701865553855896 0.2640310525894165
0.57503223419189453 0.70075315237045288 0.25426176190376282
0.67369848489761353 0.70288795232772827 0.24459344148635864
0.77097922563552856 0.7046884298324585 0.23547917604446411
0.85936975479125977 0.69977480173110962 0.22856597602367401
0.93067950010299683 0.69528502225875854 0.22755815088748932
0.97714912891387939 0.69545286893844604 0.23885080218315125
0.99690067768096924 0.69943523406982422 0.2636878490447998
0.99991929531097412 0.7001604437828064 0.29209649562835693
0.25755327939987183 0.79514533281326294 0.31010863184928894
0.29984185099601746 0.79329943656921387 0.30887144804000854
0.35704681277275085 0.78881543874740601 0.30047067999839783
0.42958652973175049 0.78373026847839355 0.28849390149116516
0.51484912633895874 0.77963900566101074 0.27644568681716919
0.60961562395095825 0.77799862623214722 0.26619645953178406
0.70945370197296143 0.7780950665473938 0.25719600915908813
0.80780124664306641 0.77769356966018677 0.24912320077419281
0.89500552415847778 0.77473485469818115 0.24308010935783386
0.96042126417160034 0.77142244577407837 0.24093981087207794
0.99458247423171997 0.77100175619125366 0.25032579898834229
0.99998289346694946 0.77236920595169067 0.27277061343193054
1 0.77009487152099609 0.29929983615875244
0.30458939075469971 0.85194581747055054 0.29119077324867249
0.34170213341712952 0.85247266292572021 0.29974228143692017
0.39726993441581726 0.84962660074234009 0.29574251174926758
0.46790504455566406 0.84602749347686768 0.28576487302780151
0.55127876996994019 0.84232765436172485 0.27164468169212341
0.64498484134674072 0.83966523408889771 0.25996917486190796
0.74532949924468994 0.83807933330535889 0.25123170018196106
0.84503597021102905 0.83614981174468994 0.24314805865287781
0.93136918544769287 0.83375877141952515 0.24024292826652527
0.98675709962844849 0.83135014772415161 0.23815165460109711
0.99994748830795288 0.8301958441734314 0.2430863082408905
1 0.82937926054000854 0.26440921425819397
1 0.82526940107345581 0.29316487908363342
0.36229103803634644 0.89628428220748901 0.24394616484642029
0.39905300736427307 0.89805185794830322 0.2533491849899292
0.44864639639854431 0.89690554141998291 0.25415593385696411
0.51157814264297485 0.89508616924285889 0.25100311636924744
0.59057760238647461 0.89164191484451294 0.23436829447746277
0.68251150846481323 0.88843709230422974 0.22288616001605988
0.78249120712280273 0.88600355386734009 0.21564109623432159
0.8831789493560791 0.88296949863433838 0.20240879058837891
0.96419417858123779 0.88065671920776367 0.1991807222366333
0.99900949001312256 0.87838351726531982 0.1997443288564682
1 0.87686479091644287 0.20566432178020477
1 0.87522387504577637 0.23339416086673737
1 0.87093657255172729 0.27250245213508606
0.41041749715805054 0.93478119373321533 0.18186737596988678
0.44103482365608215 0.93643909692764282 0.18644486367702484
0.49146890640258789 0.93421483039855957 0.17981702089309692
0.5531620979309082 0.93274390697479248 0.17005696892738342
0.62960648536682129 0.93004703521728516 0.15129652619361877
0.7213282585144043 0.92712599039077759 0.14181330800056458
0.82341653108596802 0.92438894510269165 0.13590921461582184
0.92330557107925415 0.92088025808334351 0.11830408126115799
0.98874777555465698 0.91815358400344849 0.11083529889583588
1 0.91611945629119873 0.11535073071718216
1 0.91478627920150757 0.13246084749698639
1 0.91344970464706421 0.17666317522525787
1 0.91005182266235352 0.2344929575920105
0.41299238801002502 0.96968519687652588 0.13619643449783325
0.42580026388168335 0.97208720445632935 0.14074499905109406
0.49124208092689514 0.96938681602478027 0.11862552165985107
0.57454317808151245 0.9664350152015686 0.086590833961963654
0.65985143184661865 0.96329367160797119 0.056101705878973007
0.75516527891159058 0.9603080153465271 0.0423583984375
0.85797208547592163 0.95745980739593506 0.034850042313337326
0.95520627498626709 0.95389091968536377 0.021510958671569824
0.99924653768539429 0.95119786262512207 0.017920101061463356
1 0.94934147596359253 0.025093751028180122
1 0.94795387983322144 0.05097382515668869
1 0.94702666997909546 0.11054068058729172
1 0.94450682401657104 0.18317832052707672
0.048411067575216293 0.039203360676765442 0.10320138186216354
0.10951776057481766 0.039327375590801239 0.095045037567615509
0.16983892023563385 0.039162084460258484 0.085294879972934723
0.23332247138023376 0.035320505499839783 0.078482292592525482
0.30152210593223572 0.033695429563522339 0.068584591150283813
0.37615373730659485 0.032040044665336609 0.057645250111818314
0.45863088965415955 0.029849857091903687 0.047644983977079391
0.54912728071212769 0.031500153243541718 0.037693534046411514
0.64066797494888306 0.035705700516700745 0.029923008754849434
0.72249162197113037 0.040030237287282944 0.027496188879013062
0.78904098272323608 0.044423900544643402 0.03424714133143425
0.84041988849639893 0.050328526645898819 0.049659203737974167
0.88089603185653687 0.059252332895994186 0.071976982057094574
0.093719393014907837 0.13052892684936523 0.13728809356689453
0.13696460425853729 0.13007548451423645 0.13153831660747528
0.18953154981136322 0.12850107252597809 0.1228640228509903
0.25184592604637146 0.12135418504476547 0.11332599073648453
0.32072275876998901 0.11684043705463409 0.10073243826627731
0.3983210027217865 0.11337687075138092 0.086798697710037231
0.48504486680030823 0.1100165843963623 0.074228085577487946
0.57962530851364136 0.10857810080051422 0.062743335962295532
0.67510026693344116 0.10831901431083679 0.054559849202632904
0.75967484712600708 0.10948586463928223 0.052325889468193054
0.82557201385498047 0.11098012328147888 0.059467434883117676
0.87543821334838867 0.11454465985298157 0.076373711228370667
0.91389042139053345 0.12152967602014542 0.1000707596540451
0.12869302928447723 0.21681424975395203 0.17194043099880219
0.16008749604225159 0.21508605778217316 0.16761930286884308
0.20859326422214508 0.2141382247209549 0.16149018704891205
0.26988664269447327 0.20929586887359619 0.15226250886917114
0.34020575881004333 0.20472544431686401 0.13873296976089478
0.42061519622802734 0.20107626914978027 0.12326088547706604
0.51117098331451416 0.19707000255584717 0.10853711515665054
0.60863685607910156 0.19330646097660065 0.095820046961307526
0.705230712890625 0.1904742419719696 0.086930759251117706
0.78983044624328613 0.18890388309955597 0.084587618708610535
0.85601866245269775 0.18881598114967346 0.090817801654338837
0.90588366985321045 0.19032876193523407 0.10748998820781708
0.94403696060180664 0.19511836767196655 0.13263605535030365
0.14334486424922943 0.3034304678440094 0.20638564229011536
0.17613230645656586 0.30158710479736328 0.20189037919044495
0.22667132318019867 0.30206793546676636 0.19762817025184631
0.28905293345451355 0.3000529408454895 0.19045144319534302
0.36067977547645569 0.2966008186340332 0.17908434569835663
0.44341340661048889 0.29363948106765747 0.16416877508163452
0.53710204362869263 0.28939256072044373 0.14882522821426392
0.63632369041442871 0.28456175327301025 0.13538098335266113
0.73230206966400146 0.28104990720748901 0.12553019821643829
0.81635940074920654 0.27920740842819214 0.1225602850317955
0.88257348537445068 0.2787913978099823 0.12721221148967743
0.9324454665184021 0.27924689650535583 0.14355137944221497
0.97033035755157471 0.28167247772216797 0.17027416825294495
0.15653270483016968 0.39930641651153564 0.24278408288955688
0.1947878897190094 0.39841765165328979 0.238437220454216
0.24568335711956024 0.40004193782806396 0.2336650937795639
0.30923739075660706 0.39927998185157776 0.22743760049343109
0.3839726448059082 0.39615195989608765 0.2182079404592514
0.47011488676071167 0.39316567778587341 0.20510447025299072
0.56607502698898315 0.38945487141609192 0.19028493762016296
0.66549253463745117 0.38501042127609253 0.17681924998760223
0.7605399489402771 0.38240578770637512 0.1666971892118454
0.84366852045059204 0.38097408413887024 0.16326664388179779
0.90969353914260864 0.38086792826652527 0.16970524191856384
0.95742344856262207 0.38130918145179749 0.18751968443393707
0.98982429504394531 0.38226503133773804 0.21380616724491119
0.17032912373542786 0.50657474994659424 0.2793726921081543
0.21142326295375824 0.50765275955200195 0.27453827857971191
0.2642027735710144 0.50919145345687866 0.26823687553405762
0.33077314496040344 0.50745624303817749 0.26175716519355774
0.40993854403495789 0.50376778841018677 0.25342065095901489
0.50047338008880615 0.50111222267150879 0.24212856590747833
0.59805852174758911 0.49847754836082458 0.2287205308675766
0.69698643684387207 0.49559372663497925 0.21587315201759338
0.79087799787521362 0.49345165491104126 0.20654904842376709
0.87330663204193115 0.49223107099533081 0.20404601097106934
0.93791413307189941 0.49223494529724121 0.21259315311908722
0.9794343113899231 0.49318563938140869 0.23247002065181732
0.99866759777069092 0.49343398213386536 0.25900176167488098
0.18651215732097626 0.6165168285369873 0.31337034702301025
0.2283843606710434 0.61948299407958984 0.30802232027053833
0.28307241201400757 0.62061631679534912 0.29919809103012085
0.35432693362236023 0.61590713262557983 0.29182189702987671
0.43836268782615662 0.61119610071182251 0.28380224108695984
0.53225576877593994 0.60890078544616699 0.27377438545227051
0.63145506381988525 0.60814839601516724 0.26224988698959351
0.73033338785171509 0.60713505744934082 0.25061118602752686
0.82289266586303711 0.60489779710769653 0.2418893426656723
0.90380227565765381 0.60255950689315796 0.23986150324344635
0.96528446674346924 0.60269284248352051 0.24852490425109863
0.99570214748382568 0.60487228631973267 0.27118599414825439
1 0.60437935590744019 0.29984492063522339
0.21032941341400146 0.71553242206573486 0.34058552980422974
0.25299146771430969 0.71766072511672974 0.33646672964096069
0.30946812033653259 0.71678352355957031 0.32679438591003418
0.38243952393531799 0.7114911675453186 0.31654608249664307
0.46891498565673828 0.70699721574783325 0.30683678388595581
0.56505918502807617 0.70507150888442993 0.29796454310417175
0.66581547260284424 0.70499300956726074 0.28823757171630859
0.76533931493759155 0.70476830005645752 0.27790075540542603
0.85694223642349243 0.70206749439239502 0.26926940679550171
0.9336732029914856 0.69897651672363281 0.26581102609634399
0.98507678508758545 0.69936740398406982 0.27634313702583313
0.99989694356918335 0.7025991678237915 0.30167010426521301
1 0.70205378532409668 0.33127424120903015
0.24550209939479828 0.7951245903968811 0.35212525725364685
0.28776392340660095 0.79661858081817627 0.35263964533805847
0.34410989284515381 0.79379498958587646 0.34410464763641357
0.41603019833564758 0.78906947374343872 0.33052954077720642
0.50209325551986694 0.7851220965385437 0.31875085830688477
0.59876847267150879 0.78308582305908203 0.31060832738876343
0.70071852207183838 0.78236657381057739 0.30240759253501892
0.80121839046478271 0.78133481740951538 0.29353848099708557
0.89195561408996582 0.77848869562149048 0.28533872961997986
0.96330565214157104 0.77561658620834351 0.27987286448478699
0.99755674600601196 0.77612078189849854 0.29102218151092529
1 0.7787240743637085 0.31818345189094543
1 0.77672475576400757 0.3479275107383728
0.29340991377830505 0.85443568229675293 0.34023088216781616
0.33388569951057434 0.85629844665527344 0.34701058268547058
0.38758021593093872 0.85403150320053101 0.3419957160949707
0.45644006133079529 0.8502042293548584 0.32871913909912109
0.53948235511779785 0.84649312496185303 0.31457111239433289
0.6340295672416687 0.84392017126083374 0.30537307262420654
0.73545384407043457 0.8418574333190918 0.29760724306106567
0.83697712421417236 0.84013861417770386 0.28938537836074829
0.92413812875747681 0.83770948648452759 0.28371378779411316
0.98388475179672241 0.83575987815856934 0.28094488382339478
1 0.83573848009109497 0.29054582118988037
1 0.83638042211532593 0.3173612654209137
1 0.83311456441879272 0.35076233744621277
0.34881862998008728 0.89987450838088989 0.30085155367851257
0.38835632801055908 0.90240079164505005 0.31077694892883301
0.43772014975547791 0.90062522888183594 0.30878293514251709
0.50208079814910889 0.89789003133773804 0.29717156291007996
0.58086597919464111 0.89424580335617065 0.27793481945991516
0.67219799757003784 0.89106851816177368 0.26774430274963379
0.77302092313766479 0.88814949989318848 0.26168522238731384
0.87443304061889648 0.88610225915908813 0.24911855161190033
0.95401632785797119 0.88374674320220947 0.244548499584198
0.99565434455871582 0.88263475894927979 0.24700064957141876
1 0.88212823867797852 0.25709283351898193
1 0.88204300403594971 0.2916298508644104
1 0.87911021709442139 0.33884891867637634
0.39227533340454102 0.93825113773345947 0.23766389489173889
0.42907619476318359 0.94041317701339722 0.2467820942401886
0.47773334383964539 0.93854767084121704 0.24131062626838684
0.54258841276168823 0.9355807900428772 0.21998569369316101
0.62032657861709595 0.93163394927978516 0.18664182722568512
0.71201318502426147 0.92839884757995605 0.18093438446521759
0.81497138738632202 0.92551934719085693 0.18115055561065674
0.91509824991226196 0.92273706197738647 0.15799015760421753
0.98231714963912964 0.92065334320068359 0.15238095819950104
0.99978929758071899 0.91937196254730225 0.16172040998935699
1 0.91879022121429443 0.17419441044330597
1 0.9196431040763855 0.23068524897098541
1 0.91845452785491943 0.30838170647621155
0.41076958179473877 0.97326242923736572 0.17525513470172882
0.44189545512199402 0.97514647245407104 0.18034052848815918
0.495452880859375 0.97334593534469604 0.16547629237174988
0.56879454851150513 0.96934837102890015 0.12414409965276718
0.65184152126312256 0.96442931890487671 0.070357486605644226
0.74677580595016479 0.96143066883087158 0.064854174852371216
0.85065698623657227 0.95869177579879761 0.068277902901172638
0.94773644208908081 0.955524742603302 0.041725218296051025
0.99754071235656738 0.95330655574798584 0.038383767008781433
1 0.95174235105514526 0.052378036081790924
1 0.95098292827606201 0.067072607576847076
1 0.95250266790390015 0.14885891973972321
1 0.95229142904281616 0.24852575361728668
0.045791521668434143 0.036126572638750076 0.15332439541816711
0.10292915254831314 0.03565794974565506 0.14125829935073853
0.16242629289627075 0.033582441508769989 0.13129203021526337
0.22500886023044586 0.028411820530891418 0.12429655343294144
0.29390814900398254 0.025430222973227501 0.11441139131784439
0.37001702189445496 0.024041688069701195 0.10225401073694229
0.45352986454963684 0.023545149713754654 0.090421013534069061
0.5426870584487915 0.024915089830756187 0.079433426260948181
0.63108104467391968 0.027795813977718353 0.070623673498630524
0.71123850345611572 0.0309919323772192 0.066561982035636902
0.77747184038162231 0.033780056983232498 0.069964513182640076
0.82947707176208496 0.037908442318439484 0.085042841732501984
0.86996114253997803 0.045671902596950531 0.10904701054096222
0.089822970330715179 0.12271825969219208 0.18608826398849487
0.1319027841091156 0.12043331563472748 0.17807205021381378
0.18357805907726288 0.11773709952831268 0.16876974701881409
0.24452875554561615 0.11114156246185303 0.15932169556617737
0.31370541453361511 0.10552103072404861 0.14712738990783691
0.39191463589668274 0.10174247622489929 0.13297490775585175
0.47856459021568298 0.099155902862548828 0.11921638250350952
0.57154208421707153 0.098459966480731964 0.10707726329565048
0.66349339485168457 0.099266514182090759 0.098454371094703674
0.74547654390335083 0.10012228041887283 0.095216847956180573
0.81105655431747437 0.10035455971956253 0.10004319995641708
0.86142456531524658 0.10181489586830139 0.11591324210166931
0.90046185255050659 0.10745632648468018 0.14045843482017517
0.12713685631752014 0.20715108513832092 0.21893930435180664
0.15582814812660217 0.20605036616325378 0.21303987503051758
0.20434445142745972 0.20514820516109467 0.2063373327255249
0.26461899280548096 0.1998402327299118 0.19676649570465088
0.33467143774032593 0.19449616968631744 0.18401296436786652
0.4147351086139679 0.18987022340297699 0.16915632784366608
0.50464308261871338 0.18577167391777039 0.15402811765670776
0.60028386116027832 0.18281267583370209 0.14105446636676788
0.69356191158294678 0.18112096190452576 0.1321970522403717
0.77592688798904419 0.18047134578227997 0.12941738963127136
0.84068596363067627 0.17936237156391144 0.13418221473693848
0.89010894298553467 0.179639533162117 0.15002667903900146
0.92862224578857422 0.18346387147903442 0.17526243627071381
0.14095330238342285 0.29524651169776917 0.25192636251449585
0.1722356379032135 0.2937377393245697 0.24663612246513367
0.2242034375667572 0.29354122281074524 0.24185778200626373
0.28503862023353577 0.29147800803184509 0.23420010507106781
0.35633546113967896 0.28826668858528137 0.2232210785150528
0.43841493129730225 0.2844792902469635 0.20875526964664459
0.53090614080429077 0.27980151772499084 0.19328135251998901
0.6278071403503418 0.27548187971115112 0.1794404536485672
0.72192239761352539 0.27336114645004272 0.16991026699542999
0.80365598201751709 0.27232229709625244 0.16687427461147308
0.86816185712814331 0.27151939272880554 0.17139603197574615
0.91668230295181274 0.27152916789054871 0.18678209185600281
0.95452672243118286 0.27385145425796509 0.21370382606983185
0.15177610516548157 0.39335927367210388 0.28833696246147156
0.19090507924556732 0.39122027158737183 0.28352260589599609
0.24202342331409454 0.39225432276725769 0.27859601378440857
0.30483219027519226 0.39209625124931335 0.27171105146408081
0.37909319996833801 0.38977923989295959 0.26201096177101135
0.46469119191169739 0.38645234704017639 0.24901717901229858
0.55981171131134033 0.381888747215271 0.23386470973491669
0.65816217660903931 0.37715974450111389 0.21979691088199615
0.7513001561164856 0.37615016102790833 0.21045106649398804
0.83285188674926758 0.37624940276145935 0.2079584151506424
0.89757412672042847 0.37620094418525696 0.21443817019462585
0.94437533617019653 0.3760109543800354 0.23146556317806244
0.97737115621566772 0.3764374852180481 0.25738626718521118
0.16257736086845398 0.50327867269515991 0.32545742392539978
0.20488448441028595 0.5024869441986084 0.32096937298774719
0.25816512107849121 0.50324374437332153 0.31486043334007263
