films/fuji_neopan_1600.cube
# Created by: G'MIC (https://gmic.eu)
TITLE "fuji_neopan_1600"
# LUT size
LUT_3D_SIZE 13
# Data domain
DOMAIN_MIN 0.0 0.0 0.0
DOMAIN_MAX 1.0 1.0 1.0
# LUT data points
0.040585760027170181 0.040585760027170181 0.040585760027170181
0.036972224712371826 0.036972224712371826 0.036972224712371826
0.040734056383371353 0.040734056383371353 0.040734056383371353
0.051918119192123413 0.051918119192123413 0.051918119192123413
0.070905201137065887 0.070905201137065887 0.070905201137065887
0.097062081098556519 0.097062081098556519 0.097062081098556519
0.12883386015892029 0.12883386015892029 0.12883386015892029
0.16430714726448059 0.16430714726448059 0.16430714726448059
0.20376923680305481 0.20376923680305481 0.20376923680305481
0.24900791049003601 0.24900791049003601 0.24900791049003601
0.30342298746109009 0.30342298746109009 0.30342298746109009
0.3673713207244873 0.3673713207244873 0.3673713207244873
0.43577083945274353 0.43577083945274353 0.43577083945274353
0.048216473311185837 0.048216473311185837 0.048216473311185837
0.044434327632188797 0.044434327632188797 0.044434327632188797
0.048289310187101364 0.048289310187101364 0.048289310187101364
0.061858292669057846 0.061858292669057846 0.061858292669057846
0.084669120609760284 0.084669120609760284 0.084669120609760284
0.11493841558694839 0.11493841558694839 0.11493841558694839
0.14938381314277649 0.14938381314277649 0.14938381314277649
0.18592217564582825 0.18592217564582825 0.18592217564582825
0.22361697256565094 0.22361697256565094 0.22361697256565094
0.26505306363105774 0.26505306363105774 0.26505306363105774
0.31750693917274475 0.31750693917274475 0.31750693917274475
0.38459697365760803 0.38459697365760803 0.38459697365760803
0.45576462149620056 0.45576462149620056 0.45576462149620056
0.065780624747276306 0.065780624747276306 0.065780624747276306
0.060499466955661774 0.060499466955661774 0.060499466955661774
0.06410960853099823 0.06410960853099823 0.06410960853099823
0.081013530492782593 0.081013530492782593 0.081013530492782593
0.1100284531712532 0.1100284531712532 0.1100284531712532
0.14507570862770081 0.14507570862770081 0.14507570862770081
0.18401448428630829 0.18401448428630829 0.18401448428630829
0.22343623638153076 0.22343623638153076 0.22343623638153076
0.26039254665374756 0.26039254665374756 0.26039254665374756
0.29734736680984497 0.29734736680984497 0.29734736680984497
0.34748396277427673 0.34748396277427673 0.34748396277427673
0.41802841424942017 0.41802841424942017 0.41802841424942017
0.49089080095291138 0.49089080095291138 0.49089080095291138
0.095767885446548462 0.095767885446548462 0.095767885446548462
0.090867586433887482 0.090867586433887482 0.090867586433887482
0.094825521111488342 0.094825521111488342 0.094825521111488342
0.11478558927774429 0.11478558927774429 0.11478558927774429
0.14747585356235504 0.14747585356235504 0.14747585356235504
0.18704845011234283 0.18704845011234283 0.18704845011234283
0.23116521537303925 0.23116521537303925 0.23116521537303925
0.27555638551712036 0.27555638551712036 0.27555638551712036
0.31600284576416016 0.31600284576416016 0.31600284576416016
0.35646605491638184 0.35646605491638184 0.35646605491638184
0.40823656320571899 0.40823656320571899 0.40823656320571899
0.4755130410194397 0.4755130410194397 0.4755130410194397
0.54350721836090088 0.54350721836090088 0.54350721836090088
0.13867790997028351 0.13867790997028351 0.13867790997028351
0.13708570599555969 0.13708570599555969 0.13708570599555969
0.14527586102485657 0.14527586102485657 0.14527586102485657
0.16504006087779999 0.16504006087779999 0.16504006087779999
0.19588355720043182 0.19588355720043182 0.19588355720043182
0.23554176092147827 0.23554176092147827 0.23554176092147827
0.28254562616348267 0.28254562616348267 0.28254562616348267
0.33252862095832825 0.33252862095832825 0.33252862095832825
0.38070940971374512 0.38070940971374512 0.38070940971374512
0.43178573250770569 0.43178573250770569 0.43178573250770569
0.48964077234268188 0.48964077234268188 0.48964077234268188
0.55055570602416992 0.55055570602416992 0.55055570602416992
0.60940825939178467 0.60940825939178467 0.60940825939178467
0.1935146301984787 0.1935146301984787 0.1935146301984787
0.1966409832239151 0.1966409832239151 0.1966409832239151
0.20732718706130981 0.20732718706130981 0.20732718706130981
0.2255643755197525 0.2255643755197525 0.2255643755197525
0.25176852941513062 0.25176852941513062 0.25176852941513062
0.28751975297927856 0.28751975297927856 0.28751975297927856
0.33242517709732056 0.33242517709732056 0.33242517709732056
0.38490241765975952 0.38490241765975952 0.38490241765975952
0.44177407026290894 0.44177407026290894 0.44177407026290894
0.50437235832214355 0.50437235832214355 0.50437235832214355
0.5702279806137085 0.5702279806137085 0.5702279806137085
0.62723135948181152 0.62723135948181152 0.62723135948181152
0.67827016115188599 0.67827016115188599 0.67827016115188599
0.26298698782920837 0.26298698782920837 0.26298698782920837
0.26909500360488892 0.26909500360488892 0.26909500360488892
0.28019553422927856 0.28019553422927856 0.28019553422927856
0.2946222722530365 0.2946222722530365 0.2946222722530365
0.31532326340675354 0.31532326340675354 0.31532326340675354
0.34377506375312805 0.34377506375312805 0.34377506375312805
0.38321390748023987 0.38321390748023987 0.38321390748023987
0.43555974960327148 0.43555974960327148 0.43555974960327148
0.49643948674201965 0.49643948674201965 0.49643948674201965
0.56336444616317749 0.56336444616317749 0.56336444616317749
0.63133144378662109 0.63133144378662109 0.63133144378662109
0.68887251615524292 0.68887251615524292 0.68887251615524292
0.73807787895202637 0.73807787895202637 0.73807787895202637
0.35134690999984741 0.35134690999984741 0.35134690999984741
0.35607936978340149 0.35607936978340149 0.35607936978340149
0.364847332239151 0.364847332239151 0.364847332239151
0.37559181451797485 0.37559181451797485 0.37559181451797485
0.39045745134353638 0.39045745134353638 0.39045745134353638
0.41048154234886169 0.41048154234886169 0.41048154234886169
0.44261935353279114 0.44261935353279114 0.44261935353279114
0.49249616265296936 0.49249616265296936 0.49249616265296936
0.55059564113616943 0.55059564113616943 0.55059564113616943
0.61170566082000732 0.61170566082000732 0.61170566082000732
0.67407995462417603 0.67407995462417603 0.67407995462417603
0.73248052597045898 0.73248052597045898 0.73248052597045898
0.7829892635345459 0.7829892635345459 0.7829892635345459
0.45108583569526672 0.45108583569526672 0.45108583569526672
0.45513942837715149 0.45513942837715149 0.45513942837715149
0.46200352907180786 0.46200352907180786 0.46200352907180786
0.46990901231765747 0.46990901231765747 0.46990901231765747
0.4807228147983551 0.4807228147983551 0.4807228147983551
0.49619272351264954 0.49619272351264954 0.49619272351264954
0.52310037612915039 0.52310037612915039 0.52310037612915039
0.56438499689102173 0.56438499689102173 0.56438499689102173
0.61184990406036377 0.61184990406036377 0.61184990406036377
0.66084772348403931 0.66084772348403931 0.66084772348403931
0.71332460641860962 0.71332460641860962 0.71332460641860962
0.76947981119155884 0.76947981119155884 0.76947981119155884
0.81992197036743164 0.81992197036743164 0.81992197036743164
0.56048619747161865 0.56048619747161865 0.56048619747161865
0.56460714340209961 0.56460714340209961 0.56460714340209961
0.57011252641677856 0.57011252641677856 0.57011252641677856
0.5765567421913147 0.5765567421913147 0.5765567421913147
0.58582258224487305 0.58582258224487305 0.58582258224487305
0.59990161657333374 0.59990161657333374 0.59990161657333374
0.62182396650314331 0.62182396650314331 0.62182396650314331
0.65191006660461426 0.65191006660461426 0.65191006660461426
0.68631112575531006 0.68631112575531006 0.68631112575531006
0.72095292806625366 0.72095292806625366 0.72095292806625366
0.76153135299682617 0.76153135299682617 0.76153135299682617
0.81194454431533813 0.81194454431533813 0.81194454431533813
0.85896670818328857 0.85896670818328857 0.85896670818328857
0.67825239896774292 0.67825239896774292 0.67825239896774292
0.68039822578430176 0.68039822578430176 0.68039822578430176
0.68388545513153076 0.68388545513153076 0.68388545513153076
0.68909639120101929 0.68909639120101929 0.68909639120101929
0.69781661033630371 0.69781661033630371 0.69781661033630371
0.70990991592407227 0.70990991592407227 0.70990991592407227
0.72646713256835938 0.72646713256835938 0.72646713256835938
0.74802947044372559 0.74802947044372559 0.74802947044372559
0.77264726161956787 0.77264726161956787 0.77264726161956787
0.79790335893630981 0.79790335893630981 0.79790335893630981
0.8281291127204895 0.8281291127204895 0.8281291127204895
0.86585760116577148 0.86585760116577148 0.86585760116577148
0.90442073345184326 0.90442073345184326 0.90442073345184326
0.79463624954223633 0.79463624954223633 0.79463624954223633
0.79427409172058105 0.79427409172058105 0.79427409172058105
0.7947617769241333 0.7947617769241333 0.7947617769241333
0.79913216829299927 0.79913216829299927 0.79913216829299927
0.80812275409698486 0.80812275409698486 0.80812275409698486
0.81809073686599731 0.81809073686599731 0.81809073686599731
0.82926368713378906 0.82926368713378906 0.82926368713378906
0.84472787380218506 0.84472787380218506 0.84472787380218506
0.86363822221755981 0.86363822221755981 0.86363822221755981
0.8807188868522644 0.8807188868522644 0.8807188868522644
0.90015679597854614 0.90015679597854614 0.90015679597854614
0.92573541402816772 0.92573541402816772 0.92573541402816772
0.95465022325515747 0.95465022325515747 0.95465022325515747
0.8999285101890564 0.8999285101890564 0.8999285101890564
0.89600563049316406 0.89600563049316406 0.89600563049316406
0.89400279521942139 0.89400279521942139 0.89400279521942139
0.89806616306304932 0.89806616306304932 0.89806616306304932
0.90741986036300659 0.90741986036300659 0.90741986036300659
0.916037917137146 0.916037917137146 0.916037917137146
0.92158854007720947 0.92158854007720947 0.92158854007720947
0.93157768249511719 0.93157768249511719 0.93157768249511719
0.9455256462097168 0.9455256462097168 0.9455256462097168
0.95613682270050049 0.95613682270050049 0.95613682270050049
0.96817868947982788 0.96817868947982788 0.96817868947982788
0.98325490951538086 0.98325490951538086 0.98325490951538086
0.99605733156204224 0.99605733156204224 0.99605733156204224
0.037941489368677139 0.037941489368677139 0.037941489368677139
0.037156332284212112 0.037156332284212112 0.037156332284212112
0.042196668684482574 0.042196668684482574 0.042196668684482574
0.05261586606502533 0.05261586606502533 0.05261586606502533
0.070178180932998657 0.070178180932998657 0.070178180932998657
0.095837868750095367 0.095837868750095367 0.095837868750095367
0.12763570249080658 0.12763570249080658 0.12763570249080658
0.1636289656162262 0.1636289656162262 0.1636289656162262
0.20353136956691742 0.20353136956691742 0.20353136956691742
0.24924319982528687 0.24924319982528687 0.24924319982528687
0.30375063419342041 0.30375063419342041 0.30375063419342041
0.36688199639320374 0.36688199639320374 0.36688199639320374
0.43478620052337646 0.43478620052337646 0.43478620052337646
0.046645835041999817 0.046645835041999817 0.046645835041999817
0.047242887318134308 0.047242887318134308 0.047242887318134308
0.053804658353328705 0.053804658353328705 0.053804658353328705
0.065858297049999237 0.065858297049999237 0.065858297049999237
0.086947299540042877 0.086947299540042877 0.086947299540042877
0.11586447060108185 0.11586447060108185 0.11586447060108185
0.15057368576526642 0.15057368576526642 0.15057368576526642
0.18729129433631897 0.18729129433631897 0.18729129433631897
0.22585500776767731 0.22585500776767731 0.22585500776767731
0.26889637112617493 0.26889637112617493 0.26889637112617493
0.32211866974830627 0.32211866974830627 0.32211866974830627
0.38650402426719666 0.38650402426719666 0.38650402426719666
0.45672681927680969 0.45672681927680969 0.45672681927680969
0.065707668662071228 0.065707668662071228 0.065707668662071228
0.066015787422657013 0.066015787422657013 0.066015787422657013
0.073962822556495667 0.073962822556495667 0.073962822556495667
0.090316295623779297 0.090316295623779297 0.090316295623779297
0.11643414944410324 0.11643414944410324 0.11643414944410324
0.15063817799091339 0.15063817799091339 0.15063817799091339
0.18943327665328979 0.18943327665328979 0.18943327665328979
0.22901155054569244 0.22901155054569244 0.22901155054569244
0.26708418130874634 0.26708418130874634 0.26708418130874634
0.30741897225379944 0.30741897225379944 0.30741897225379944
0.35876387357711792 0.35876387357711792 0.35876387357711792
0.42366841435432434 0.42366841435432434 0.42366841435432434
0.49402076005935669 0.49402076005935669 0.49402076005935669
0.098574079573154449 0.098574079573154449 0.098574079573154449
0.098491817712783813 0.098491817712783813 0.098491817712783813
0.10777945071458817 0.10777945071458817 0.10777945071458817
0.127410888671875 0.127410888671875 0.127410888671875
0.1574556976556778 0.1574556976556778 0.1574556976556778
0.1959003210067749 0.1959003210067749 0.1959003210067749
0.2407451868057251 0.2407451868057251 0.2407451868057251
0.28644716739654541 0.28644716739654541 0.28644716739654541
0.32618623971939087 0.32618623971939087 0.32618623971939087
0.36780473589897156 0.36780473589897156 0.36780473589897156
0.41995212435722351 0.41995212435722351 0.41995212435722351
0.48289424180984497 0.48289424180984497 0.48289424180984497
0.54882878065109253 0.54882878065109253 0.54882878065109253
0.14707493782043457 0.14707493782043457 0.14707493782043457
0.14825832843780518 0.14825832843780518 0.14825832843780518
0.15772473812103271 0.15772473812103271 0.15772473812103271
0.17702332139015198 0.17702332139015198 0.17702332139015198
0.20688973367214203 0.20688973367214203 0.20688973367214203
0.2461138516664505 0.2461138516664505 0.2461138516664505
0.29453572630882263 0.29453572630882263 0.29453572630882263
0.34723424911499023 0.34723424911499023 0.34723424911499023
0.3923126757144928 0.3923126757144928 0.3923126757144928
0.44107425212860107 0.44107425212860107 0.44107425212860107
0.49707528948783875 0.49707528948783875 0.49707528948783875
0.5575752854347229 0.5575752854347229 0.5575752854347229
0.61685210466384888 0.61685210466384888 0.61685210466384888
0.20967009663581848 0.20967009663581848 0.20967009663581848
0.2121826559305191 0.2121826559305191 0.2121826559305191
0.22106310725212097 0.22106310725212097 0.22106310725212097
0.23698163032531738 0.23698163032531738 0.23698163032531738
0.26191040873527527 0.26191040873527527 0.26191040873527527
0.29710263013839722 0.29710263013839722 0.29710263013839722
0.34252026677131653 0.34252026677131653 0.34252026677131653
0.39528089761734009 0.39528089761734009 0.39528089761734009
0.4508202075958252 0.4508202075958252 0.4508202075958252
0.51102638244628906 0.51102638244628906 0.51102638244628906
0.57381534576416016 0.57381534576416016 0.57381534576416016
0.63456511497497559 0.63456511497497559 0.63456511497497559
0.68921113014221191 0.68921113014221191 0.68921113014221191
0.28339129686355591 0.28339129686355591 0.28339129686355591
0.28674536943435669 0.28674536943435669 0.28674536943435669
0.29368129372596741 0.29368129372596741 0.29368129372596741
0.30495178699493408 0.30495178699493408 0.30495178699493408
0.32366716861724854 0.32366716861724854 0.32366716861724854
0.35203176736831665 0.35203176736831665 0.35203176736831665
0.39094927906990051 0.39094927906990051 0.39094927906990051
0.4416840672492981 0.4416840672492981 0.4416840672492981
0.50262355804443359 0.50262355804443359 0.50262355804443359
0.56909310817718506 0.56909310817718506 0.56909310817718506
0.63586848974227905 0.63586848974227905 0.63586848974227905
0.698883056640625 0.698883056640625 0.698883056640625
0.75423276424407959 0.75423276424407959 0.75423276424407959
0.36653837561607361 0.36653837561607361 0.36653837561607361
0.37064850330352783 0.37064850330352783 0.37064850330352783
0.37648218870162964 0.37648218870162964 0.37648218870162964
0.3834679126739502 0.3834679126739502 0.3834679126739502
0.39581596851348877 0.39581596851348877 0.39581596851348877
0.41788893938064575 0.41788893938064575 0.41788893938064575
0.450980544090271 0.450980544090271 0.450980544090271
0.49716779589653015 0.49716779589653015 0.49716779589653015
0.55498594045639038 0.55498594045639038 0.55498594045639038
0.61788815259933472 0.61788815259933472 0.61788815259933472
0.68175947666168213 0.68175947666168213 0.68175947666168213
0.74357372522354126 0.74357372522354126 0.74357372522354126
0.79771429300308228 0.79771429300308228 0.79771429300308228
0.45785278081893921 0.45785278081893921 0.45785278081893921
0.46478456258773804 0.46478456258773804 0.46478456258773804
0.47099852561950684 0.47099852561950684 0.47099852561950684
0.47571778297424316 0.47571778297424316 0.47571778297424316
0.48443064093589783 0.48443064093589783 0.48443064093589783
0.50252383947372437 0.50252383947372437 0.50252383947372437
0.53038269281387329 0.53038269281387329 0.53038269281387329
0.5690644383430481 0.5690644383430481 0.5690644383430481
0.61590635776519775 0.61590635776519775 0.61590635776519775
0.66703617572784424 0.66703617572784424 0.66703617572784424
0.72198581695556641 0.72198581695556641 0.72198581695556641
0.77887493371963501 0.77887493371963501 0.77887493371963501
0.83009111881256104 0.83009111881256104 0.83009111881256104
0.563323974609375 0.563323974609375 0.563323974609375
0.57083612680435181 0.57083612680435181 0.57083612680435181
0.57720208168029785 0.57720208168029785 0.57720208168029785
0.58188068866729736 0.58188068866729736 0.58188068866729736
0.58949184417724609 0.58949184417724609 0.58949184417724609
0.60377812385559082 0.60377812385559082 0.60377812385559082
0.6258547306060791 0.6258547306060791 0.6258547306060791
0.65483725070953369 0.65483725070953369 0.65483725070953369
0.68889749050140381 0.68889749050140381 0.68889749050140381
0.72620564699172974 0.72620564699172974 0.72620564699172974
0.76944363117218018 0.76944363117218018 0.76944363117218018
0.81891286373138428 0.81891286373138428 0.81891286373138428
0.86591660976409912 0.86591660976409912 0.86591660976409912
0.68011283874511719 0.68011283874511719 0.68011283874511719
0.68488287925720215 0.68488287925720215 0.68488287925720215
0.68907076120376587 0.68907076120376587 0.68907076120376587
0.69370335340499878 0.69370335340499878 0.69370335340499878
0.70085275173187256 0.70085275173187256 0.70085275173187256
0.7120547890663147 0.7120547890663147 0.7120547890663147
0.72783112525939941 0.72783112525939941 0.72783112525939941
0.74832910299301147 0.74832910299301147 0.74832910299301147
0.77266931533813477 0.77266931533813477 0.77266931533813477
0.79938405752182007 0.79938405752182007 0.79938405752182007
0.83154416084289551 0.83154416084289551 0.83154416084289551
0.86980819702148438 0.86980819702148438 0.86980819702148438
0.90880030393600464 0.90880030393600464 0.90880030393600464
0.79329138994216919 0.79329138994216919 0.79329138994216919
0.79581999778747559 0.79581999778747559 0.79581999778747559
0.79801350831985474 0.79801350831985474 0.79801350831985474
0.80193299055099487 0.80193299055099487 0.80193299055099487
0.80877417325973511 0.80877417325973511 0.80877417325973511
0.81750833988189697 0.81750833988189697 0.81750833988189697
0.8282960057258606 0.8282960057258606 0.8282960057258606
0.84213769435882568 0.84213769435882568 0.84213769435882568
0.85947573184967041 0.85947573184967041 0.85947573184967041
0.87772971391677856 0.87772971391677856 0.87772971391677856
0.90016400814056396 0.90016400814056396 0.90016400814056396
0.92749613523483276 0.92749613523483276 0.92749613523483276
0.95726847648620605 0.95726847648620605 0.95726847648620605
0.89295470714569092 0.89295470714569092 0.89295470714569092
0.89446371793746948 0.89446371793746948 0.89446371793746948
0.89565551280975342 0.89565551280975342 0.89565551280975342
0.89918500185012817 0.89918500185012817 0.89918500185012817
0.90555083751678467 0.90555083751678467 0.90555083751678467
0.91237974166870117 0.91237974166870117 0.91237974166870117
0.91894686222076416 0.91894686222076416 0.91894686222076416
0.92817097902297974 0.92817097902297974 0.92817097902297974
0.93990272283554077 0.93990272283554077 0.93990272283554077
0.95229226350784302 0.95229226350784302 0.95229226350784302
0.96682560443878174 0.96682560443878174 0.96682560443878174
0.98350530862808228 0.98350530862808228 0.98350530862808228
0.99644005298614502 0.99644005298614502 0.99644005298614502
0.041588578373193741 0.041588578373193741 0.041588578373193741
0.043934796005487442 0.043934796005487442 0.043934796005487442
0.051111724227666855 0.051111724227666855 0.051111724227666855
0.061185799539089203 0.061185799539089203 0.061185799539089203
0.077025830745697021 0.077025830745697021 0.077025830745697021
0.10206189751625061 0.10206189751625061 0.10206189751625061
0.13396728038787842 0.13396728038787842 0.13396728038787842
0.16952209174633026 0.16952209174633026 0.16952209174633026
0.20965802669525146 0.20965802669525146 0.20965802669525146
0.25570026040077209 0.25570026040077209 0.25570026040077209
0.30946576595306396 0.30946576595306396 0.30946576595306396
0.37175503373146057 0.37175503373146057 0.37175503373146057
0.43958291411399841 0.43958291411399841 0.43958291411399841
0.050684042274951935 0.050684042274951935 0.050684042274951935
0.05675945058465004 0.05675945058465004 0.05675945058465004
0.067164614796638489 0.067164614796638489 0.067164614796638489
0.078241653740406036 0.078241653740406036 0.078241653740406036
0.096798434853553772 0.096798434853553772 0.096798434853553772
0.12450706958770752 0.12450706958770752 0.12450706958770752
0.15822935104370117 0.15822935104370117 0.15822935104370117
0.19463343918323517 0.19463343918323517 0.19463343918323517
0.23354057967662811 0.23354057967662811 0.23354057967662811
0.27742877602577209 0.27742877602577209 0.27742877602577209
0.32943600416183472 0.32943600416183472 0.32943600416183472
0.39178144931793213 0.39178144931793213 0.39178144931793213
0.46159431338310242 0.46159431338310242 0.46159431338310242
0.070751547813415527 0.070751547813415527 0.070751547813415527
0.077707760035991669 0.077707760035991669 0.077707760035991669
0.090906031429767609 0.090906031429767609 0.090906031429767609
0.10825466364622116 0.10825466364622116 0.10825466364622116
0.1324775218963623 0.1324775218963623 0.1324775218963623
0.16375896334648132 0.16375896334648132 0.16375896334648132
0.19995193183422089 0.19995193183422089 0.19995193183422089
0.23766495287418365 0.23766495287418365 0.23766495287418365
0.27623870968818665 0.27623870968818665 0.27623870968818665
0.31867414712905884 0.31867414712905884 0.31867414712905884
0.36927524209022522 0.36927524209022522 0.36927524209022522
0.43063676357269287 0.43063676357269287 0.43063676357269287
0.49958023428916931 0.49958023428916931 0.49958023428916931
0.10744525492191315 0.10744525492191315 0.10744525492191315
0.11353138834238052 0.11353138834238052 0.11353138834238052
0.12784720957279205 0.12784720957279205 0.12784720957279205
0.14898708462715149 0.14898708462715149 0.14898708462715149
0.1774899810552597 0.1774899810552597 0.1774899810552597
0.21264860033988953 0.21264860033988953 0.21264860033988953
0.25310817360877991 0.25310817360877991 0.25310817360877991
0.29558536410331726 0.29558536410331726 0.29558536410331726
0.33613854646682739 0.33613854646682739 0.33613854646682739
0.37959161400794983 0.37959161400794983 0.37959161400794983
0.43078303337097168 0.43078303337097168 0.43078303337097168
0.49040511250495911 0.49040511250495911 0.49040511250495911
0.55455297231674194 0.55455297231674194 0.55455297231674194
0.1641659140586853 0.1641659140586853 0.1641659140586853
0.16869503259658813 0.16869503259658813 0.16869503259658813
0.18037267029285431 0.18037267029285431 0.18037267029285431
0.19994321465492249 0.19994321465492249 0.19994321465492249
0.22800110280513763 0.22800110280513763 0.22800110280513763
0.26418265700340271 0.26418265700340271 0.26418265700340271
0.30818819999694824 0.30818819999694824 0.30818819999694824
