films/fuji_velvia_100_generic.cube
# Created by: G'MIC (https://gmic.eu)
TITLE "fuji_velvia_100_generic"
# LUT size
LUT_3D_SIZE 5
# Data domain
DOMAIN_MIN 0.0 0.0 0.0
DOMAIN_MAX 1.0 1.0 1.0
# LUT data points
0.022400800138711929 0.018975740298628807 0.017760870978236198
0.22311946749687195 0.018668470904231071 0.019190873950719833
0.57247108221054077 0.013419236987829208 0.015824485570192337
0.91708552837371826 0.0091974744573235512 0.013353698886930943
1 0.038343258202075958 0.021922048181295395
0.044183123856782913 0.23680651187896729 0.021383143961429596
0.19972573220729828 0.23015356063842773 0.022179577499628067
0.56630772352218628 0.2302175909280777 0.014630126766860485
0.90425956249237061 0.21231356263160706 0.014027404598891735
1 0.23547430336475372 0.018332477658987045
0 0.58836978673934937 0.017949916422367096
0.045405924320220947 0.58598560094833374 0.017282314598560333
0.50240832567214966 0.57421475648880005 0.0099272783845663071
0.84705108404159546 0.57022720575332642 0.012080667540431023
1 0.55944335460662842 0.0055338242091238499
0 0.89551240205764771 0.00011610142973950133
0.029143523424863815 0.89474773406982422 0
0.41533592343330383 0.88831323385238647 0
0.77561342716217041 0.883259117603302 0
0.9854581356048584 0.87029576301574707 0
0.064778394997119904 1 0.0014515595976263285
0.17586790025234222 1 0
0.52702951431274414 1 0.00089166680118069053
0.78406566381454468 1 0.00030065799364820123
0.95955008268356323 1 0
0.031558871269226074 0.011480249464511871 0.2257816344499588
0.23799499869346619 0.0030521915759891272 0.22940139472484589
0.57762080430984497 0.0012014949461445212 0.23151369392871857
0.92811107635498047 0.0035551781766116619 0.22002902626991272
1 0.0062970477156341076 0.21549241244792938
0.049884647130966187 0.22063201665878296 0.2163427472114563
0.21893709897994995 0.21592943370342255 0.21697959303855896
0.56637758016586304 0.20745405554771423 0.21352221071720123
0.91061776876449585 0.19647729396820068 0.20843109488487244
1 0.19735151529312134 0.21212033927440643
0 0.57243555784225464 0.1870197057723999
0.079177811741828918 0.57335227727890015 0.18254174292087555
0.52001672983169556 0.56374442577362061 0.18270072340965271
0.85607820749282837 0.55552589893341064 0.1835772693157196
1 0.54183763265609741 0.18036572635173798
0 0.88069039583206177 0.12787614762783051
0.037814032286405563 0.88109403848648071 0.10429152101278305
0.42933332920074463 0.8813633918762207 0.12592776119709015
0.78860622644424438 0.86830979585647583 0.096067346632480621
0.99374037981033325 0.85962522029876709 0.098093174397945404
0.043887164443731308 1 0.13447849452495575
0.20350296795368195 0.99993699789047241 0.12759649753570557
0.529197096824646 1 0.13309641182422638
0.79298281669616699 1 0.14052788913249969
0.97244584560394287 0.99880403280258179 0.099749185144901276
0.049731310456991196 0.0030468062032014132 0.56964617967605591
0.2534123957157135 0 0.57210445404052734
0.58204001188278198 0 0.56851541996002197
0.9038042426109314 0 0.56215006113052368
1 0 0.55345815420150757
0.04284152016043663 0.19907189905643463 0.55754679441452026
0.23082625865936279 0.19016757607460022 0.56200456619262695
0.57521665096282959 0.18042086064815521 0.55763685703277588
0.91950511932373047 0.1632937490940094 0.55307847261428833
1 0.16127914190292358 0.54575634002685547
0.00029009650461375713 0.54612743854522705 0.53769385814666748
0.15011413395404816 0.54293787479400635 0.53686529397964478
0.53429615497589111 0.53627556562423706 0.53605228662490845
0.87209129333496094 0.53030580282211304 0.53434693813323975
1 0.51260709762573242 0.52365827560424805
0 0.85811704397201538 0.52312123775482178
0.067631758749485016 0.85472184419631958 0.51721632480621338
0.47609981894493103 0.85022664070129395 0.51682162284851074
0.80872529745101929 0.84496617317199707 0.5141366720199585
0.99811595678329468 0.83513724803924561 0.51201999187469482
0.021490404382348061 1 0.50659447908401489
0.16290436685085297 0.99991095066070557 0.51965993642807007
0.54765874147415161 1 0.51525199413299561
0.80161994695663452 1 0.51101970672607422
0.97394192218780518 0.9996873140335083 0.50363320112228394
0.043895211070775986 0.0037845985498279333 0.88277417421340942
0.26653614640235901 0 0.86820799112319946
0.58626770973205566 2.423454679956194e-05 0.87351328134536743
0.93295317888259888 0.001969760050997138 0.87415385246276855
1 0.0033833521883934736 0.86945575475692749
0.066609039902687073 0.16342519223690033 0.85738801956176758
0.25371310114860535 0.17134426534175873 0.86131268739700317
0.58407270908355713 0.15276464819908142 0.86025559902191162
0.92459094524383545 0.1404850035905838 0.86608946323394775
1 0.1338171511888504 0.85897088050842285
0.00367711391299963 0.52181333303451538 0.84703618288040161
0.1581500917673111 0.51815664768218994 0.84919852018356323
0.55902296304702759 0.5105786919593811 0.84338533878326416
0.88489842414855957 0.50550985336303711 0.84107297658920288
1 0.4851316511631012 0.82376003265380859
0 0.83339941501617432 0.82834964990615845
0.039127904921770096 0.83101481199264526 0.82610487937927246
0.49975407123565674 0.82573425769805908 0.81827789545059204
0.82685405015945435 0.82229244709014893 0.82241618633270264
0.99952602386474609 0.81066328287124634 0.81088614463806152
0.014357488602399826 0.99792563915252686 0.81359070539474487
0.16473768651485443 0.9986690878868103 0.81150037050247192
0.57395482063293457 0.99691355228424072 0.80872893333435059
0.8137015700340271 0.99801164865493774 0.80998075008392334
0.98543870449066162 0.99411070346832275 0.81004041433334351
0.086173534393310547 0 1
0.2847038209438324 0 1
0.5938689112663269 5.4931639169808477e-05 1
0.93552225828170776 0.0053938175551593304 0.99948716163635254
1 0.025337040424346924 1
0.071289673447608948 0.1461651623249054 0.99740064144134521
0.24557721614837646 0.15016378462314606 0.99951350688934326
0.58363896608352661 0.13454870879650116 0.99941563606262207
0.90007108449935913 0.14585237205028534 1
1 0.16802003979682922 1
0 0.5026087760925293 0.99883705377578735
0.13444462418556213 0.50370109081268311 0.99901467561721802
0.55744916200637817 0.49467414617538452 0.9990878701210022
0.87450724840164185 0.48716670274734497 0.99959409236907959
1 0.48027685284614563 0.99714738130569458
6.6510365286376327e-05 0.81566488742828369 0.99799454212188721
0.14169563353061676 0.80770254135131836 0.9982067346572876
0.52776128053665161 0.80365228652954102 0.99383771419525146
0.83207416534423828 0.80344492197036743 0.99490010738372803
0.99774777889251709 0.79931879043579102 0.99301183223724365
0.067856930196285248 0.99218297004699707 0.9887891411781311
0.25695836544036865 0.99294769763946533 0.99194765090942383
0.57904654741287231 0.99113357067108154 0.98962068557739258
0.82190769910812378 0.99018651247024536 0.98887169361114502
0.98827344179153442 0.98970842361450195 0.98992884159088135
