films/fuji_neopan_acros_100.cube
# Created by: G'MIC (https://gmic.eu)
TITLE "fuji_neopan_acros_100"
# LUT size
LUT_3D_SIZE 13
# Data domain
DOMAIN_MIN 0.0 0.0 0.0
DOMAIN_MAX 1.0 1.0 1.0
# LUT data points
0.019125292077660561 0.019125292077660561 0.019125292077660561
0.021731417626142502 0.021731417626142502 0.021731417626142502
0.029221538454294205 0.029221538454294205 0.029221538454294205
0.038978606462478638 0.038978606462478638 0.038978606462478638
0.050184931606054306 0.050184931606054306 0.050184931606054306
0.06277485191822052 0.06277485191822052 0.06277485191822052
0.077025063335895538 0.077025063335895538 0.077025063335895538
0.093323759734630585 0.093323759734630585 0.093323759734630585
0.11519552767276764 0.11519552767276764 0.11519552767276764
0.14873164892196655 0.14873164892196655 0.14873164892196655
0.18980990350246429 0.18980990350246429 0.18980990350246429
0.23220057785511017 0.23220057785511017 0.23220057785511017
0.273519366979599 0.273519366979599 0.273519366979599
0.063876688480377197 0.063876688480377197 0.063876688480377197
0.065331719815731049 0.065331719815731049 0.065331719815731049
0.072076030075550079 0.072076030075550079 0.072076030075550079
0.081435002386569977 0.081435002386569977 0.081435002386569977
0.092647552490234375 0.092647552490234375 0.092647552490234375
0.10523105412721634 0.10523105412721634 0.10523105412721634
0.11975275725126266 0.11975275725126266 0.11975275725126266
0.13759811222553253 0.13759811222553253 0.13759811222553253
0.16111057996749878 0.16111057996749878 0.16111057996749878
0.19220805168151855 0.19220805168151855 0.19220805168151855
0.22969841957092285 0.22969841957092285 0.22969841957092285
0.26987180113792419 0.26987180113792419 0.26987180113792419
0.30919584631919861 0.30919584631919861 0.30919584631919861
0.11586673557758331 0.11586673557758331 0.11586673557758331
0.11682915687561035 0.11682915687561035 0.11682915687561035
0.12297895550727844 0.12297895550727844 0.12297895550727844
0.13210456073284149 0.13210456073284149 0.13210456073284149
0.14303454756736755 0.14303454756736755 0.14303454756736755
0.15549463033676147 0.15549463033676147 0.15549463033676147
0.17039112746715546 0.17039112746715546 0.17039112746715546
0.1891198605298996 0.1891198605298996 0.1891198605298996
0.21285398304462433 0.21285398304462433 0.21285398304462433
0.24170216917991638 0.24170216917991638 0.24170216917991638
0.27503818273544312 0.27503818273544312 0.27503818273544312
0.31103992462158203 0.31103992462158203 0.31103992462158203
0.34809297323226929 0.34809297323226929 0.34809297323226929
0.1730973869562149 0.1730973869562149 0.1730973869562149
0.17484316229820251 0.17484316229820251 0.17484316229820251
0.18132299184799194 0.18132299184799194 0.18132299184799194
0.19018800556659698 0.19018800556659698 0.19018800556659698
0.20080992579460144 0.20080992579460144 0.20080992579460144
0.21295809745788574 0.21295809745788574 0.21295809745788574
0.22744289040565491 0.22744289040565491 0.22744289040565491
0.24575014412403107 0.24575014412403107 0.24575014412403107
0.26866194605827332 0.26866194605827332 0.26866194605827332
0.29483702778816223 0.29483702778816223 0.29483702778816223
0.3244551420211792 0.3244551420211792 0.3244551420211792
0.35680726170539856 0.35680726170539856 0.35680726170539856
0.39101532101631165 0.39101532101631165 0.39101532101631165
0.23716628551483154 0.23716628551483154 0.23716628551483154
0.24037081003189087 0.24037081003189087 0.24037081003189087
0.24664370715618134 0.24664370715618134 0.24664370715618134
0.25508487224578857 0.25508487224578857 0.25508487224578857
0.26495027542114258 0.26495027542114258 0.26495027542114258
0.27673012018203735 0.27673012018203735 0.27673012018203735
0.29073342680931091 0.29073342680931091 0.29073342680931091
0.30814772844314575 0.30814772844314575 0.30814772844314575
0.32821419835090637 0.32821419835090637 0.32821419835090637
0.35150876641273499 0.35150876641273499 0.35150876641273499
0.37730050086975098 0.37730050086975098 0.37730050086975098
0.40603634715080261 0.40603634715080261 0.40603634715080261
0.43727153539657593 0.43727153539657593 0.43727153539657593
0.31111538410186768 0.31111538410186768 0.31111538410186768
0.31328859925270081 0.31328859925270081 0.31328859925270081
0.31836786866188049 0.31836786866188049 0.31836786866188049
0.32573220133781433 0.32573220133781433 0.32573220133781433
0.33451539278030396 0.33451539278030396 0.33451539278030396
0.34521281719207764 0.34521281719207764 0.34521281719207764
0.3579847514629364 0.3579847514629364 0.3579847514629364
0.37336096167564392 0.37336096167564392 0.37336096167564392
0.39096346497535706 0.39096346497535706 0.39096346497535706
0.41133704781532288 0.41133704781532288 0.41133704781532288
0.43370482325553894 0.43370482325553894 0.43370482325553894
0.45838654041290283 0.45838654041290283 0.45838654041290283
0.48703905940055847 0.48703905940055847 0.48703905940055847
0.39131373167037964 0.39131373167037964 0.39131373167037964
0.3917900025844574 0.3917900025844574 0.3917900025844574
0.39501988887786865 0.39501988887786865 0.39501988887786865
0.40086454153060913 0.40086454153060913 0.40086454153060913
0.40781986713409424 0.40781986713409424 0.40781986713409424
0.41704913973808289 0.41704913973808289 0.41704913973808289
0.42822521924972534 0.42822521924972534 0.42822521924972534
0.44154873490333557 0.44154873490333557 0.44154873490333557
0.45725014805793762 0.45725014805793762 0.45725014805793762
0.47488301992416382 0.47488301992416382 0.47488301992416382
0.49426001310348511 0.49426001310348511 0.49426001310348511
0.51541858911514282 0.51541858911514282 0.51541858911514282
0.54137051105499268 0.54137051105499268 0.54137051105499268
0.4728013277053833 0.4728013277053833 0.4728013277053833
0.47267624735832214 0.47267624735832214 0.47267624735832214
0.47452494502067566 0.47452494502067566 0.47452494502067566
0.47832497954368591 0.47832497954368591 0.47832497954368591
0.48340189456939697 0.48340189456939697 0.48340189456939697
0.49101269245147705 0.49101269245147705 0.49101269245147705
0.50034403800964355 0.50034403800964355 0.50034403800964355
0.5118294358253479 0.5118294358253479 0.5118294358253479
0.52569121122360229 0.52569121122360229 0.52569121122360229
0.54131829738616943 0.54131829738616943 0.54131829738616943
0.55876606702804565 0.55876606702804565 0.55876606702804565
0.57862979173660278 0.57862979173660278 0.57862979173660278
0.60157978534698486 0.60157978534698486 0.60157978534698486
0.55559349060058594 0.55559349060058594 0.55559349060058594
0.55521082878112793 0.55521082878112793 0.55521082878112793
0.55528908967971802 0.55528908967971802 0.55528908967971802
0.55743288993835449 0.55743288993835449 0.55743288993835449
0.56032055616378784 0.56032055616378784 0.56032055616378784
0.56572866439819336 0.56572866439819336 0.56572866439819336
0.57348966598510742 0.57348966598510742 0.57348966598510742
0.58335310220718384 0.58335310220718384 0.58335310220718384
0.59544217586517334 0.59544217586517334 0.59544217586517334
0.60970920324325562 0.60970920324325562 0.60970920324325562
0.6258465051651001 0.6258465051651001 0.6258465051651001
0.64404261112213135 0.64404261112213135 0.64404261112213135
0.66441243886947632 0.66441243886947632 0.66441243886947632
0.63805204629898071 0.63805204629898071 0.63805204629898071
0.63696414232254028 0.63696414232254028 0.63696414232254028
0.63560158014297485 0.63560158014297485 0.63560158014297485
0.63553923368453979 0.63553923368453979 0.63553923368453979
0.63635939359664917 0.63635939359664917 0.63635939359664917
0.64025628566741943 0.64025628566741943 0.64025628566741943
0.64622223377227783 0.64622223377227783 0.64622223377227783
0.65444409847259521 0.65444409847259521 0.65444409847259521
0.6652868390083313 0.6652868390083313 0.6652868390083313
0.67828667163848877 0.67828667163848877 0.67828667163848877
0.69344967603683472 0.69344967603683472 0.69344967603683472
0.71025741100311279 0.71025741100311279 0.71025741100311279
0.72804915904998779 0.72804915904998779 0.72804915904998779
0.71982616186141968 0.71982616186141968 0.71982616186141968
0.7174990177154541 0.7174990177154541 0.7174990177154541
0.71411228179931641 0.71411228179931641 0.71411228179931641
0.71201997995376587 0.71201997995376587 0.71201997995376587
0.71116608381271362 0.71116608381271362 0.71116608381271362
0.71281170845031738 0.71281170845031738 0.71281170845031738
0.71724027395248413 0.71724027395248413 0.71724027395248413
0.72424614429473877 0.72424614429473877 0.72424614429473877
0.73380893468856812 0.73380893468856812 0.73380893468856812
0.74594944715499878 0.74594944715499878 0.74594944715499878
0.76012074947357178 0.76012074947357178 0.76012074947357178
0.77575445175170898 0.77575445175170898 0.77575445175170898
0.79178524017333984 0.79178524017333984 0.79178524017333984
0.79862374067306519 0.79862374067306519 0.79862374067306519
0.79475021362304688 0.79475021362304688 0.79475021362304688
0.78898090124130249 0.78898090124130249 0.78898090124130249
0.78440481424331665 0.78440481424331665 0.78440481424331665
0.7821926474571228 0.7821926474571228 0.7821926474571228
0.78249561786651611 0.78249561786651611 0.78249561786651611
0.78560507297515869 0.78560507297515869 0.78560507297515869
0.7914884090423584 0.7914884090423584 0.7914884090423584
0.79995745420455933 0.79995745420455933 0.79995745420455933
0.81110024452209473 0.81110024452209473 0.81110024452209473
0.82464593648910522 0.82464593648910522 0.82464593648910522
0.83964139223098755 0.83964139223098755 0.83964139223098755
0.8542858362197876 0.8542858362197876 0.8542858362197876
0.87106657028198242 0.87106657028198242 0.87106657028198242
0.86465227603912354 0.86465227603912354 0.86465227603912354
0.85745072364807129 0.85745072364807129 0.85745072364807129
0.85196280479431152 0.85196280479431152 0.85196280479431152
0.84891259670257568 0.84891259670257568 0.84891259670257568
0.8483278751373291 0.8483278751373291 0.8483278751373291
0.85044944286346436 0.85044944286346436 0.85044944286346436
0.85527253150939941 0.85527253150939941 0.85527253150939941
0.86281532049179077 0.86281532049179077 0.86281532049179077
0.87280005216598511 0.87280005216598511 0.87280005216598511
0.88525259494781494 0.88525259494781494 0.88525259494781494
0.89959108829498291 0.89959108829498291 0.89959108829498291
0.91334730386734009 0.91334730386734009 0.91334730386734009
0.020757876336574554 0.020757876336574554 0.020757876336574554
0.021960673853754997 0.021960673853754997 0.021960673853754997
0.028335286304354668 0.028335286304354668 0.028335286304354668
0.037717331200838089 0.037717331200838089 0.037717331200838089
0.048946365714073181 0.048946365714073181 0.048946365714073181
0.062311567366123199 0.062311567366123199 0.062311567366123199
0.07774168998003006 0.07774168998003006 0.07774168998003006
0.096890151500701904 0.096890151500701904 0.096890151500701904
0.1215306743979454 0.1215306743979454 0.1215306743979454
0.15441316366195679 0.15441316366195679 0.15441316366195679
0.19376461207866669 0.19376461207866669 0.19376461207866669
0.23534834384918213 0.23534834384918213 0.23534834384918213
0.2765042781829834 0.2765042781829834 0.2765042781829834
0.064911849796772003 0.064911849796772003 0.064911849796772003
0.065655291080474854 0.065655291080474854 0.065655291080474854
0.071571916341781616 0.071571916341781616 0.071571916341781616
0.080701537430286407 0.080701537430286407 0.080701537430286407
0.092063978314399719 0.092063978314399719 0.092063978314399719
0.10520767420530319 0.10520767420530319 0.10520767420530319
0.12088633328676224 0.12088633328676224 0.12088633328676224
0.14023900032043457 0.14023900032043457 0.14023900032043457
0.16521155834197998 0.16521155834197998 0.16521155834197998
0.19658352434635162 0.19658352434635162 0.19658352434635162
0.23352536559104919 0.23352536559104919 0.23352536559104919
0.27260836958885193 0.27260836958885193 0.27260836958885193
0.3120884895324707 0.3120884895324707 0.3120884895324707
0.11675623059272766 0.11675623059272766 0.11675623059272766
0.11734390258789062 0.11734390258789062 0.11734390258789062
0.12301354855298996 0.12301354855298996 0.12301354855298996
0.13174915313720703 0.13174915313720703 0.13174915313720703
0.1429680734872818 0.1429680734872818 0.1429680734872818
0.15592850744724274 0.15592850744724274 0.15592850744724274
0.17170533537864685 0.17170533537864685 0.17170533537864685
0.19118349254131317 0.19118349254131317 0.19118349254131317
0.21544252336025238 0.21544252336025238 0.21544252336025238
0.24480149149894714 0.24480149149894714 0.24480149149894714
0.27850931882858276 0.27850931882858276 0.27850931882858276
0.31481641530990601 0.31481641530990601 0.31481641530990601
0.35176053643226624 0.35176053643226624 0.35176053643226624
0.17509287595748901 0.17509287595748901 0.17509287595748901
0.1760469377040863 0.1760469377040863 0.1760469377040863
0.18183501064777374 0.18183501064777374 0.18183501064777374
0.19030030071735382 0.19030030071735382 0.19030030071735382
0.20099493861198425 0.20099493861198425 0.20099493861198425
0.21353855729103088 0.21353855729103088 0.21353855729103088
0.22899378836154938 0.22899378836154938 0.22899378836154938
0.24776621162891388 0.24776621162891388 0.24776621162891388
0.27080407738685608 0.27080407738685608 0.27080407738685608
0.29756879806518555 0.29756879806518555 0.29756879806518555
0.32786816358566284 0.32786816358566284 0.32786816358566284
0.36057651042938232 0.36057651042938232 0.36057651042938232
0.39487192034721375 0.39487192034721375 0.39487192034721375
0.24059873819351196 0.24059873819351196 0.24059873819351196
0.24194641411304474 0.24194641411304474 0.24194641411304474
0.24735797941684723 0.24735797941684723 0.24735797941684723
0.25535953044891357 0.25535953044891357 0.25535953044891357
0.26528403162956238 0.26528403162956238 0.26528403162956238
0.27731916308403015 0.27731916308403015 0.27731916308403015
0.29190823435783386 0.29190823435783386 0.29190823435783386
0.30943727493286133 0.30943727493286133 0.30943727493286133
0.33008867502212524 0.33008867502212524 0.33008867502212524
0.35394087433815002 0.35394087433815002 0.35394087433815002
0.38073447346687317 0.38073447346687317 0.38073447346687317
0.40996918082237244 0.40996918082237244 0.40996918082237244
0.44146367907524109 0.44146367907524109 0.44146367907524109
0.3137366771697998 0.3137366771697998 0.3137366771697998
0.31484708189964294 0.31484708189964294 0.31484708189964294
0.31925857067108154 0.31925857067108154 0.31925857067108154
0.32621586322784424 0.32621586322784424 0.32621586322784424
0.33504125475883484 0.33504125475883484 0.33504125475883484
0.34584110975265503 0.34584110975265503 0.34584110975265503
0.35899472236633301 0.35899472236633301 0.35899472236633301
0.37476944923400879 0.37476944923400879 0.37476944923400879
0.39309710264205933 0.39309710264205933 0.39309710264205933
0.41403764486312866 0.41403764486312866 0.41403764486312866
0.43723621964454651 0.43723621964454651 0.43723621964454651
0.46310216188430786 0.46310216188430786 0.46310216188430786
0.49175947904586792 0.49175947904586792 0.49175947904586792
0.39222443103790283 0.39222443103790283 0.39222443103790283
0.39257365465164185 0.39257365465164185 0.39257365465164185
0.39582866430282593 0.39582866430282593 0.39582866430282593
0.40138888359069824 0.40138888359069824 0.40138888359069824
0.40850809216499329 0.40850809216499329 0.40850809216499329
0.41786235570907593 0.41786235570907593 0.41786235570907593
0.42928054928779602 0.42928054928779602 0.42928054928779602
0.44314008951187134 0.44314008951187134 0.44314008951187134
0.45918530225753784 0.45918530225753784 0.45918530225753784
0.47753745317459106 0.47753745317459106 0.47753745317459106
0.4978681206703186 0.4978681206703186 0.4978681206703186
0.52058941125869751 0.52058941125869751 0.52058941125869751
0.54641222953796387 0.54641222953796387 0.54641222953796387
0.47342479228973389 0.47342479228973389 0.47342479228973389
0.47343668341636658 0.47343668341636658 0.47343668341636658
0.47540593147277832 0.47540593147277832 0.47540593147277832
0.47907698154449463 0.47907698154449463 0.47907698154449463
0.48454537987709045 0.48454537987709045 0.48454537987709045
0.49205261468887329 0.49205261468887329 0.49205261468887329
0.50170505046844482 0.50170505046844482 0.50170505046844482
0.51361370086669922 0.51361370086669922 0.51361370086669922
0.52770841121673584 0.52770841121673584 0.52770841121673584
0.54387420415878296 0.54387420415878296 0.54387420415878296
0.56212097406387329 0.56212097406387329 0.56212097406387329
0.58255934715270996 0.58255934715270996 0.58255934715270996
0.60561865568161011 0.60561865568161011 0.60561865568161011
0.55588728189468384 0.55588728189468384 0.55588728189468384
0.55556535720825195 0.55556535720825195 0.55556535720825195
0.55600988864898682 0.55600988864898682 0.55600988864898682
0.55797260999679565 0.55797260999679565 0.55797260999679565
0.56143158674240112 0.56143158674240112 0.56143158674240112
0.56719732284545898 0.56719732284545898 0.56719732284545898
0.57503265142440796 0.57503265142440796 0.57503265142440796
0.58513736724853516 0.58513736724853516 0.58513736724853516
0.59754157066345215 0.59754157066345215 0.59754157066345215
0.61208820343017578 0.61208820343017578 0.61208820343017578
0.62871938943862915 0.62871938943862915 0.62871938943862915
0.64730465412139893 0.64730465412139893 0.64730465412139893
0.66757339239120483 0.66757339239120483 0.66757339239120483
0.63802641630172729 0.63802641630172729 0.63802641630172729
0.63714909553527832 0.63714909553527832 0.63714909553527832
0.63580381870269775 0.63580381870269775 0.63580381870269775
0.63559103012084961 0.63559103012084961 0.63559103012084961
0.63813298940658569 0.63813298940658569 0.63813298940658569
0.64177918434143066 0.64177918434143066 0.64177918434143066
0.6479753851890564 0.6479753851890564 0.6479753851890564
0.65650272369384766 0.65650272369384766 0.65650272369384766
0.66742932796478271 0.66742932796478271 0.66742932796478271
0.68060427904129028 0.68060427904129028 0.68060427904129028
0.69588154554367065 0.69588154554367065 0.69588154554367065
0.71275061368942261 0.71275061368942261 0.71275061368942261
0.73066794872283936 0.73066794872283936 0.73066794872283936
0.71849977970123291 0.71849977970123291 0.71849977970123291
0.71688163280487061 0.71688163280487061 0.71688163280487061
0.71462804079055786 0.71462804079055786 0.71462804079055786
0.71267473697662354 0.71267473697662354 0.71267473697662354
0.71260350942611694 0.71260350942611694 0.71260350942611694
0.71481359004974365 0.71481359004974365 0.71481359004974365
0.71934330463409424 0.71934330463409424 0.71934330463409424
0.72651523351669312 0.72651523351669312 0.72651523351669312
0.73622268438339233 0.73622268438339233 0.73622268438339233
0.74812620878219604 0.74812620878219604 0.74812620878219604
0.76217406988143921 0.76217406988143921 0.76217406988143921
0.77766019105911255 0.77766019105911255 0.77766019105911255
0.79347962141036987 0.79347962141036987 0.79347962141036987
0.79590660333633423 0.79590660333633423 0.79590660333633423
0.79328536987304688 0.79328536987304688 0.79328536987304688
0.78910231590270996 0.78910231590270996 0.78910231590270996
0.78567409515380859 0.78567409515380859 0.78567409515380859
0.78401732444763184 0.78401732444763184 0.78401732444763184
0.78483676910400391 0.78483676910400391 0.78483676910400391
0.78803950548171997 0.78803950548171997 0.78803950548171997
0.79392391443252563 0.79392391443252563 0.79392391443252563
0.80242776870727539 0.80242776870727539 0.80242776870727539
0.81331247091293335 0.81331247091293335 0.81331247091293335
0.8263733983039856 0.8263733983039856 0.8263733983039856
0.84077870845794678 0.84077870845794678 0.84077870845794678
0.85468989610671997 0.85468989610671997 0.85468989610671997
0.86585152149200439 0.86585152149200439 0.86585152149200439
0.86279618740081787 0.86279618740081787 0.86279618740081787
0.85789912939071655 0.85789912939071655 0.85789912939071655
0.85358679294586182 0.85358679294586182 0.85358679294586182
0.85104846954345703 0.85104846954345703 0.85104846954345703
0.85080546140670776 0.85080546140670776 0.85080546140670776
0.85326915979385376 0.85326915979385376 0.85326915979385376
0.85804635286331177 0.85804635286331177 0.85804635286331177
0.86540836095809937 0.86540836095809937 0.86540836095809937
0.87524843215942383 0.87524843215942383 0.87524843215942383
0.88699984550476074 0.88699984550476074 0.88699984550476074
0.9001995325088501 0.9001995325088501 0.9001995325088501
0.91258424520492554 0.91258424520492554 0.91258424520492554
0.027471264824271202 0.027471264824271202 0.027471264824271202
0.027724053710699081 0.027724053710699081 0.027724053710699081
0.03282615914940834 0.03282615914940834 0.03282615914940834
0.041580304503440857 0.041580304503440857 0.041580304503440857
0.052732028067111969 0.052732028067111969 0.052732028067111969
0.066632606089115143 0.066632606089115143 0.066632606089115143
0.083475597202777863 0.083475597202777863 0.083475597202777863
0.10462543368339539 0.10462543368339539 0.10462543368339539
0.13143150508403778 0.13143150508403778 0.13143150508403778
0.16418665647506714 0.16418665647506714 0.16418665647506714
0.20219254493713379 0.20219254493713379 0.20219254493713379
0.24288512766361237 0.24288512766361237 0.24288512766361237
0.28323015570640564 0.28323015570640564 0.28323015570640564
0.071405671536922455 0.071405671536922455 0.071405671536922455
0.071500740945339203 0.071500740945339203 0.071500740945339203
0.076718486845493317 0.076718486845493317 0.076718486845493317
0.085267022252082825 0.085267022252082825 0.085267022252082825
0.096424505114555359 0.096424505114555359 0.096424505114555359
0.1100139245390892 0.1100139245390892 0.1100139245390892
0.12674042582511902 0.12674042582511902 0.12674042582511902
0.14762364327907562 0.14762364327907562 0.14762364327907562
0.17354193329811096 0.17354193329811096 0.17354193329811096
0.20539365708827972 0.20539365708827972 0.20539365708827972
0.24165709316730499 0.24165709316730499 0.24165709316730499
0.2808133065700531 0.2808133065700531 0.2808133065700531
0.31976264715194702 0.31976264715194702 0.31976264715194702
0.12311003357172012 0.12311003357172012 0.12311003357172012
0.12326422333717346 0.12326422333717346 0.12326422333717346
0.12814624607563019 0.12814624607563019 0.12814624607563019
0.13645258545875549 0.13645258545875549 0.13645258545875549
0.14723409712314606 0.14723409712314606 0.14723409712314606
0.16077683866024017 0.16077683866024017 0.16077683866024017
0.17728397250175476 0.17728397250175476 0.17728397250175476
0.19763468205928802 0.19763468205928802 0.19763468205928802
0.22264644503593445 0.22264644503593445 0.22264644503593445
0.25244277715682983 0.25244277715682983 0.25244277715682983
0.28603705763816833 0.28603705763816833 0.28603705763816833
0.32215899229049683 0.32215899229049683 0.32215899229049683
0.35903587937355042 0.35903587937355042 0.35903587937355042
0.18179090321063995 0.18179090321063995 0.18179090321063995
0.18209850788116455 0.18209850788116455 0.18209850788116455
0.1868949681520462 0.1868949681520462 0.1868949681520462
0.19485592842102051 0.19485592842102051 0.19485592842102051
0.20533190667629242 0.20533190667629242 0.20533190667629242
0.21823553740978241 0.21823553740978241 0.21823553740978241
0.23418706655502319 0.23418706655502319 0.23418706655502319
0.25345811247825623 0.25345811247825623 0.25345811247825623
0.2767975926399231 0.2767975926399231 0.2767975926399231
0.3041287362575531 0.3041287362575531 0.3041287362575531
0.33475044369697571 0.33475044369697571 0.33475044369697571
0.36772176623344421 0.36772176623344421 0.36772176623344421
0.40191555023193359 0.40191555023193359 0.40191555023193359
0.24743326008319855 0.24743326008319855 0.24743326008319855
0.24792762100696564 0.24792762100696564 0.24792762100696564
0.25242075324058533 0.25242075324058533 0.25242075324058533
0.25965705513954163 0.25965705513954163 0.25965705513954163
0.26936042308807373 0.26936042308807373 0.26936042308807373
0.2815796434879303 0.2815796434879303 0.2815796434879303
