films/fuji_provia_100f.cube
# Created by: G'MIC (https://gmic.eu)
TITLE "fuji_provia_100f"
# LUT size
LUT_3D_SIZE 7
# Data domain
DOMAIN_MIN 0.0 0.0 0.0
DOMAIN_MAX 1.0 1.0 1.0
# LUT data points
0.032900448888540268 0.030439175665378571 0.027297239750623703
0.175440713763237 0.026640124619007111 0.021006818860769272
0.33744195103645325 0.033217053860425949 0.015849873423576355
0.51494681835174561 0.025173410773277283 0.015378840267658234
0.72322434186935425 0.014579324051737785 0.0048582935705780983
0.94043958187103271 0.013475904241204262 0.0002432430483167991
1 0.033266119658946991 0
0.094925060868263245 0.18788957595825195 0.095839723944664001
0.19563861191272736 0.18284530937671661 0.089692689478397369
0.3507007360458374 0.17795097827911377 0.08408849686384201
0.52582228183746338 0.17040449380874634 0.069547347724437714
0.73028993606567383 0.15301701426506042 0.044309802353382111
0.94260686635971069 0.13434827327728271 0.018819218501448631
1 0.14412485063076019 0.0064209285192191601
0.11524949967861176 0.35157254338264465 0.17852288484573364
0.21338877081871033 0.34613433480262756 0.17184412479400635
0.36832287907600403 0.34543097019195557 0.16430997848510742
0.54195970296859741 0.34203675389289856 0.14719365537166595
0.74349278211593628 0.32709798216819763 0.1213696077466011
0.9416162371635437 0.31046101450920105 0.087029673159122467
1 0.30924725532531738 0.060269761830568314
0.13643556833267212 0.53216409683227539 0.26522886753082275
0.23142530024051666 0.52748954296112061 0.25948277115821838
0.38445371389389038 0.52814018726348877 0.25297534465789795
0.55915814638137817 0.52608346939086914 0.23959565162658691
0.75221192836761475 0.51912885904312134 0.21899114549160004
0.94594192504882812 0.51099240779876709 0.18445046246051788
1 0.5021355152130127 0.13479280471801758
0.18881595134735107 0.71974629163742065 0.36191022396087646
0.26000496745109558 0.71895343065261841 0.36245983839035034
0.41045472025871277 0.72027623653411865 0.35756585001945496
0.58299881219863892 0.71654409170150757 0.34484794735908508
0.76737803220748901 0.719840407371521 0.32679024338722229
0.95520490407943726 0.71272265911102295 0.29467204213142395
1 0.70666664838790894 0.24789956212043762
0.31372806429862976 0.89701783657073975 0.46553859114646912
0.37000307440757751 0.90360873937606812 0.4719451367855072
0.47989284992218018 0.90809726715087891 0.47202223539352417
0.63128566741943359 0.90329360961914062 0.46300318837165833
0.80338513851165771 0.90267223119735718 0.44890734553337097
0.95291733741760254 0.90235239267349243 0.41706427931785583
0.9991610050201416 0.89685022830963135 0.36916026473045349
0.50976204872131348 0.99933469295501709 0.57238203287124634
0.5422133207321167 1 0.57646805047988892
0.61068332195281982 1 0.57782363891601562
0.72705340385437012 1 0.57737535238265991
0.87541687488555908 0.99984133243560791 0.57761102914810181
0.9899451732635498 0.99889677762985229 0.55685770511627197
1 0.99960792064666748 0.50077337026596069
0.019716570153832436 0.020056631416082382 0.10918173938989639
0.14952509105205536 0.016256503760814667 0.10040214657783508
0.31396466493606567 0.018633345142006874 0.083741508424282074
0.49947616457939148 0.011305506341159344 0.076434820890426636
0.71095007658004761 0.0056277555413544178 0.055022638291120529
0.93079692125320435 0.0086986618116497993 0.019968997687101364
1 0.012549515813589096 0.0011406094999983907
0.072934843599796295 0.17334543168544769 0.17688868939876556
0.17277567088603973 0.17006228864192963 0.16955684125423431
0.32788091897964478 0.16213557124137878 0.15913853049278259
0.5070376992225647 0.14991456270217896 0.14283919334411621
0.71630191802978516 0.13291147351264954 0.11393313109874725
0.92149877548217773 0.11609793454408646 0.078154347836971283
1 0.10397826880216599 0.044904910027980804
0.081480376422405243 0.34304934740066528 0.24738395214080811
0.18401367962360382 0.33826127648353577 0.24198049306869507
0.34628638625144958 0.33582925796508789 0.23419541120529175
0.52199065685272217 0.33089199662208557 0.2178792804479599
0.7308582067489624 0.31507515907287598 0.19338859617710114
0.93430870771408081 0.30128765106201172 0.1607716828584671
1 0.28715428709983826 0.12309280037879944
0.095674522221088409 0.52761381864547729 0.32635176181793213
0.20320160686969757 0.52363711595535278 0.32017621397972107
0.36439433693885803 0.52316319942474365 0.31460702419281006
0.54403966665267944 0.51876282691955566 0.30250430107116699
0.74166852235794067 0.51279187202453613 0.28395095467567444
0.93712598085403442 0.50272846221923828 0.25343441963195801
1 0.48947298526763916 0.20516376197338104
0.14416089653968811 0.71872437000274658 0.41689082980155945
0.23377323150634766 0.71810752153396606 0.41411393880844116
0.3908592164516449 0.71821415424346924 0.40947097539901733
0.57251298427581787 0.71239238977432251 0.39628306031227112
0.75730377435684204 0.71456056833267212 0.38184744119644165
0.93988633155822754 0.70760327577590942 0.35249882936477661
1 0.69946634769439697 0.31263667345046997
0.2833983302116394 0.90441107749938965 0.52049583196640015
0.34762322902679443 0.90282291173934937 0.5210455060005188
0.46418535709381104 0.90394353866577148 0.51611101627349854
0.61960017681121826 0.90067166090011597 0.50814151763916016
0.78566700220108032 0.9031262993812561 0.49466156959533691
0.95500808954238892 0.8991466760635376 0.46760073304176331
1 0.89833974838256836 0.43107032775878906
0.54096847772598267 0.99866878986358643 0.63787519931793213
0.54113709926605225 1 0.63035577535629272
0.60243338346481323 1 0.62510305643081665
0.71638780832290649 1 0.62318891286849976
0.85414761304855347 1 0.61913615465164185
0.97589105367660522 1 0.59797245264053345
1 1 0.557292640209198
0.0061781788244843483 0.018900718539953232 0.19534273445606232
0.1184689998626709 0.011598340235650539 0.18903185427188873
0.28663921356201172 0.0065298192203044891 0.18074588477611542
0.47490385174751282 0.00337068154476583 0.16834519803524017
0.68693214654922485 0.0013214111095294356 0.14537486433982849
0.90458077192306519 0.00052364572184160352 0.10857651382684708
0.9991917610168457 0.0011418211506679654 0.055223755538463593
0.050332356244325638 0.1538606733083725 0.25916707515716553
0.14934870600700378 0.1485426127910614 0.25674688816070557
0.30145934224128723 0.14145267009735107 0.24903741478919983
0.48260632157325745 0.12909212708473206 0.23569338023662567
0.6932755708694458 0.11587681621313095 0.21383234858512878
0.89967769384384155 0.096464090049266815 0.1812642365694046
0.99944013357162476 0.060770716518163681 0.1261577308177948
0.06032479926943779 0.32551082968711853 0.33073598146438599
0.16397829353809357 0.32169729471206665 0.32591027021408081
0.31864601373672485 0.32129797339439392 0.31907695531845093
0.50192022323608398 0.31136235594749451 0.30794289708137512
0.70949256420135498 0.29803231358528137 0.2900393009185791
0.91009819507598877 0.28236916661262512 0.2608131468296051
1 0.26050013303756714 0.22124892473220825
0.056531418114900589 0.51452553272247314 0.40842601656913757
0.1613118052482605 0.51097732782363892 0.40305578708648682
0.33214321732521057 0.51269400119781494 0.39806482195854187
0.52295809984207153 0.50656300783157349 0.38919168710708618
0.72356843948364258 0.49987703561782837 0.37408143281936646
0.92036426067352295 0.48949828743934631 0.34886351227760315
1 0.47523415088653564 0.3143455982208252
0.096838332712650299 0.71137374639511108 0.49532976746559143
0.18583133816719055 0.71071046590805054 0.49070185422897339
0.35928884148597717 0.71020430326461792 0.48689696192741394
0.55214256048202515 0.70501363277435303 0.47945308685302734
0.73711472749710083 0.70571011304855347 0.46532472968101501
0.9257318377494812 0.69577717781066895 0.44221284985542297
1 0.68696177005767822 0.41292110085487366
0.23261402547359467 0.89943486452102661 0.59188538789749146
0.3093019425868988 0.89419609308242798 0.58985936641693115
0.44161874055862427 0.89351487159729004 0.58485674858093262
0.60375970602035522 0.89219731092453003 0.57936441898345947
0.76648557186126709 0.89596849679946899 0.56899899244308472
0.93870693445205688 0.8925594687461853 0.55003958940505981
1 0.88974261283874512 0.52038842439651489
0.47992128133773804 0.99982261657714844 0.69744265079498291
0.51726508140563965 1 0.69337111711502075
0.59148323535919189 1 0.68780505657196045
0.70611488819122314 1 0.68571311235427856
0.8414919376373291 1 0.68318134546279907
0.97973138093948364 0.99710738658905029 0.6742473840713501
1 1 0.63605773448944092
0.001570338848978281 0.0058034411631524563 0.29182857275009155
0.092426210641860962 0.0041576907970011234 0.28303715586662292
0.25431337952613831 0.0011426140554249287 0.27817615866661072
0.44481107592582703 0.00034377153497189283 0.26739987730979919
0.65716779232025146 0 0.25019615888595581
0.86870908737182617 0 0.22150672972202301
0.99911785125732422 0 0.18210452795028687
0.024391414597630501 0.12870223820209503 0.35455626249313354
0.11764968931674957 0.12744748592376709 0.34907522797584534
0.26939669251441956 0.11650619655847549 0.34446701407432556
0.45429959893226624 0.10563922673463821 0.33480548858642578
0.66547709703445435 0.086142458021640778 0.3196423351764679
0.87993854284286499 0.061455342918634415 0.2938324511051178
1 0.048716213554143906 0.25369328260421753
0.04003499448299408 0.30267512798309326 0.42500784993171692
0.12802968919277191 0.3022739589214325 0.42094478011131287
0.28337284922599792 0.29896122217178345 0.41684940457344055
0.47172954678535461 0.28952082991600037 0.40951439738273621
0.68122535943984985 0.27206185460090637 0.39604136347770691
0.89289158582687378 0.25456357002258301 0.37306571006774902
1 0.23729969561100006 0.34063968062400818
0.020695989951491356 0.49595457315444946 0.50269883871078491
0.1027318611741066 0.49503284692764282 0.49848783016204834
0.28619563579559326 0.49307167530059814 0.49747306108474731
0.49081268906593323 0.49137106537818909 0.49133902788162231
0.69454878568649292 0.48502594232559204 0.47914287447929382
0.89831507205963135 0.47154182195663452 0.45889690518379211
1 0.45553025603294373 0.43161571025848389
0.043721217662096024 0.69584578275680542 0.58772486448287964
0.12275136262178421 0.69593065977096558 0.58410972356796265
0.30801457166671753 0.69606828689575195 0.58280760049819946
0.51766681671142578 0.69393086433410645 0.57883507013320923
0.706440269947052 0.69443047046661377 0.56759339570999146
0.90127462148666382 0.68255692720413208 0.54987984895706177
1 0.66981399059295654 0.5266527533531189
0.19038479030132294 0.87949377298355103 0.6792832612991333
0.25290670990943909 0.88448113203048706 0.67571163177490234
0.39802980422973633 0.88602524995803833 0.67272907495498657
0.57295972108840942 0.8839225172996521 0.67007529735565186
0.73873132467269897 0.88695281744003296 0.66115075349807739
0.91449320316314697 0.88272720575332642 0.64706021547317505
1 0.87262260913848877 0.62477332353591919
0.45463785529136658 0.99779820442199707 0.77223026752471924
0.48922175168991089 0.99999320507049561 0.76995205879211426
0.57154351472854614 1 0.76651561260223389
0.68822246789932251 1 0.76472616195678711
0.81831449270248413 1 0.7609131932258606
0.95480895042419434 0.99903780221939087 0.7512010931968689
1 0.99874770641326904 0.72524571418762207
0 1.8669577912078239e-05 0.39709994196891785
0.063515305519104004 0 0.38959887623786926
0.2133101224899292 0 0.38374781608581543
0.40674641728401184 5.7983397709904239e-05 0.37533828616142273
0.62290692329406738 0 0.36330452561378479
0.84848117828369141 0 0.34369039535522461
0.99995100498199463 0.00039328780258074403 0.31911608576774597
0.006428153719753027 0.096623875200748444 0.45841476321220398
0.077653862535953522 0.085937812924385071 0.45285764336585999
0.22673177719116211 0.083190038800239563 0.44873473048210144
0.41723480820655823 0.077235184609889984 0.44067516922950745
0.630859375 0.046748336404561996 0.42826008796691895
0.85505813360214233 0.040145650506019592 0.41125839948654175
1 0.045398186892271042 0.38507738709449768
0.024391697719693184 0.27115371823310852 0.5284990668296814
0.092179708182811737 0.2687256932258606 0.52514564990997314
0.24408048391342163 0.26585561037063599 0.52274847030639648
0.4367716908454895 0.25668138265609741 0.51633721590042114
0.6449015736579895 0.23812349140644073 0.50572031736373901
0.86147630214691162 0.2187085896730423 0.48841959238052368
1 0.20963591337203979 0.46491998434066772
0.0012820824049413204 0.47106945514678955 0.60547202825546265
0.065415367484092712 0.47061049938201904 0.60326343774795532
0.24050544202327728 0.46874183416366577 0.60311591625213623
0.45447152853012085 0.46578320860862732 0.59884339570999146
0.66133022308349609 0.45892363786697388 0.58829176425933838
0.87123113870620728 0.44397696852684021 0.57234328985214233
1 0.42783838510513306 0.55060631036758423
0.00014588599151466042 0.67779380083084106 0.68741047382354736
0.05609537661075592 0.67972683906555176 0.68463242053985596
0.2500993013381958 0.68015831708908081 0.68541699647903442
0.4730471670627594 0.67587471008300781 0.68284088373184204
0.67542916536331177 0.6705058217048645 0.67215293645858765
0.88065135478973389 0.66588050127029419 0.66074162721633911
1 0.65143489837646484 0.64173442125320435
0.094530649483203888 0.8709368109703064 0.77352714538574219
0.15920138359069824 0.87989574670791626 0.76941752433776855
0.33609867095947266 0.88001275062561035 0.76746714115142822
0.52456802129745483 0.87695366144180298 0.7670973539352417
0.70289349555969238 0.87527859210968018 0.76031064987182617
0.89256435632705688 0.87290239334106445 0.74930894374847412
0.99998456239700317 0.8617284893989563 0.73223400115966797
0.43826141953468323 0.99438124895095825 0.85866045951843262
0.45806798338890076 0.99876618385314941 0.85609161853790283
0.54897695779800415 0.99898463487625122 0.85368633270263672
0.66174715757369995 0.9995039701461792 0.85173821449279785
0.79037511348724365 0.99956375360488892 0.84738844633102417
0.92927402257919312 0.99907875061035156 0.83925801515579224
0.99999135732650757 0.99755704402923584 0.82110315561294556
0 0 0.50334376096725464
0.020119760185480118 0 0.50042057037353516
0.15000836551189423 8.903952402761206e-05 0.49766269326210022
0.35345351696014404 0.0023147133179008961 0.49271360039710999
0.58158266544342041 0 0.48511648178100586
0.82063037157058716 0.00016455557488370687 0.47145509719848633
0.99822747707366943 0.0084975296631455421 0.4531538188457489
4.1288487409474328e-05 0.047887913882732391 0.56541091203689575
0.028676604852080345 0.037149213254451752 0.5608745813369751
0.16718344390392303 0.049365833401679993 0.55782943964004517
0.367929607629776 0.052443858236074448 0.55317145586013794
0.59172874689102173 0.034600351005792618 0.54522651433944702
0.82347953319549561 0.036950189620256424 0.53333812952041626
0.99771559238433838 0.057151585817337036 0.51578456163406372
0.0017148784827440977 0.23295120894908905 0.63454407453536987
0.048453237861394882 0.22601808607578278 0.63039249181747437
0.19685925543308258 0.22289599478244781 0.62837034463882446
0.39554300904273987 0.2126292884349823 0.62391108274459839
0.60867071151733398 0.1895473301410675 0.61625534296035767
0.82896155118942261 0.17460730671882629 0.6053694486618042
0.997627854347229 0.18027509748935699 0.58857458829879761
0 0.44240662455558777 0.71023750305175781
0.014820937067270279 0.44364288449287415 0.70921802520751953
0.18259185552597046 0.43912935256958008 0.70875722169876099
0.41106134653091431 0.43411862850189209 0.70488685369491577
0.62531453371047974 0.42067316174507141 0.6979440450668335
0.84182178974151611 0.3991982638835907 0.68690240383148193
0.99924278259277344 0.38327524065971375 0.66957134008407593
0 0.65972721576690674 0.79063206911087036
0.0031261667609214783 0.66130620241165161 0.7910768985748291
0.18082369863986969 0.65510016679763794 0.79053968191146851
0.41882601380348206 0.65328609943389893 0.78782033920288086
0.63845515251159668 0.64773839712142944 0.78198140859603882
0.85131287574768066 0.63892883062362671 0.77336579561233521
0.99965530633926392 0.62113600969314575 0.75631868839263916
0.0051179025322198868 0.86655968427658081 0.86808425188064575
0.075871363282203674 0.86116111278533936 0.86896950006484985
0.25875011086463928 0.85827267169952393 0.8672713041305542
0.466065913438797 0.86286550760269165 0.86584079265594482
0.66250765323638916 0.85735929012298584 0.86273574829101562
0.8551749587059021 0.8586350679397583 0.85649722814559937
0.99807500839233398 0.84269207715988159 0.83952194452285767
0.37678360939025879 0.99268466234207153 0.94285565614700317
0.421895831823349 0.99180835485458374 0.94266074895858765
0.49898988008499146 0.99053138494491577 0.94128578901290894
0.6153031587600708 0.99535036087036133 0.93729597330093384
0.76162058115005493 0.99482965469360352 0.93468761444091797
0.90836071968078613 0.99503642320632935 0.93120473623275757
0.99861586093902588 0.99286532402038574 0.91550028324127197
0 0 0.60323786735534668
0.0012793596833944321 0 0.6067315936088562
0.089824095368385315 0 0.61108100414276123
0.30358210206031799 0.0010042526992037892 0.60853582620620728
0.53936737775802612 0 0.60095232725143433
0.77770334482192993 0.00040390912909060717 0.59007012844085693
0.985676109790802 0.007389996200799942 0.57646441459655762
0 0.0052236220799386501 0.66569638252258301
0.0012240540236234665 0.0051978914998471737 0.66601866483688354
0.11720425635576248 0.0041097155772149563 0.66385358572006226
0.31946912407875061 0.023308353498578072 0.66206955909729004
0.54883831739425659 0.014796433039009571 0.65581107139587402
0.78234118223190308 0.024838091805577278 0.64720410108566284
0.98142498731613159 0.054981231689453125 0.63335168361663818
0 0.18226531147956848 0.73213791847229004
0.013803818263113499 0.17405027151107788 0.73220932483673096
0.13810612261295319 0.16474941372871399 0.73158496618270874
0.34078100323677063 0.16317343711853027 0.72767138481140137
0.56433510780334473 0.1284632682800293 0.72006970643997192
0.78972548246383667 0.12870232760906219 0.71383500099182129
0.98227417469024658 0.15040852129459381 0.70203620195388794
0 0.40453901886940002 0.80676048994064331
0.0020180495921522379 0.40097454190254211 0.81025189161300659
0.11354485154151917 0.39661943912506104 0.81160819530487061
0.3439999520778656 0.39036330580711365 0.80654740333557129
0.57824403047561646 0.37418356537818909 0.80068480968475342
0.80172097682952881 0.34935721755027771 0.79378378391265869
0.98795241117477417 0.3276883065700531 0.78042352199554443
4.9785539886215702e-05 0.62497186660766602 0.88524144887924194
0 0.62600350379943848 0.88997161388397217
0.099012948572635651 0.62390375137329102 0.88884830474853516
0.35866034030914307 0.61791342496871948 0.88567620515823364
0.5957489013671875 0.61285853385925293 0.88023662567138672
0.8149648904800415 0.59954267740249634 0.87470406293869019
0.99285674095153809 0.57854855060577393 0.86095750331878662
0.046985536813735962 0.8312302827835083 0.94806939363479614
0.0062100579962134361 0.83774882555007935 0.95248234272003174
0.14357347786426544 0.83358877897262573 0.95181667804718018
0.4060325026512146 0.830361008644104 0.95079201459884644
0.6220167875289917 0.83054536581039429 0.94670051336288452
0.82574903964996338 0.8311571478843689 0.94320058822631836
0.98901945352554321 0.80987453460693359 0.93159395456314087
0.29538914561271667 0.98623323440551758 0.99585175514221191
0.25379195809364319 0.98910385370254517 0.99809187650680542
0.34625723958015442 0.98605126142501831 0.99820154905319214
0.52946549654006958 0.9863390326499939 0.99743294715881348
0.7099461555480957 0.98967492580413818 0.99436241388320923
0.88231295347213745 0.98834502696990967 0.9928128719329834
0.98861074447631836 0.98366266489028931 0.98762351274490356
