films/fuji_superia_800.cube
# Created by: G'MIC (https://gmic.eu)
TITLE "fuji_superia_800"
# LUT size
LUT_3D_SIZE 7
# Data domain
DOMAIN_MIN 0.0 0.0 0.0
DOMAIN_MAX 1.0 1.0 1.0
# LUT data points
0.0012839074479416013 0.069070734083652496 0.071510404348373413
0.079981394112110138 0.077578708529472351 0.07287915050983429
0.25508415699005127 0.091289371252059937 0.065107710659503937
0.48020407557487488 0.073557205498218536 0.053951308131217957
0.69991755485534668 0.065266117453575134 0.038666937500238419
0.86768817901611328 0.13812726736068726 0.023077497258782387
0.99311143159866333 0.23218333721160889 0.018783599138259888
0 0.16423311829566956 0.080753818154335022
0.082913339138031006 0.17553997039794922 0.066976331174373627
0.29921576380729675 0.17922733724117279 0.060837749391794205
0.51787811517715454 0.17605143785476685 0.050760950893163681
0.72162514925003052 0.18706610798835754 0.02886047400534153
0.8855021595954895 0.23380096256732941 0.010408887639641762
0.99592632055282593 0.31143450736999512 0.012518116272985935
0.00025028901291079819 0.39256975054740906 0.11234387010335922
0.01168930996209383 0.40618413686752319 0.098207823932170868
0.344370037317276 0.43018344044685364 0.025922244414687157
0.61032760143280029 0.40713316202163696 0.012273452244699001
0.76671123504638672 0.37025824189186096 0.01570536382496357
0.90363419055938721 0.38094052672386169 0.0037488450761884451
0.9980010986328125 0.43278127908706665 0.0069495555944740772
0.0035435245372354984 0.6550060510635376 0.19025124609470367
0.018818709999322891 0.65417587757110596 0.18507468700408936
0.30819427967071533 0.65577936172485352 0.13102714717388153
0.61101394891738892 0.66221421957015991 0.029963010922074318
0.81122034788131714 0.63338631391525269 0
0.92563694715499878 0.58695429563522339 0.0079400008544325829
0.99869072437286377 0.58533728122711182 0.042134705930948257
0.1675400584936142 0.81925249099731445 0.3451530933380127
0.20056819915771484 0.81831985712051392 0.34253662824630737
0.40348368883132935 0.81697571277618408 0.33338800072669983
0.59104639291763306 0.81528091430664062 0.26662015914916992
0.78157001733779907 0.81871622800827026 0.15976472198963165
0.93762356042861938 0.80152732133865356 0.042375363409519196
1 0.76812899112701416 0.13287712633609772
0.50685518980026245 0.91572928428649902 0.55492663383483887
0.54130995273590088 0.91531282663345337 0.55128544569015503
0.59203195571899414 0.91339284181594849 0.5578235387802124
0.67738312482833862 0.91122472286224365 0.53530299663543701
0.77762526273727417 0.91136962175369263 0.48942610621452332
0.89665520191192627 0.91151100397109985 0.40282443165779114
0.9973454475402832 0.90964251756668091 0.33827939629554749
0.7288888692855835 0.97802698612213135 0.74044203758239746
0.73457574844360352 0.97999352216720581 0.73386901617050171
0.74978256225585938 0.97657680511474609 0.73921328783035278
0.7889360785484314 0.97287708520889282 0.74274009466171265
0.83054327964782715 0.9770851731300354 0.71887975931167603
0.88674724102020264 0.97871297597885132 0.69642871618270874
0.96111732721328735 0.97646796703338623 0.65031546354293823
0.0036625133361667395 0.069389820098876953 0.14493197202682495
0.085770562291145325 0.071645669639110565 0.15052215754985809
0.25692737102508545 0.066998712718486786 0.15130558609962463
0.48937937617301941 0.040106784552335739 0.15194788575172424
0.69801181554794312 0.062522739171981812 0.1480032354593277
0.86568939685821533 0.14403071999549866 0.14652611315250397
0.9924694299697876 0.23845061659812927 0.14267851412296295
0 0.15974842011928558 0.17128682136535645
0.089431554079055786 0.17056211829185486 0.17607989907264709
0.29890426993370056 0.17754454910755157 0.17296470701694489
0.52052766084671021 0.18652549386024475 0.17097611725330353
0.7159542441368103 0.19855514168739319 0.15905953943729401
0.8830944299697876 0.23753531277179718 0.14677384495735168
0.9952971339225769 0.31349879503250122 0.14316152036190033
0 0.38957160711288452 0.23482225835323334
0.077672533690929413 0.39645677804946899 0.23066918551921844
0.35515713691711426 0.40827363729476929 0.1962946355342865
0.59409153461456299 0.38540968298912048 0.16431526839733124
0.75116217136383057 0.36494842171669006 0.16712678968906403
0.90035068988800049 0.38341256976127625 0.15208476781845093
0.99844908714294434 0.43706622719764709 0.15196283161640167
0.030793866142630577 0.64551448822021484 0.30106765031814575
0.10566392540931702 0.64753574132919312 0.30181336402893066
0.35576075315475464 0.64945381879806519 0.27433675527572632
0.60826939344406128 0.64925706386566162 0.19764909148216248
0.80447876453399658 0.62379723787307739 0.12907114624977112
0.91785216331481934 0.57881802320480347 0.16536583006381989
0.99738585948944092 0.5863686203956604 0.18714627623558044
0.28110203146934509 0.8131365180015564 0.43604940176010132
0.32866582274436951 0.81557273864746094 0.4298420250415802
0.45437958836555481 0.81305158138275146 0.42301324009895325
0.60455918312072754 0.81117343902587891 0.38723486661911011
0.78235477209091187 0.81267833709716797 0.29350072145462036
0.93017858266830444 0.79856330156326294 0.22275817394256592
1 0.76717716455459595 0.25932812690734863
0.5549473762512207 0.91469836235046387 0.60135728120803833
0.58098417520523071 0.91523259878158569 0.60328537225723267
0.6243894100189209 0.91239422559738159 0.60905945301055908
0.69267064332962036 0.9112553596496582 0.59236586093902588
0.78478717803955078 0.9112744927406311 0.54660725593566895
0.89917242527008057 0.91232001781463623 0.47520744800567627
0.9949222207069397 0.9045175313949585 0.43539157509803772
0.7403227686882019 0.97791087627410889 0.75716352462768555
0.75222814083099365 0.97752863168716431 0.75990015268325806
0.76766741275787354 0.9757084846496582 0.76389837265014648
0.79560655355453491 0.97537660598754883 0.76307493448257446
0.83598423004150391 0.97585785388946533 0.74654722213745117
0.89006572961807251 0.97585785388946533 0.72201597690582275
0.96095061302185059 0.97574818134307861 0.68168777227401733
0.0018339568050578237 0.074417129158973694 0.28998669981956482
0.10022192448377609 0.075217649340629578 0.29788506031036377
0.27461075782775879 0.083652257919311523 0.30597326159477234
0.5084909200668335 0.063161365687847137 0.32174587249755859
0.72328716516494751 0.021675677970051765 0.29882225394248962
0.88973772525787354 0.039553653448820114 0.27109110355377197
0.99374401569366455 0.2063380628824234 0.28433364629745483
0 0.15822349488735199 0.31189510226249695
0.099504314363002777 0.17371569573879242 0.32242420315742493
0.31522631645202637 0.19417478144168854 0.33240833878517151
0.53848946094512939 0.1784137636423111 0.32785812020301819
0.73229068517684937 0.15940052270889282 0.31245613098144531
0.88332480192184448 0.20534485578536987 0.29557639360427856
0.99281591176986694 0.31951037049293518 0.29748773574829102
0.013060625642538071 0.3709443211555481 0.3699917197227478
0.14398570358753204 0.37965914607048035 0.37836909294128418
0.36755698919296265 0.38470160961151123 0.36970865726470947
0.57395035028457642 0.38141342997550964 0.35549178719520569
0.74278265237808228 0.37744954228401184 0.33424091339111328
0.8863682746887207 0.39893385767936707 0.31846162676811218
0.99736052751541138 0.45014563202857971 0.31713077425956726
0.21221074461936951 0.63327443599700928 0.46417111158370972
0.31399321556091309 0.63184070587158203 0.46416264772415161
0.43260982632637024 0.62750208377838135 0.4467960000038147
0.61189764738082886 0.62135797739028931 0.40645244717597961
0.78092551231384277 0.59687906503677368 0.36557886004447937
0.90099787712097168 0.57231986522674561 0.3535442054271698
0.99689871072769165 0.59513401985168457 0.35139584541320801
0.44413158297538757 0.80355679988861084 0.56507700681686401
0.47710967063903809 0.80234360694885254 0.56237709522247314
0.53010678291320801 0.80092900991439819 0.55260014533996582
0.63438445329666138 0.80101698637008667 0.53408187627792358
0.78542745113372803 0.80656927824020386 0.47640877962112427
0.92047208547592163 0.78762394189834595 0.4251154363155365
0.99949878454208374 0.76323848962783813 0.41622859239578247
0.61489051580429077 0.91071778535842896 0.67738097906112671
0.63398057222366333 0.91004449129104614 0.68044096231460571
0.66506022214889526 0.90701848268508911 0.68148148059844971
0.71724182367324829 0.90694886445999146 0.67672669887542725
0.79336023330688477 0.90737992525100708 0.64787584543228149
0.89663726091384888 0.91125118732452393 0.59556609392166138
0.99524849653244019 0.90577596426010132 0.54706084728240967
0.76143258810043335 0.9736173152923584 0.79150021076202393
0.76858848333358765 0.97255957126617432 0.79090338945388794
0.78611487150192261 0.97193628549575806 0.79078280925750732
0.8090595006942749 0.97342985868453979 0.7952919602394104
0.84599900245666504 0.97565501928329468 0.78911596536636353
0.89258021116256714 0.97585785388946533 0.76826024055480957
0.96470874547958374 0.97704994678497314 0.73028212785720825
0.0037157845217734575 0.083191752433776855 0.47067591547966003
0.12314853817224503 0.082183480262756348 0.47413468360900879
0.31568655371665955 0.080707505345344543 0.48109251260757446
0.51643186807632446 0.063840337097644806 0.48948925733566284
0.71524637937545776 0.088881291449069977 0.50051712989807129
0.89473366737365723 0.13495609164237976 0.49251541495323181
0.99607580900192261 0.14673709869384766 0.46741968393325806
0.0025791991502046585 0.17498987913131714 0.48814079165458679
0.14201347529888153 0.1838260293006897 0.49549150466918945
0.35296973586082458 0.19095398485660553 0.50312608480453491
0.54435694217681885 0.19421643018722534 0.50950247049331665
0.73025542497634888 0.23691171407699585 0.51501381397247314
0.89936864376068115 0.25782212615013123 0.50287055969238281
0.99579119682312012 0.25918811559677124 0.46327722072601318
0 0.32980325818061829 0.51250863075256348
0.10721094161272049 0.33909782767295837 0.51699447631835938
0.38179132342338562 0.36382466554641724 0.52701950073242188
0.57265704870223999 0.38738173246383667 0.53646957874298096
0.74599307775497437 0.40649008750915527 0.53104257583618164
0.89560121297836304 0.40935075283050537 0.50376218557357788
0.99707388877868652 0.43159538507461548 0.47783130407333374
0.15616361796855927 0.5932043194770813 0.58021718263626099
0.28709143400192261 0.59199756383895874 0.57904452085494995
0.4536319375038147 0.59051942825317383 0.57890397310256958
0.60123246908187866 0.58967477083206177 0.5728033185005188
0.75376039743423462 0.58722519874572754 0.55168861150741577
0.88517814874649048 0.5748671293258667 0.52057987451553345
0.9902108907699585 0.60248386859893799 0.50800305604934692
0.51027810573577881 0.79570448398590088 0.67635500431060791
0.54592347145080566 0.7943798303604126 0.6777268648147583
0.60401421785354614 0.79157549142837524 0.67337667942047119
0.67297792434692383 0.78758376836776733 0.66468405723571777
0.7811661958694458 0.78654712438583374 0.62654834985733032
0.90138322114944458 0.76825404167175293 0.5911286473274231
0.99026632308959961 0.75519746541976929 0.57067930698394775
0.68728554248809814 0.90661489963531494 0.76346826553344727
0.69944465160369873 0.90646153688430786 0.76488155126571655
0.72217345237731934 0.90244448184967041 0.76272350549697876
0.75595831871032715 0.90383070707321167 0.76129835844039917
0.81286132335662842 0.90661072731018066 0.74372154474258423
0.89657127857208252 0.90703541040420532 0.70901310443878174
0.98865896463394165 0.90066337585449219 0.6700330376625061
0.80261820554733276 0.97305142879486084 0.83955389261245728
0.80209106206893921 0.97228729724884033 0.83382385969161987
0.81027531623840332 0.97105211019515991 0.83167380094528198
0.83024293184280396 0.97230362892150879 0.83560764789581299
0.86029714345932007 0.9735293984413147 0.83631807565689087
0.90207278728485107 0.97528541088104248 0.82033908367156982
0.97038555145263672 0.97989481687545776 0.78947347402572632
0.047675278037786484 0.095208339393138885 0.65376907587051392
0.18679583072662354 0.095018573105335236 0.65290385484695435
0.36770749092102051 0.086172930896282196 0.6528361439704895
0.55105072259902954 0.080278359353542328 0.65612274408340454
0.72425651550292969 0.10653728246688843 0.66208821535110474
0.8759608268737793 0.19490936398506165 0.67099541425704956
0.99373149871826172 0.37704247236251831 0.69498193264007568
0.10346242785453796 0.18952733278274536 0.66237562894821167
0.22270715236663818 0.18961283564567566 0.66370171308517456
0.39191475510597229 0.19420962035655975 0.66668957471847534
0.56967484951019287 0.2009289562702179 0.67109763622283936
0.73551589250564575 0.2298748791217804 0.67306095361709595
0.88091373443603516 0.31002184748649597 0.6842305064201355
0.99212014675140381 0.44335103034973145 0.70156848430633545
0.040022756904363632 0.32167661190032959 0.67076379060745239
0.20481717586517334 0.33561187982559204 0.67218339443206787
0.40721118450164795 0.35008969902992249 0.67569917440414429
0.58210408687591553 0.37047377228736877 0.68340283632278442
0.7400432825088501 0.40792876482009888 0.68829542398452759
0.87627494335174561 0.47236508131027222 0.70083659887313843
0.98936986923217773 0.53275448083877563 0.7001153826713562
0.055306870490312576 0.52138859033584595 0.68892443180084229
0.20316922664642334 0.51737761497497559 0.68554967641830444
0.39589843153953552 0.52543091773986816 0.686370849609375
0.58297938108444214 0.5529714822769165 0.6958538293838501
0.74857199192047119 0.58963108062744141 0.70890551805496216
0.87467008829116821 0.62734484672546387 0.7119896411895752
0.98436456918716431 0.63798540830612183 0.69514191150665283
0.44615310430526733 0.76239913702011108 0.74890750646591187
0.48339679837226868 0.75947314500808716 0.74913692474365234
0.55588233470916748 0.75413823127746582 0.74568372964859009
0.65376424789428711 0.75331741571426392 0.74269801378250122
0.76687699556350708 0.7585148811340332 0.74145978689193726
0.87783849239349365 0.75803840160369873 0.72432661056518555
0.97755777835845947 0.75161677598953247 0.70140731334686279
0.70061689615249634 0.90223205089569092 0.82015031576156616
0.72658425569534302 0.90287798643112183 0.82525628805160522
0.74546688795089722 0.90046101808547974 0.82215869426727295
0.79140609502792358 0.90281212329864502 0.82469862699508667
0.83725064992904663 0.90043145418167114 0.81815838813781738
0.89989602565765381 0.90108668804168701 0.79374337196350098
0.97620093822479248 0.88677620887756348 0.76756918430328369
0.82422363758087158 0.97073745727539062 0.87970185279846191
0.83597928285598755 0.96952366828918457 0.87805914878845215
0.84555786848068237 0.9684489369392395 0.87985187768936157
0.86621516942977905 0.97175467014312744 0.8807758092880249
0.88778805732727051 0.97286242246627808 0.88167399168014526
0.91560375690460205 0.97247010469436646 0.8719218373298645
0.96626293659210205 0.97556847333908081 0.84910798072814941
0.25994130969047546 0.13047894835472107 0.81277978420257568
0.34356886148452759 0.13138614594936371 0.81323063373565674
0.47186434268951416 0.13448925316333771 0.81054514646530151
0.61876100301742554 0.1437470018863678 0.81100517511367798
0.76754140853881836 0.18650536239147186 0.81157135963439941
0.90138596296310425 0.25064113736152649 0.81963837146759033
0.99315088987350464 0.37384399771690369 0.82139521837234497
0.29641443490982056 0.21863582730293274 0.81624561548233032
0.36649873852729797 0.21805505454540253 0.81552904844284058
0.48185276985168457 0.22510436177253723 0.81514686346054077
0.62451756000518799 0.24206842482089996 0.81759250164031982
0.76856762170791626 0.28080058097839355 0.81662261486053467
0.89696770906448364 0.33845052123069763 0.81726115942001343
0.99315208196640015 0.43777531385421753 0.8260161280632019
0.29708731174468994 0.35384786128997803 0.81479984521865845
0.36375221610069275 0.35704466700553894 0.81386065483093262
0.49027350544929504 0.36567088961601257 0.81542116403579712
0.6278870701789856 0.38582044839859009 0.81696885824203491
0.77026307582855225 0.42927241325378418 0.81932348012924194
0.8939816951751709 0.47495442628860474 0.82319897413253784
0.98642146587371826 0.55234229564666748 0.83300459384918213
0.13749925792217255 0.47927877306938171 0.81286346912384033
0.26004713773727417 0.48729819059371948 0.81267684698104858
0.44098079204559326 0.51072531938552856 0.81526339054107666
0.61148864030838013 0.53985488414764404 0.81757611036300659
0.76242005825042725 0.57457804679870605 0.82124149799346924
0.881023108959198 0.61958950757980347 0.82618874311447144
0.97186845541000366 0.68750524520874023 0.84367448091506958
0.34216541051864624 0.702858567237854 0.82865792512893677
0.38620224595069885 0.70147025585174561 0.82650089263916016
0.47246289253234863 0.69365602731704712 0.82460218667984009
0.59152960777282715 0.69300603866577148 0.82102543115615845
0.74878823757171631 0.72161972522735596 0.82401996850967407
0.86880385875701904 0.75883263349533081 0.83599001169204712
0.96116441488265991 0.7947421669960022 0.84583324193954468
0.63130199909210205 0.88007813692092896 0.86636966466903687
0.6623687744140625 0.8828742504119873 0.8687860369682312
0.7006029486656189 0.88348901271820068 0.86853623390197754
0.75647389888763428 0.88275396823883057 0.86858236789703369
0.81265377998352051 0.87724721431732178 0.86446946859359741
0.88308656215667725 0.87780332565307617 0.85874605178833008
0.96431201696395874 0.87997019290924072 0.85192537307739258
0.81819605827331543 0.9676213264465332 0.91363036632537842
0.84082686901092529 0.96844756603240967 0.91416752338409424
0.85188174247741699 0.96908217668533325 0.91658413410186768
0.87862330675125122 0.96882539987564087 0.92035090923309326
0.91110408306121826 0.97137409448623657 0.92321723699569702
0.934131920337677 0.9714348316192627 0.92221349477767944
0.97630614042282104 0.9763144850730896 0.91219997406005859
0.53287923336029053 0.28717663884162903 0.94331091642379761
0.57031148672103882 0.29567676782608032 0.94350773096084595
0.63825154304504395 0.29991233348846436 0.93974757194519043
0.73849284648895264 0.33602258563041687 0.93848472833633423
0.83928710222244263 0.36877962946891785 0.93379831314086914
0.93323659896850586 0.44467157125473022 0.93413639068603516
0.9965827465057373 0.52048641443252563 0.93383443355560303
0.53616690635681152 0.35331481695175171 0.9427497386932373
0.57274848222732544 0.35633349418640137 0.94354927539825439
0.64398795366287231 0.37215697765350342 0.94154411554336548
0.73913991451263428 0.3960736095905304 0.93799877166748047
0.83783292770385742 0.42872920632362366 0.93399786949157715
0.9336126446723938 0.49706220626831055 0.93510836362838745
0.99921786785125732 0.54886704683303833 0.93363016843795776
0.54119360446929932 0.46388798952102661 0.93911802768707275
0.57604366540908813 0.47046777606010437 0.94154411554336548
0.63945740461349487 0.47169500589370728 0.93935579061508179
0.73444628715515137 0.49566495418548584 0.93687158823013306
0.83620315790176392 0.53704595565795898 0.93442875146865845
0.92461156845092773 0.58718675374984741 0.93421673774719238
0.99656593799591064 0.62239396572113037 0.93282973766326904
0.48541051149368286 0.5705532431602478 0.9375150203704834
0.53281545639038086 0.57911372184753418 0.93761086463928223
0.60456037521362305 0.58412462472915649 0.93758755922317505
0.71721071004867554 0.60667258501052856 0.93488854169845581
0.81962388753890991 0.6334492564201355 0.93261289596557617
0.91156303882598877 0.67317378520965576 0.93174225091934204
0.98841178417205811 0.70722430944442749 0.9319838285446167
0.46548193693161011 0.70922219753265381 0.9325486421585083
0.4737907350063324 0.70122373104095459 0.9312669038772583
0.53772366046905518 0.69918036460876465 0.93068718910217285
0.66840016841888428 0.71847724914550781 0.93356525897979736
0.79226970672607422 0.73963576555252075 0.93407607078552246
0.89534181356430054 0.77295088768005371 0.93396049737930298
0.97575706243515015 0.80369532108306885 0.937247633934021
0.61775398254394531 0.8675239086151123 0.93914628028869629
0.63564348220825195 0.86448454856872559 0.94007080793380737
0.66185110807418823 0.86037391424179077 0.93515008687973022
0.71091634035110474 0.85721415281295776 0.93638545274734497
0.77556967735290527 0.85427016019821167 0.94054096937179565
0.87572646141052246 0.86188328266143799 0.94304078817367554
0.97058683633804321 0.89271730184555054 0.9482414722442627
0.79619705677032471 0.96432375907897949 0.95684337615966797
0.80821812152862549 0.96495097875595093 0.95940524339675903
0.81628274917602539 0.96473318338394165 0.95846015214920044
0.847747802734375 0.9667389988899231 0.96417021751403809
0.88285952806472778 0.96685004234313965 0.96191048622131348
0.92711931467056274 0.96696263551712036 0.96717715263366699
0.98753201961517334 0.98151481151580811 0.97749710083007812
