films/fuji_neopan_1600_4_++.cube
TITLE "data/luts/rawtherapee/HaldCLUT/Black-and-White/Fuji/Fuji Neopan 1600 4 ++.png"
LUT_3D_SIZE 64
DOMAIN_MIN 0 0 0
DOMAIN_MAX 1 1 1
0.145098 0.145098 0.145098
0.145098 0.145098 0.145098
0.145098 0.145098 0.145098
0.145098 0.145098 0.145098
0.145098 0.145098 0.145098
0.145098 0.145098 0.145098
0.145098 0.145098 0.145098
0.145098 0.145098 0.145098
0.145098 0.145098 0.145098
0.145098 0.145098 0.145098
0.145098 0.145098 0.145098
0.145098 0.145098 0.145098
0.145098 0.145098 0.145098
0.145098 0.145098 0.145098
0.145969 0.145969 0.145969
0.149020 0.149020 0.149020
0.145098 0.145098 0.145098
0.147401 0.147401 0.147401
0.145658 0.145658 0.145658
0.149020 0.149020 0.149020
0.149020 0.149020 0.149020
0.149020 0.149020 0.149020
0.152692 0.152692 0.152692
0.152941 0.152941 0.152941
0.152941 0.152941 0.152941
0.152941 0.152941 0.152941
0.156863 0.156863 0.156863
0.157983 0.157983 0.157983
0.159041 0.159041 0.159041
0.161469 0.161469 0.161469
0.165079 0.165079 0.165079
0.170059 0.170059 0.170059
0.175039 0.175039 0.175039
0.180019 0.180019 0.180019
0.180392 0.180392 0.180392
0.186057 0.186057 0.186057
0.192157 0.192157 0.192157
0.196016 0.196016 0.196016
0.203922 0.203922 0.203922
0.209897 0.209897 0.209897
0.214877 0.214877 0.214877
0.223529 0.223529 0.223529
0.224837 0.224837 0.224837
0.233738 0.233738 0.233738
0.239216 0.239216 0.239216
0.247619 0.247619 0.247619
0.254217 0.254217 0.254217
0.261500 0.261500 0.261500
0.270401 0.270401 0.270401
0.279303 0.279303 0.279303
0.288204 0.288204 0.288204
0.298039 0.298039 0.298039
0.310053 0.310053 0.310053
0.322751 0.322751 0.322751
0.333894 0.333894 0.333894
0.347775 0.347775 0.347775
0.361220 0.361220 0.361220
0.375537 0.375537 0.375537
0.391970 0.391970 0.391970
0.411142 0.411142 0.411142
0.425023 0.425023 0.425023
0.446748 0.446748 0.446748
0.474199 0.474199 0.474199
0.513725 0.513725 0.513725
0.145098 0.145098 0.145098
0.145098 0.145098 0.145098
0.145098 0.145098 0.145098
0.145098 0.145098 0.145098
0.145182 0.145182 0.145182
0.147961 0.147961 0.147961
0.145098 0.145098 0.145098
0.145098 0.145098 0.145098
0.145098 0.145098 0.145098
0.145098 0.145098 0.145098
0.145098 0.145098 0.145098
0.146123 0.146123 0.146123
0.146586 0.146586 0.146586
0.146552 0.146552 0.146552
0.145921 0.145921 0.145921
0.146106 0.146106 0.146106
0.147065 0.147065 0.147065
0.147838 0.147838 0.147838
0.149020 0.149020 0.149020
0.149020 0.149020 0.149020
0.149658 0.149658 0.149658
0.150929 0.150929 0.150929
0.152941 0.152941 0.152941
0.152941 0.152941 0.152941
0.152941 0.152941 0.152941
0.155867 0.155867 0.155867
0.156880 0.156880 0.156880
0.160028 0.160028 0.160028
0.161372 0.161372 0.161372
0.167069 0.167069 0.167069
0.168627 0.168627 0.168627
0.170731 0.170731 0.170731
0.175425 0.175425 0.175425
0.177428 0.177428 0.177428
0.181950 0.181950 0.181950
0.186645 0.186645 0.186645
0.192913 0.192913 0.192913
0.197120 0.197120 0.197120
0.204649 0.204649 0.204649
0.209897 0.209897 0.209897
0.215095 0.215095 0.215095
0.223597 0.223597 0.223597
0.228758 0.228758 0.228758
0.234376 0.234376 0.234376
0.242639 0.242639 0.242639
0.248526 0.248526 0.248526
0.255339 0.255339 0.255339
0.263467 0.263467 0.263467
0.274187 0.274187 0.274187
0.280126 0.280126 0.280126
0.290671 0.290671 0.290671
0.301027 0.301027 0.301027
0.310053 0.310053 0.310053
0.323490 0.323490 0.323490
0.336179 0.336179 0.336179
0.349287 0.349287 0.349287
0.364201 0.364201 0.364201
0.379458 0.379458 0.379458
0.393340 0.393340 0.393340
0.411142 0.411142 0.411142
0.428945 0.428945 0.428945
0.449124 0.449124 0.449124
0.474199 0.474199 0.474199
0.513725 0.513725 0.513725
0.145098 0.145098 0.145098
0.145098 0.145098 0.145098
0.145098 0.145098 0.145098
0.145098 0.145098 0.145098
0.146760 0.146760 0.146760
0.146273 0.146273 0.146273
0.145904 0.145904 0.145904
0.146703 0.146703 0.146703
0.148397 0.148397 0.148397
0.146779 0.146779 0.146779
0.145098 0.145098 0.145098
0.148895 0.148895 0.148895
0.145602 0.145602 0.145602
0.146903 0.146903 0.146903
0.146744 0.146744 0.146744
0.147004 0.147004 0.147004
0.149020 0.149020 0.149020
0.149020 0.149020 0.149020
0.149020 0.149020 0.149020
0.149249 0.149249 0.149249
0.149020 0.149020 0.149020
0.150223 0.150223 0.150223
0.151251 0.151251 0.151251
0.153378 0.153378 0.153378
0.155855 0.155855 0.155855
0.156863 0.156863 0.156863
0.156891 0.156891 0.156891
0.161389 0.161389 0.161389
0.161960 0.161960 0.161960
0.167943 0.167943 0.167943
0.168799 0.168799 0.168799
0.172549 0.172549 0.172549
0.175812 0.175812 0.175812
0.180392 0.180392 0.180392
0.184629 0.184629 0.184629
0.188235 0.188235 0.188235
0.194958 0.194958 0.194958
0.199971 0.199971 0.199971
0.204918 0.204918 0.204918
0.210905 0.210905 0.210905
0.218799 0.218799 0.218799
0.225760 0.225760 0.225760
0.229962 0.229962 0.229962
0.237660 0.237660 0.237660
0.242639 0.242639 0.242639
0.249433 0.249433 0.249433
0.257581 0.257581 0.257581
0.266094 0.266094 0.266094
0.274323 0.274323 0.274323
0.281419 0.281419 0.281419
0.292126 0.292126 0.292126
0.301027 0.301027 0.301027
0.313850 0.313850 0.313850
0.325412 0.325412 0.325412
0.339496 0.339496 0.339496
0.348397 0.348397 0.348397
0.361891 0.361891 0.361891
0.380081 0.380081 0.380081
0.395456 0.395456 0.395456
0.411310 0.411310 0.411310
0.429289 0.429289 0.429289
0.449527 0.449527 0.449527
0.472881 0.472881 0.472881
0.513725 0.513725 0.513725
0.145098 0.145098 0.145098
0.146500 0.146500 0.146500
0.145098 0.145098 0.145098
0.145098 0.145098 0.145098
0.145786 0.145786 0.145786
0.145359 0.145359 0.145359
0.145098 0.145098 0.145098
0.145098 0.145098 0.145098
0.145217 0.145217 0.145217
0.148273 0.148273 0.148273
0.145620 0.145620 0.145620
0.145821 0.145821 0.145821
0.145845 0.145845 0.145845
0.148273 0.148273 0.148273
0.145098 0.145098 0.145098
0.148984 0.148984 0.148984
0.149020 0.149020 0.149020
0.149020 0.149020 0.149020
0.149020 0.149020 0.149020
0.149020 0.149020 0.149020
0.152941 0.152941 0.152941
0.150078 0.150078 0.150078
0.155914 0.155914 0.155914
0.152941 0.152941 0.152941
0.156863 0.156863 0.156863
0.157669 0.157669 0.157669
0.160784 0.160784 0.160784
0.163052 0.163052 0.163052
0.163295 0.163295 0.163295
0.167943 0.167943 0.167943
0.168930 0.168930 0.168930
0.172822 0.172822 0.172822
0.178759 0.178759 0.178759
0.183940 0.183940 0.183940
0.184998 0.184998 0.184998
0.189646 0.189646 0.189646
0.195865 0.195865 0.195865
0.200000 0.200000 0.200000
0.208649 0.208649 0.208649
0.213819 0.213819 0.213819
0.222127 0.222127 0.222127
0.223778 0.223778 0.223778
0.231933 0.231933 0.231933
0.238469 0.238469 0.238469
0.245814 0.245814 0.245814
0.251541 0.251541 0.251541
0.258139 0.258139 0.258139
0.266169 0.266169 0.266169
0.277346 0.277346 0.277346
0.283390 0.283390 0.283390
0.296047 0.296047 0.296047
0.304771 0.304771 0.304771
0.313951 0.313951 0.313951
0.327630 0.327630 0.327630
0.337815 0.337815 0.337815
0.352200 0.352200 0.352200
0.365494 0.365494 0.365494
0.382171 0.382171 0.382171
0.395195 0.395195 0.395195
0.411202 0.411202 0.411202
0.429087 0.429087 0.429087
0.448553 0.448553 0.448553
0.475257 0.475257 0.475257
0.513725 0.513725 0.513725
0.145098 0.145098 0.145098
0.145325 0.145325 0.145325
0.145098 0.145098 0.145098
0.145098 0.145098 0.145098
0.145098 0.145098 0.145098
0.145409 0.145409 0.145409
0.145217 0.145217 0.145217
0.145098 0.145098 0.145098
0.148135 0.148135 0.148135
0.145098 0.145098 0.145098
0.145098 0.145098 0.145098
0.145514 0.145514 0.145514
0.149020 0.149020 0.149020
0.148866 0.148866 0.148866
0.148148 0.148148 0.148148
0.149020 0.149020 0.149020
0.149020 0.149020 0.149020
0.149020 0.149020 0.149020
0.149286 0.149286 0.149286
0.152902 0.152902 0.152902
0.150764 0.150764 0.150764
0.153149 0.153149 0.153149
0.153252 0.153252 0.153252
0.153997 0.153997 0.153997
0.156863 0.156863 0.156863
0.159788 0.159788 0.159788
0.164337 0.164337 0.164337
0.162127 0.162127 0.162127
0.166712 0.166712 0.166712
0.171864 0.171864 0.171864
0.172923 0.172923 0.172923
0.176471 0.176471 0.176471
0.179158 0.179158 0.179158
0.183940 0.183940 0.183940
0.188235 0.188235 0.188235
0.192295 0.192295 0.192295
0.198968 0.198968 0.198968
0.203922 0.203922 0.203922
0.209150 0.209150 0.209150
0.216021 0.216021 0.216021
0.219855 0.219855 0.219855
0.227451 0.227451 0.227451
0.232680 0.232680 0.232680
0.239403 0.239403 0.239403
0.247019 0.247019 0.247019
0.255418 0.255418 0.255418
0.260442 0.260442 0.260442
0.269343 0.269343 0.269343
0.278245 0.278245 0.278245
0.287146 0.287146 0.287146
0.296047 0.296047 0.296047
0.307699 0.307699 0.307699
0.317772 0.317772 0.317772
0.326767 0.326767 0.326767
0.339674 0.339674 0.339674
0.355618 0.355618 0.355618
0.365854 0.365854 0.365854
0.383380 0.383380 0.383380
0.397370 0.397370 0.397370
0.414777 0.414777 0.414777
0.429197 0.429197 0.429197
0.450812 0.450812 0.450812
0.475568 0.475568 0.475568
0.517647 0.517647 0.517647
0.145098 0.145098 0.145098
0.146098 0.146098 0.146098
0.145098 0.145098 0.145098
0.146207 0.146207 0.146207
0.145409 0.145409 0.145409
0.145989 0.145989 0.145989
0.148047 0.148047 0.148047
0.146467 0.146467 0.146467
0.145315 0.145315 0.145315
0.147561 0.147561 0.147561
0.147293 0.147293 0.147293
0.149020 0.149020 0.149020
0.148412 0.148412 0.148412
0.149020 0.149020 0.149020
0.149020 0.149020 0.149020
0.151450 0.151450 0.151450
0.150765 0.150765 0.150765
0.150389 0.150389 0.150389
0.151207 0.151207 0.151207
0.152617 0.152617 0.152617
0.153767 0.153767 0.153767
0.152941 0.152941 0.152941
0.156776 0.156776 0.156776
0.157145 0.157145 0.157145
0.157580 0.157580 0.157580
0.160136 0.160136 0.160136
0.162194 0.162194 0.162194
0.166075 0.166075 0.166075
0.168254 0.168254 0.168254
0.170442 0.170442 0.170442
0.174162 0.174162 0.174162
0.178772 0.178772 0.178772
0.183382 0.183382 0.183382
0.185683 0.185683 0.185683
0.189605 0.189605 0.189605
0.196030 0.196030 0.196030
0.200640 0.200640 0.200640
0.207740 0.207740 0.207740
0.212112 0.212112 0.212112
0.217773 0.217773 0.217773
0.224090 0.224090 0.224090
0.232742 0.232742 0.232742
0.235419 0.235419 0.235419
0.242951 0.242951 0.242951
0.248104 0.248104 0.248104
0.256636 0.256636 0.256636
0.261811 0.261811 0.261811
0.271147 0.271147 0.271147
0.279614 0.279614 0.279614
0.287948 0.287948 0.287948
0.299368 0.299368 0.299368
0.307688 0.307688 0.307688
0.319141 0.319141 0.319141
0.331194 0.331194 0.331194
0.344476 0.344476 0.344476
0.356987 0.356987 0.356987
0.369250 0.369250 0.369250
0.383567 0.383567 0.383567
0.397926 0.397926 0.397926
0.412698 0.412698 0.412698
0.427949 0.427949 0.427949
0.448498 0.448498 0.448498
0.468982 0.468982 0.468982
0.497603 0.497603 0.497603
0.146592 0.146592 0.146592
0.145098 0.145098 0.145098
0.146216 0.146216 0.146216
0.147063 0.147063 0.147063
0.145291 0.145291 0.145291
0.147650 0.147650 0.147650
0.148450 0.148450 0.148450
0.145098 0.145098 0.145098
0.147526 0.147526 0.147526
0.146992 0.146992 0.146992
0.149020 0.149020 0.149020
0.149020 0.149020 0.149020
0.149020 0.149020 0.149020
0.149755 0.149755 0.149755
0.150908 0.150908 0.150908
0.151518 0.151518 0.151518
0.151922 0.151922 0.151922
0.152064 0.152064 0.152064
0.154809 0.154809 0.154809
0.152941 0.152941 0.152941
0.154806 0.154806 0.154806
0.156365 0.156365 0.156365
0.159290 0.159290 0.159290
0.157672 0.157672 0.157672
0.160784 0.160784 0.160784
0.163710 0.163710 0.163710
0.167134 0.167134 0.167134
0.168627 0.168627 0.168627
0.172549 0.172549 0.172549
0.176471 0.176471 0.176471
0.176844 0.176844 0.176844
0.181278 0.181278 0.181278
0.184717 0.184717 0.184717
0.190663 0.190663 0.190663
0.196502 0.196502 0.196502
0.199170 0.199170 0.199170
0.204615 0.204615 0.204615
0.210232 0.210232 0.210232
0.216303 0.216303 0.216303
0.224090 0.224090 0.224090
0.229378 0.229378 0.229378
0.235543 0.235543 0.235543
0.242141 0.242141 0.242141
0.248523 0.248523 0.248523
0.254712 0.254712 0.254712
0.261811 0.261811 0.261811
0.269162 0.269162 0.269162
0.277957 0.277957 0.277957
0.286088 0.286088 0.286088
0.295529 0.295529 0.295529
0.303890 0.303890 0.303890
0.315219 0.315219 0.315219
0.325662 0.325662 0.325662
0.338438 0.338438 0.338438
0.351607 0.351607 0.351607
0.363461 0.363461 0.363461
0.377342 0.377342 0.377342
0.392726 0.392726 0.392726
0.410606 0.410606 0.410606
0.425453 0.425453 0.425453
0.444631 0.444631 0.444631
0.464743 0.464743 0.464743
0.488794 0.488794 0.488794
0.531839 0.531839 0.531839
0.145098 0.145098 0.145098
0.146039 0.146039 0.146039
0.145333 0.145333 0.145333
0.148584 0.148584 0.148584
0.148618 0.148618 0.148618
0.145098 0.145098 0.145098
0.145264 0.145264 0.145264
0.145873 0.145873 0.145873
0.149020 0.149020 0.149020
0.149020 0.149020 0.149020
0.149020 0.149020 0.149020
0.149020 0.149020 0.149020
0.149020 0.149020 0.149020
0.150735 0.150735 0.150735
0.151828 0.151828 0.151828
0.152941 0.152941 0.152941
0.152941 0.152941 0.152941
0.152941 0.152941 0.152941
0.153315 0.153315 0.153315
0.156863 0.156863 0.156863
0.158246 0.158246 0.158246
0.156863 0.156863 0.156863
0.157520 0.157520 0.157520
0.160784 0.160784 0.160784
0.162444 0.162444 0.162444
0.168192 0.168192 0.168192
0.172058 0.172058 0.172058
0.173234 0.173234 0.173234
0.176035 0.176035 0.176035
0.179348 0.179348 0.179348
0.180724 0.180724 0.180724
0.185310 0.185310 0.185310
0.188235 0.188235 0.188235
0.195311 0.195311 0.195311
0.200249 0.200249 0.200249
0.205471 0.205471 0.205471
0.208030 0.208030 0.208030
0.215251 0.215251 0.215251
0.220604 0.220604 0.220604
0.229069 0.229069 0.229069
0.234485 0.234485 0.234485
0.239465 0.239465 0.239465
0.244444 0.244444 0.244444
0.250807 0.250807 0.250807
0.258326 0.258326 0.258326
0.266791 0.266791 0.266791
0.272207 0.272207 0.272207
0.280970 0.280970 0.280970
0.289574 0.289574 0.289574
0.298475 0.298475 0.298475
0.307598 0.307598 0.307598
0.316713 0.316713 0.316713
0.329536 0.329536 0.329536
0.339489 0.339489 0.339489
0.354995 0.354995 0.354995
0.367383 0.367383 0.367383
0.381215 0.381215 0.381215
0.397303 0.397303 0.397303
0.413881 0.413881 0.413881
0.430349 0.430349 0.430349
0.448117 0.448117 0.448117
0.466355 0.466355 0.466355
0.493371 0.493371 0.493371
0.536819 0.536819 0.536819
0.145098 0.145098 0.145098
0.145098 0.145098 0.145098
0.145098 0.145098 0.145098
0.145098 0.145098 0.145098
0.145982 0.145982 0.145982
0.146655 0.146655 0.146655
0.147526 0.147526 0.147526
0.146087 0.146087 0.146087
0.146244 0.146244 0.146244
0.149020 0.149020 0.149020
0.149454 0.149454 0.149454
0.149124 0.149124 0.149124
0.152156 0.152156 0.152156
0.151318 0.151318 0.151318
0.153425 0.153425 0.153425
0.156270 0.156270 0.156270
0.154611 0.154611 0.154611
0.156863 0.156863 0.156863
0.157485 0.157485 0.157485
0.160784 0.160784 0.160784
0.160784 0.160784 0.160784
0.162984 0.162984 0.162984
0.161407 0.161407 0.161407
0.165881 0.165881 0.165881
0.167196 0.167196 0.167196
0.171553 0.171553 0.171553
0.176418 0.176418 0.176418
0.177093 0.177093 0.177093
0.178926 0.178926 0.178926
0.180906 0.180906 0.180906
0.187417 0.187417 0.187417
0.190062 0.190062 0.190062
0.192552 0.192552 0.192552
0.199686 0.199686 0.199686
0.204030 0.204030 0.204030
0.208120 0.208120 0.208120
0.214744 0.214744 0.214744
0.220168 0.220168 0.220168
0.225148 0.225148 0.225148
0.230128 0.230128 0.230128
0.238535 0.238535 0.238535
0.243386 0.243386 0.243386
0.248781 0.248781 0.248781
0.255524 0.255524 0.255524
0.262745 0.262745 0.262745
0.271148 0.271148 0.271148
0.277747 0.277747 0.277747
0.285652 0.285652 0.285652
0.294524 0.294524 0.294524
0.302832 0.302832 0.302832
0.315655 0.315655 0.315655
0.321257 0.321257 0.321257
0.333478 0.333478 0.333478
0.344972 0.344972 0.344972
0.359726 0.359726 0.359726
0.375226 0.375226 0.375226
0.385738 0.385738 0.385738
0.402116 0.402116 0.402116
0.416869 0.416869 0.416869
0.434672 0.434672 0.434672
0.449175 0.449175 0.449175
0.472344 0.472344 0.472344
0.495319 0.495319 0.495319
0.537877 0.537877 0.537877
0.149020 0.149020 0.149020
0.147792 0.147792 0.147792
0.146779 0.146779 0.146779
0.146912 0.146912 0.146912
0.146823 0.146823 0.146823
0.148433 0.148433 0.148433
0.149020 0.149020 0.149020
0.148833 0.148833 0.148833
0.149020 0.149020 0.149020
0.149020 0.149020 0.149020
0.150193 0.150193 0.150193
0.151261 0.151261 0.151261
0.152408 0.152408 0.152408
0.153768 0.153768 0.153768
0.152941 0.152941 0.152941
0.154622 0.154622 0.154622
0.157396 0.157396 0.157396
0.158872 0.158872 0.158872
0.160464 0.160464 0.160464
0.164208 0.164208 0.164208
0.164706 0.164706 0.164706
0.165826 0.165826 0.165826
0.166387 0.166387 0.166387
0.170771 0.170771 0.170771
0.174230 0.174230 0.174230
0.174230 0.174230 0.174230
0.176497 0.176497 0.176497
0.180872 0.180872 0.180872
0.183318 0.183318 0.183318
0.188235 0.188235 0.188235
0.188609 0.188609 0.188609
0.195011 0.195011 0.195011
0.199635 0.199635 0.199635
0.205229 0.205229 0.205229
0.209524 0.209524 0.209524
0.215686 0.215686 0.215686
0.220808 0.220808 0.220808
0.223494 0.223494 0.223494
0.229701 0.229701 0.229701
0.236281 0.236281 0.236281
0.242675 0.242675 0.242675
0.247272 0.247272 0.247272
0.253408 0.253408 0.253408
0.261856 0.261856 0.261856
0.267849 0.267849 0.267849
0.272829 0.272829 0.272829
0.281730 0.281730 0.281730
0.291343 0.291343 0.291343
0.297852 0.297852 0.297852
0.308434 0.308434 0.308434
0.317620 0.317620 0.317620
0.327945 0.327945 0.327945
0.339113 0.339113 0.339113
0.352559 0.352559 0.352559
0.365986 0.365986 0.365986
0.377529 0.377529 0.377529
0.392779 0.392779 0.392779
0.406909 0.406909 0.406909
0.422471 0.422471 0.422471
0.438727 0.438727 0.438727
0.456396 0.456396 0.456396
0.477213 0.477213 0.477213
0.502254 0.502254 0.502254
0.541176 0.541176 0.541176
0.145098 0.145098 0.145098
0.147837 0.147837 0.147837
0.147121 0.147121 0.147121
0.146802 0.146802 0.146802
0.147931 0.147931 0.147931
0.149020 0.149020 0.149020
0.149020 0.149020 0.149020
0.149020 0.149020 0.149020
0.149454 0.149454 0.149454
0.149526 0.149526 0.149526
0.151758 0.151758 0.151758
0.151758 0.151758 0.151758
0.152941 0.152941 0.152941
0.152941 0.152941 0.152941
0.156600 0.156600 0.156600
0.159471 0.159471 0.159471
0.158108 0.158108 0.158108
0.160784 0.160784 0.160784
0.164146 0.164146 0.164146
0.165054 0.165054 0.165054
0.167914 0.167914 0.167914
0.170453 0.170453 0.170453
0.172549 0.172549 0.172549
0.173114 0.173114 0.173114
0.175851 0.175851 0.175851
0.179396 0.179396 0.179396
0.183150 0.183150 0.183150
0.185096 0.185096 0.185096
0.187710 0.187710 0.187710
0.191950 0.191950 0.191950
0.194896 0.194896 0.194896
0.197078 0.197078 0.197078
0.205229 0.205229 0.205229
0.210321 0.210321 0.210321
0.215188 0.215188 0.215188
0.220168 0.220168 0.220168
0.225486 0.225486 0.225486
0.230190 0.230190 0.230190
0.235107 0.235107 0.235107
0.242574 0.242574 0.242574
0.248988 0.248988 0.248988
0.253968 0.253968 0.253968
0.259736 0.259736 0.259736
0.265110 0.265110 0.265110
0.272979 0.272979 0.272979
0.278992 0.278992 0.278992
0.287405 0.287405 0.287405
0.295925 0.295925 0.295925
0.302900 0.302900 0.302900
0.310938 0.310938 0.310938
0.320968 0.320968 0.320968
0.332400 0.332400 0.332400
0.344077 0.344077 0.344077
0.355307 0.355307 0.355307
0.369188 0.369188 0.369188
0.382074 0.382074 0.382074
0.393028 0.393028 0.393028
0.407642 0.407642 0.407642
0.423699 0.423699 0.423699
0.439776 0.439776 0.439776
0.454840 0.454840 0.454840
0.473825 0.473825 0.473825
0.495355 0.495355 0.495355
0.520448 0.520448 0.520448
0.149020 0.149020 0.149020
0.151792 0.151792 0.151792
0.149020 0.149020 0.149020
0.149020 0.149020 0.149020
0.149020 0.149020 0.149020
0.149020 0.149020 0.149020
0.150514 0.150514 0.150514
0.152505 0.152505 0.152505
0.152921 0.152921 0.152921
0.152870 0.152870 0.152870
0.152904 0.152904 0.152904
0.152941 0.152941 0.152941
0.153845 0.153845 0.153845
0.156863 0.156863 0.156863
0.156960 0.156960 0.156960
0.160784 0.160784 0.160784
0.160824 0.160824 0.160824
0.162424 0.162424 0.162424
0.164706 0.164706 0.164706
0.168519 0.168519 0.168519
0.170184 0.170184 0.170184
0.176346 0.176346 0.176346
0.180027 0.180027 0.180027
0.180268 0.180268 0.180268
0.182200 0.182200 0.182200
0.184314 0.184314 0.184314
0.188235 0.188235 0.188235
0.192032 0.192032 0.192032
0.194266 0.194266 0.194266
0.199191 0.199191 0.199191
0.200723 0.200723 0.200723
0.207764 0.207764 0.207764
0.214051 0.214051 0.214051
0.215674 0.215674 0.215674
0.224068 0.224068 0.224068
0.227382 0.227382 0.227382
0.234049 0.234049 0.234049
0.239031 0.239031 0.239031
0.246934 0.246934 0.246934
0.252851 0.252851 0.252851
0.254876 0.254876 0.254876
0.262870 0.262870 0.262870
0.271646 0.271646 0.271646
0.276751 0.276751 0.276751
0.281839 0.281839 0.281839
0.290089 0.290089 0.290089
0.297303 0.297303 0.297303
0.305718 0.305718 0.305718
0.313420 0.313420 0.313420
0.323284 0.323284 0.323284
0.333270 0.333270 0.333270
0.346903 0.346903 0.346903
0.353186 0.353186 0.353186
0.369599 0.369599 0.369599
0.380810 0.380810 0.380810
0.394604 0.394604 0.394604
0.408590 0.408590 0.408590
0.426345 0.426345 0.426345
0.440398 0.440398 0.440398
0.454581 0.454581 0.454581
0.475879 0.475879 0.475879
0.495487 0.495487 0.495487
0.521224 0.521224 0.521224
0.560784 0.560784 0.560784
0.149020 0.149020 0.149020
0.150078 0.150078 0.150078
0.149953 0.149953 0.149953
0.150345 0.150345 0.150345
0.149094 0.149094 0.149094
0.149953 0.149953 0.149953
0.149375 0.149375 0.149375
0.150285 0.150285 0.150285
0.152941 0.152941 0.152941
0.153341 0.153341 0.153341
0.152941 0.152941 0.152941
0.153845 0.153845 0.153845
0.156863 0.156863 0.156863
0.157337 0.157337 0.157337
0.159913 0.159913 0.159913
0.164706 0.164706 0.164706
0.164252 0.164252 0.164252
0.166873 0.166873 0.166873
0.169428 0.169428 0.169428
0.173047 0.173047 0.173047
0.176471 0.176471 0.176471
0.180019 0.180019 0.180019
0.184065 0.184065 0.184065
0.188235 0.188235 0.188235
0.189169 0.189169 0.189169
0.192853 0.192853 0.192853
0.193153 0.193153 0.193153
0.197012 0.197012 0.197012
0.203112 0.203112 0.203112
0.207321 0.207321 0.207321
0.212698 0.212698 0.212698
0.214130 0.214130 0.214130
0.219451 0.219451 0.219451
0.224463 0.224463 0.224463
0.229840 0.229840 0.229840
0.237037 0.237037 0.237037
0.240816 0.240816 0.240816
0.247011 0.247011 0.247011
0.252151 0.252151 0.252151
0.259757 0.259757 0.259757
0.263679 0.263679 0.263679
0.271522 0.271522 0.271522
0.276751 0.276751 0.276751
0.284718 0.284718 0.284718
0.290632 0.290632 0.290632
0.295612 0.295612 0.295612
0.304513 0.304513 0.304513
0.312777 0.312777 0.312777
0.322316 0.322316 0.322316
0.330491 0.330491 0.330491
0.340118 0.340118 0.340118
0.352230 0.352230 0.352230
0.362841 0.362841 0.362841
0.374665 0.374665 0.374665
0.387488 0.387488 0.387488
0.400311 0.400311 0.400311
0.414400 0.414400 0.414400
0.431373 0.431373 0.431373
0.447231 0.447231 0.447231
0.465881 0.465881 0.465881
0.484034 0.484034 0.484034
0.502583 0.502583 0.502583
0.527853 0.527853 0.527853
0.569561 0.569561 0.569561
0.150949 0.150949 0.150949
0.152404 0.152404 0.152404
0.152053 0.152053 0.152053
0.151379 0.151379 0.151379
0.152788 0.152788 0.152788
0.152941 0.152941 0.152941
0.152941 0.152941 0.152941
0.154712 0.154712 0.154712
0.154617 0.154617 0.154617
0.156036 0.156036 0.156036
0.155515 0.155515 0.155515
0.156800 0.156800 0.156800
0.157796 0.157796 0.157796
0.156863 0.156863 0.156863
0.162334 0.162334 0.162334
0.162904 0.162904 0.162904
0.168627 0.168627 0.168627
0.169797 0.169797 0.169797
0.174265 0.174265 0.174265
0.174786 0.174786 0.174786
0.178462 0.178462 0.178462
0.183007 0.183007 0.183007
0.186306 0.186306 0.186306
0.191759 0.191759 0.191759
0.194024 0.194024 0.194024
0.201486 0.201486 0.201486
0.201992 0.201992 0.201992
0.205913 0.205913 0.205913
0.212014 0.212014 0.212014
0.216993 0.216993 0.216993
0.219854 0.219854 0.219854
0.224296 0.224296 0.224296
0.229443 0.229443 0.229443
0.233364 0.233364 0.233364
0.239563 0.239563 0.239563
0.242951 0.242951 0.242951
0.248499 0.248499 0.248499
0.254871 0.254871 0.254871
0.260815 0.260815 0.260815
0.265748 0.265748 0.265748
0.272169 0.272169 0.272169
0.276751 0.276751 0.276751
0.284345 0.284345 0.284345
0.290632 0.290632 0.290632
0.296110 0.296110 0.296110
0.305891 0.305891 0.305891
0.311796 0.311796 0.311796
0.322316 0.322316 0.322316
0.329192 0.329192 0.329192
0.339689 0.339689 0.339689
0.349020 0.349020 0.349020
