films/ilford_delta_400.cube
TITLE "data/luts/rawtherapee/HaldCLUT/Black-and-White/Ilford/Ilford Delta 400.png"
LUT_3D_SIZE 4
DOMAIN_MIN 0 0 0
DOMAIN_MAX 1 1 1
0.000000 0.000000 0.000000
0.027451 0.027451 0.027451
0.154248 0.154248 0.154248
0.396078 0.396078 0.396078
0.151634 0.151634 0.151634
0.191721 0.191721 0.191721
0.294118 0.294118 0.294118
0.490196 0.490196 0.490196
0.390850 0.390850 0.390850
0.416122 0.416122 0.416122
0.485839 0.485839 0.485839
0.640523 0.640523 0.640523
0.725490 0.725490 0.725490
0.737255 0.737255 0.737255
0.772549 0.772549 0.772549
0.850980 0.850980 0.850980
0.069281 0.069281 0.069281
0.152505 0.152505 0.152505
0.266667 0.266667 0.266667
0.477124 0.477124 0.477124
0.242702 0.242702 0.242702
0.277415 0.277415 0.277415
0.381264 0.381264 0.381264
0.552505 0.552505 0.552505
0.458824 0.458824 0.458824
0.478431 0.478431 0.478431
0.545824 0.545824 0.545824
0.687582 0.687582 0.687582
0.763399 0.763399 0.763399
0.772549 0.772549 0.772549
0.803050 0.803050 0.803050
0.874510 0.874510 0.874510
0.236601 0.236601 0.236601
0.301961 0.301961 0.301961
0.410458 0.410458 0.410458
0.581699 0.581699 0.581699
0.411765 0.411765 0.411765
0.442266 0.442266 0.442266
0.515904 0.515904 0.515904
0.663617 0.663617 0.663617
0.596078 0.596078 0.596078
0.614379 0.614379 0.614379
0.671750 0.671750 0.671750
0.772985 0.772985 0.772985
0.835294 0.835294 0.835294
0.840523 0.840523 0.840523
0.863181 0.863181 0.863181
0.917647 0.917647 0.917647
0.474510 0.474510 0.474510
0.525490 0.525490 0.525490
0.601307 0.601307 0.601307
0.725490 0.725490 0.725490
0.630065 0.630065 0.630065
0.654466 0.654466 0.654466
0.709804 0.709804 0.709804
0.796078 0.796078 0.796078
0.781699 0.781699 0.781699
0.793464 0.793464 0.793464
0.823529 0.823529 0.823529
0.878431 0.878431 0.878431
0.937255 0.937255 0.937255
0.941176 0.941176 0.941176
0.956863 0.956863 0.956863
1.000000 1.000000 1.000000
