films/ilford_delta_400.cube
TITLE "data/luts/rawtherapee/HaldCLUT/Black-and-White/Ilford/Ilford Delta 400.png"
LUT_3D_SIZE 64
DOMAIN_MIN 0 0 0
DOMAIN_MAX 1 1 1
0.000000 0.000000 0.000000
0.000000 0.000000 0.000000
0.000000 0.000000 0.000000
0.000000 0.000000 0.000000
0.000000 0.000000 0.000000
0.000000 0.000000 0.000000
0.000000 0.000000 0.000000
0.003922 0.003922 0.003922
0.003922 0.003922 0.003922
0.003922 0.003922 0.003922
0.003922 0.003922 0.003922
0.007843 0.007843 0.007843
0.007843 0.007843 0.007843
0.009835 0.009835 0.009835
0.011765 0.011765 0.011765
0.011765 0.011765 0.011765
0.015686 0.015686 0.015686
0.015686 0.015686 0.015686
0.019608 0.019608 0.019608
0.020106 0.020106 0.020106
0.023529 0.023529 0.023529
0.027451 0.027451 0.027451
0.031124 0.031124 0.031124
0.035294 0.035294 0.035294
0.039216 0.039216 0.039216
0.042141 0.042141 0.042141
0.047059 0.047059 0.047059
0.050980 0.050980 0.050980
0.054902 0.054902 0.054902
0.058824 0.058824 0.058824
0.066667 0.066667 0.066667
0.072020 0.072020 0.072020
0.077000 0.077000 0.077000
0.085901 0.085901 0.085901
0.090881 0.090881 0.090881
0.098039 0.098039 0.098039
0.104762 0.104762 0.104762
0.113663 0.113663 0.113663
0.122565 0.122565 0.122565
0.129412 0.129412 0.129412
0.136446 0.136446 0.136446
0.145347 0.145347 0.145347
0.154248 0.154248 0.154248
0.163150 0.163150 0.163150
0.172051 0.172051 0.172051
0.180952 0.180952 0.180952
0.189854 0.189854 0.189854
0.198755 0.198755 0.198755
0.211578 0.211578 0.211578
0.220479 0.220479 0.220479
0.229381 0.229381 0.229381
0.238282 0.238282 0.238282
0.247308 0.247308 0.247308
0.260006 0.260006 0.260006
0.268908 0.268908 0.268908
0.281730 0.281730 0.281730
0.291068 0.291068 0.291068
0.304949 0.304949 0.304949
0.318830 0.318830 0.318830
0.332711 0.332711 0.332711
0.346592 0.346592 0.346592
0.364395 0.364395 0.364395
0.378276 0.378276 0.378276
0.396078 0.396078 0.396078
0.000000 0.000000 0.000000
0.001058 0.001058 0.001058
0.003922 0.003922 0.003922
0.003922 0.003922 0.003922
0.004980 0.004980 0.004980
0.004980 0.004980 0.004980
0.007843 0.007843 0.007843
0.008784 0.008784 0.008784
0.009356 0.009356 0.009356
0.011765 0.011765 0.011765
0.012823 0.012823 0.012823
0.015595 0.015595 0.015595
0.016744 0.016744 0.016744
0.020145 0.020145 0.020145
0.020666 0.020666 0.020666
0.024588 0.024588 0.024588
0.024588 0.024588 0.024588
0.028509 0.028509 0.028509
0.031871 0.031871 0.031871
0.036352 0.036352 0.036352
0.037908 0.037908 0.037908
0.040979 0.040979 0.040979
0.044195 0.044195 0.044195
0.048926 0.048926 0.048926
0.053906 0.053906 0.053906
0.058886 0.058886 0.058886
0.063803 0.063803 0.063803
0.067725 0.067725 0.067725
0.071646 0.071646 0.071646
0.076441 0.076441 0.076441
0.083512 0.083512 0.083512
0.088764 0.088764 0.088764
0.095176 0.095176 0.095176
0.102646 0.102646 0.102646
0.107625 0.107625 0.107625
0.116527 0.116527 0.116527
0.121809 0.121809 0.121809
0.130408 0.130408 0.130408
0.139309 0.139309 0.139309
0.146711 0.146711 0.146711
0.153190 0.153190 0.153190
0.162092 0.162092 0.162092
0.170993 0.170993 0.170993
0.179894 0.179894 0.179894
0.188796 0.188796 0.188796
0.197697 0.197697 0.197697
0.206598 0.206598 0.206598
0.215500 0.215500 0.215500
0.224401 0.224401 0.224401
0.233302 0.233302 0.233302
0.242204 0.242204 0.242204
0.251105 0.251105 0.251105
0.260097 0.260097 0.260097
0.272829 0.272829 0.272829
0.281730 0.281730 0.281730
0.294385 0.294385 0.294385
0.303890 0.303890 0.303890
0.317772 0.317772 0.317772
0.331653 0.331653 0.331653
0.345534 0.345534 0.345534
0.359415 0.359415 0.359415
0.376730 0.376730 0.376730
0.391099 0.391099 0.391099
0.404980 0.404980 0.404980
0.003922 0.003922 0.003922
0.003922 0.003922 0.003922
0.006038 0.006038 0.006038
0.007499 0.007499 0.007499
0.007843 0.007843 0.007843
0.009960 0.009960 0.009960
0.011765 0.011765 0.011765
0.011765 0.011765 0.011765
0.014168 0.014168 0.014168
0.016593 0.016593 0.016593
0.017803 0.017803 0.017803
0.019608 0.019608 0.019608
0.022154 0.022154 0.022154
0.024604 0.024604 0.024604
0.027050 0.027050 0.027050
0.029653 0.029653 0.029653
0.033489 0.033489 0.033489
0.036537 0.036537 0.036537
0.038958 0.038958 0.038958
0.041561 0.041561 0.041561
0.045970 0.045970 0.045970
0.049175 0.049175 0.049175
0.053097 0.053097 0.053097
0.057391 0.057391 0.057391
0.061800 0.061800 0.061800
0.067787 0.067787 0.067787
0.072705 0.072705 0.072705
0.076626 0.076626 0.076626
0.080548 0.080548 0.080548
0.085959 0.085959 0.085959
0.092312 0.092312 0.092312
0.097666 0.097666 0.097666
0.103305 0.103305 0.103305
0.111547 0.111547 0.111547
0.116527 0.116527 0.116527
0.124487 0.124487 0.124487
0.130408 0.130408 0.130408
0.139309 0.139309 0.139309
0.148210 0.148210 0.148210
0.154050 0.154050 0.154050
0.162092 0.162092 0.162092
0.170993 0.170993 0.170993
0.179894 0.179894 0.179894
0.188796 0.188796 0.188796
0.197697 0.197697 0.197697
0.204482 0.204482 0.204482
0.212638 0.212638 0.212638
0.220479 0.220479 0.220479
0.231186 0.231186 0.231186
0.240087 0.240087 0.240087
0.248988 0.248988 0.248988
0.257890 0.257890 0.257890
0.268908 0.268908 0.268908
0.277809 0.277809 0.277809
0.288515 0.288515 0.288515
0.299533 0.299533 0.299533
0.312356 0.312356 0.312356
0.323869 0.323869 0.323869
0.337263 0.337263 0.337263
0.352487 0.352487 0.352487
0.367913 0.367913 0.367913
0.382197 0.382197 0.382197
0.396566 0.396566 0.396566
0.411765 0.411765 0.411765
0.007096 0.007096 0.007096
0.007843 0.007843 0.007843
0.007843 0.007843 0.007843
0.011018 0.011018 0.011018
0.011765 0.011765 0.011765
0.011765 0.011765 0.011765
0.014939 0.014939 0.014939
0.015686 0.015686 0.015686
0.018979 0.018979 0.018979
0.020968 0.020968 0.020968
0.023304 0.023304 0.023304
0.023529 0.023529 0.023529
0.026882 0.026882 0.026882
0.030626 0.030626 0.030626
0.033842 0.033842 0.033842
0.035445 0.035445 0.035445
0.038706 0.038706 0.038706
0.042390 0.042390 0.042390
0.045858 0.045858 0.045858
0.047462 0.047462 0.047462
0.052240 0.052240 0.052240
0.056769 0.056769 0.056769
0.058776 0.058776 0.058776
0.063400 0.063400 0.063400
0.068178 0.068178 0.068178
0.072957 0.072957 0.072957
0.077696 0.077696 0.077696
0.081819 0.081819 0.081819
0.087706 0.087706 0.087706
0.092686 0.092686 0.092686
0.097666 0.097666 0.097666
0.103120 0.103120 0.103120
0.111547 0.111547 0.111547
0.116598 0.116598 0.116598
0.124874 0.124874 0.124874
0.130408 0.130408 0.130408
0.139309 0.139309 0.139309
0.145036 0.145036 0.145036
0.153190 0.153190 0.153190
0.162092 0.162092 0.162092
0.167818 0.167818 0.167818
0.175973 0.175973 0.175973
0.184874 0.184874 0.184874
0.193775 0.193775 0.193775
0.202677 0.202677 0.202677
0.211124 0.211124 0.211124
0.217305 0.217305 0.217305
0.226206 0.226206 0.226206
0.235107 0.235107 0.235107
0.244009 0.244009 0.244009
0.252910 0.252910 0.252910
0.261811 0.261811 0.261811
0.273887 0.273887 0.273887
0.282789 0.282789 0.282789
0.292437 0.292437 0.292437
0.305141 0.305141 0.305141
0.317419 0.317419 0.317419
0.330159 0.330159 0.330159
0.343468 0.343468 0.343468
0.356492 0.356492 0.356492
0.372691 0.372691 0.372691
0.387177 0.387177 0.387177
0.401260 0.401260 0.401260
0.415686 0.415686 0.415686
0.008154 0.008154 0.008154
0.011765 0.011765 0.011765
0.012076 0.012076 0.012076
0.012076 0.012076 0.012076
0.015711 0.015711 0.015711
0.015998 0.015998 0.015998
0.019608 0.019608 0.019608
0.019919 0.019919 0.019919
0.023579 0.023579 0.023579
0.025388 0.025388 0.025388
0.027668 0.027668 0.027668
0.031258 0.031258 0.031258
0.032543 0.032543 0.032543
0.035605 0.035605 0.035605
0.039458 0.039458 0.039458
0.043152 0.043152 0.043152
0.043448 0.043448 0.043448
0.047370 0.047370 0.047370
0.051247 0.051247 0.051247
0.055213 0.055213 0.055213
0.058947 0.058947 0.058947
0.061749 0.061749 0.061749
0.066729 0.066729 0.066729
0.070652 0.070652 0.070652
0.074658 0.074658 0.074658
0.078743 0.078743 0.078743
0.082726 0.082726 0.082726
0.087706 0.087706 0.087706
0.094291 0.094291 0.094291
0.098296 0.098296 0.098296
0.105912 0.105912 0.105912
0.111433 0.111433 0.111433
0.116527 0.116527 0.116527
0.125146 0.125146 0.125146
0.130353 0.130353 0.130353
0.135387 0.135387 0.135387
0.144289 0.144289 0.144289
0.152884 0.152884 0.152884
0.158170 0.158170 0.158170
0.167071 0.167071 0.167071
0.175661 0.175661 0.175661
0.180952 0.180952 0.180952
0.189854 0.189854 0.189854
0.198755 0.198755 0.198755
0.207656 0.207656 0.207656
0.216246 0.216246 0.216246
0.223658 0.223658 0.223658
0.230439 0.230439 0.230439
0.239340 0.239340 0.239340
0.248242 0.248242 0.248242
0.257143 0.257143 0.257143
0.266044 0.266044 0.266044
0.278556 0.278556 0.278556
0.287551 0.287551 0.287551
0.298733 0.298733 0.298733
0.309443 0.309443 0.309443
0.322039 0.322039 0.322039
0.334946 0.334946 0.334946
0.347853 0.347853 0.347853
0.360760 0.360760 0.360760
0.377277 0.377277 0.377277
0.391846 0.391846 0.391846
0.405811 0.405811 0.405811
0.419608 0.419608 0.419608
0.013134 0.013134 0.013134
0.016056 0.016056 0.016056
0.017056 0.017056 0.017056
0.019122 0.019122 0.019122
0.020977 0.020977 0.020977
0.021869 0.021869 0.021869
0.024377 0.024377 0.024377
0.024899 0.024899 0.024899
0.028820 0.028820 0.028820
0.029914 0.029914 0.029914
0.032742 0.032742 0.032742
0.036620 0.036620 0.036620
0.039542 0.039542 0.039542
0.041881 0.041881 0.041881
0.044507 0.044507 0.044507
0.048428 0.048428 0.048428
0.051415 0.051415 0.051415
0.053849 0.053849 0.053849
0.056271 0.056271 0.056271
0.060517 0.060517 0.060517
0.065127 0.065127 0.065127
0.068036 0.068036 0.068036
0.071958 0.071958 0.071958
0.076406 0.076406 0.076406
0.081016 0.081016 0.081016
0.086648 0.086648 0.086648
0.091566 0.091566 0.091566
0.095487 0.095487 0.095487
0.100827 0.100827 0.100827
0.106567 0.106567 0.106567
0.111547 0.111547 0.111547
0.116527 0.116527 0.116527
0.124558 0.124558 0.124558
0.130408 0.130408 0.130408
0.135387 0.135387 0.135387
0.144289 0.144289 0.144289
0.149998 0.149998 0.149998
0.158170 0.158170 0.158170
0.165702 0.165702 0.165702
0.172051 0.172051 0.172051
0.180952 0.180952 0.180952
0.188484 0.188484 0.188484
0.194833 0.194833 0.194833
0.203735 0.203735 0.203735
0.212636 0.212636 0.212636
0.221342 0.221342 0.221342
0.229069 0.229069 0.229069
0.237971 0.237971 0.237971
0.244441 0.244441 0.244441
0.253221 0.253221 0.253221
0.262123 0.262123 0.262123
0.272968 0.272968 0.272968
0.282477 0.282477 0.282477
0.292748 0.292748 0.292748
0.303108 0.303108 0.303108
0.314472 0.314472 0.314472
0.326078 0.326078 0.326078
0.339271 0.339271 0.339271
0.352463 0.352463 0.352463
0.365655 0.365655 0.365655
0.381400 0.381400 0.381400
0.395767 0.395767 0.395767
0.410018 0.410018 0.410018
0.423529 0.423529 0.423529
0.019608 0.019608 0.019608
0.022035 0.022035 0.022035
0.022035 0.022035 0.022035
0.023529 0.023529 0.023529
0.025957 0.025957 0.025957
0.027451 0.027451 0.027451
0.029879 0.029879 0.029879
0.031207 0.031207 0.031207
0.034037 0.034037 0.034037
0.037722 0.037722 0.037722
0.038765 0.038765 0.038765
0.041643 0.041643 0.041643
0.045565 0.045565 0.045565
0.048292 0.048292 0.048292
0.052537 0.052537 0.052537
0.053595 0.053595 0.053595
0.057330 0.057330 0.057330
0.061251 0.061251 0.061251
0.064826 0.064826 0.064826
0.069094 0.069094 0.069094
0.071552 0.071552 0.071552
0.076128 0.076128 0.076128
0.080610 0.080610 0.080610
0.084781 0.084781 0.084781
0.088702 0.088702 0.088702
0.092624 0.092624 0.092624
0.096608 0.096608 0.096608
0.101587 0.101587 0.101587
0.107231 0.107231 0.107231
0.112232 0.112232 0.112232
0.117878 0.117878 0.117878
0.124542 0.124542 0.124542
0.130408 0.130408 0.130408
0.137113 0.137113 0.137113
0.144289 0.144289 0.144289
0.150099 0.150099 0.150099
0.158170 0.158170 0.158170
0.163173 0.163173 0.163173
0.172051 0.172051 0.172051
0.179681 0.179681 0.179681
0.186240 0.186240 0.186240
0.194833 0.194833 0.194833
0.201307 0.201307 0.201307
0.210209 0.210209 0.210209
0.217616 0.217616 0.217616
0.226517 0.226517 0.226517
0.235419 0.235419 0.235419
0.241892 0.241892 0.241892
0.250794 0.250794 0.250794
0.259695 0.259695 0.259695
0.268596 0.268596 0.268596
0.277498 0.277498 0.277498
0.288827 0.288827 0.288827
0.297728 0.297728 0.297728
0.308123 0.308123 0.308123
0.319452 0.319452 0.319452
0.332441 0.332441 0.332441
0.345098 0.345098 0.345098
0.357921 0.357921 0.357921
0.372119 0.372119 0.372119
0.385523 0.385523 0.385523
0.399689 0.399689 0.399689
0.414225 0.414225 0.414225
0.427451 0.427451 0.427451
0.027015 0.027015 0.027015
0.027015 0.027015 0.027015
0.029332 0.029332 0.029332
0.030937 0.030937 0.030937
0.031649 0.031649 0.031649
0.034858 0.034858 0.034858
0.037286 0.037286 0.037286
0.038780 0.038780 0.038780
0.042702 0.042702 0.042702
0.042888 0.042888 0.042888
0.046623 0.046623 0.046623
0.050434 0.050434 0.050434
0.051478 0.051478 0.051478
0.054688 0.054688 0.054688
0.058388 0.058388 0.058388
0.062309 0.062309 0.062309
0.063852 0.063852 0.063852
0.068534 0.068534 0.068534
0.070526 0.070526 0.070526
0.074572 0.074572 0.074572
0.079552 0.079552 0.079552
0.082208 0.082208 0.082208
0.085839 0.085839 0.085839
0.090570 0.090570 0.090570
0.095549 0.095549 0.095549
0.100529 0.100529 0.100529
0.105454 0.105454 0.105454
0.110489 0.110489 0.110489
0.115468 0.115468 0.115468
0.120448 0.120448 0.120448
0.125428 0.125428 0.125428
0.130684 0.130684 0.130684
0.137096 0.137096 0.137096
0.144289 0.144289 0.144289
0.149628 0.149628 0.149628
0.158170 0.158170 0.158170
0.163274 0.163274 0.163274
0.172051 0.172051 0.172051
0.177467 0.177467 0.177467
0.185932 0.185932 0.185932
0.194833 0.194833 0.194833
0.200221 0.200221 0.200221
0.208715 0.208715 0.208715
0.215513 0.215513 0.215513
0.223031 0.223031 0.223031
0.231871 0.231871 0.231871
0.240398 0.240398 0.240398
0.249300 0.249300 0.249300
0.254881 0.254881 0.254881
0.263617 0.263617 0.263617
0.272518 0.272518 0.272518
0.284075 0.284075 0.284075
0.293806 0.293806 0.293806
0.302839 0.302839 0.302839
0.314037 0.314037 0.314037
0.324799 0.324799 0.324799
0.337303 0.337303 0.337303
0.350244 0.350244 0.350244
0.363184 0.363184 0.363184
0.376125 0.376125 0.376125
0.389646 0.389646 0.389646
0.403410 0.403410 0.403410
0.418432 0.418432 0.418432
0.431373 0.431373 0.431373
0.031995 0.031995 0.031995
0.035917 0.035917 0.035917
0.035917 0.035917 0.035917
0.039720 0.039720 0.039720
0.039838 0.039838 0.039838
0.043355 0.043355 0.043355
0.043760 0.043760 0.043760
0.047246 0.047246 0.047246
0.048205 0.048205 0.048205
0.051603 0.051603 0.051603
0.054342 0.054342 0.054342
0.055524 0.055524 0.055524
0.059446 0.059446 0.059446
0.063368 0.063368 0.063368
0.066418 0.066418 0.066418
0.070618 0.070618 0.070618
0.072258 0.072258 0.072258
0.075132 0.075132 0.075132
0.079054 0.079054 0.079054
0.082975 0.082975 0.082975
0.086897 0.086897 0.086897
0.090819 0.090819 0.090819
0.094740 0.094740 0.094740
0.098662 0.098662 0.098662
0.102583 0.102583 0.102583
0.108966 0.108966 0.108966
0.113735 0.113735 0.113735
0.118270 0.118270 0.118270
0.122191 0.122191 0.122191
0.128836 0.128836 0.128836
0.133956 0.133956 0.133956
0.139082 0.139082 0.139082
0.144289 0.144289 0.144289
0.152627 0.152627 0.152627
0.158170 0.158170 0.158170
0.164983 0.164983 0.164983
0.172051 0.172051 0.172051
0.177083 0.177083 0.177083
0.185774 0.185774 0.185774
0.192483 0.192483 0.192483
0.199813 0.199813 0.199813
0.207883 0.207883 0.207883
0.213694 0.213694 0.213694
0.222220 0.222220 0.222220
0.230875 0.230875 0.230875
0.236477 0.236477 0.236477
0.245378 0.245378 0.245378
0.254279 0.254279 0.254279
0.262558 0.262558 0.262558
0.271460 0.271460 0.271460
0.280361 0.280361 0.280361
0.289262 0.289262 0.289262
0.298786 0.298786 0.298786
0.307688 0.307688 0.307688
0.320244 0.320244 0.320244
0.332187 0.332187 0.332187
0.342601 0.342601 0.342601
0.356314 0.356314 0.356314
0.370028 0.370028 0.370028
0.383741 0.383741 0.383741
0.396944 0.396944 0.396944
0.409935 0.409935 0.409935
0.422471 0.422471 0.422471
0.435294 0.435294 0.435294
0.040896 0.040896 0.040896
0.044818 0.044818 0.044818
0.044818 0.044818 0.044818
0.046632 0.046632 0.046632
0.048739 0.048739 0.048739
0.050109 0.050109 0.050109
0.052661 0.052661 0.052661
0.054653 0.054653 0.054653
0.056583 0.056583 0.056583
0.059544 0.059544 0.059544
0.060504 0.060504 0.060504
0.064372 0.064372 0.064372
0.068347 0.068347 0.068347
0.070339 0.070339 0.070339
0.072269 0.072269 0.072269
0.076297 0.076297 0.076297
0.080112 0.080112 0.080112
0.083340 0.083340 0.083340
0.087395 0.087395 0.087395
0.091877 0.091877 0.091877
0.094785 0.094785 0.094785
0.098413 0.098413 0.098413
0.103392 0.103392 0.103392
0.107563 0.107563 0.107563
0.110604 0.110604 0.110604
0.114979 0.114979 0.114979
0.119390 0.119390 0.119390
0.124370 0.124370 0.124370
0.129350 0.129350 0.129350
0.135014 0.135014 0.135014
0.141337 0.141337 0.141337
0.146779 0.146779 0.146779
0.152123 0.152123 0.152123
0.158170 0.158170 0.158170
0.164999 0.164999 0.164999
0.172051 0.172051 0.172051
0.177671 0.177671 0.177671
0.185932 0.185932 0.185932
0.190912 0.190912 0.190912
0.199813 0.199813 0.199813
0.205255 0.205255 0.205255
0.213694 0.213694 0.213694
0.220168 0.220168 0.220168
0.227575 0.227575 0.227575
0.236477 0.236477 0.236477
0.243697 0.243697 0.243697
0.250358 0.250358 0.250358
0.259259 0.259259 0.259259
0.268161 0.268161 0.268161
0.277062 0.277062 0.277062
0.285963 0.285963 0.285963
0.294865 0.294865 0.294865
0.303766 0.303766 0.303766
0.314908 0.314908 0.314908
0.325490 0.325490 0.325490
0.336632 0.336632 0.336632
0.349642 0.349642 0.349642
0.362919 0.362919 0.362919
0.374319 0.374319 0.374319
0.387746 0.387746 0.387746
0.401067 0.401067 0.401067
0.414344 0.414344 0.414344
0.426393 0.426393 0.426393
0.439216 0.439216 0.439216
0.049798 0.049798 0.049798
0.053719 0.053719 0.053719
0.053719 0.053719 0.053719
0.056894 0.056894 0.056894
0.057641 0.057641 0.057641
0.057641 0.057641 0.057641
0.061562 0.061562 0.061562
0.061562 0.061562 0.061562
0.065484 0.065484 0.065484
0.065991 0.065991 0.065991
0.069406 0.069406 0.069406
0.073203 0.073203 0.073203
0.074261 0.074261 0.074261
0.077249 0.077249 0.077249
0.081170 0.081170 0.081170
0.085092 0.085092 0.085092
0.089013 0.089013 0.089013
0.091317 0.091317 0.091317
0.093949 0.093949 0.093949
0.097354 0.097354 0.097354
0.102334 0.102334 0.102334
0.107314 0.107314 0.107314
0.112294 0.112294 0.112294
0.113352 0.113352 0.113352
0.118332 0.118332 0.118332
0.123312 0.123312 0.123312
0.128248 0.128248 0.128248
0.133271 0.133271 0.133271
0.138251 0.138251 0.138251
0.143231 0.143231 0.143231
0.148210 0.148210 0.148210
0.153190 0.153190 0.153190
0.158602 0.158602 0.158602
0.167071 0.167071 0.167071
0.172051 0.172051 0.172051
0.179209 0.179209 0.179209
0.185932 0.185932 0.185932
0.190931 0.190931 0.190931
0.199118 0.199118 0.199118
0.204793 0.204793 0.204793
0.213694 0.213694 0.213694
0.219782 0.219782 0.219782
0.227575 0.227575 0.227575
0.233025 0.233025 0.233025
0.241457 0.241457 0.241457
0.250358 0.250358 0.250358
0.256520 0.256520 0.256520
0.265422 0.265422 0.265422
0.273140 0.273140 0.273140
0.282042 0.282042 0.282042
0.290943 0.290943 0.290943
0.299844 0.299844 0.299844
0.308783 0.308783 0.308783
0.321569 0.321569 0.321569
0.331146 0.331146 0.331146
0.343293 0.343293 0.343293
0.356116 0.356116 0.356116
0.368939 0.368939 0.368939
0.380805 0.380805 0.380805
0.394367 0.394367 0.394367
0.407407 0.407407 0.407407
0.418752 0.418752 0.418752
0.430314 0.430314 0.430314
0.443137 0.443137 0.443137
0.058699 0.058699 0.058699
0.062621 0.062621 0.062621
0.062621 0.062621 0.062621
0.062621 0.062621 0.062621
0.066542 0.066542 0.066542
0.066542 0.066542 0.066542
0.070464 0.070464 0.070464
0.070464 0.070464 0.070464
0.074385 0.074385 0.074385
0.074385 0.074385 0.074385
0.078307 0.078307 0.078307
0.082104 0.082104 0.082104
0.083162 0.083162 0.083162
0.086150 0.086150 0.086150
0.090072 0.090072 0.090072
0.093993 0.093993 0.093993
0.095238 0.095238 0.095238
0.100218 0.100218 0.100218
0.101836 0.101836 0.101836
0.106256 0.106256 0.106256
0.109729 0.109729 0.109729
0.113684 0.113684 0.113684
0.117523 0.117523 0.117523
0.122253 0.122253 0.122253
0.127233 0.127233 0.127233
0.132213 0.132213 0.132213
0.137130 0.137130 0.137130
0.141052 0.141052 0.141052
0.145043 0.145043 0.145043
0.152132 0.152132 0.152132
0.156750 0.156750 0.156750
0.162092 0.162092 0.162092
0.167071 0.167071 0.167071
0.172425 0.172425 0.172425
0.180289 0.180289 0.180289
0.185932 0.185932 0.185932
0.192121 0.192121 0.192121
0.199813 0.199813 0.199813
0.204793 0.204793 0.204793
0.213694 0.213694 0.213694
0.218700 0.218700 0.218700
0.227334 0.227334 0.227334
0.232555 0.232555 0.232555
0.241457 0.241457 0.241457
0.246561 0.246561 0.246561
0.255338 0.255338 0.255338
0.264239 0.264239 0.264239
0.269343 0.269343 0.269343
0.278126 0.278126 0.278126
0.287021 0.287021 0.287021
0.295984 0.295984 0.295984
0.304949 0.304949 0.304949
0.313971 0.313971 0.313971
0.326548 0.326548 0.326548
0.337744 0.337744 0.337744
0.348377 0.348377 0.348377
0.361109 0.361109 0.361109
0.373966 0.373966 0.373966
0.386741 0.386741 0.386741
0.399263 0.399263 0.399263
0.412387 0.412387 0.412387
0.423161 0.423161 0.423161
0.434236 0.434236 0.434236
0.447059 0.447059 0.447059
0.067600 0.067600 0.067600
0.071522 0.071522 0.071522
0.071522 0.071522 0.071522
0.071522 0.071522 0.071522
0.075444 0.075444 0.075444
0.075444 0.075444 0.075444
0.077871 0.077871 0.077871
0.079365 0.079365 0.079365
0.079988 0.079988 0.079988
0.083287 0.083287 0.083287
0.086927 0.086927 0.086927
0.087208 0.087208 0.087208
0.091130 0.091130 0.091130
0.095051 0.095051 0.095051
0.098101 0.098101 0.098101
0.099160 0.099160 0.099160
0.103843 0.103843 0.103843
0.106816 0.106816 0.106816
0.110604 0.110604 0.110604
0.114659 0.114659 0.114659
0.118581 0.118581 0.118581
0.122191 0.122191 0.122191
0.126365 0.126365 0.126365
0.130345 0.130345 0.130345
0.134267 0.134267 0.134267
0.138189 0.138189 0.138189
0.142172 0.142172 0.142172
0.147152 0.147152 0.147152
0.152132 0.152132 0.152132
0.157633 0.157633 0.157633
0.162092 0.162092 0.162092
0.168968 0.168968 0.168968
0.173483 0.173483 0.173483
0.180108 0.180108 0.180108
0.185932 0.185932 0.185932
0.192572 0.192572 0.192572
0.199146 0.199146 0.199146
0.204793 0.204793 0.204793
0.212002 0.212002 0.212002
0.218185 0.218185 0.218185
0.224270 0.224270 0.224270
0.232496 0.232496 0.232496
0.237535 0.237535 0.237535
0.245873 0.245873 0.245873
0.251796 0.251796 0.251796
0.260317 0.260317 0.260317
0.268833 0.268833 0.268833
0.277186 0.277186 0.277186
0.283242 0.283242 0.283242
0.292001 0.292001 0.292001
0.300903 0.300903 0.300903
0.312792 0.312792 0.312792
0.321723 0.321723 0.321723
0.331528 0.331528 0.331528
0.343951 0.343951 0.343951
0.355766 0.355766 0.355766
0.366407 0.366407 0.366407
0.378898 0.378898 0.378898
0.391395 0.391395 0.391395
0.403610 0.403610 0.403610
0.416433 0.416433 0.416433
0.427644 0.427644 0.427644
0.438839 0.438839 0.438839
0.451914 0.451914 0.451914
0.076502 0.076502 0.076502
0.077560 0.077560 0.077560
0.080423 0.080423 0.080423
0.080423 0.080423 0.080423
0.080735 0.080735 0.080735
0.084345 0.084345 0.084345
0.084345 0.084345 0.084345
0.088266 0.088266 0.088266
0.088573 0.088573 0.088573
0.092188 0.092188 0.092188
0.093536 0.093536 0.093536
0.096110 0.096110 0.096110
0.100031 0.100031 0.100031
0.102023 0.102023 0.102023
0.103953 0.103953 0.103953
0.107874 0.107874 0.107874
0.111796 0.111796 0.111796
0.114895 0.114895 0.114895
0.119079 0.119079 0.119079
0.121822 0.121822 0.121822
0.125117 0.125117 0.125117
0.130096 0.130096 0.130096
0.133211 0.133211 0.133211
0.136134 0.136134 0.136134
0.141114 0.141114 0.141114
0.146094 0.146094 0.146094
0.151012 0.151012 0.151012
0.154933 0.154933 0.154933
0.159927 0.159927 0.159927
0.164369 0.164369 0.164369
0.170619 0.170619 0.170619
0.175245 0.175245 0.175245
0.180952 0.180952 0.180952
0.186116 0.186116 0.186116
0.192505 0.192505 0.192505
0.198928 0.198928 0.198928
0.204793 0.204793 0.204793
0.211734 0.211734 0.211734
0.218168 0.218168 0.218168
0.223654 0.223654 0.223654
0.230974 0.230974 0.230974
0.237535 0.237535 0.237535
0.243801 0.243801 0.243801
0.251416 0.251416 0.251416
0.258326 0.258326 0.258326
0.265297 0.265297 0.265297
0.274199 0.274199 0.274199
0.281740 0.281740 0.281740
0.290009 0.290009 0.290009
0.298911 0.298911 0.298911
0.307812 0.307812 0.307812
0.316713 0.316713 0.316713
