films/ilford_pan_f_plus_50.cube
TITLE "data/luts/rawtherapee/HaldCLUT/Black-and-White/Ilford/Ilford Pan F Plus 50.png"
LUT_3D_SIZE 4
DOMAIN_MIN 0 0 0
DOMAIN_MAX 1 1 1
0.000000 0.000000 0.000000
0.007843 0.007843 0.007843
0.064052 0.064052 0.064052
0.266667 0.266667 0.266667
0.236601 0.236601 0.236601
0.267974 0.267974 0.267974
0.355556 0.355556 0.355556
0.500654 0.500654 0.500654
0.618301 0.618301 0.618301
0.629630 0.629630 0.629630
0.664052 0.664052 0.664052
0.730719 0.730719 0.730719
0.894118 0.894118 0.894118
0.898039 0.898039 0.898039
0.905882 0.905882 0.905882
0.925490 0.925490 0.925490
0.027451 0.027451 0.027451
0.074510 0.074510 0.074510
0.163834 0.163834 0.163834
0.375163 0.375163 0.375163
0.321569 0.321569 0.321569
0.350617 0.350617 0.350617
0.424546 0.424546 0.424546
0.555556 0.555556 0.555556
0.653595 0.653595 0.653595
0.664633 0.664633 0.664633
0.695425 0.695425 0.695425
0.754248 0.754248 0.754248
0.905882 0.905882 0.905882
0.908497 0.908497 0.908497
0.914597 0.914597 0.914597
0.933333 0.933333 0.933333
0.146405 0.146405 0.146405
0.205229 0.205229 0.205229
0.315468 0.315468 0.315468
0.487582 0.487582 0.487582
0.454902 0.454902 0.454902
0.478286 0.478286 0.478286
0.537255 0.537255 0.537255
0.644009 0.644009 0.644009
0.722876 0.722876 0.722876
0.730719 0.730719 0.730719
0.754248 0.754248 0.754248
0.801307 0.801307 0.801307
0.929412 0.929412 0.929412
0.929412 0.929412 0.929412
0.937255 0.937255 0.937255
0.954248 0.954248 0.954248
0.400000 0.400000 0.400000
0.450980 0.450980 0.450980
0.518954 0.518954 0.518954
0.639216 0.639216 0.639216
0.630065 0.630065 0.630065
0.649673 0.649673 0.649673
0.688889 0.688889 0.688889
0.752941 0.752941 0.752941
0.809150 0.809150 0.809150
0.816993 0.816993 0.816993
0.832680 0.832680 0.832680
0.864052 0.864052 0.864052
0.968627 0.968627 0.968627
0.968627 0.968627 0.968627
0.976471 0.976471 0.976471
1.000000 1.000000 1.000000
