films/ilford_hp_5_plus_400.cube
# Created by: G'MIC (https://gmic.eu)
TITLE "ilford_hp_5_plus_400"
# LUT size
LUT_3D_SIZE 7
# Data domain
DOMAIN_MIN 0.0 0.0 0.0
DOMAIN_MAX 1.0 1.0 1.0
# LUT data points
0.022514762356877327 0.022514762356877327 0.022514762356877327
0.034869249910116196 0.034869249910116196 0.034869249910116196
0.062715135514736176 0.062715135514736176 0.062715135514736176
0.098523370921611786 0.098523370921611786 0.098523370921611786
0.18405424058437347 0.18405424058437347 0.18405424058437347
0.29044869542121887 0.29044869542121887 0.29044869542121887
0.43075704574584961 0.43075704574584961 0.43075704574584961
0.074123397469520569 0.074123397469520569 0.074123397469520569
0.093507148325443268 0.093507148325443268 0.093507148325443268
0.12310134619474411 0.12310134619474411 0.12310134619474411
0.17753899097442627 0.17753899097442627 0.17753899097442627
0.25715595483779907 0.25715595483779907 0.25715595483779907
0.35669428110122681 0.35669428110122681 0.35669428110122681
0.46972301602363586 0.46972301602363586 0.46972301602363586
0.1676943451166153 0.1676943451166153 0.1676943451166153
0.18804733455181122 0.18804733455181122 0.18804733455181122
0.22022844851016998 0.22022844851016998 0.22022844851016998
0.26413735747337341 0.26413735747337341 0.26413735747337341
0.33482271432876587 0.33482271432876587 0.33482271432876587
0.43613350391387939 0.43613350391387939 0.43613350391387939
0.53506195545196533 0.53506195545196533 0.53506195545196533
0.28289148211479187 0.28289148211479187 0.28289148211479187
0.31388843059539795 0.31388843059539795 0.31388843059539795
0.35125172138214111 0.35125172138214111 0.35125172138214111
0.3737952709197998 0.3737952709197998 0.3737952709197998
0.42604011297225952 0.42604011297225952 0.42604011297225952
0.52204304933547974 0.52204304933547974 0.52204304933547974
0.61574345827102661 0.61574345827102661 0.61574345827102661
0.45141333341598511 0.45141333341598511 0.45141333341598511
0.46663179993629456 0.46663179993629456 0.46663179993629456
0.47811004519462585 0.47811004519462585 0.47811004519462585
0.49049592018127441 0.49049592018127441 0.49049592018127441
0.54539072513580322 0.54539072513580322 0.54539072513580322
0.61736130714416504 0.61736130714416504 0.61736130714416504
0.69548380374908447 0.69548380374908447 0.69548380374908447
0.61737620830535889 0.61737620830535889 0.61737620830535889
0.61893147230148315 0.61893147230148315 0.61893147230148315
0.61369502544403076 0.61369502544403076 0.61369502544403076
0.63088715076446533 0.63088715076446533 0.63088715076446533
0.6762421727180481 0.6762421727180481 0.6762421727180481
0.72684943675994873 0.72684943675994873 0.72684943675994873
0.78765004873275757 0.78765004873275757 0.78765004873275757
0.76489883661270142 0.76489883661270142 0.76489883661270142
0.7551460862159729 0.7551460862159729 0.7551460862159729
0.7623753547668457 0.7623753547668457 0.7623753547668457
0.77157068252563477 0.77157068252563477 0.77157068252563477
0.79755932092666626 0.79755932092666626 0.79755932092666626
0.83832353353500366 0.83832353353500366 0.83832353353500366
0.8885149359703064 0.8885149359703064 0.8885149359703064
0.067424625158309937 0.067424625158309937 0.067424625158309937
0.073538221418857574 0.073538221418857574 0.073538221418857574
0.11057857424020767 0.11057857424020767 0.11057857424020767
0.17605563998222351 0.17605563998222351 0.17605563998222351
0.2503296434879303 0.2503296434879303 0.2503296434879303
0.34681349992752075 0.34681349992752075 0.34681349992752075
0.47130602598190308 0.47130602598190308 0.47130602598190308
0.13182885944843292 0.13182885944843292 0.13182885944843292
0.14716336131095886 0.14716336131095886 0.14716336131095886
0.17350518703460693 0.17350518703460693 0.17350518703460693
0.22608786821365356 0.22608786821365356 0.22608786821365356
0.30676400661468506 0.30676400661468506 0.30676400661468506
0.4044564962387085 0.4044564962387085 0.4044564962387085
0.50631338357925415 0.50631338357925415 0.50631338357925415
0.23715895414352417 0.23715895414352417 0.23715895414352417
0.24095714092254639 0.24095714092254639 0.24095714092254639
0.2613951563835144 0.2613951563835144 0.2613951563835144
0.30980613827705383 0.30980613827705383 0.30980613827705383
0.37480708956718445 0.37480708956718445 0.37480708956718445
0.47099903225898743 0.47099903225898743 0.47099903225898743
0.56352156400680542 0.56352156400680542 0.56352156400680542
0.3557833731174469 0.3557833731174469 0.3557833731174469
0.36140915751457214 0.36140915751457214 0.36140915751457214
0.37874796986579895 0.37874796986579895 0.37874796986579895
0.41043341159820557 0.41043341159820557 0.41043341159820557
0.46533891558647156 0.46533891558647156 0.46533891558647156
0.53885817527770996 0.53885817527770996 0.53885817527770996
0.63515698909759521 0.63515698909759521 0.63515698909759521
0.4946439266204834 0.4946439266204834 0.4946439266204834
0.48296880722045898 0.48296880722045898 0.48296880722045898
0.49322152137756348 0.49322152137756348 0.49322152137756348
0.52627432346343994 0.52627432346343994 0.52627432346343994
0.57766199111938477 0.57766199111938477 0.57766199111938477
0.63713186979293823 0.63713186979293823 0.63713186979293823
0.7162286639213562 0.7162286639213562 0.7162286639213562
0.63860064744949341 0.63860064744949341 0.63860064744949341
0.62661314010620117 0.62661314010620117 0.62661314010620117
0.63468855619430542 0.63468855619430542 0.63468855619430542
0.65904372930526733 0.65904372930526733 0.65904372930526733
0.69738519191741943 0.69738519191741943 0.69738519191741943
0.75102037191390991 0.75102037191390991 0.75102037191390991
0.80689972639083862 0.80689972639083862 0.80689972639083862
0.77307868003845215 0.77307868003845215 0.77307868003845215
0.77141004800796509 0.77141004800796509 0.77141004800796509
0.78567254543304443 0.78567254543304443 0.78567254543304443
0.7874336838722229 0.7874336838722229 0.7874336838722229
0.81494271755218506 0.81494271755218506 0.81494271755218506
0.85280835628509521 0.85280835628509521 0.85280835628509521
0.88483530282974243 0.88483530282974243 0.88483530282974243
0.11084778606891632 0.11084778606891632 0.11084778606891632
0.13565479218959808 0.13565479218959808 0.13565479218959808
0.17514365911483765 0.17514365911483765 0.17514365911483765
0.2418128103017807 0.2418128103017807 0.2418128103017807
0.32308229804039001 0.32308229804039001 0.32308229804039001
0.417022705078125 0.417022705078125 0.417022705078125
0.53003454208374023 0.53003454208374023 0.53003454208374023
0.19961272180080414 0.19961272180080414 0.19961272180080414
0.21488630771636963 0.21488630771636963 0.21488630771636963
0.24539466202259064 0.24539466202259064 0.24539466202259064
0.29592439532279968 0.29592439532279968 0.29592439532279968
0.37319383025169373 0.37319383025169373 0.37319383025169373
0.46264958381652832 0.46264958381652832 0.46264958381652832
0.55984616279602051 0.55984616279602051 0.55984616279602051
0.30404496192932129 0.30404496192932129 0.30404496192932129
0.3110557496547699 0.3110557496547699 0.3110557496547699
0.32847800850868225 0.32847800850868225 0.32847800850868225
0.37457850575447083 0.37457850575447083 0.37457850575447083
0.42762359976768494 0.42762359976768494 0.42762359976768494
0.51965254545211792 0.51965254545211792 0.51965254545211792
0.61095786094665527 0.61095786094665527 0.61095786094665527
0.42045611143112183 0.42045611143112183 0.42045611143112183
0.42358523607254028 0.42358523607254028 0.42358523607254028
0.43763554096221924 0.43763554096221924 0.43763554096221924
0.47041189670562744 0.47041189670562744 0.47041189670562744
0.52198582887649536 0.52198582887649536 0.52198582887649536
0.58965587615966797 0.58965587615966797 0.58965587615966797
0.67082548141479492 0.67082548141479492 0.67082548141479492
0.54266816377639771 0.54266816377639771 0.54266816377639771
0.53974246978759766 0.53974246978759766 0.53974246978759766
0.55429279804229736 0.55429279804229736 0.55429279804229736
0.57914704084396362 0.57914704084396362 0.57914704084396362
0.62957131862640381 0.62957131862640381 0.62957131862640381
0.68483167886734009 0.68483167886734009 0.68483167886734009
0.74949991703033447 0.74949991703033447 0.74949991703033447
0.67376101016998291 0.67376101016998291 0.67376101016998291
0.66310548782348633 0.66310548782348633 0.66310548782348633
0.67306232452392578 0.67306232452392578 0.67306232452392578
0.70065426826477051 0.70065426826477051 0.70065426826477051
0.74061894416809082 0.74061894416809082 0.74061894416809082
0.78944206237792969 0.78944206237792969 0.78944206237792969
0.83047640323638916 0.83047640323638916 0.83047640323638916
0.80143755674362183 0.80143755674362183 0.80143755674362183
0.78553992509841919 0.78553992509841919 0.78553992509841919
0.79409658908843994 0.79409658908843994 0.79409658908843994
0.81664985418319702 0.81664985418319702 0.81664985418319702
0.8483465313911438 0.8483465313911438 0.8483465313911438
0.87215191125869751 0.87215191125869751 0.87215191125869751
0.90164077281951904 0.90164077281951904 0.90164077281951904
0.16680727899074554 0.16680727899074554 0.16680727899074554
0.2104191929101944 0.2104191929101944 0.2104191929101944
0.25200685858726501 0.25200685858726501 0.25200685858726501
0.30333337187767029 0.30333337187767029 0.30333337187767029
0.41575741767883301 0.41575741767883301 0.41575741767883301
0.51956921815872192 0.51956921815872192 0.51956921815872192
0.606842041015625 0.606842041015625 0.606842041015625
0.27456137537956238 0.27456137537956238 0.27456137537956238
0.29867956042289734 0.29867956042289734 0.29867956042289734
0.32907509803771973 0.32907509803771973 0.32907509803771973
0.3804420530796051 0.3804420530796051 0.3804420530796051
0.45658105611801147 0.45658105611801147 0.45658105611801147
0.54474669694900513 0.54474669694900513 0.54474669694900513
0.62023329734802246 0.62023329734802246 0.62023329734802246
0.37422621250152588 0.37422621250152588 0.37422621250152588
0.39886006712913513 0.39886006712913513 0.39886006712913513
0.41892969608306885 0.41892969608306885 0.41892969608306885
0.4589601457118988 0.4589601457118988 0.4589601457118988
0.50743275880813599 0.50743275880813599 0.50743275880813599
0.5848696231842041 0.5848696231842041 0.5848696231842041
0.66310614347457886 0.66310614347457886 0.66310614347457886
0.47508373856544495 0.47508373856544495 0.47508373856544495
0.49826458096504211 0.49826458096504211 0.49826458096504211
0.51702636480331421 0.51702636480331421 0.51702636480331421
0.55259877443313599 0.55259877443313599 0.55259877443313599
0.59171992540359497 0.59171992540359497 0.59171992540359497
0.64651340246200562 0.64651340246200562 0.64651340246200562
0.71612954139709473 0.71612954139709473 0.71612954139709473
0.59287804365158081 0.59287804365158081 0.59287804365158081
0.60617363452911377 0.60617363452911377 0.60617363452911377
0.62106436491012573 0.62106436491012573 0.62106436491012573
0.63941425085067749 0.63941425085067749 0.63941425085067749
0.67655074596405029 0.67655074596405029 0.67655074596405029
0.73050719499588013 0.73050719499588013 0.73050719499588013
0.78482246398925781 0.78482246398925781 0.78482246398925781
0.71872550249099731 0.71872550249099731 0.71872550249099731
0.72164648771286011 0.72164648771286011 0.72164648771286011
0.72295373678207397 0.72295373678207397 0.72295373678207397
0.74845457077026367 0.74845457077026367 0.74845457077026367
0.78080552816390991 0.78080552816390991 0.78080552816390991
0.81883043050765991 0.81883043050765991 0.81883043050765991
0.85345447063446045 0.85345447063446045 0.85345447063446045
0.82503640651702881 0.82503640651702881 0.82503640651702881
0.81900632381439209 0.81900632381439209 0.81900632381439209
0.82688415050506592 0.82688415050506592 0.82688415050506592
0.85347902774810791 0.85347902774810791 0.85347902774810791
0.87413978576660156 0.87413978576660156 0.87413978576660156
0.8953825831413269 0.8953825831413269 0.8953825831413269
0.93102872371673584 0.93102872371673584 0.93102872371673584
0.27885988354682922 0.27885988354682922 0.27885988354682922
0.31158351898193359 0.31158351898193359 0.31158351898193359
0.35163655877113342 0.35163655877113342 0.35163655877113342
0.42830613255500793 0.42830613255500793 0.42830613255500793
0.52059996128082275 0.52059996128082275 0.52059996128082275
0.61262607574462891 0.61262607574462891 0.61262607574462891
0.676338791847229 0.676338791847229 0.676338791847229
0.3729979395866394 0.3729979395866394 0.3729979395866394
0.39408376812934875 0.39408376812934875 0.39408376812934875
0.41963601112365723 0.41963601112365723 0.41963601112365723
0.47647148370742798 0.47647148370742798 0.47647148370742798
0.55990225076675415 0.55990225076675415 0.55990225076675415
0.64277255535125732 0.64277255535125732 0.64277255535125732
0.69851487874984741 0.69851487874984741 0.69851487874984741
0.4762178361415863 0.4762178361415863 0.4762178361415863
0.4890286922454834 0.4890286922454834 0.4890286922454834
0.50690197944641113 0.50690197944641113 0.50690197944641113
0.54768717288970947 0.54768717288970947 0.54768717288970947
0.59615445137023926 0.59615445137023926 0.59615445137023926
0.66305500268936157 0.66305500268936157 0.66305500268936157
0.72910016775131226 0.72910016775131226 0.72910016775131226
0.57100188732147217 0.57100188732147217 0.57100188732147217
0.57957124710083008 0.57957124710083008 0.57957124710083008
0.59630763530731201 0.59630763530731201 0.59630763530731201
0.62938636541366577 0.62938636541366577 0.62938636541366577
0.66130411624908447 0.66130411624908447 0.66130411624908447
0.70476603507995605 0.70476603507995605 0.70476603507995605
0.75942939519882202 0.75942939519882202 0.75942939519882202
0.66336047649383545 0.66336047649383545 0.66336047649383545
0.67614996433258057 0.67614996433258057 0.67614996433258057
0.68943458795547485 0.68943458795547485 0.68943458795547485
0.70375239849090576 0.70375239849090576 0.70375239849090576
0.73011577129364014 0.73011577129364014 0.73011577129364014
0.76466983556747437 0.76466983556747437 0.76466983556747437
0.80202782154083252 0.80202782154083252 0.80202782154083252
0.7675246000289917 0.7675246000289917 0.7675246000289917
0.77604025602340698 0.77604025602340698 0.77604025602340698
0.7834438681602478 0.7834438681602478 0.7834438681602478
0.80624788999557495 0.80624788999557495 0.80624788999557495
0.82381206750869751 0.82381206750869751 0.82381206750869751
0.8471907377243042 0.8471907377243042 0.8471907377243042
0.86579412221908569 0.86579412221908569 0.86579412221908569
0.86363619565963745 0.86363619565963745 0.86363619565963745
0.86103361845016479 0.86103361845016479 0.86103361845016479
0.87183165550231934 0.87183165550231934 0.87183165550231934
0.89113491773605347 0.89113491773605347 0.89113491773605347
0.90022283792495728 0.90022283792495728 0.90022283792495728
0.91896581649780273 0.91896581649780273 0.91896581649780273
0.93505162000656128 0.93505162000656128 0.93505162000656128
0.39789944887161255 0.39789944887161255 0.39789944887161255
0.43289923667907715 0.43289923667907715 0.43289923667907715
0.4757881760597229 0.4757881760597229 0.4757881760597229
0.54120749235153198 0.54120749235153198 0.54120749235153198
0.62406879663467407 0.62406879663467407 0.62406879663467407
0.68122518062591553 0.68122518062591553 0.68122518062591553
0.73475289344787598 0.73475289344787598 0.73475289344787598
0.48885703086853027 0.48885703086853027 0.48885703086853027
0.5104067325592041 0.5104067325592041 0.5104067325592041
0.53895008563995361 0.53895008563995361 0.53895008563995361
0.5892069935798645 0.5892069935798645 0.5892069935798645
0.65887165069580078 0.65887165069580078 0.65887165069580078
0.71735137701034546 0.71735137701034546 0.71735137701034546
0.7614821195602417 0.7614821195602417 0.7614821195602417
0.58507746458053589 0.58507746458053589 0.58507746458053589
0.59102702140808105 0.59102702140808105 0.59102702140808105
0.61128044128417969 0.61128044128417969 0.61128044128417969
0.64596956968307495 0.64596956968307495 0.64596956968307495
0.68572795391082764 0.68572795391082764 0.68572795391082764
0.7385561466217041 0.7385561466217041 0.7385561466217041
0.78582757711410522 0.78582757711410522 0.78582757711410522
0.66932642459869385 0.66932642459869385 0.66932642459869385
0.67219322919845581 0.67219322919845581 0.67219322919845581
0.68582570552825928 0.68582570552825928 0.68582570552825928
0.70788246393203735 0.70788246393203735 0.70788246393203735
0.72370773553848267 0.72370773553848267 0.72370773553848267
0.75300997495651245 0.75300997495651245 0.75300997495651245
0.80855494737625122 0.80855494737625122 0.80855494737625122
0.75288170576095581 0.75288170576095581 0.75288170576095581
0.7547990083694458 0.7547990083694458 0.7547990083694458
0.76251220703125 0.76251220703125 0.76251220703125
0.77000385522842407 0.77000385522842407 0.77000385522842407
0.78579854965209961 0.78579854965209961 0.78579854965209961
0.8052983283996582 0.8052983283996582 0.8052983283996582
0.84338283538818359 0.84338283538818359 0.84338283538818359
0.82708644866943359 0.82708644866943359 0.82708644866943359
0.83035480976104736 0.83035480976104736 0.83035480976104736
0.8424409031867981 0.8424409031867981 0.8424409031867981
0.85860753059387207 0.85860753059387207 0.85860753059387207
0.87038034200668335 0.87038034200668335 0.87038034200668335
0.86845856904983521 0.86845856904983521 0.86845856904983521
0.88789194822311401 0.88789194822311401 0.88789194822311401
0.91064739227294922 0.91064739227294922 0.91064739227294922
0.91079467535018921 0.91079467535018921 0.91079467535018921
0.9184868335723877 0.9184868335723877 0.9184868335723877
0.92503446340560913 0.92503446340560913 0.92503446340560913
0.93397319316864014 0.93397319316864014 0.93397319316864014
0.94208312034606934 0.94208312034606934 0.94208312034606934
0.95520353317260742 0.95520353317260742 0.95520353317260742
0.53643029928207397 0.53643029928207397 0.53643029928207397
0.55846714973449707 0.55846714973449707 0.55846714973449707
0.58782315254211426 0.58782315254211426 0.58782315254211426
0.63084977865219116 0.63084977865219116 0.63084977865219116
0.68490499258041382 0.68490499258041382 0.68490499258041382
0.73696160316467285 0.73696160316467285 0.73696160316467285
0.78588473796844482 0.78588473796844482 0.78588473796844482
0.6156773567199707 0.6156773567199707 0.6156773567199707
0.61167353391647339 0.61167353391647339 0.61167353391647339
0.63172674179077148 0.63172674179077148 0.63172674179077148
0.6746247410774231 0.6746247410774231 0.6746247410774231
0.72243374586105347 0.72243374586105347 0.72243374586105347
0.77004444599151611 0.77004444599151611 0.77004444599151611
0.81520229578018188 0.81520229578018188 0.81520229578018188
0.68141186237335205 0.68141186237335205 0.68141186237335205
0.67975270748138428 0.67975270748138428 0.67975270748138428
0.69504004716873169 0.69504004716873169 0.69504004716873169
0.7284819483757019 0.7284819483757019 0.7284819483757019
0.76768457889556885 0.76768457889556885 0.76768457889556885
0.80641275644302368 0.80641275644302368 0.80641275644302368
0.84354680776596069 0.84354680776596069 0.84354680776596069
0.7508234977722168 0.7508234977722168 0.7508234977722168
0.75547331571578979 0.75547331571578979 0.75547331571578979
0.77110356092453003 0.77110356092453003 0.77110356092453003
0.78948652744293213 0.78948652744293213 0.78948652744293213
0.80717796087265015 0.80717796087265015 0.80717796087265015
0.83566296100616455 0.83566296100616455 0.83566296100616455
0.88302505016326904 0.88302505016326904 0.88302505016326904
0.8278471827507019 0.8278471827507019 0.8278471827507019
0.83409041166305542 0.83409041166305542 0.83409041166305542
0.84541648626327515 0.84541648626327515 0.84541648626327515
0.84535938501358032 0.84535938501358032 0.84535938501358032
0.85662877559661865 0.85662877559661865 0.85662877559661865
0.87566536664962769 0.87566536664962769 0.87566536664962769
0.89502847194671631 0.89502847194671631 0.89502847194671631
0.89552563428878784 0.89552563428878784 0.89552563428878784
0.89757907390594482 0.89757907390594482 0.89757907390594482
0.9032711386680603 0.9032711386680603 0.9032711386680603
0.91241514682769775 0.91241514682769775 0.91241514682769775
0.91609203815460205 0.91609203815460205 0.91609203815460205
0.91814720630645752 0.91814720630645752 0.91814720630645752
0.93215304613113403 0.93215304613113403 0.93215304613113403
0.96496385335922241 0.96496385335922241 0.96496385335922241
0.96617597341537476 0.96617597341537476 0.96617597341537476
0.95814764499664307 0.95814764499664307 0.95814764499664307
0.9522099494934082 0.9522099494934082 0.9522099494934082
0.96104580163955688 0.96104580163955688 0.96104580163955688
0.97171735763549805 0.97171735763549805 0.97171735763549805
0.99069565534591675 0.99069565534591675 0.99069565534591675
