films/ilford_delta_100.cube
# Created by: G'MIC (https://gmic.eu)
TITLE "ilford_delta_100"
# LUT size
LUT_3D_SIZE 13
# Data domain
DOMAIN_MIN 0.0 0.0 0.0
DOMAIN_MAX 1.0 1.0 1.0
# LUT data points
0.034429199993610382 0.034429199993610382 0.034429199993610382
0.040172979235649109 0.040172979235649109 0.040172979235649109
0.042505782097578049 0.042505782097578049 0.042505782097578049
0.053002212196588516 0.053002212196588516 0.053002212196588516
0.065425872802734375 0.065425872802734375 0.065425872802734375
0.070344768464565277 0.070344768464565277 0.070344768464565277
0.080002769827842712 0.080002769827842712 0.080002769827842712
0.10482043027877808 0.10482043027877808 0.10482043027877808
0.12837739288806915 0.12837739288806915 0.12837739288806915
0.14491961896419525 0.14491961896419525 0.14491961896419525
0.15795642137527466 0.15795642137527466 0.15795642137527466
0.1932884156703949 0.1932884156703949 0.1932884156703949
0.24735651910305023 0.24735651910305023 0.24735651910305023
0.081045769155025482 0.081045769155025482 0.081045769155025482
0.084833525121212006 0.084833525121212006 0.084833525121212006
0.089575670659542084 0.089575670659542084 0.089575670659542084
0.10186010599136353 0.10186010599136353 0.10186010599136353
0.11577314138412476 0.11577314138412476 0.11577314138412476
0.13009418547153473 0.13009418547153473 0.13009418547153473
0.14850308001041412 0.14850308001041412 0.14850308001041412
0.16520087420940399 0.16520087420940399 0.16520087420940399
0.18412096798419952 0.18412096798419952 0.18412096798419952
0.20181213319301605 0.20181213319301605 0.20181213319301605
0.22410711646080017 0.22410711646080017 0.22410711646080017
0.26880976557731628 0.26880976557731628 0.26880976557731628
0.31460496783256531 0.31460496783256531 0.31460496783256531
0.13152550160884857 0.13152550160884857 0.13152550160884857
0.13777598738670349 0.13777598738670349 0.13777598738670349
0.1409219354391098 0.1409219354391098 0.1409219354391098
0.15283939242362976 0.15283939242362976 0.15283939242362976
0.17695780098438263 0.17695780098438263 0.17695780098438263
0.19989132881164551 0.19989132881164551 0.19989132881164551
0.22190523147583008 0.22190523147583008 0.22190523147583008
0.23845893144607544 0.23845893144607544 0.23845893144607544
0.25215834379196167 0.25215834379196167 0.25215834379196167
0.26917803287506104 0.26917803287506104 0.26917803287506104
0.29284802079200745 0.29284802079200745 0.29284802079200745
0.33351382613182068 0.33351382613182068 0.33351382613182068
0.36356255412101746 0.36356255412101746 0.36356255412101746
0.19507740437984467 0.19507740437984467 0.19507740437984467
0.20656155049800873 0.20656155049800873 0.20656155049800873
0.21452312171459198 0.21452312171459198 0.21452312171459198
0.2292131781578064 0.2292131781578064 0.2292131781578064
0.24953921139240265 0.24953921139240265 0.24953921139240265
0.27191635966300964 0.27191635966300964 0.27191635966300964
0.29608356952667236 0.29608356952667236 0.29608356952667236
0.31443312764167786 0.31443312764167786 0.31443312764167786
0.32500621676445007 0.32500621676445007 0.32500621676445007
0.33640861511230469 0.33640861511230469 0.33640861511230469
0.35445329546928406 0.35445329546928406 0.35445329546928406
0.38498684763908386 0.38498684763908386 0.38498684763908386
0.41125550866127014 0.41125550866127014 0.41125550866127014
0.26882925629615784 0.26882925629615784 0.26882925629615784
0.28315615653991699 0.28315615653991699 0.28315615653991699
0.29736131429672241 0.29736131429672241 0.29736131429672241
0.31409960985183716 0.31409960985183716 0.31409960985183716
0.33142620325088501 0.33142620325088501 0.33142620325088501
0.35017982125282288 0.35017982125282288 0.35017982125282288
0.37105372548103333 0.37105372548103333 0.37105372548103333
0.38747325539588928 0.38747325539588928 0.38747325539588928
0.39671063423156738 0.39671063423156738 0.39671063423156738
0.40514084696769714 0.40514084696769714 0.40514084696769714
0.41357129812240601 0.41357129812240601 0.41357129812240601
0.43787872791290283 0.43787872791290283 0.43787872791290283
0.4621129035949707 0.4621129035949707 0.4621129035949707
0.34826198220252991 0.34826198220252991 0.34826198220252991
0.35954201221466064 0.35954201221466064 0.35954201221466064
0.37521782517433167 0.37521782517433167 0.37521782517433167
0.39155340194702148 0.39155340194702148 0.39155340194702148
0.40895232558250427 0.40895232558250427 0.40895232558250427
0.42524310946464539 0.42524310946464539 0.42524310946464539
0.43992364406585693 0.43992364406585693 0.43992364406585693
0.45165318250656128 0.45165318250656128 0.45165318250656128
0.46001389622688293 0.46001389622688293 0.46001389622688293
0.46879979968070984 0.46879979968070984 0.46879979968070984
0.4803459644317627 0.4803459644317627 0.4803459644317627
0.50095093250274658 0.50095093250274658 0.50095093250274658
0.51482987403869629 0.51482987403869629 0.51482987403869629
0.43539971113204956 0.43539971113204956 0.43539971113204956
0.44289407134056091 0.44289407134056091 0.44289407134056091
0.45138773322105408 0.45138773322105408 0.45138773322105408
0.45997890830039978 0.45997890830039978 0.45997890830039978
0.47618067264556885 0.47618067264556885 0.47618067264556885
0.49119183421134949 0.49119183421134949 0.49119183421134949
0.50453072786331177 0.50453072786331177 0.50453072786331177
0.51390153169631958 0.51390153169631958 0.51390153169631958
0.52250921726226807 0.52250921726226807 0.52250921726226807
0.5314900279045105 0.5314900279045105 0.5314900279045105
0.54467892646789551 0.54467892646789551 0.54467892646789551
0.56108981370925903 0.56108981370925903 0.56108981370925903
0.56720811128616333 0.56720811128616333 0.56720811128616333
0.51905655860900879 0.51905655860900879 0.51905655860900879
0.52402597665786743 0.52402597665786743 0.52402597665786743
0.52854502201080322 0.52854502201080322 0.52854502201080322
0.52802640199661255 0.52802640199661255 0.52802640199661255
0.53771287202835083 0.53771287202835083 0.53771287202835083
0.55290395021438599 0.55290395021438599 0.55290395021438599
0.5663873553276062 0.5663873553276062 0.5663873553276062
0.57624131441116333 0.57624131441116333 0.57624131441116333
0.58393180370330811 0.58393180370330811 0.58393180370330811
0.59233242273330688 0.59233242273330688 0.59233242273330688
0.6042323112487793 0.6042323112487793 0.6042323112487793
0.61480891704559326 0.61480891704559326 0.61480891704559326
0.61800998449325562 0.61800998449325562 0.61800998449325562
0.59437531232833862 0.59437531232833862 0.59437531232833862
0.59889137744903564 0.59889137744903564 0.59889137744903564
0.60071182250976562 0.60071182250976562 0.60071182250976562
0.5968819260597229 0.5968819260597229 0.5968819260597229
0.60021531581878662 0.60021531581878662 0.60021531581878662
0.61254328489303589 0.61254328489303589 0.61254328489303589
0.62495136260986328 0.62495136260986328 0.62495136260986328
0.63498061895370483 0.63498061895370483 0.63498061895370483
0.64223682880401611 0.64223682880401611 0.64223682880401611
0.64985567331314087 0.64985567331314087 0.64985567331314087
0.6590113639831543 0.6590113639831543 0.6590113639831543
0.6659010648727417 0.6659010648727417 0.6659010648727417
0.66792768239974976 0.66792768239974976 0.66792768239974976
0.66584455966949463 0.66584455966949463 0.66584455966949463
0.67053407430648804 0.67053407430648804 0.67053407430648804
0.67069631814956665 0.67069631814956665 0.67069631814956665
0.66593813896179199 0.66593813896179199 0.66593813896179199
0.66585004329681396 0.66585004329681396 0.66585004329681396
0.67507058382034302 0.67507058382034302 0.67507058382034302
0.68515366315841675 0.68515366315841675 0.68515366315841675
0.6934819221496582 0.6934819221496582 0.6934819221496582
0.70027017593383789 0.70027017593383789 0.70027017593383789
0.70650643110275269 0.70650643110275269 0.70650643110275269
0.71127587556838989 0.71127587556838989 0.71127587556838989
0.71419340372085571 0.71419340372085571 0.71419340372085571
0.71613115072250366 0.71613115072250366 0.71613115072250366
0.73693037033081055 0.73693037033081055 0.73693037033081055
0.73975092172622681 0.73975092172622681 0.73975092172622681
0.7394261360168457 0.7394261360168457 0.7394261360168457
0.73616629838943481 0.73616629838943481 0.73616629838943481
0.73465532064437866 0.73465532064437866 0.73465532064437866
0.74087011814117432 0.74087011814117432 0.74087011814117432
0.74767029285430908 0.74767029285430908 0.74767029285430908
0.75397562980651855 0.75397562980651855 0.75397562980651855
0.7597237229347229 0.7597237229347229 0.7597237229347229
0.76323097944259644 0.76323097944259644 0.76323097944259644
0.76316624879837036 0.76316624879837036 0.76316624879837036
0.7616381049156189 0.7616381049156189 0.7616381049156189
0.76225054264068604 0.76225054264068604 0.76225054264068604
0.80604285001754761 0.80604285001754761 0.80604285001754761
0.80470097064971924 0.80470097064971924 0.80470097064971924
0.8046383261680603 0.8046383261680603 0.8046383261680603
0.80601388216018677 0.80601388216018677 0.80601388216018677
0.80526286363601685 0.80526286363601685 0.80526286363601685
0.80734670162200928 0.80734670162200928 0.80734670162200928
0.80854201316833496 0.80854201316833496 0.80854201316833496
0.81119805574417114 0.81119805574417114 0.81119805574417114
0.81506812572479248 0.81506812572479248 0.81506812572479248
0.81935638189315796 0.81935638189315796 0.81935638189315796
0.82003229856491089 0.82003229856491089 0.82003229856491089
0.81774681806564331 0.81774681806564331 0.81774681806564331
0.81670016050338745 0.81670016050338745 0.81670016050338745
0.85868841409683228 0.85868841409683228 0.85868841409683228
0.85390615463256836 0.85390615463256836 0.85390615463256836
0.85368436574935913 0.85368436574935913 0.85368436574935913
0.8585660457611084 0.8585660457611084 0.8585660457611084
0.86233621835708618 0.86233621835708618 0.86233621835708618
0.85708135366439819 0.85708135366439819 0.85708135366439819
0.85313558578491211 0.85313558578491211 0.85313558578491211
0.85330605506896973 0.85330605506896973 0.85330605506896973
0.85726118087768555 0.85726118087768555 0.85726118087768555
0.86153888702392578 0.86153888702392578 0.86153888702392578
0.86417514085769653 0.86417514085769653 0.86417514085769653
0.8628542423248291 0.8628542423248291 0.8628542423248291
0.86129456758499146 0.86129456758499146 0.86129456758499146
0.05299827829003334 0.05299827829003334 0.05299827829003334
0.059617076069116592 0.059617076069116592 0.059617076069116592
0.069545641541481018 0.069545641541481018 0.069545641541481018
0.084066592156887054 0.084066592156887054 0.084066592156887054
0.095831960439682007 0.095831960439682007 0.095831960439682007
0.10466156154870987 0.10466156154870987 0.10466156154870987
0.11685198545455933 0.11685198545455933 0.11685198545455933
0.13337510824203491 0.13337510824203491 0.13337510824203491
0.15445077419281006 0.15445077419281006 0.15445077419281006
0.1720537543296814 0.1720537543296814 0.1720537543296814
0.19548673927783966 0.19548673927783966 0.19548673927783966
0.22836236655712128 0.22836236655712128 0.22836236655712128
0.26344791054725647 0.26344791054725647 0.26344791054725647
0.098698422312736511 0.098698422312736511 0.098698422312736511
0.10393832623958588 0.10393832623958588 0.10393832623958588
0.11398643255233765 0.11398643255233765 0.11398643255233765
0.1292397677898407 0.1292397677898407 0.1292397677898407
0.14449235796928406 0.14449235796928406 0.14449235796928406
0.15792091190814972 0.15792091190814972 0.15792091190814972
0.17214560508728027 0.17214560508728027 0.17214560508728027
0.18712286651134491 0.18712286651134491 0.18712286651134491
0.20615185797214508 0.20615185797214508 0.20615185797214508
0.22525909543037415 0.22525909543037415 0.22525909543037415
0.25379374623298645 0.25379374623298645 0.25379374623298645
0.29187747836112976 0.29187747836112976 0.29187747836112976
0.32458072900772095 0.32458072900772095 0.32458072900772095
0.15746662020683289 0.15746662020683289 0.15746662020683289
0.16258285939693451 0.16258285939693451 0.16258285939693451
0.17174449563026428 0.17174449563026428 0.17174449563026428
0.18613459169864655 0.18613459169864655 0.18613459169864655
0.20319986343383789 0.20319986343383789 0.20319986343383789
0.22026099264621735 0.22026099264621735 0.22026099264621735
0.23745238780975342 0.23745238780975342 0.23745238780975342
0.25318923592567444 0.25318923592567444 0.25318923592567444
0.26913291215896606 0.26913291215896606 0.26913291215896606
0.28841379284858704 0.28841379284858704 0.28841379284858704
0.31526225805282593 0.31526225805282593 0.31526225805282593
0.34745529294013977 0.34745529294013977 0.34745529294013977
0.37145382165908813 0.37145382165908813 0.37145382165908813
0.22585055232048035 0.22585055232048035 0.22585055232048035
0.23326647281646729 0.23326647281646729 0.23326647281646729
0.24392803013324738 0.24392803013324738 0.24392803013324738
0.25620925426483154 0.25620925426483154 0.25620925426483154
0.27006974816322327 0.27006974816322327 0.27006974816322327
0.28625693917274475 0.28625693917274475 0.28625693917274475
0.30610176920890808 0.30610176920890808 0.30610176920890808
0.32496252655982971 0.32496252655982971 0.32496252655982971
0.33818647265434265 0.33818647265434265 0.33818647265434265
0.35218578577041626 0.35218578577041626 0.35218578577041626
0.37192580103874207 0.37192580103874207 0.37192580103874207
0.39762872457504272 0.39762872457504272 0.39762872457504272
0.42056351900100708 0.42056351900100708 0.42056351900100708
0.29453292489051819 0.29453292489051819 0.29453292489051819
0.30920463800430298 0.30920463800430298 0.30920463800430298
0.32322412729263306 0.32322412729263306 0.32322412729263306
0.33608558773994446 0.33608558773994446 0.33608558773994446
0.34733310341835022 0.34733310341835022 0.34733310341835022
0.35888469219207764 0.35888469219207764 0.35888469219207764
0.37722265720367432 0.37722265720367432 0.37722265720367432
0.39652165770530701 0.39652165770530701 0.39652165770530701
0.4079149067401886 0.4079149067401886 0.4079149067401886
0.41718947887420654 0.41718947887420654 0.41718947887420654
0.42923134565353394 0.42923134565353394 0.42923134565353394
0.45099809765815735 0.45099809765815735 0.45099809765815735
0.47134706377983093 0.47134706377983093 0.47134706377983093
0.36767268180847168 0.36767268180847168 0.36767268180847168
0.3834022581577301 0.3834022581577301 0.3834022581577301
0.400888592004776 0.400888592004776 0.400888592004776
0.41154646873474121 0.41154646873474121 0.41154646873474121
0.42031612992286682 0.42031612992286682 0.42031612992286682
0.43035146594047546 0.43035146594047546 0.43035146594047546
0.4438464343547821 0.4438464343547821 0.4438464343547821
0.45891675353050232 0.45891675353050232 0.45891675353050232
0.46986368298530579 0.46986368298530579 0.46986368298530579
0.47809672355651855 0.47809672355651855 0.47809672355651855
0.49004876613616943 0.49004876613616943 0.49004876613616943
0.50958997011184692 0.50958997011184692 0.50958997011184692
0.52265751361846924 0.52265751361846924 0.52265751361846924
0.44554957747459412 0.44554957747459412 0.44554957747459412
0.45546257495880127 0.45546257495880127 0.45546257495880127
0.47000560164451599 0.47000560164451599 0.47000560164451599
0.4776797890663147 0.4776797890663147 0.4776797890663147
0.4852677583694458 0.4852677583694458 0.4852677583694458
0.49656593799591064 0.49656593799591064 0.49656593799591064
0.50799596309661865 0.50799596309661865 0.50799596309661865
0.51856887340545654 0.51856887340545654 0.51856887340545654
0.52902781963348389 0.52902781963348389 0.52902781963348389
0.53738236427307129 0.53738236427307129 0.53738236427307129
0.55027389526367188 0.55027389526367188 0.55027389526367188
0.56572937965393066 0.56572937965393066 0.56572937965393066
0.57433509826660156 0.57433509826660156 0.57433509826660156
0.52414530515670776 0.52414530515670776 0.52414530515670776
0.53094005584716797 0.53094005584716797 0.53094005584716797
0.53825467824935913 0.53825467824935913 0.53825467824935913
0.54125237464904785 0.54125237464904785 0.54125237464904785
0.54716134071350098 0.54716134071350098 0.54716134071350098
0.55778247117996216 0.55778247117996216 0.55778247117996216
0.56954342126846313 0.56954342126846313 0.56954342126846313
0.57915002107620239 0.57915002107620239 0.57915002107620239
0.58734631538391113 0.58734631538391113 0.58734631538391113
0.59458309412002563 0.59458309412002563 0.59458309412002563
0.6055753231048584 0.6055753231048584 0.6055753231048584
0.61737167835235596 0.61737167835235596 0.61737167835235596
0.62309080362319946 0.62309080362319946 0.62309080362319946
0.60208678245544434 0.60208678245544434 0.60208678245544434
0.60699498653411865 0.60699498653411865 0.60699498653411865
0.60842007398605347 0.60842007398605347 0.60842007398605347
0.60756731033325195 0.60756731033325195 0.60756731033325195
0.61086773872375488 0.61086773872375488 0.61086773872375488
0.61817896366119385 0.61817896366119385 0.61817896366119385
0.62841421365737915 0.62841421365737915 0.62841421365737915
0.63740843534469604 0.63740843534469604 0.63740843534469604
0.64395934343338013 0.64395934343338013 0.64395934343338013
0.64943152666091919 0.64943152666091919 0.64943152666091919
0.65763169527053833 0.65763169527053833 0.65763169527053833
0.66583406925201416 0.66583406925201416 0.66583406925201416
0.66995525360107422 0.66995525360107422 0.66995525360107422
0.67475289106369019 0.67475289106369019 0.67475289106369019
0.678425133228302 0.678425133228302 0.678425133228302
0.67741656303405762 0.67741656303405762 0.67741656303405762
0.67502927780151367 0.67502927780151367 0.67502927780151367
0.67641144990921021 0.67641144990921021 0.67641144990921021
0.68134647607803345 0.68134647607803345 0.68134647607803345
0.68902844190597534 0.68902844190597534 0.68902844190597534
0.69607853889465332 0.69607853889465332 0.69607853889465332
0.70083671808242798 0.70083671808242798 0.70083671808242798
0.7048986554145813 0.7048986554145813 0.7048986554145813
0.70865696668624878 0.70865696668624878 0.70865696668624878
0.71233570575714111 0.71233570575714111 0.71233570575714111
0.71590715646743774 0.71590715646743774 0.71590715646743774
0.74525505304336548 0.74525505304336548 0.74525505304336548
0.74593639373779297 0.74593639373779297 0.74593639373779297
0.74504441022872925 0.74504441022872925 0.74504441022872925
0.74303370714187622 0.74303370714187622 0.74303370714187622
0.74275606870651245 0.74275606870651245 0.74275606870651245
0.74617952108383179 0.74617952108383179 0.74617952108383179
0.7512056827545166 0.7512056827545166 0.7512056827545166
0.75593894720077515 0.75593894720077515 0.75593894720077515
0.75953513383865356 0.75953513383865356 0.75953513383865356
0.76297390460968018 0.76297390460968018 0.76297390460968018
0.7626306414604187 0.7626306414604187 0.7626306414604187
0.7615281343460083 0.7615281343460083 0.7615281343460083
0.76463156938552856 0.76463156938552856 0.76463156938552856
0.80909770727157593 0.80909770727157593 0.80909770727157593
0.80773705244064331 0.80773705244064331 0.80773705244064331
0.80745130777359009 0.80745130777359009 0.80745130777359009
0.80808794498443604 0.80808794498443604 0.80808794498443604
0.80799156427383423 0.80799156427383423 0.80799156427383423
0.80961364507675171 0.80961364507675171 0.80961364507675171
0.81088268756866455 0.81088268756866455 0.81088268756866455
0.81257349252700806 0.81257349252700806 0.81257349252700806
0.81671363115310669 0.81671363115310669 0.81671363115310669
0.82220882177352905 0.82220882177352905 0.82220882177352905
0.82441532611846924 0.82441532611846924 0.82441532611846924
0.82325959205627441 0.82325959205627441 0.82325959205627441
0.82447057962417603 0.82447057962417603 0.82447057962417603
0.85608798265457153 0.85608798265457153 0.85608798265457153
0.85334855318069458 0.85334855318069458 0.85334855318069458
0.85317647457122803 0.85317647457122803 0.85317647457122803
0.85595744848251343 0.85595744848251343 0.85595744848251343
0.85862976312637329 0.85862976312637329 0.85862976312637329
0.85859698057174683 0.85859698057174683 0.85859698057174683
0.856425940990448 0.856425940990448 0.856425940990448
0.85670775175094604 0.85670775175094604 0.85670775175094604
0.86037516593933105 0.86037516593933105 0.86037516593933105
0.86714738607406616 0.86714738607406616 0.86714738607406616
0.87224870920181274 0.87224870920181274 0.87224870920181274
0.87142157554626465 0.87142157554626465 0.87142157554626465
0.87059074640274048 0.87059074640274048 0.87059074640274048
0.069934695959091187 0.069934695959091187 0.069934695959091187
0.082456938922405243 0.082456938922405243 0.082456938922405243
0.098009906709194183 0.098009906709194183 0.098009906709194183
0.11197396367788315 0.11197396367788315 0.11197396367788315
0.12580263614654541 0.12580263614654541 0.12580263614654541
0.13821297883987427 0.13821297883987427 0.13821297883987427
0.15001505613327026 0.15001505613327026 0.15001505613327026
0.1624540388584137 0.1624540388584137 0.1624540388584137
0.18004389107227325 0.18004389107227325 0.18004389107227325
0.1982496976852417 0.1982496976852417 0.1982496976852417
0.22724933922290802 0.22724933922290802 0.22724933922290802
0.26613393425941467 0.26613393425941467 0.26613393425941467
0.30539926886558533 0.30539926886558533 0.30539926886558533
0.12326968461275101 0.12326968461275101 0.12326968461275101
0.13081496953964233 0.13081496953964233 0.13081496953964233
0.14333148300647736 0.14333148300647736 0.14333148300647736
0.15766777098178864 0.15766777098178864 0.15766777098178864
0.17467164993286133 0.17467164993286133 0.17467164993286133
0.19039282202720642 0.19039282202720642 0.19039282202720642
0.20360273122787476 0.20360273122787476 0.20360273122787476
0.21543827652931213 0.21543827652931213 0.21543827652931213
0.23203933238983154 0.23203933238983154 0.23203933238983154
0.25110980868339539 0.25110980868339539 0.25110980868339539
0.27989807724952698 0.27989807724952698 0.27989807724952698
0.3177875280380249 0.3177875280380249 0.3177875280380249
0.34840127825737 0.34840127825737 0.34840127825737
0.19062633812427521 0.19062633812427521 0.19062633812427521
0.19565169513225555 0.19565169513225555 0.19565169513225555
0.20504215359687805 0.20504215359687805 0.20504215359687805
0.21817058324813843 0.21817058324813843 0.21817058324813843
0.23501168191432953 0.23501168191432953 0.23501168191432953
0.25070255994796753 0.25070255994796753 0.25070255994796753
0.26482543349266052 0.26482543349266052 0.26482543349266052
0.27725115418434143 0.27725115418434143 0.27725115418434143
0.29256659746170044 0.29256659746170044 0.29256659746170044
0.31168216466903687 0.31168216466903687 0.31168216466903687
0.33659112453460693 0.33659112453460693 0.33659112453460693
0.36650517582893372 0.36650517582893372 0.36650517582893372
0.38923576474189758 0.38923576474189758 0.38923576474189758
0.26084324717521667 0.26084324717521667 0.26084324717521667
0.26744195818901062 0.26744195818901062 0.26744195818901062
0.27680203318595886 0.27680203318595886 0.27680203318595886
0.28502318263053894 0.28502318263053894 0.28502318263053894
0.29858961701393127 0.29858961701393127 0.29858961701393127
0.31304195523262024 0.31304195523262024 0.31304195523262024
0.32677033543586731 0.32677033543586731 0.32677033543586731
0.34110799431800842 0.34110799431800842 0.34110799431800842
0.35555583238601685 0.35555583238601685 0.35555583238601685
0.37311753630638123 0.37311753630638123 0.37311753630638123
0.39350369572639465 0.39350369572639465 0.39350369572639465
0.41658303141593933 0.41658303141593933 0.41658303141593933
0.43715283274650574 0.43715283274650574 0.43715283274650574
0.33050635457038879 0.33050635457038879 0.33050635457038879
0.3440513014793396 0.3440513014793396 0.3440513014793396
0.35545283555984497 0.35545283555984497 0.35545283555984497
0.36151978373527527 0.36151978373527527 0.36151978373527527
0.36900463700294495 0.36900463700294495 0.36900463700294495
0.37789833545684814 0.37789833545684814 0.37789833545684814
0.39178550243377686 0.39178550243377686 0.39178550243377686
0.40760248899459839 0.40760248899459839 0.40760248899459839
