films/ilford_fp_4_plus_125.cube
# Created by: G'MIC (https://gmic.eu)
TITLE "ilford_fp_4_plus_125"
# LUT size
LUT_3D_SIZE 5
# Data domain
DOMAIN_MIN 0.0 0.0 0.0
DOMAIN_MAX 1.0 1.0 1.0
# LUT data points
0.055090092122554779 0.055090092122554779 0.055090092122554779
0.10451081395149231 0.10451081395149231 0.10451081395149231
0.14909029006958008 0.14909029006958008 0.14909029006958008
0.2552700936794281 0.2552700936794281 0.2552700936794281
0.36436629295349121 0.36436629295349121 0.36436629295349121
0.23479774594306946 0.23479774594306946 0.23479774594306946
0.25897932052612305 0.25897932052612305 0.25897932052612305
0.30251482129096985 0.30251482129096985 0.30251482129096985
0.37852573394775391 0.37852573394775391 0.37852573394775391
0.46885472536087036 0.46885472536087036 0.46885472536087036
0.43811163306236267 0.43811163306236267 0.43811163306236267
0.44901865720748901 0.44901865720748901 0.44901865720748901
0.47897037863731384 0.47897037863731384 0.47897037863731384
0.53280848264694214 0.53280848264694214 0.53280848264694214
0.59959918260574341 0.59959918260574341 0.59959918260574341
0.64571315050125122 0.64571315050125122 0.64571315050125122
0.64570045471191406 0.64570045471191406 0.64570045471191406
0.65860825777053833 0.65860825777053833 0.65860825777053833
0.69461619853973389 0.69461619853973389 0.69461619853973389
0.74268138408660889 0.74268138408660889 0.74268138408660889
0.83594882488250732 0.83594882488250732 0.83594882488250732
0.81869977712631226 0.81869977712631226 0.81869977712631226
0.81873971223831177 0.81873971223831177 0.81873971223831177
0.84253281354904175 0.84253281354904175 0.84253281354904175
0.88120990991592407 0.88120990991592407 0.88120990991592407
0.15023614466190338 0.15023614466190338 0.15023614466190338
0.19623266160488129 0.19623266160488129 0.19623266160488129
0.24293683469295502 0.24293683469295502 0.24293683469295502
0.32574689388275146 0.32574689388275146 0.32574689388275146
0.42349094152450562 0.42349094152450562 0.42349094152450562
0.30156248807907104 0.30156248807907104 0.30156248807907104
0.32730755209922791 0.32730755209922791 0.32730755209922791
0.36487987637519836 0.36487987637519836 0.36487987637519836
0.43480566143989563 0.43480566143989563 0.43480566143989563
0.51998639106750488 0.51998639106750488 0.51998639106750488
0.48609039187431335 0.48609039187431335 0.48609039187431335
0.49518147110939026 0.49518147110939026 0.49518147110939026
0.5209471583366394 0.5209471583366394 0.5209471583366394
0.57387250661849976 0.57387250661849976 0.57387250661849976
0.63987976312637329 0.63987976312637329 0.63987976312637329
0.67557704448699951 0.67557704448699951 0.67557704448699951
0.67797309160232544 0.67797309160232544 0.67797309160232544
0.69115889072418213 0.69115889072418213 0.69115889072418213
0.72521448135375977 0.72521448135375977 0.72521448135375977
0.77090561389923096 0.77090561389923096 0.77090561389923096
0.8412901759147644 0.8412901759147644 0.8412901759147644
0.84034806489944458 0.84034806489944458 0.84034806489944458
0.84443384408950806 0.84443384408950806 0.84443384408950806
0.86503785848617554 0.86503785848617554 0.86503785848617554
0.89512908458709717 0.89512908458709717 0.89512908458709717
0.24691259860992432 0.24691259860992432 0.24691259860992432
0.29378443956375122 0.29378443956375122 0.29378443956375122
0.35050329566001892 0.35050329566001892 0.35050329566001892
0.42502400279045105 0.42502400279045105 0.42502400279045105
0.50882816314697266 0.50882816314697266 0.50882816314697266
0.39392790198326111 0.39392790198326111 0.39392790198326111
0.41363587975502014 0.41363587975502014 0.41363587975502014
0.44956487417221069 0.44956487417221069 0.44956487417221069
0.51679545640945435 0.51679545640945435 0.51679545640945435
0.59312528371810913 0.59312528371810913 0.59312528371810913
0.55815678834915161 0.55815678834915161 0.55815678834915161
0.56321340799331665 0.56321340799331665 0.56321340799331665
0.58179813623428345 0.58179813623428345 0.58179813623428345
0.63375717401504517 0.63375717401504517 0.63375717401504517
0.6948961615562439 0.6948961615562439 0.6948961615562439
0.72002637386322021 0.72002637386322021 0.72002637386322021
0.723186194896698 0.723186194896698 0.723186194896698
0.73539453744888306 0.73539453744888306 0.73539453744888306
0.76565194129943848 0.76565194129943848 0.76565194129943848
0.80671197175979614 0.80671197175979614 0.80671197175979614
0.8625367283821106 0.8625367283821106 0.8625367283821106
0.86638325452804565 0.86638325452804565 0.86638325452804565
0.87316721677780151 0.87316721677780151 0.87316721677780151
0.89053267240524292 0.89053267240524292 0.89053267240524292
0.91643494367599487 0.91643494367599487 0.91643494367599487
0.39918422698974609 0.39918422698974609 0.39918422698974609
0.42620950937271118 0.42620950937271118 0.42620950937271118
0.47396531701087952 0.47396531701087952 0.47396531701087952
0.53982293605804443 0.53982293605804443 0.53982293605804443
0.61148703098297119 0.61148703098297119 0.61148703098297119
0.51906007528305054 0.51906007528305054 0.51906007528305054
0.53271776437759399 0.53271776437759399 0.53271776437759399
0.56431645154953003 0.56431645154953003 0.56431645154953003
0.61885780096054077 0.61885780096054077 0.61885780096054077
0.68164360523223877 0.68164360523223877 0.68164360523223877
0.65618991851806641 0.65618991851806641 0.65618991851806641
0.65926027297973633 0.65926027297973633 0.65926027297973633
0.67516952753067017 0.67516952753067017 0.67516952753067017
0.71362441778182983 0.71362441778182983 0.71362441778182983
0.76265227794647217 0.76265227794647217 0.76265227794647217
0.78570848703384399 0.78570848703384399 0.78570848703384399
0.78819894790649414 0.78819894790649414 0.78819894790649414
0.79704254865646362 0.79704254865646362 0.79704254865646362
0.81994044780731201 0.81994044780731201 0.81994044780731201
0.85328406095504761 0.85328406095504761 0.85328406095504761
0.90234142541885376 0.90234142541885376 0.90234142541885376
0.90653294324874878 0.90653294324874878 0.90653294324874878
0.91238969564437866 0.91238969564437866 0.91238969564437866
0.92524933815002441 0.92524933815002441 0.92524933815002441
0.94626927375793457 0.94626927375793457 0.94626927375793457
0.55076771974563599 0.55076771974563599 0.55076771974563599
0.563243567943573 0.563243567943573 0.563243567943573
0.5971716046333313 0.5971716046333313 0.5971716046333313
0.65210765600204468 0.65210765600204468 0.65210765600204468
0.71759533882141113 0.71759533882141113 0.71759533882141113
0.64854222536087036 0.64854222536087036 0.64854222536087036
0.6564490795135498 0.6564490795135498 0.6564490795135498
0.67919307947158813 0.67919307947158813 0.67919307947158813
0.72103804349899292 0.72103804349899292 0.72103804349899292
0.77027720212936401 0.77027720212936401 0.77027720212936401
0.7638857364654541 0.7638857364654541 0.7638857364654541
0.76023334264755249 0.76023334264755249 0.76023334264755249
0.77059602737426758 0.77059602737426758 0.77059602737426758
0.79774743318557739 0.79774743318557739 0.79774743318557739
0.8344569206237793 0.8344569206237793 0.8344569206237793
0.85876238346099854 0.85876238346099854 0.85876238346099854
0.86046379804611206 0.86046379804611206 0.86046379804611206
0.86599290370941162 0.86599290370941162 0.86599290370941162
0.88189136981964111 0.88189136981964111 0.88189136981964111
0.90699964761734009 0.90699964761734009 0.90699964761734009
0.95134580135345459 0.95134580135345459 0.95134580135345459
0.9550897479057312 0.9550897479057312 0.9550897479057312
0.95953243970870972 0.95953243970870972 0.95953243970870972
0.96829032897949219 0.96829032897949219 0.96829032897949219
0.98263645172119141 0.98263645172119141 0.98263645172119141
