films/ilford_xp_2.cube
# Created by: G'MIC (https://gmic.eu)
TITLE "ilford_xp_2"
# LUT size
LUT_3D_SIZE 13
# Data domain
DOMAIN_MIN 0.0 0.0 0.0
DOMAIN_MAX 1.0 1.0 1.0
# LUT data points
0.018189089372754097 0.018189089372754097 0.018189089372754097
0.019919885322451591 0.019919885322451591 0.019919885322451591
0.025682097300887108 0.025682097300887108 0.025682097300887108
0.032456759363412857 0.032456759363412857 0.032456759363412857
0.039317380636930466 0.039317380636930466 0.039317380636930466
0.047386273741722107 0.047386273741722107 0.047386273741722107
0.061871055513620377 0.061871055513620377 0.061871055513620377
0.088338382542133331 0.088338382542133331 0.088338382542133331
0.11982777714729309 0.11982777714729309 0.11982777714729309
0.15329824388027191 0.15329824388027191 0.15329824388027191
0.18807940185070038 0.18807940185070038 0.18807940185070038
0.22383973002433777 0.22383973002433777 0.22383973002433777
0.26050534844398499 0.26050534844398499 0.26050534844398499
0.047612689435482025 0.047612689435482025 0.047612689435482025
0.047577653080224991 0.047577653080224991 0.047577653080224991
0.052646845579147339 0.052646845579147339 0.052646845579147339
0.059692937880754471 0.059692937880754471 0.059692937880754471
0.067585870623588562 0.067585870623588562 0.067585870623588562
0.077480822801589966 0.077480822801589966 0.077480822801589966
0.092904113233089447 0.092904113233089447 0.092904113233089447
0.11619572341442108 0.11619572341442108 0.11619572341442108
0.14485704898834229 0.14485704898834229 0.14485704898834229
0.17628350853919983 0.17628350853919983 0.17628350853919983
0.20976392924785614 0.20976392924785614 0.20976392924785614
0.24486304819583893 0.24486304819583893 0.24486304819583893
0.28096720576286316 0.28096720576286316 0.28096720576286316
0.082946330308914185 0.082946330308914185 0.082946330308914185
0.082008734345436096 0.082008734345436096 0.082008734345436096
0.086533412337303162 0.086533412337303162 0.086533412337303162
0.09370875358581543 0.09370875358581543 0.09370875358581543
0.10276803374290466 0.10276803374290466 0.10276803374290466
0.11422581225633621 0.11422581225633621 0.11422581225633621
0.13022106885910034 0.13022106885910034 0.13022106885910034
0.15085278451442719 0.15085278451442719 0.15085278451442719
0.17624732851982117 0.17624732851982117 0.17624732851982117
0.20520253479480743 0.20520253479480743 0.20520253479480743
0.23673522472381592 0.23673522472381592 0.23673522472381592
0.27041721343994141 0.27041721343994141 0.27041721343994141
0.30570051074028015 0.30570051074028015 0.30570051074028015
0.12193015962839127 0.12193015962839127 0.12193015962839127
0.12099812924861908 0.12099812924861908 0.12099812924861908
0.12544174492359161 0.12544174492359161 0.12544174492359161
0.13304151594638824 0.13304151594638824 0.13304151594638824
0.1430538147687912 0.1430538147687912 0.1430538147687912
0.15522958338260651 0.15522958338260651 0.15522958338260651
0.17074577510356903 0.17074577510356903 0.17074577510356903
0.18989792466163635 0.18989792466163635 0.18989792466163635
0.21281047165393829 0.21281047165393829 0.21281047165393829
0.23894350230693817 0.23894350230693817 0.23894350230693817
0.26809656620025635 0.26809656620025635 0.26809656620025635
0.30010479688644409 0.30010479688644409 0.30010479688644409
0.33442342281341553 0.33442342281341553 0.33442342281341553
0.1640501469373703 0.1640501469373703 0.1640501469373703
0.16387827694416046 0.16387827694416046 0.16387827694416046
0.16890232264995575 0.16890232264995575 0.16890232264995575
0.17709241807460785 0.17709241807460785 0.17709241807460785
0.18775893747806549 0.18775893747806549 0.18775893747806549
0.2005138099193573 0.2005138099193573 0.2005138099193573
0.21554854512214661 0.21554854512214661 0.21554854512214661
0.23343531787395477 0.23343531787395477 0.23343531787395477
0.25397983193397522 0.25397983193397522 0.25397983193397522
0.27707585692405701 0.27707585692405701 0.27707585692405701
0.30344271659851074 0.30344271659851074 0.30344271659851074
0.33364269137382507 0.33364269137382507 0.33364269137382507
0.36718291044235229 0.36718291044235229 0.36718291044235229
0.20992487668991089 0.20992487668991089 0.20992487668991089
0.21139779686927795 0.21139779686927795 0.21139779686927795
0.21743848919868469 0.21743848919868469 0.21743848919868469
0.22630982100963593 0.22630982100963593 0.22630982100963593
0.2371906191110611 0.2371906191110611 0.2371906191110611
0.2501562237739563 0.2501562237739563 0.2501562237739563
0.26494410634040833 0.26494410634040833 0.26494410634040833
0.28147733211517334 0.28147733211517334 0.28147733211517334
0.30012482404708862 0.30012482404708862 0.30012482404708862
0.32016181945800781 0.32016181945800781 0.32016181945800781
0.34330454468727112 0.34330454468727112 0.34330454468727112
0.3716217577457428 0.3716217577457428 0.3716217577457428
0.40438687801361084 0.40438687801361084 0.40438687801361084
0.26339858770370483 0.26339858770370483 0.26339858770370483
0.26585772633552551 0.26585772633552551 0.26585772633552551
0.27185854315757751 0.27185854315757751 0.27185854315757751
0.28062808513641357 0.28062808513641357 0.28062808513641357
0.2916567325592041 0.2916567325592041 0.2916567325592041
0.30456236004829407 0.30456236004829407 0.30456236004829407
0.31907126307487488 0.31907126307487488 0.31907126307487488
0.33479806780815125 0.33479806780815125 0.33479806780815125
0.35130685567855835 0.35130685567855835 0.35130685567855835
0.36902099847793579 0.36902099847793579 0.36902099847793579
0.38891664147377014 0.38891664147377014 0.38891664147377014
0.41521427035331726 0.41521427035331726 0.41521427035331726
0.44746547937393188 0.44746547937393188 0.44746547937393188
0.32820916175842285 0.32820916175842285 0.32820916175842285
0.32817670702934265 0.32817670702934265 0.32817670702934265
0.33237576484680176 0.33237576484680176 0.33237576484680176
0.34010285139083862 0.34010285139083862 0.34010285139083862
0.35075581073760986 0.35075581073760986 0.35075581073760986
0.36375489830970764 0.36375489830970764 0.36375489830970764
0.37811771035194397 0.37811771035194397 0.37811771035194397
0.39337411522865295 0.39337411522865295 0.39337411522865295
0.40901273488998413 0.40901273488998413 0.40901273488998413
0.42545464634895325 0.42545464634895325 0.42545464634895325
0.44409379363059998 0.44409379363059998 0.44409379363059998
0.4683481752872467 0.4683481752872467 0.4683481752872467
0.49756062030792236 0.49756062030792236 0.49756062030792236
0.39843478798866272 0.39843478798866272 0.39843478798866272
0.39627638459205627 0.39627638459205627 0.39627638459205627
0.39796346426010132 0.39796346426010132 0.39796346426010132
0.40398207306861877 0.40398207306861877 0.40398207306861877
0.41442990303039551 0.41442990303039551 0.41442990303039551
0.42763769626617432 0.42763769626617432 0.42763769626617432
0.44197872281074524 0.44197872281074524 0.44197872281074524
0.456703782081604 0.456703782081604 0.456703782081604
0.47174549102783203 0.47174549102783203 0.47174549102783203
0.48786777257919312 0.48786777257919312 0.48786777257919312
0.50621777772903442 0.50621777772903442 0.50621777772903442
0.52821201086044312 0.52821201086044312 0.52821201086044312
0.55353075265884399 0.55353075265884399 0.55353075265884399
0.47179475426673889 0.47179475426673889 0.47179475426673889
0.46846982836723328 0.46846982836723328 0.46846982836723328
0.46788212656974792 0.46788212656974792 0.46788212656974792
0.47212812304496765 0.47212812304496765 0.47212812304496765
0.48213931918144226 0.48213931918144226 0.48213931918144226
0.49546849727630615 0.49546849727630615 0.49546849727630615
0.50961822271347046 0.50961822271347046 0.50961822271347046
0.52357858419418335 0.52357858419418335 0.52357858419418335
0.53776270151138306 0.53776270151138306 0.53776270151138306
0.553089439868927 0.553089439868927 0.553089439868927
0.57054108381271362 0.57054108381271362 0.57054108381271362
0.59051239490509033 0.59051239490509033 0.59051239490509033
0.61243271827697754 0.61243271827697754 0.61243271827697754
0.54722243547439575 0.54722243547439575 0.54722243547439575
0.54328644275665283 0.54328644275665283 0.54328644275665283
0.54073864221572876 0.54073864221572876 0.54073864221572876
0.54411739110946655 0.54411739110946655 0.54411739110946655
0.55340373516082764 0.55340373516082764 0.55340373516082764
0.5663333535194397 0.5663333535194397 0.5663333535194397
0.5795784592628479 0.5795784592628479 0.5795784592628479
0.59210485219955444 0.59210485219955444 0.59210485219955444
0.60457175970077515 0.60457175970077515 0.60457175970077515
0.61869663000106812 0.61869663000106812 0.61869663000106812
0.63484591245651245 0.63484591245651245 0.63484591245651245
0.65301841497421265 0.65301841497421265 0.65301841497421265
0.67218637466430664 0.67218637466430664 0.67218637466430664
0.62246644496917725 0.62246644496917725 0.62246644496917725
0.61763358116149902 0.61763358116149902 0.61763358116149902
0.61442255973815918 0.61442255973815918 0.61442255973815918
0.61659836769104004 0.61659836769104004 0.61659836769104004
0.62495136260986328 0.62495136260986328 0.62495136260986328
0.63745665550231934 0.63745665550231934 0.63745665550231934
0.64996802806854248 0.64996802806854248 0.64996802806854248
0.65985143184661865 0.65985143184661865 0.65985143184661865
0.66976350545883179 0.66976350545883179 0.66976350545883179
0.681862473487854 0.681862473487854 0.681862473487854
0.69681257009506226 0.69681257009506226 0.69681257009506226
0.71388000249862671 0.71388000249862671 0.71388000249862671
0.73112928867340088 0.73112928867340088 0.73112928867340088
0.69205397367477417 0.69205397367477417 0.69205397367477417
0.68600523471832275 0.68600523471832275 0.68600523471832275
0.6824493408203125 0.6824493408203125 0.6824493408203125
0.68433362245559692 0.68433362245559692 0.68433362245559692
0.69185787439346313 0.69185787439346313 0.69185787439346313
0.70396673679351807 0.70396673679351807 0.70396673679351807
0.71587389707565308 0.71587389707565308 0.71587389707565308
0.722736656665802 0.722736656665802 0.722736656665802
0.73047435283660889 0.73047435283660889 0.73047435283660889
0.74083822965621948 0.74083822965621948 0.74083822965621948
0.75424879789352417 0.75424879789352417 0.75424879789352417
0.77018898725509644 0.77018898725509644 0.77018898725509644
0.78617864847183228 0.78617864847183228 0.78617864847183228
0.038050618022680283 0.038050618022680283 0.038050618022680283
0.039406269788742065 0.039406269788742065 0.039406269788742065
0.045848950743675232 0.045848950743675232 0.045848950743675232
0.054047171026468277 0.054047171026468277 0.054047171026468277
0.062029954046010971 0.062029954046010971 0.062029954046010971
0.071648754179477692 0.071648754179477692 0.071648754179477692
0.086753889918327332 0.086753889918327332 0.086753889918327332
0.10987570136785507 0.10987570136785507 0.10987570136785507
0.13852758705615997 0.13852758705615997 0.13852758705615997
0.17050687968730927 0.17050687968730927 0.17050687968730927
0.20428213477134705 0.20428213477134705 0.20428213477134705
0.23954188823699951 0.23954188823699951 0.23954188823699951
0.27535048127174377 0.27535048127174377 0.27535048127174377
0.06540273129940033 0.06540273129940033 0.06540273129940033
0.06644846498966217 0.06644846498966217 0.06644846498966217
0.072980962693691254 0.072980962693691254 0.072980962693691254
0.081413775682449341 0.081413775682449341 0.081413775682449341
0.089986748993396759 0.089986748993396759 0.089986748993396759
0.10005873441696167 0.10005873441696167 0.10005873441696167
0.11480022966861725 0.11480022966861725 0.11480022966861725
0.13610994815826416 0.13610994815826416 0.13610994815826416
0.16277216374874115 0.16277216374874115 0.16277216374874115
0.19311289489269257 0.19311289489269257 0.19311289489269257
0.22566486895084381 0.22566486895084381 0.22566486895084381
0.26008778810501099 0.26008778810501099 0.26008778810501099
0.29606029391288757 0.29606029391288757 0.29606029391288757
0.099216818809509277 0.099216818809509277 0.099216818809509277
0.099826395511627197 0.099826395511627197 0.099826395511627197
0.10576113313436508 0.10576113313436508 0.10576113313436508
0.11414968222379684 0.11414968222379684 0.11414968222379684
0.12360744178295135 0.12360744178295135 0.12360744178295135
0.13454364240169525 0.13454364240169525 0.13454364240169525
0.14960075914859772 0.14960075914859772 0.14960075914859772
0.16910336911678314 0.16910336911678314 0.16910336911678314
0.19324029982089996 0.19324029982089996 0.19324029982089996
0.22109368443489075 0.22109368443489075 0.22109368443489075
0.25205263495445251 0.25205263495445251 0.25205263495445251
0.28520593047142029 0.28520593047142029 0.28520593047142029
0.32037857174873352 0.32037857174873352 0.32037857174873352
0.13710573315620422 0.13710573315620422 0.13710573315620422
0.1373288482427597 0.1373288482427597 0.1373288482427597
0.14286433160305023 0.14286433160305023 0.14286433160305023
0.1514531672000885 0.1514531672000885 0.1514531672000885
0.16157415509223938 0.16157415509223938 0.16157415509223938
0.17333026230335236 0.17333026230335236 0.17333026230335236
0.18820095062255859 0.18820095062255859 0.18820095062255859
0.20698121190071106 0.20698121190071106 0.20698121190071106
0.2283601313829422 0.2283601313829422 0.2283601313829422
0.25393521785736084 0.25393521785736084 0.25393521785736084
0.28256896138191223 0.28256896138191223 0.28256896138191223
0.31430593132972717 0.31430593132972717 0.31430593132972717
0.34859725832939148 0.34859725832939148 0.34859725832939148
0.17839056253433228 0.17839056253433228 0.17839056253433228
0.17889240384101868 0.17889240384101868 0.17889240384101868
0.18452875316143036 0.18452875316143036 0.18452875316143036
0.19335560500621796 0.19335560500621796 0.19335560500621796
0.20391674339771271 0.20391674339771271 0.20391674339771271
0.21641916036605835 0.21641916036605835 0.21641916036605835
0.23104298114776611 0.23104298114776611 0.23104298114776611
0.24812737107276917 0.24812737107276917 0.24812737107276917
0.26841530203819275 0.26841530203819275 0.26841530203819275
0.29114553332328796 0.29114553332328796 0.29114553332328796
0.31719678640365601 0.31719678640365601 0.31719678640365601
0.3471686840057373 0.3471686840057373 0.3471686840057373
0.38062581419944763 0.38062581419944763 0.38062581419944763
0.223308265209198 0.223308265209198 0.223308265209198
0.22500930726528168 0.22500930726528168 0.22500930726528168
0.23117835819721222 0.23117835819721222 0.23117835819721222
0.24010938405990601 0.24010938405990601 0.24010938405990601
0.25116369128227234 0.25116369128227234 0.25116369128227234
0.26394003629684448 0.26394003629684448 0.26394003629684448
0.27854529023170471 0.27854529023170471 0.27854529023170471
0.29495558142662048 0.29495558142662048 0.29495558142662048
0.3130057156085968 0.3130057156085968 0.3130057156085968
0.33270511031150818 0.33270511031150818 0.33270511031150818
0.35558429360389709 0.35558429360389709 0.35558429360389709
0.38374879956245422 0.38374879956245422 0.38374879956245422
0.41711235046386719 0.41711235046386719 0.41711235046386719
0.27612823247909546 0.27612823247909546 0.27612823247909546
0.27769216895103455 0.27769216895103455 0.27769216895103455
0.28377121686935425 0.28377121686935425 0.28377121686935425
0.29247921705245972 0.29247921705245972 0.29247921705245972
0.30350345373153687 0.30350345373153687 0.30350345373153687
0.31656080484390259 0.31656080484390259 0.31656080484390259
0.33104845881462097 0.33104845881462097 0.33104845881462097
0.34672996401786804 0.34672996401786804 0.34672996401786804
0.36328801512718201 0.36328801512718201 0.36328801512718201
0.38067087531089783 0.38067087531089783 0.38067087531089783
0.39963540434837341 0.39963540434837341 0.39963540434837341
0.42598196864128113 0.42598196864128113 0.42598196864128113
0.45923557877540588 0.45923557877540588 0.45923557877540588
0.33867219090461731 0.33867219090461731 0.33867219090461731
0.33821463584899902 0.33821463584899902 0.33821463584899902
0.34187477827072144 0.34187477827072144 0.34187477827072144
0.34957042336463928 0.34957042336463928 0.34957042336463928
0.36055669188499451 0.36055669188499451 0.36055669188499451
0.37400177121162415 0.37400177121162415 0.37400177121162415
0.3886447548866272 0.3886447548866272 0.3886447548866272
0.40406668186187744 0.40406668186187744 0.40406668186187744
0.41984403133392334 0.41984403133392334 0.41984403133392334
0.43617284297943115 0.43617284297943115 0.43617284297943115
0.45424577593803406 0.45424577593803406 0.45424577593803406
0.47889426350593567 0.47889426350593567 0.47889426350593567
0.50872862339019775 0.50872862339019775 0.50872862339019775
0.40701419115066528 0.40701419115066528 0.40701419115066528
0.4041253924369812 0.4041253924369812 0.4041253924369812
0.40469405055046082 0.40469405055046082 0.40469405055046082
0.41059941053390503 0.41059941053390503 0.41059941053390503
0.4217860996723175 0.4217860996723175 0.4217860996723175
0.43602186441421509 0.43602186441421509 0.43602186441421509
0.45103234052658081 0.45103234052658081 0.45103234052658081
0.46627593040466309 0.46627593040466309 0.46627593040466309
0.48175254464149475 0.48175254464149475 0.48175254464149475
0.49796304106712341 0.49796304106712341 0.49796304106712341
0.51641815900802612 0.51641815900802612 0.51641815900802612
0.5385444164276123 0.5385444164276123 0.5385444164276123
0.5641789436340332 0.5641789436340332 0.5641789436340332
0.47834128141403198 0.47834128141403198 0.47834128141403198
0.47393220663070679 0.47393220663070679 0.47393220663070679
0.47154217958450317 0.47154217958450317 0.47154217958450317
0.47524425387382507 0.47524425387382507 0.47524425387382507
0.48745560646057129 0.48745560646057129 0.48745560646057129
0.50226742029190063 0.50226742029190063 0.50226742029190063
0.51726233959197998 0.51726233959197998 0.51726233959197998
0.53185707330703735 0.53185707330703735 0.53185707330703735
0.54665935039520264 0.54665935039520264 0.54665935039520264
0.56244325637817383 0.56244325637817383 0.56244325637817383
0.58010292053222656 0.58010292053222656 0.58010292053222656
0.60020411014556885 0.60020411014556885 0.60020411014556885
0.62222111225128174 0.62222111225128174 0.62222111225128174
0.55161154270172119 0.55161154270172119 0.55161154270172119
0.54704183340072632 0.54704183340072632 0.54704183340072632
0.54386323690414429 0.54386323690414429 0.54386323690414429
0.54667222499847412 0.54667222499847412 0.54667222499847412
0.55746179819107056 0.55746179819107056 0.55746179819107056
0.5716407299041748 0.5716407299041748 0.5716407299041748
0.58583188056945801 0.58583188056945801 0.58583188056945801
0.59927082061767578 0.59927082061767578 0.59927082061767578
0.61259019374847412 0.61259019374847412 0.61259019374847412
0.62709325551986694 0.62709325551986694 0.62709325551986694
0.64348036050796509 0.64348036050796509 0.64348036050796509
0.6616026759147644 0.6616026759147644 0.6616026759147644
0.68110281229019165 0.68110281229019165 0.68110281229019165
0.62413477897644043 0.62413477897644043 0.62413477897644043
0.62006455659866333 0.62006455659866333 0.62006455659866333
0.61739099025726318 0.61739099025726318 0.61739099025726318
0.61990451812744141 0.61990451812744141 0.61990451812744141
0.62875241041183472 0.62875241041183472 0.62875241041183472
0.64122051000595093 0.64122051000595093 0.64122051000595093
0.65403968095779419 0.65403968095779419 0.65403968095779419
0.66543298959732056 0.66543298959732056 0.66543298959732056
0.67679178714752197 0.67679178714752197 0.67679178714752197
0.68972289562225342 0.68972289562225342 0.68972289562225342
0.70461928844451904 0.70461928844451904 0.70461928844451904
0.72130966186523438 0.72130966186523438 0.72130966186523438
0.73808556795120239 0.73808556795120239 0.73808556795120239
0.69046849012374878 0.69046849012374878 0.69046849012374878
0.68791186809539795 0.68791186809539795 0.68791186809539795
0.68593114614486694 0.68593114614486694 0.68593114614486694
0.68828243017196655 0.68828243017196655 0.68828243017196655
0.69585525989532471 0.69585525989532471 0.69585525989532471
0.70681077241897583 0.70681077241897583 0.70681077241897583
0.71810579299926758 0.71810579299926758 0.71810579299926758
0.7274709939956665 0.7274709939956665 0.7274709939956665
0.73683845996856689 0.73683845996856689 0.73683845996856689
0.74806326627731323 0.74806326627731323 0.74806326627731323
0.76145690679550171 0.76145690679550171 0.76145690679550171
0.77647882699966431 0.77647882699966431 0.77647882699966431
0.79126620292663574 0.79126620292663574 0.79126620292663574
0.063914567232131958 0.063914567232131958 0.063914567232131958
0.066253006458282471 0.066253006458282471 0.066253006458282471
0.074137039482593536 0.074137039482593536 0.074137039482593536
0.084022805094718933 0.084022805094718933 0.084022805094718933
0.09341035783290863 0.09341035783290863 0.09341035783290863
0.10367355495691299 0.10367355495691299 0.10367355495691299
0.11820708960294724 0.11820708960294724 0.11820708960294724
0.13859905302524567 0.13859905302524567 0.13859905302524567
0.16460007429122925 0.16460007429122925 0.16460007429122925
0.19403813779354095 0.19403813779354095 0.19403813779354095
0.22644259035587311 0.22644259035587311 0.22644259035587311
0.2605043351650238 0.2605043351650238 0.2605043351650238
0.29588797688484192 0.29588797688484192 0.29588797688484192
0.090322189033031464 0.090322189033031464 0.090322189033031464
0.093173563480377197 0.093173563480377197 0.093173563480377197
0.10175853222608566 0.10175853222608566 0.10175853222608566
0.11250448971986771 0.11250448971986771 0.11250448971986771
0.12134958803653717 0.12134958803653717 0.12134958803653717
0.1307927668094635 0.1307927668094635 0.1307927668094635
0.1444065272808075 0.1444065272808075 0.1444065272808075
0.16363276541233063 0.16363276541233063 0.16363276541233063
0.18803523480892181 0.18803523480892181 0.18803523480892181
0.2162490040063858 0.2162490040063858 0.2162490040063858
0.2476092129945755 0.2476092129945755 0.2476092129945755
0.28115016222000122 0.28115016222000122 0.28115016222000122
0.31630432605743408 0.31630432605743408 0.31630432605743408
0.12324037402868271 0.12324037402868271 0.12324037402868271
0.12545178830623627 0.12545178830623627 0.12545178830623627
0.1334107369184494 0.1334107369184494 0.1334107369184494
0.14353759586811066 0.14353759586811066 0.14353759586811066
0.15288543701171875 0.15288543701171875 0.15288543701171875
0.16289263963699341 0.16289263963699341 0.16289263963699341
0.17634466290473938 0.17634466290473938 0.17634466290473938
0.19446295499801636 0.19446295499801636 0.19446295499801636
0.21710763871669769 0.21710763871669769 0.21710763871669769
0.2439238429069519 0.2439238429069519 0.2439238429069519
0.27368929982185364 0.27368929982185364 0.27368929982185364
0.30615180730819702 0.30615180730819702 0.30615180730819702
0.34048759937286377 0.34048759937286377 0.34048759937286377
0.1603551059961319 0.1603551059961319 0.1603551059961319
0.16196727752685547 0.16196727752685547 0.16196727752685547
0.168426513671875 0.168426513671875 0.168426513671875
0.17791749536991119 0.17791749536991119 0.17791749536991119
0.18764744699001312 0.18764744699001312 0.18764744699001312
0.1988970935344696 0.1988970935344696 0.1988970935344696
0.21271257102489471 0.21271257102489471 0.21271257102489471
0.23015458881855011 0.23015458881855011 0.23015458881855011
0.25125661492347717 0.25125661492347717 0.25125661492347717
0.27595770359039307 0.27595770359039307 0.27595770359039307
0.30399098992347717 0.30399098992347717 0.30399098992347717
0.33496469259262085 0.33496469259262085 0.33496469259262085
0.36842754483222961 0.36842754483222961 0.36842754483222961
0.20142216980457306 0.20142216980457306 0.20142216980457306
0.20230044424533844 0.20230044424533844 0.20230044424533844
0.20817889273166656 0.20817889273166656 0.20817889273166656
0.21697933971881866 0.21697933971881866 0.21697933971881866
0.22729027271270752 0.22729027271270752 0.22729027271270752
0.23919418454170227 0.23919418454170227 0.23919418454170227
0.2532920241355896 0.2532920241355896 0.2532920241355896
