films/ilford_hp_5_plus_400.cube
# Created by: G'MIC (https://gmic.eu)
TITLE "ilford_hp_5_plus_400"
# LUT size
LUT_3D_SIZE 5
# Data domain
DOMAIN_MIN 0.0 0.0 0.0
DOMAIN_MAX 1.0 1.0 1.0
# LUT data points
0.022514762356877327 0.022514762356877327 0.022514762356877327
0.043247822672128677 0.043247822672128677 0.043247822672128677
0.098523370921611786 0.098523370921611786 0.098523370921611786
0.23095209896564484 0.23095209896564484 0.23095209896564484
0.43075704574584961 0.43075704574584961 0.43075704574584961
0.11000562459230423 0.11000562459230423 0.11000562459230423
0.13967776298522949 0.13967776298522949 0.13967776298522949
0.21934625506401062 0.21934625506401062 0.21934625506401062
0.34260672330856323 0.34260672330856323 0.34260672330856323
0.49955886602401733 0.49955886602401733 0.49955886602401733
0.28289148211479187 0.28289148211479187 0.28289148211479187
0.33451160788536072 0.33451160788536072 0.33451160788536072
0.3737952709197998 0.3737952709197998 0.3737952709197998
0.47100195288658142 0.47100195288658142 0.47100195288658142
0.61574345827102661 0.61574345827102661 0.61574345827102661
0.53422528505325317 0.53422528505325317 0.53422528505325317
0.54377800226211548 0.54377800226211548 0.54377800226211548
0.55867940187454224 0.55867940187454224 0.55867940187454224
0.64310312271118164 0.64310312271118164 0.64310312271118164
0.73873859643936157 0.73873859643936157 0.73873859643936157
0.76489883661270142 0.76489883661270142 0.76489883661270142
0.7598535418510437 0.7598535418510437 0.7598535418510437
0.77157068252563477 0.77157068252563477 0.77157068252563477
0.81591904163360596 0.81591904163360596 0.81591904163360596
0.8885149359703064 0.8885149359703064 0.8885149359703064
0.09011579304933548 0.09011579304933548 0.09011579304933548
0.11411020904779434 0.11411020904779434 0.11411020904779434
0.21500717103481293 0.21500717103481293 0.21500717103481293
0.32200437784194946 0.32200437784194946 0.32200437784194946
0.49902158975601196 0.49902158975601196 0.49902158975601196
0.21673931181430817 0.21673931181430817 0.21673931181430817
0.22971987724304199 0.22971987724304199 0.22971987724304199
0.29404643177986145 0.29404643177986145 0.29404643177986145
0.41382831335067749 0.41382831335067749 0.41382831335067749
0.55784142017364502 0.55784142017364502 0.55784142017364502
0.3896087110042572 0.3896087110042572 0.3896087110042572
0.3953796923160553 0.3953796923160553 0.3953796923160553
0.43805405497550964 0.43805405497550964 0.43805405497550964
0.52351367473602295 0.52351367473602295 0.52351367473602295
0.65277040004730225 0.65277040004730225 0.65277040004730225
0.5854341983795166 0.5854341983795166 0.5854341983795166
0.56968897581100464 0.56968897581100464 0.56968897581100464
0.6146206259727478 0.6146206259727478 0.6146206259727478
0.68620342016220093 0.68620342016220093 0.68620342016220093
0.77539432048797607 0.77539432048797607 0.77539432048797607
0.78908127546310425 0.78908127546310425 0.78908127546310425
0.78254729509353638 0.78254729509353638 0.78254729509353638
0.80080771446228027 0.80080771446228027 0.80080771446228027
0.84696149826049805 0.84696149826049805 0.84696149826049805
0.89095228910446167 0.89095228910446167 0.89095228910446167
0.16680727899074554 0.16680727899074554 0.16680727899074554
0.2297021895647049 0.2297021895647049 0.2297021895647049
0.30333337187767029 0.30333337187767029 0.30333337187767029
0.4686940610408783 0.4686940610408783 0.4686940610408783
0.606842041015625 0.606842041015625 0.606842041015625
0.32653653621673584 0.32653653621673584 0.32653653621673584
0.35867977142333984 0.35867977142333984 0.35867977142333984
0.41893106698989868 0.41893106698989868 0.41893106698989868
0.52140694856643677 0.52140694856643677 0.52140694856643677
0.64044773578643799 0.64044773578643799 0.64044773578643799
0.47508373856544495 0.47508373856544495 0.47508373856544495
0.50627130270004272 0.50627130270004272 0.50627130270004272
0.55259877443313599 0.55259877443313599 0.55259877443313599
0.61747652292251587 0.61747652292251587 0.61747652292251587
0.71612954139709473 0.71612954139709473 0.71612954139709473
0.65434819459915161 0.65434819459915161 0.65434819459915161
0.66841816902160645 0.66841816902160645 0.66841816902160645
0.69008415937423706 0.69008415937423706 0.69008415937423706
0.74931317567825317 0.74931317567825317 0.74931317567825317
0.81755977869033813 0.81755977869033813 0.81755977869033813
0.82503640651702881 0.82503640651702881 0.82503640651702881
0.82071566581726074 0.82071566581726074 0.82071566581726074
0.85347902774810791 0.85347902774810791 0.85347902774810791
0.8826301097869873 0.8826301097869873 0.8826301097869873
0.93102872371673584 0.93102872371673584 0.93102872371673584
0.33384570479393005 0.33384570479393005 0.33384570479393005
0.39068371057510376 0.39068371057510376 0.39068371057510376
0.48587462306022644 0.48587462306022644 0.48587462306022644
0.61136502027511597 0.61136502027511597 0.61136502027511597
0.70620870590209961 0.70620870590209961 0.70620870590209961
0.47954246401786804 0.47954246401786804 0.47954246401786804
0.50389832258224487 0.50389832258224487 0.50389832258224487
0.56172960996627808 0.56172960996627808 0.56172960996627808
0.66408634185791016 0.66408634185791016 0.66408634185791016
0.74692147970199585 0.74692147970199585 0.74692147970199585
0.62060290575027466 0.62060290575027466 0.62060290575027466
0.63087677955627441 0.63087677955627441 0.63087677955627441
0.66710579395294189 0.66710579395294189 0.66710579395294189
0.70139598846435547 0.70139598846435547 0.70139598846435547
0.77890682220458984 0.77890682220458984 0.77890682220458984
0.74962019920349121 0.74962019920349121 0.74962019920349121
0.75990331172943115 0.75990331172943115 0.75990331172943115
0.78322160243988037 0.78322160243988037 0.78322160243988037
0.81074243783950806 0.81074243783950806 0.81074243783950806
0.84299176931381226 0.84299176931381226 0.84299176931381226
0.88612562417984009 0.88612562417984009 0.88612562417984009
0.88720989227294922 0.88720989227294922 0.88720989227294922
0.9086688756942749 0.9086688756942749 0.9086688756942749
0.9221642017364502 0.9221642017364502 0.9221642017364502
0.94297075271606445 0.94297075271606445 0.94297075271606445
0.53643029928207397 0.53643029928207397 0.53643029928207397
0.57130634784698486 0.57130634784698486 0.57130634784698486
0.63084977865219116 0.63084977865219116 0.63084977865219116
0.71074998378753662 0.71074998378753662 0.71074998378753662
0.78588473796844482 0.78588473796844482 0.78588473796844482
0.65440523624420166 0.65440523624420166 0.65440523624420166
0.64933449029922485 0.64933449029922485 0.64933449029922485
0.70039695501327515 0.70039695501327515 0.70039695501327515
0.76800096035003662 0.76800096035003662 0.76800096035003662
0.83099484443664551 0.83099484443664551 0.83099484443664551
0.7508234977722168 0.7508234977722168 0.7508234977722168
0.7612001895904541 0.7612001895904541 0.7612001895904541
0.78948652744293213 0.78948652744293213 0.78948652744293213
0.81850850582122803 0.81850850582122803 0.81850850582122803
0.88302505016326904 0.88302505016326904 0.88302505016326904
0.86110597848892212 0.86110597848892212 0.86110597848892212
0.86882805824279785 0.86882805824279785 0.86882805824279785
0.87790322303771973 0.87790322303771973 0.87790322303771973
0.89086037874221802 0.89086037874221802 0.89086037874221802
0.91008538007736206 0.91008538007736206 0.91008538007736206
0.96496385335922241 0.96496385335922241 0.96496385335922241
0.96685409545898438 0.96685409545898438 0.96685409545898438
0.9522099494934082 0.9522099494934082 0.9522099494934082
0.96592843532562256 0.96592843532562256 0.96592843532562256
0.99069565534591675 0.99069565534591675 0.99069565534591675
