films/ilford_delta_400.cube
TITLE "data/luts/rawtherapee/HaldCLUT/Black-and-White/Ilford/Ilford Delta 400.png"
LUT_3D_SIZE 8
DOMAIN_MIN 0 0 0
DOMAIN_MAX 1 1 1
0.000000 0.000000 0.000000
0.003922 0.003922 0.003922
0.019608 0.019608 0.019608
0.050980 0.050980 0.050980
0.104762 0.104762 0.104762
0.180952 0.180952 0.180952
0.268908 0.268908 0.268908
0.396078 0.396078 0.396078
0.040896 0.040896 0.040896
0.059544 0.059544 0.059544
0.087395 0.087395 0.087395
0.124370 0.124370 0.124370
0.177671 0.177671 0.177671
0.243697 0.243697 0.243697
0.325490 0.325490 0.325490
0.439216 0.439216 0.439216
0.121008 0.121008 0.121008
0.134454 0.134454 0.134454
0.156783 0.156783 0.156783
0.191597 0.191597 0.191597
0.237535 0.237535 0.237535
0.294598 0.294598 0.294598
0.378471 0.378471 0.378471
0.477871 0.477871 0.477871
0.210084 0.210084 0.210084
0.216807 0.216807 0.216807
0.235854 0.235854 0.235854
0.261064 0.261064 0.261064
0.303081 0.303081 0.303081
0.365826 0.365826 0.365826
0.435934 0.435934 0.435934
0.522689 0.522689 0.522689
0.308683 0.308683 0.308683
0.315406 0.315406 0.315406
0.330692 0.330692 0.330692
0.358864 0.358864 0.358864
0.398880 0.398880 0.398880
0.445938 0.445938 0.445938
0.503081 0.503081 0.503081
0.591036 0.591036 0.591036
0.431933 0.431933 0.431933
0.435854 0.435854 0.435854
0.444258 0.444258 0.444258
0.464826 0.464826 0.464826
0.493717 0.493717 0.493717
0.533894 0.533894 0.533894
0.589116 0.589116 0.589116
0.667227 0.667227 0.667227
0.557423 0.557423 0.557423
0.561345 0.561345 0.561345
0.569188 0.569188 0.569188
0.587195 0.587195 0.587195
0.611685 0.611685 0.611685
0.645698 0.645698 0.645698
0.690756 0.690756 0.690756
0.751261 0.751261 0.751261
0.725490 0.725490 0.725490
0.729412 0.729412 0.729412
0.733333 0.733333 0.733333
0.745098 0.745098 0.745098
0.759664 0.759664 0.759664
0.780392 0.780392 0.780392
0.806162 0.806162 0.806162
0.850980 0.850980 0.850980
0.015686 0.015686 0.015686
0.043858 0.043858 0.043858
0.074190 0.074190 0.074190
0.112125 0.112125 0.112125
0.167987 0.167987 0.167987
0.235854 0.235854 0.235854
0.319888 0.319888 0.319888
0.436975 0.436975 0.436975
0.089636 0.089636 0.089636
0.108523 0.108523 0.108523
0.135700 0.135700 0.135700
0.171840 0.171840 0.171840
0.221128 0.221128 0.221128
0.281358 0.281358 0.281358
0.364843 0.364843 0.364843
0.467387 0.467387 0.467387
0.158303 0.158303 0.158303
0.169885 0.169885 0.169885
0.191802 0.191802 0.191802
0.223038 0.223038 0.223038
0.265729 0.265729 0.265729
0.325490 0.325490 0.325490
0.405842 0.405842 0.405842
0.497719 0.497719 0.497719
0.236415 0.236415 0.236415
0.242017 0.242017 0.242017
0.259624 0.259624 0.259624
0.285794 0.285794 0.285794
0.329412 0.329412 0.329412
0.389047 0.389047 0.389047
0.454342 0.454342 0.454342
0.542297 0.542297 0.542297
0.331573 0.331573 0.331573
0.337335 0.337335 0.337335
0.353021 0.353021 0.353021
0.381067 0.381067 0.381067
0.418304 0.418304 0.418304
0.461956 0.461956 0.461956
0.518973 0.518973 0.518973
0.605122 0.605122 0.605122
0.445698 0.445698 0.445698
0.450443 0.450443 0.450443
0.461133 0.461133 0.461133
0.479735 0.479735 0.479735
0.507940 0.507940 0.507940
0.547933 0.547933 0.547933
0.602904 0.602904 0.602904
0.678992 0.678992 0.678992
0.569908 0.569908 0.569908
0.573418 0.573418 0.573418
0.583593 0.583593 0.583593
0.600560 0.600560 0.600560
0.624604 0.624604 0.624604
0.657463 0.657463 0.657463
0.700829 0.700829 0.700829
0.760784 0.760784 0.760784
0.735014 0.735014 0.735014
0.737255 0.737255 0.737255
0.742617 0.742617 0.742617
0.752941 0.752941 0.752941
0.767987 0.767987 0.767987
0.786315 0.786315 0.786315
0.814006 0.814006 0.814006
0.856583 0.856583 0.856583
0.054342 0.054342 0.054342
0.091637 0.091637 0.091637
0.124370 0.124370 0.124370
0.160384 0.160384 0.160384
0.211605 0.211605 0.211605
0.274510 0.274510 0.274510
0.359104 0.359104 0.359104
0.466667 0.466667 0.466667
0.138375 0.138375 0.138375
0.156543 0.156543 0.156543
0.181787 0.181787 0.181787
0.215869 0.215869 0.215869
0.259761 0.259761 0.259761
0.319648 0.319648 0.319648
0.403681 0.403681 0.403681
0.497479 0.497479 0.497479
0.203361 0.203361 0.203361
0.214600 0.214600 0.214600
0.234242 0.234242 0.234242
0.263145 0.263145 0.263145
0.305528 0.305528 0.305528
0.368147 0.368147 0.368147
0.440416 0.440416 0.440416
0.528371 0.528371 0.528371
0.275630 0.275630 0.275630
0.283153 0.283153 0.283153
0.299080 0.299080 0.299080
0.327571 0.327571 0.327571
0.373235 0.373235 0.373235
0.425187 0.425187 0.425187
0.485554 0.485554 0.485554
0.572149 0.572149 0.572149
0.375190 0.375190 0.375190
0.381673 0.381673 0.381673
0.394741 0.394741 0.394741
0.419173 0.419173 0.419173
0.452261 0.452261 0.452261
0.492517 0.492517 0.492517
0.549911 0.549911 0.549911
0.633613 0.633613 0.633613
0.478431 0.478431 0.478431
0.482387 0.482387 0.482387
0.491168 0.491168 0.491168
0.510501 0.510501 0.510501
0.540216 0.540216 0.540216
0.577934 0.577934 0.577934
0.630458 0.630458 0.630458
0.702521 0.702521 0.702521
0.600560 0.600560 0.600560
0.604162 0.604162 0.604162
0.613560 0.613560 0.613560
0.629452 0.629452 0.629452
0.652478 0.652478 0.652478
0.682845 0.682845 0.682845
0.722129 0.722129 0.722129
0.778711 0.778711 0.778711
0.756303 0.756303 0.756303
0.756863 0.756863 0.756863
0.760784 0.760784 0.760784
0.771989 0.771989 0.771989
0.784314 0.784314 0.784314
0.803441 0.803441 0.803441
0.827451 0.827451 0.827451
0.870028 0.870028 0.870028
0.107003 0.107003 0.107003
0.147419 0.147419 0.147419
0.177431 0.177431 0.177431
0.212885 0.212885 0.212885
0.258824 0.258824 0.258824
0.319328 0.319328 0.319328
0.406162 0.406162 0.406162
0.501961 0.501961 0.501961
0.194958 0.194958 0.194958
0.211330 0.211330 0.211330
0.234105 0.234105 0.234105
0.265661 0.265661 0.265661
0.309690 0.309690 0.309690
0.371989 0.371989 0.371989
0.443778 0.443778 0.443778
0.533333 0.533333 0.533333
0.255862 0.255862 0.255862
0.266678 0.266678 0.266678
0.285508 0.285508 0.285508
0.315132 0.315132 0.315132
0.361070 0.361070 0.361070
0.417150 0.417150 0.417150
0.478809 0.478809 0.478809
0.565666 0.565666 0.565666
0.331653 0.331653 0.331653
0.339496 0.339496 0.339496
0.358658 0.358658 0.358658
0.386555 0.386555 0.386555
0.425222 0.425222 0.425222
0.468919 0.468919 0.468919
0.526050 0.526050 0.526050
0.610084 0.610084 0.610084
0.429452 0.429452 0.429452
0.434517 0.434517 0.434517
0.445938 0.445938 0.445938
0.466667 0.466667 0.466667
0.496118 0.496118 0.496118
0.537369 0.537369 0.537369
0.593415 0.593415 0.593415
0.669468 0.669468 0.669468
0.523649 0.523649 0.523649
0.527571 0.527571 0.527571
0.538936 0.538936 0.538936
0.557857 0.557857 0.557857
0.585674 0.585674 0.585674
0.621689 0.621689 0.621689
0.669948 0.669948 0.669948
0.733493 0.733493 0.733493
0.644178 0.644178 0.644178
0.646018 0.646018 0.646018
0.653862 0.653862 0.653862
0.668233 0.668233 0.668233
0.688973 0.688973 0.688973
0.716058 0.716058 0.716058
0.750746 0.750746 0.750746
0.802241 0.802241 0.802241
0.781513 0.781513 0.781513
0.784314 0.784314 0.784314
0.788235 0.788235 0.788235
0.796078 0.796078 0.796078
0.807843 0.807843 0.807843
0.823529 0.823529 0.823529
0.847059 0.847059 0.847059
0.886275 0.886275 0.886275
0.179272 0.179272 0.179272
0.214566 0.214566 0.214566
0.241457 0.241457 0.241457
0.273389 0.273389 0.273389
0.319328 0.319328 0.319328
0.383754 0.383754 0.383754
0.453221 0.453221 0.453221
0.543978 0.543978 0.543978
0.261625 0.261625 0.261625
0.276030 0.276030 0.276030
0.298599 0.298599 0.298599
0.331092 0.331092 0.331092
0.378631 0.378631 0.378631
0.432322 0.432322 0.432322
0.492586 0.492586 0.492586
0.579752 0.579752 0.579752
0.327731 0.327731 0.327731
0.339496 0.339496 0.339496
0.359104 0.359104 0.359104
0.390476 0.390476 0.390476
0.428731 0.428731 0.428731
0.473046 0.473046 0.473046
0.530532 0.530532 0.530532
0.614566 0.614566 0.614566
0.407843 0.407843 0.407843
0.415686 0.415686 0.415686
0.430241 0.430241 0.430241
0.451209 0.451209 0.451209
0.482925 0.482925 0.482925
0.524919 0.524919 0.524919
0.582176 0.582176 0.582176
0.658023 0.658023 0.658023
0.488756 0.488756 0.488756
0.493855 0.493855 0.493855
0.503641 0.503641 0.503641
0.524941 0.524941 0.524941
0.554622 0.554622 0.554622
0.593998 0.593998 0.593998
0.643617 0.643617 0.643617
0.709484 0.709484 0.709484
0.583754 0.583754 0.583754
0.587675 0.587675 0.587675
0.596902 0.596902 0.596902
0.615172 0.615172 0.615172
0.638770 0.638770 0.638770
0.671549 0.671549 0.671549
0.711965 0.711965 0.711965
0.765266 0.765266 0.765266
0.691317 0.691317 0.691317
0.694038 0.694038 0.694038
0.701652 0.701652 0.701652
0.713645 0.713645 0.713645
0.730532 0.730532 0.730532
0.754062 0.754062 0.754062
0.782633 0.782633 0.782633
0.826971 0.826971 0.826971
0.811765 0.811765 0.811765
0.814566 0.814566 0.814566
0.818487 0.818487 0.818487
0.823529 0.823529 0.823529
0.835294 0.835294 0.835294
0.850020 0.850020 0.850020
0.870108 0.870108 0.870108
0.901961 0.901961 0.901961
0.263305 0.263305 0.263305
0.294678 0.294678 0.294678
0.321649 0.321649 0.321649
0.357423 0.357423 0.357423
0.403361 0.403361 0.403361
0.452101 0.452101 0.452101
0.512605 0.512605 0.512605
0.600560 0.600560 0.600560
0.351261 0.351261 0.351261
0.366124 0.366124 0.366124
0.390236 0.390236 0.390236
0.418567 0.418567 0.418567
0.452741 0.452741 0.452741
0.496679 0.496679 0.496679
0.555742 0.555742 0.555742
0.635854 0.635854 0.635854
0.419608 0.419608 0.419608
0.427451 0.427451 0.427451
0.443069 0.443069 0.443069
0.464266 0.464266 0.464266
0.497079 0.497079 0.497079
0.538295 0.538295 0.538295
0.594604 0.594604 0.594604
0.670108 0.670108 0.670108
0.484034 0.484034 0.484034
0.487955 0.487955 0.487955
0.499720 0.499720 0.499720
0.522449 0.522449 0.522449
0.553501 0.553501 0.553501
0.592877 0.592877 0.592877
0.643046 0.643046 0.643046
0.707563 0.707563 0.707563
0.564146 0.564146 0.564146
0.568067 0.568067 0.568067
0.575910 0.575910 0.575910
0.596479 0.596479 0.596479
0.622969 0.622969 0.622969
0.657920 0.657920 0.657920
0.699491 0.699491 0.699491
0.753341 0.753341 0.753341
0.652101 0.652101 0.652101
0.656022 0.656022 0.656022
0.663866 0.663866 0.663866
0.679552 0.679552 0.679552
0.699137 0.699137 0.699137
0.725707 0.725707 0.725707
0.757743 0.757743 0.757743
0.804002 0.804002 0.804002
0.743978 0.743978 0.743978
0.746516 0.746516 0.746516
0.751821 0.751821 0.751821
0.760624 0.760624 0.760624
0.775259 0.775259 0.775259
0.794478 0.794478 0.794478
0.818350 0.818350 0.818350
0.857143 0.857143 0.857143
0.847059 0.847059 0.847059
0.847619 0.847619 0.847619
0.851461 0.851461 0.851461
0.858824 0.858824 0.858824
0.866667 0.866667 0.866667
0.878431 0.878431 0.878431
0.894438 0.894438 0.894438
0.925490 0.925490 0.925490
0.369188 0.369188 0.369188
0.399280 0.399280 0.399280
0.421849 0.421849 0.421849
0.449300 0.449300 0.449300
0.483473 0.483473 0.483473
0.526291 0.526291 0.526291
0.584874 0.584874 0.584874
0.661064 0.661064 0.661064
0.447059 0.447059 0.447059
0.458824 0.458824 0.458824
0.476614 0.476614 0.476614
0.499594 0.499594 0.499594
0.532853 0.532853 0.532853
0.575030 0.575030 0.575030
0.628011 0.628011 0.628011
0.696359 0.696359 0.696359
0.503641 0.503641 0.503641
0.511485 0.511485 0.511485
0.526965 0.526965 0.526965
0.547716 0.547716 0.547716
0.578551 0.578551 0.578551
0.618202 0.618202 0.618202
0.666667 0.666667 0.666667
0.725250 0.725250 0.725250
0.571989 0.571989 0.571989
0.575910 0.575910 0.575910
0.587675 0.587675 0.587675
0.608266 0.608266 0.608266
0.635877 0.635877 0.635877
0.669068 0.669068 0.669068
0.709655 0.709655 0.709655
0.760224 0.760224 0.760224
0.648179 0.648179 0.648179
0.652101 0.652101 0.652101
0.660493 0.660493 0.660493
0.677208 0.677208 0.677208
0.699160 0.699160 0.699160
0.725239 0.725239 0.725239
0.757572 0.757572 0.757572
0.801120 0.801120 0.801120
0.724370 0.724370 0.724370
0.728291 0.728291 0.728291
0.736089 0.736089 0.736089
0.746036 0.746036 0.746036
0.762648 0.762648 0.762648
0.781021 0.781021 0.781021
0.807546 0.807546 0.807546
0.843457 0.843457 0.843457
0.800560 0.800560 0.800560
0.801692 0.801692 0.801692
0.806162 0.806162 0.806162
0.814280 0.814280 0.814280
0.824604 0.824604 0.824604
0.839879 0.839879 0.839879
0.859795 0.859795 0.859795
0.891477 0.891477 0.891477
0.886275 0.886275 0.886275
0.888515 0.888515 0.888515
0.890196 0.890196 0.890196
0.894758 0.894758 0.894758
0.901961 0.901961 0.901961
0.912045 0.912045 0.912045
0.925490 0.925490 0.925490
0.951261 0.951261 0.951261
0.474510 0.474510 0.474510
0.498039 0.498039 0.498039
0.517647 0.517647 0.517647
0.542297 0.542297 0.542297
0.575350 0.575350 0.575350
0.616246 0.616246 0.616246
0.664986 0.664986 0.664986
0.725490 0.725490 0.725490
0.549020 0.549020 0.549020
0.560784 0.560784 0.560784
0.577911 0.577911 0.577911
0.600480 0.600480 0.600480
0.629132 0.629132 0.629132
0.664746 0.664746 0.664746
0.706843 0.706843 0.706843
0.756863 0.756863 0.756863
0.611204 0.611204 0.611204
0.617127 0.617127 0.617127
0.630812 0.630812 0.630812
0.650420 0.650420 0.650420
0.674350 0.674350 0.674350
0.705402 0.705402 0.705402
0.740936 0.740936 0.740936
0.784314 0.784314 0.784314
0.675630 0.675630 0.675630
0.679552 0.679552 0.679552
0.689796 0.689796 0.689796
0.703882 0.703882 0.703882
0.725490 0.725490 0.725490
0.750140 0.750140 0.750140
0.779192 0.779192 0.779192
0.816807 0.816807 0.816807
0.740056 0.740056 0.740056
0.743978 0.743978 0.743978
0.751421 0.751421 0.751421
0.761585 0.761585 0.761585
0.778471 0.778471 0.778471
0.796479 0.796479 0.796479
0.821208 0.821208 0.821208
0.853782 0.853782 0.853782
0.803922 0.803922 0.803922
0.804482 0.804482 0.804482
0.808403 0.808403 0.808403
0.819608 0.819608 0.819608
0.831373 0.831373 0.831373
0.844178 0.844178 0.844178
0.865226 0.865226 0.865226
0.890756 0.890756 0.890756
0.864986 0.864986 0.864986
0.866667 0.866667 0.866667
0.870588 0.870588 0.870588
0.876751 0.876751 0.876751
0.884594 0.884594 0.884594
0.896359 0.896359 0.896359
0.912045 0.912045 0.912045
0.933333 0.933333 0.933333
0.937255 0.937255 0.937255
0.937255 0.937255 0.937255
0.941176 0.941176 0.941176
0.945098 0.945098 0.945098
0.951821 0.951821 0.951821
0.960784 0.960784 0.960784
0.972549 0.972549 0.972549
1.000000 1.000000 1.000000
