films/ilford_delta_3200.cube
# Created by: G'MIC (https://gmic.eu)
TITLE "ilford_delta_3200"
# LUT size
LUT_3D_SIZE 13
# Data domain
DOMAIN_MIN 0.0 0.0 0.0
DOMAIN_MAX 1.0 1.0 1.0
# LUT data points
0.10006818920373917 0.10006818920373917 0.10006818920373917
0.094008378684520721 0.094008378684520721 0.094008378684520721
0.097300931811332703 0.097300931811332703 0.097300931811332703
0.11167775839567184 0.11167775839567184 0.11167775839567184
0.13815245032310486 0.13815245032310486 0.13815245032310486
0.17509417235851288 0.17509417235851288 0.17509417235851288
0.22003616392612457 0.22003616392612457 0.22003616392612457
0.27010193467140198 0.27010193467140198 0.27010193467140198
0.32516935467720032 0.32516935467720032 0.32516935467720032
0.38400065898895264 0.38400065898895264 0.38400065898895264
0.44922161102294922 0.44922161102294922 0.44922161102294922
0.51829177141189575 0.51829177141189575 0.51829177141189575
0.58622455596923828 0.58622455596923828 0.58622455596923828
0.10632765293121338 0.10632765293121338 0.10632765293121338
0.098579615354537964 0.098579615354537964 0.098579615354537964
0.099688887596130371 0.099688887596130371 0.099688887596130371
0.11353357136249542 0.11353357136249542 0.11353357136249542
0.14116893708705902 0.14116893708705902 0.14116893708705902
0.17966267466545105 0.17966267466545105 0.17966267466545105
0.22468423843383789 0.22468423843383789 0.22468423843383789
0.27394858002662659 0.27394858002662659 0.27394858002662659
0.32699683308601379 0.32699683308601379 0.32699683308601379
0.38509747385978699 0.38509747385978699 0.38509747385978699
0.45123058557510376 0.45123058557510376 0.45123058557510376
0.52229666709899902 0.52229666709899902 0.52229666709899902
0.59154468774795532 0.59154468774795532 0.59154468774795532
0.12351219356060028 0.12351219356060028 0.12351219356060028
0.11457572132349014 0.11457572132349014 0.11457572132349014
0.11282480508089066 0.11282480508089066 0.11282480508089066
0.12530818581581116 0.12530818581581116 0.12530818581581116
0.15534014999866486 0.15534014999866486 0.15534014999866486
0.19489651918411255 0.19489651918411255 0.19489651918411255
0.23888371884822845 0.23888371884822845 0.23888371884822845
0.28622886538505554 0.28622886538505554 0.28622886538505554
0.33658686280250549 0.33658686280250549 0.33658686280250549
0.39209723472595215 0.39209723472595215 0.39209723472595215
0.45887839794158936 0.45887839794158936 0.45887839794158936
0.53186029195785522 0.53186029195785522 0.53186029195785522
0.60218757390975952 0.60218757390975952 0.60218757390975952
0.15280608832836151 0.15280608832836151 0.15280608832836151
0.14479318261146545 0.14479318261146545 0.14479318261146545
0.14262473583221436 0.14262473583221436 0.14262473583221436
0.15393581986427307 0.15393581986427307 0.15393581986427307
0.18408279120922089 0.18408279120922089 0.18408279120922089
0.22166986763477325 0.22166986763477325 0.22166986763477325
0.26295626163482666 0.26295626163482666 0.26295626163482666
0.30769681930541992 0.30769681930541992 0.30769681930541992
0.35691693425178528 0.35691693425178528 0.35691693425178528
0.4123435914516449 0.4123435914516449 0.4123435914516449
0.47845253348350525 0.47845253348350525 0.47845253348350525
0.55070465803146362 0.55070465803146362 0.55070465803146362
0.62053859233856201 0.62053859233856201 0.62053859233856201
0.19318754971027374 0.19318754971027374 0.19318754971027374
0.18865309655666351 0.18865309655666351 0.18865309655666351
0.19075016677379608 0.19075016677379608 0.19075016677379608
0.2029653787612915 0.2029653787612915 0.2029653787612915
0.22698122262954712 0.22698122262954712 0.22698122262954712
0.25871804356575012 0.25871804356575012 0.25871804356575012
0.29519262909889221 0.29519262909889221 0.29519262909889221
0.33719810843467712 0.33719810843467712 0.33719810843467712
0.38607063889503479 0.38607063889503479 0.38607063889503479
0.44272556900978088 0.44272556900978088 0.44272556900978088
0.50788474082946777 0.50788474082946777 0.50788474082946777
0.57791143655776978 0.57791143655776978 0.57791143655776978
0.64630663394927979 0.64630663394927979 0.64630663394927979
0.24238747358322144 0.24238747358322144 0.24238747358322144
0.24193626642227173 0.24193626642227173 0.24193626642227173
0.24791356921195984 0.24791356921195984 0.24791356921195984
0.25992143154144287 0.25992143154144287 0.25992143154144287
0.27906918525695801 0.27906918525695801 0.27906918525695801
0.30436801910400391 0.30436801910400391 0.30436801910400391
0.33478745818138123 0.33478745818138123 0.33478745818138123
0.37283611297607422 0.37283611297607422 0.37283611297607422
0.4203382134437561 0.4203382134437561 0.4203382134437561
0.47659397125244141 0.47659397125244141 0.47659397125244141
0.54093974828720093 0.54093974828720093 0.54093974828720093
0.61035537719726562 0.61035537719726562 0.61035537719726562
0.67792367935180664 0.67792367935180664 0.67792367935180664
0.29909703135490417 0.29909703135490417 0.29909703135490417
0.30359166860580444 0.30359166860580444 0.30359166860580444
0.31183081865310669 0.31183081865310669 0.31183081865310669
0.3228192925453186 0.3228192925453186 0.3228192925453186
0.33831951022148132 0.33831951022148132 0.33831951022148132
0.35824459791183472 0.35824459791183472 0.35824459791183472
0.38263404369354248 0.38263404369354248 0.38263404369354248
0.41555213928222656 0.41555213928222656 0.41555213928222656
0.46003705263137817 0.46003705263137817 0.46003705263137817
0.51354432106018066 0.51354432106018066 0.51354432106018066
0.57517004013061523 0.57517004013061523 0.57517004013061523
0.644095778465271 0.644095778465271 0.644095778465271
0.71193581819534302 0.71193581819534302 0.71193581819534302
0.3700985312461853 0.3700985312461853 0.3700985312461853
0.37605306506156921 0.37605306506156921 0.37605306506156921
0.38397568464279175 0.38397568464279175 0.38397568464279175
0.39314469695091248 0.39314469695091248 0.39314469695091248
0.40593752264976501 0.40593752264976501 0.40593752264976501
0.42321407794952393 0.42321407794952393 0.42321407794952393
0.44411483407020569 0.44411483407020569 0.44411483407020569
0.47172671556472778 0.47172671556472778 0.47172671556472778
0.50821232795715332 0.50821232795715332 0.50821232795715332
0.55354589223861694 0.55354589223861694 0.55354589223861694
0.61020952463150024 0.61020952463150024 0.61020952463150024
0.67558670043945312 0.67558670043945312 0.67558670043945312
0.73970764875411987 0.73970764875411987 0.73970764875411987
0.45866429805755615 0.45866429805755615 0.45866429805755615
0.46150839328765869 0.46150839328765869 0.46150839328765869
0.4665648341178894 0.4665648341178894 0.4665648341178894
0.47270077466964722 0.47270077466964722 0.47270077466964722
0.48341548442840576 0.48341548442840576 0.48341548442840576
0.49982717633247375 0.49982717633247375 0.49982717633247375
0.5189826488494873 0.5189826488494873 0.5189826488494873
0.54110705852508545 0.54110705852508545 0.54110705852508545
0.56747031211853027 0.56747031211853027 0.56747031211853027
0.60070633888244629 0.60070633888244629 0.60070633888244629
0.64990389347076416 0.64990389347076416 0.64990389347076416
0.70973914861679077 0.70973914861679077 0.70973914861679077
0.76864331960678101 0.76864331960678101 0.76864331960678101
0.55506360530853271 0.55506360530853271 0.55506360530853271
0.55727857351303101 0.55727857351303101 0.55727857351303101
0.5606568455696106 0.5606568455696106 0.5606568455696106
0.56412571668624878 0.56412571668624878 0.56412571668624878
0.5731930136680603 0.5731930136680603 0.5731930136680603
0.58805620670318604 0.58805620670318604 0.58805620670318604
0.60479986667633057 0.60479986667633057 0.60479986667633057
0.62222224473953247 0.62222224473953247 0.62222224473953247
0.64142364263534546 0.64142364263534546 0.64142364263534546
0.66577327251434326 0.66577327251434326 0.66577327251434326
0.70562529563903809 0.70562529563903809 0.70562529563903809
0.75597715377807617 0.75597715377807617 0.75597715377807617
0.80676108598709106 0.80676108598709106 0.80676108598709106
0.65871548652648926 0.65871548652648926 0.65871548652648926
0.6614757776260376 0.6614757776260376 0.6614757776260376
0.6645437479019165 0.6645437479019165 0.6645437479019165
0.66802030801773071 0.66802030801773071 0.66802030801773071
0.6751137375831604 0.6751137375831604 0.6751137375831604
0.68635642528533936 0.68635642528533936 0.68635642528533936
0.69979757070541382 0.69979757070541382 0.69979757070541382
0.71358722448348999 0.71358722448348999 0.71358722448348999
0.72838437557220459 0.72838437557220459 0.72838437557220459
0.74833530187606812 0.74833530187606812 0.74833530187606812
0.77782583236694336 0.77782583236694336 0.77782583236694336
0.81521546840667725 0.81521546840667725 0.81521546840667725
0.85530215501785278 0.85530215501785278 0.85530215501785278
0.76644682884216309 0.76644682884216309 0.76644682884216309
0.76816999912261963 0.76816999912261963 0.76816999912261963
0.77103936672210693 0.77103936672210693 0.77103936672210693
0.77552139759063721 0.77552139759063721 0.77552139759063721
0.77990663051605225 0.77990663051605225 0.77990663051605225
0.78721410036087036 0.78721410036087036 0.78721410036087036
0.79793369770050049 0.79793369770050049 0.79793369770050049
0.80846101045608521 0.80846101045608521 0.80846101045608521
0.81871086359024048 0.81871086359024048 0.81871086359024048
0.83343905210494995 0.83343905210494995 0.83343905210494995
0.854422926902771 0.854422926902771 0.854422926902771
0.88037759065628052 0.88037759065628052 0.88037759065628052
0.90946781635284424 0.90946781635284424 0.90946781635284424
0.86632043123245239 0.86632043123245239 0.86632043123245239
0.8662908673286438 0.8662908673286438 0.8662908673286438
0.86934876441955566 0.86934876441955566 0.86934876441955566
0.87476742267608643 0.87476742267608643 0.87476742267608643
0.87653714418411255 0.87653714418411255 0.87653714418411255
0.88050699234008789 0.88050699234008789 0.88050699234008789
0.88940614461898804 0.88940614461898804 0.88940614461898804
0.89740198850631714 0.89740198850631714 0.89740198850631714
0.90273082256317139 0.90273082256317139 0.90273082256317139
0.9121701717376709 0.9121701717376709 0.9121701717376709
0.92623054981231689 0.92623054981231689 0.92623054981231689
0.94378864765167236 0.94378864765167236 0.94378864765167236
0.96467775106430054 0.96467775106430054 0.96467775106430054
0.097267329692840576 0.097267329692840576 0.097267329692840576
0.091494575142860413 0.091494575142860413 0.091494575142860413
0.09594687819480896 0.09594687819480896 0.09594687819480896
0.11035791784524918 0.11035791784524918 0.11035791784524918
0.13708241283893585 0.13708241283893585 0.13708241283893585
0.17529386281967163 0.17529386281967163 0.17529386281967163
0.22270333766937256 0.22270333766937256 0.22270333766937256
0.27486452460289001 0.27486452460289001 0.27486452460289001
0.32946351170539856 0.32946351170539856 0.32946351170539856
0.38867461681365967 0.38867461681365967 0.38867461681365967
0.4535575807094574 0.4535575807094574 0.4535575807094574
0.52197247743606567 0.52197247743606567 0.52197247743606567
0.58922398090362549 0.58922398090362549 0.58922398090362549
0.10537566989660263 0.10537566989660263 0.10537566989660263
0.099902287125587463 0.099902287125587463 0.099902287125587463
0.10316651314496994 0.10316651314496994 0.10316651314496994
0.11780476570129395 0.11780476570129395 0.11780476570129395
0.1452818363904953 0.1452818363904953 0.1452818363904953
0.18405716121196747 0.18405716121196747 0.18405716121196747
0.23039913177490234 0.23039913177490234 0.23039913177490234
0.28075453639030457 0.28075453639030457 0.28075453639030457
0.33427643775939941 0.33427643775939941 0.33427643775939941
0.39310076832771301 0.39310076832771301 0.39310076832771301
0.45891579985618591 0.45891579985618591 0.45891579985618591
0.52901577949523926 0.52901577949523926 0.52901577949523926
0.59767097234725952 0.59767097234725952 0.59767097234725952
0.12582020461559296 0.12582020461559296 0.12582020461559296
0.12082936614751816 0.12082936614751816 0.12082936614751816
0.12396934628486633 0.12396934628486633 0.12396934628486633
0.13873845338821411 0.13873845338821411 0.13873845338821411
0.16679613292217255 0.16679613292217255 0.16679613292217255
0.20515502989292145 0.20515502989292145 0.20515502989292145
0.24894542992115021 0.24894542992115021 0.24894542992115021
0.29610255360603333 0.29610255360603333 0.29610255360603333
0.34714552760124207 0.34714552760124207 0.34714552760124207
0.40460899472236633 0.40460899472236633 0.40460899472236633
0.47036227583885193 0.47036227583885193 0.47036227583885193
0.54126447439193726 0.54126447439193726 0.54126447439193726
0.61051315069198608 0.61051315069198608 0.61051315069198608
0.15877100825309753 0.15877100825309753 0.15877100825309753
0.15597262978553772 0.15597262978553772 0.15597262978553772
0.16036941111087799 0.16036941111087799 0.16036941111087799
0.17465049028396606 0.17465049028396606 0.17465049028396606
0.20121650397777557 0.20121650397777557 0.20121650397777557
0.23695537447929382 0.23695537447929382 0.23695537447929382
0.27704998850822449 0.27704998850822449 0.27704998850822449
0.3206295371055603 0.3206295371055603 0.3206295371055603
0.36938562989234924 0.36938562989234924 0.36938562989234924
0.4257233738899231 0.4257233738899231 0.4257233738899231
0.49073755741119385 0.49073755741119385 0.49073755741119385
0.56081706285476685 0.56081706285476685 0.56081706285476685
0.62936520576477051 0.62936520576477051 0.62936520576477051
0.20317588746547699 0.20317588746547699 0.20317588746547699
0.20367638766765594 0.20367638766765594 0.20367638766765594
0.20994384586811066 0.20994384586811066 0.20994384586811066
0.22309239208698273 0.22309239208698273 0.22309239208698273
0.24560783803462982 0.24560783803462982 0.24560783803462982
0.27584779262542725 0.27584779262542725 0.27584779262542725
0.31130820512771606 0.31130820512771606 0.31130820512771606
0.35187286138534546 0.35187286138534546 0.35187286138534546
0.39901471138000488 0.39901471138000488 0.39901471138000488
0.4547082781791687 0.4547082781791687 0.4547082781791687
0.51850622892379761 0.51850622892379761 0.51850622892379761
0.58675193786621094 0.58675193786621094 0.58675193786621094
0.65376019477844238 0.65376019477844238 0.65376019477844238
0.25762113928794861 0.25762113928794861 0.25762113928794861
0.25992166996002197 0.25992166996002197 0.25992166996002197
0.26694095134735107 0.26694095134735107 0.26694095134735107
0.27835920453071594 0.27835920453071594 0.27835920453071594
0.29655885696411133 0.29655885696411133 0.29655885696411133
0.32099977135658264 0.32099977135658264 0.32099977135658264
0.35131680965423584 0.35131680965423584 0.35131680965423584
0.38821068406105042 0.38821068406105042 0.38821068406105042
0.43362116813659668 0.43362116813659668 0.43362116813659668
0.48763349652290344 0.48763349652290344 0.48763349652290344
0.54963076114654541 0.54963076114654541 0.54963076114654541
0.61643320322036743 0.61643320322036743 0.61643320322036743
0.68206250667572021 0.68206250667572021 0.68206250667572021
0.31969615817070007 0.31969615817070007 0.31969615817070007
0.32366281747817993 0.32366281747817993 0.32366281747817993
0.33005186915397644 0.33005186915397644 0.33005186915397644
0.33922275900840759 0.33922275900840759 0.33922275900840759
0.3535732626914978 0.3535732626914978 0.3535732626914978
0.37335672974586487 0.37335672974586487 0.37335672974586487
0.39885762333869934 0.39885762333869934 0.39885762333869934
0.43132773041725159 0.43132773041725159 0.43132773041725159
0.47258222103118896 0.47258222103118896 0.47258222103118896
0.52280479669570923 0.52280479669570923 0.52280479669570923
0.58187830448150635 0.58187830448150635 0.58187830448150635
0.6471065878868103 0.6471065878868103 0.6471065878868103
0.711192786693573 0.711192786693573 0.711192786693573
0.39094406366348267 0.39094406366348267 0.39094406366348267
0.39461615681648254 0.39461615681648254 0.39461615681648254
0.39965131878852844 0.39965131878852844 0.39965131878852844
0.40638571977615356 0.40638571977615356 0.40638571977615356
0.41788202524185181 0.41788202524185181 0.41788202524185181
0.43527179956436157 0.43527179956436157 0.43527179956436157
0.45733737945556641 0.45733737945556641 0.45733737945556641
0.48471882939338684 0.48471882939338684 0.48471882939338684
0.51913070678710938 0.51913070678710938 0.51913070678710938
0.56211894750595093 0.56211894750595093 0.56211894750595093
0.61570280790328979 0.61570280790328979 0.61570280790328979
0.67722409963607788 0.67722409963607788 0.67722409963607788
0.73863303661346436 0.73863303661346436 0.73863303661346436
0.47147592902183533 0.47147592902183533 0.47147592902183533
0.47469028830528259 0.47469028830528259 0.47469028830528259
0.47763040661811829 0.47763040661811829 0.47763040661811829
0.48104590177536011 0.48104590177536011 0.48104590177536011
0.49069622159004211 0.49069622159004211 0.49069622159004211
0.50782805681228638 0.50782805681228638 0.50782805681228638
0.52824991941452026 0.52824991941452026 0.52824991941452026
0.55058032274246216 0.55058032274246216 0.55058032274246216
0.57657825946807861 0.57657825946807861 0.57657825946807861
0.6101495623588562 0.6101495623588562 0.6101495623588562
0.65610355138778687 0.65610355138778687 0.65610355138778687
0.71187746524810791 0.71187746524810791 0.71187746524810791
0.76891803741455078 0.76891803741455078 0.76891803741455078
0.55994325876235962 0.55994325876235962 0.55994325876235962
0.56410199403762817 0.56410199403762817 0.56410199403762817
0.56704235076904297 0.56704235076904297 0.56704235076904297
0.56728243827819824 0.56728243827819824 0.56728243827819824
0.57553845643997192 0.57553845643997192 0.57553845643997192
0.59315556287765503 0.59315556287765503 0.59315556287765503
0.61102616786956787 0.61102616786956787 0.61102616786956787
0.62892073392868042 0.62892073392868042 0.62892073392868042
0.64837503433227539 0.64837503433227539 0.64837503433227539
0.67402243614196777 0.67402243614196777 0.67402243614196777
0.71103060245513916 0.71103060245513916 0.71103060245513916
0.75841957330703735 0.75841957330703735 0.75841957330703735
0.80775910615921021 0.80775910615921021 0.80775910615921021
0.65744698047637939 0.65744698047637939 0.65744698047637939
0.66326797008514404 0.66326797008514404 0.66326797008514404
0.66745728254318237 0.66745728254318237 0.66745728254318237
0.6699790358543396 0.6699790358543396 0.6699790358543396
0.67673724889755249 0.67673724889755249 0.67673724889755249
0.68926948308944702 0.68926948308944702 0.68926948308944702
0.7033238410949707 0.7033238410949707 0.7033238410949707
0.71751993894577026 0.71751993894577026 0.71751993894577026
0.73305362462997437 0.73305362462997437 0.73305362462997437
0.75380593538284302 0.75380593538284302 0.75380593538284302
0.78236287832260132 0.78236287832260132 0.78236287832260132
0.81795024871826172 0.81795024871826172 0.81795024871826172
0.85671895742416382 0.85671895742416382 0.85671895742416382
0.7621227502822876 0.7621227502822876 0.7621227502822876
0.7674260139465332 0.7674260139465332 0.7674260139465332
0.7716449499130249 0.7716449499130249 0.7716449499130249
0.77548360824584961 0.77548360824584961 0.77548360824584961
0.78024321794509888 0.78024321794509888 0.78024321794509888
0.78836452960968018 0.78836452960968018 0.78836452960968018
0.79860854148864746 0.79860854148864746 0.79860854148864746
0.80969929695129395 0.80969929695129395 0.80969929695129395
0.82213515043258667 0.82213515043258667 0.82213515043258667
0.83924514055252075 0.83924514055252075 0.83924514055252075
0.8605005145072937 0.8605005145072937 0.8605005145072937
0.88420051336288452 0.88420051336288452 0.88420051336288452
0.91142773628234863 0.91142773628234863 0.91142773628234863
0.86005747318267822 0.86005747318267822 0.86005747318267822
0.86454552412033081 0.86454552412033081 0.86454552412033081
0.86834198236465454 0.86834198236465454 0.86834198236465454
0.87221592664718628 0.87221592664718628 0.87221592664718628
0.87531733512878418 0.87531733512878418 0.87531733512878418
0.88001608848571777 0.88001608848571777 0.88001608848571777
0.88767087459564209 0.88767087459564209 0.88767087459564209
0.89597827196121216 0.89597827196121216 0.89597827196121216
0.90497851371765137 0.90497851371765137 0.90497851371765137
0.91798537969589233 0.91798537969589233 0.91798537969589233
0.93313825130462646 0.93313825130462646 0.93313825130462646
0.94816011190414429 0.94816011190414429 0.94816011190414429
0.96654915809631348 0.96654915809631348 0.96654915809631348
0.10131505131721497 0.10131505131721497 0.10131505131721497
0.098057538270950317 0.098057538270950317 0.098057538270950317
0.10297512263059616 0.10297512263059616 0.10297512263059616
0.11693332344293594 0.11693332344293594 0.11693332344293594
0.14207644760608673 0.14207644760608673 0.14207644760608673
0.18106845021247864 0.18106845021247864 0.18106845021247864
0.23078472912311554 0.23078472912311554 0.23078472912311554
0.28458884358406067 0.28458884358406067 0.28458884358406067
0.33811065554618835 0.33811065554618835 0.33811065554618835
0.39654803276062012 0.39654803276062012 0.39654803276062012
0.46108725666999817 0.46108725666999817 0.46108725666999817
0.52923023700714111 0.52923023700714111 0.52923023700714111
0.59594154357910156 0.59594154357910156 0.59594154357910156
0.11200292408466339 0.11200292408466339 0.11200292408466339
0.10973114520311356 0.10973114520311356 0.10973114520311356
0.11555889248847961 0.11555889248847961 0.11555889248847961
0.13019973039627075 0.13019973039627075 0.13019973039627075
0.15610392391681671 0.15610392391681671 0.15610392391681671
0.19498537480831146 0.19498537480831146 0.19498537480831146
0.24231532216072083 0.24231532216072083 0.24231532216072083
0.29293075203895569 0.29293075203895569 0.29293075203895569
0.34600922465324402 0.34600922465324402 0.34600922465324402
0.40479224920272827 0.40479224920272827 0.40479224920272827
0.47026103734970093 0.47026103734970093 0.47026103734970093
0.53926444053649902 0.53926444053649902 0.53926444053649902
0.60726755857467651 0.60726755857467651 0.60726755857467651
0.13550497591495514 0.13550497591495514 0.13550497591495514
0.1356162428855896 0.1356162428855896 0.1356162428855896
0.14397615194320679 0.14397615194320679 0.14397615194320679
0.16015458106994629 0.16015458106994629 0.16015458106994629
0.18717646598815918 0.18717646598815918 0.18717646598815918
0.22465088963508606 0.22465088963508606 0.22465088963508606
0.26745784282684326 0.26745784282684326 0.26745784282684326
0.31273669004440308 0.31273669004440308 0.31273669004440308
0.36302748322486877 0.36302748322486877 0.36302748322486877
0.42062121629714966 0.42062121629714966 0.42062121629714966
0.48567566275596619 0.48567566275596619 0.48567566275596619
0.55469721555709839 0.55469721555709839 0.55469721555709839
0.62257754802703857 0.62257754802703857 0.62257754802703857
0.17147733271121979 0.17147733271121979 0.17147733271121979
0.17593675851821899 0.17593675851821899 0.17593675851821899
0.18698939681053162 0.18698939681053162 0.18698939681053162
0.20288024842739105 0.20288024842739105 0.20288024842739105
0.22838369011878967 0.22838369011878967 0.22838369011878967
0.26350176334381104 0.26350176334381104 0.26350176334381104
0.30125749111175537 0.30125749111175537 0.30125749111175537
0.34155884385108948 0.34155884385108948 0.34155884385108948
0.38856345415115356 0.38856345415115356 0.38856345415115356
0.44402047991752625 0.44402047991752625 0.44402047991752625
0.50782507658004761 0.50782507658004761 0.50782507658004761
0.57561296224594116 0.57561296224594116 0.57561296224594116
0.64242875576019287 0.64242875576019287 0.64242875576019287
0.21970438957214355 0.21970438957214355 0.21970438957214355
0.22710655629634857 0.22710655629634857 0.22710655629634857
0.23962870240211487 0.23962870240211487 0.23962870240211487
0.25305193662643433 0.25305193662643433 0.25305193662643433
0.2741864025592804 0.2741864025592804 0.2741864025592804
0.30401933193206787 0.30401933193206787 0.30401933193206787
0.33778432011604309 0.33778432011604309 0.33778432011604309
0.375273197889328 0.375273197889328 0.375273197889328
