films/ilford_fp_4_plus_125.cube
# Created by: G'MIC (https://gmic.eu)
TITLE "ilford_fp_4_plus_125"
# LUT size
LUT_3D_SIZE 7
# Data domain
DOMAIN_MIN 0.0 0.0 0.0
DOMAIN_MAX 1.0 1.0 1.0
# LUT data points
0.055090092122554779 0.055090092122554779 0.055090092122554779
0.088276371359825134 0.088276371359825134 0.088276371359825134
0.11784843355417252 0.11784843355417252 0.11784843355417252
0.14909029006958008 0.14909029006958008 0.14909029006958008
0.21784603595733643 0.21784603595733643 0.21784603595733643
0.29256099462509155 0.29256099462509155 0.29256099462509155
0.36436629295349121 0.36436629295349121 0.36436629295349121
0.17037826776504517 0.17037826776504517 0.17037826776504517
0.18903651833534241 0.18903651833534241 0.18903651833534241
0.21451495587825775 0.21451495587825775 0.21451495587825775
0.24743208289146423 0.24743208289146423 0.24743208289146423
0.30093246698379517 0.30093246698379517 0.30093246698379517
0.36531654000282288 0.36531654000282288 0.36531654000282288
0.43037110567092896 0.43037110567092896 0.43037110567092896
0.3012804388999939 0.3012804388999939 0.3012804388999939
0.31120797991752625 0.31120797991752625 0.31120797991752625
0.33065041899681091 0.33065041899681091 0.33065041899681091
0.35997197031974792 0.35997197031974792 0.35997197031974792
0.40248927474021912 0.40248927474021912 0.40248927474021912
0.45482322573661804 0.45482322573661804 0.45482322573661804
0.51021063327789307 0.51021063327789307 0.51021063327789307
0.43811163306236267 0.43811163306236267 0.43811163306236267
0.44358038902282715 0.44358038902282715 0.44358038902282715
0.45651102066040039 0.45651102066040039 0.45651102066040039
0.47897037863731384 0.47897037863731384 0.47897037863731384
0.5125311017036438 0.5125311017036438 0.5125311017036438
0.55453276634216309 0.55453276634216309 0.55453276634216309
0.59959918260574341 0.59959918260574341 0.59959918260574341
0.57703006267547607 0.57703006267547607 0.57703006267547607
0.57890713214874268 0.57890713214874268 0.57890713214874268
0.58501499891281128 0.58501499891281128 0.58501499891281128
0.59983175992965698 0.59983175992965698 0.59983175992965698
0.62520760297775269 0.62520760297775269 0.62520760297775269
0.65842342376708984 0.65842342376708984 0.65842342376708984
0.69446820020675659 0.69446820020675659 0.69446820020675659
0.71325063705444336 0.71325063705444336 0.71325063705444336
0.70964807271957397 0.70964807271957397 0.70964807271957397
0.70768624544143677 0.70768624544143677 0.70768624544143677
0.71543192863464355 0.71543192863464355 0.71543192863464355
0.73397421836853027 0.73397421836853027 0.73397421836853027
0.76127386093139648 0.76127386093139648 0.76127386093139648
0.79064798355102539 0.79064798355102539 0.79064798355102539
0.83594882488250732 0.83594882488250732 0.83594882488250732
0.82357227802276611 0.82357227802276611 0.82357227802276611
0.81609976291656494 0.81609976291656494 0.81609976291656494
0.81873971223831177 0.81873971223831177 0.81873971223831177
0.83229458332061768 0.83229458332061768 0.83229458332061768
0.85482478141784668 0.85482478141784668 0.85482478141784668
0.88120990991592407 0.88120990991592407 0.88120990991592407
0.11751188337802887 0.11751188337802887 0.11751188337802887
0.14788748323917389 0.14788748323917389 0.14788748323917389
0.17708280682563782 0.17708280682563782 0.17708280682563782
0.20910315215587616 0.20910315215587616 0.20910315215587616
0.2647642195224762 0.2647642195224762 0.2647642195224762
0.33222818374633789 0.33222818374633789 0.33222818374633789
0.40050116181373596 0.40050116181373596 0.40050116181373596
0.21719315648078918 0.21719315648078918 0.21719315648078918
0.24006475508213043 0.24006475508213043 0.24006475508213043
0.26400500535964966 0.26400500535964966 0.26400500535964966
0.29255130887031555 0.29255130887031555 0.29255130887031555
0.34061074256896973 0.34061074256896973 0.34061074256896973
0.40108197927474976 0.40108197927474976 0.40108197927474976
0.46367865800857544 0.46367865800857544 0.46367865800857544
0.33774974942207336 0.33774974942207336 0.33774974942207336
0.34864374995231628 0.34864374995231628 0.34864374995231628
0.36664223670959473 0.36664223670959473 0.36664223670959473
0.39314395189285278 0.39314395189285278 0.39314395189285278
0.43394994735717773 0.43394994735717773 0.43394994735717773
0.48530980944633484 0.48530980944633484 0.48530980944633484
0.53962856531143188 0.53962856531143188 0.53962856531143188
0.46769261360168457 0.46769261360168457 0.46769261360168457
0.472892165184021 0.472892165184021 0.472892165184021
0.48439675569534302 0.48439675569534302 0.48439675569534302
0.50524705648422241 0.50524705648422241 0.50524705648422241
0.53817737102508545 0.53817737102508545 0.53817737102508545
0.57995128631591797 0.57995128631591797 0.57995128631591797
0.62489980459213257 0.62489980459213257 0.62489980459213257
0.6001582145690918 0.6001582145690918 0.6001582145690918
0.60223948955535889 0.60223948955535889 0.60223948955535889
0.60796016454696655 0.60796016454696655 0.60796016454696655
0.62215977907180786 0.62215977907180786 0.62215977907180786
0.64692652225494385 0.64692652225494385 0.64692652225494385
0.6796797513961792 0.6796797513961792 0.6796797513961792
0.71544075012207031 0.71544075012207031 0.71544075012207031
0.72782409191131592 0.72782409191131592 0.72782409191131592
0.72689974308013916 0.72689974308013916 0.72689974308013916
0.72689205408096313 0.72689205408096313 0.72689205408096313
0.73495590686798096 0.73495590686798096 0.73495590686798096
0.75280880928039551 0.75280880928039551 0.75280880928039551
0.77827340364456177 0.77827340364456177 0.77827340364456177
0.80608737468719482 0.80608737468719482 0.80608737468719482
0.838847815990448 0.838847815990448 0.838847815990448
0.83608436584472656 0.83608436584472656 0.83608436584472656
0.83258569240570068 0.83258569240570068 0.83258569240570068
0.83618056774139404 0.83618056774139404 0.83618056774139404
0.84866499900817871 0.84866499900817871 0.84866499900817871
0.86844432353973389 0.86844432353973389 0.86844432353973389
0.88986414670944214 0.88986414670944214 0.88986414670944214
0.18163540959358215 0.18163540959358215 0.18163540959358215
0.20860594511032104 0.20860594511032104 0.20860594511032104
0.2413686215877533 0.2413686215877533 0.2413686215877533
0.27738940715789795 0.27738940715789795 0.27738940715789795
0.32745778560638428 0.32745778560638428 0.32745778560638428
0.38731768727302551 0.38731768727302551 0.38731768727302551
0.44936594367027283 0.44936594367027283 0.44936594367027283
0.27492243051528931 0.27492243051528931 0.27492243051528931
0.29461851716041565 0.29461851716041565 0.29461851716041565
0.31927293539047241 0.31927293539047241 0.31927293539047241
0.34905478358268738 0.34905478358268738 0.34905478358268738
0.39442342519760132 0.39442342519760132 0.39442342519760132
0.4502265453338623 0.4502265453338623 0.4502265453338623
0.5085718035697937 0.5085718035697937 0.5085718035697937
0.38683623075485229 0.38683623075485229 0.38683623075485229
0.39624455571174622 0.39624455571174622 0.39624455571174622
0.41137182712554932 0.41137182712554932 0.41137182712554932
0.43533307313919067 0.43533307313919067 0.43533307313919067
0.4761483371257782 0.4761483371257782 0.4761483371257782
0.526317298412323 0.526317298412323 0.526317298412323
0.57840019464492798 0.57840019464492798 0.57840019464492798
0.5072472095489502 0.5072472095489502 0.5072472095489502
0.51108700037002563 0.51108700037002563 0.51108700037002563
0.51993513107299805 0.51993513107299805 0.51993513107299805
0.53825348615646362 0.53825348615646362 0.53825348615646362
0.57116633653640747 0.57116633653640747 0.57116633653640747
0.61285722255706787 0.61285722255706787 0.61285722255706787
0.65669035911560059 0.65669035911560059 0.65669035911560059
0.62900912761688232 0.62900912761688232 0.62900912761688232
0.63078981637954712 0.63078981637954712 0.63078981637954712
0.63622152805328369 0.63622152805328369 0.63622152805328369
0.6494712233543396 0.6494712233543396 0.6494712233543396
0.67350143194198608 0.67350143194198608 0.67350143194198608
0.70508033037185669 0.70508033037185669 0.70508033037185669
0.73961478471755981 0.73961478471755981 0.73961478471755981
0.74432480335235596 0.74432480335235596 0.74432480335235596
0.74568718671798706 0.74568718671798706 0.74568718671798706
0.74811118841171265 0.74811118841171265 0.74811118841171265
0.75651067495346069 0.75651067495346069 0.75651067495346069
0.77332329750061035 0.77332329750061035 0.77332329750061035
0.79669082164764404 0.79669082164764404 0.79669082164764404
0.82285463809967041 0.82285463809967041 0.82285463809967041
0.84606921672821045 0.84606921672821045 0.84606921672821045
0.84766477346420288 0.84766477346420288 0.84766477346420288
0.84815526008605957 0.84815526008605957 0.84815526008605957
0.85315823554992676 0.85315823554992676 0.85315823554992676
0.86465436220169067 0.86465436220169067 0.86465436220169067
0.88175517320632935 0.88175517320632935 0.88175517320632935
0.90115988254547119 0.90115988254547119 0.90115988254547119
0.24691259860992432 0.24691259860992432 0.24691259860992432
0.27637910842895508 0.27637910842895508 0.27637910842895508
0.31156489253044128 0.31156489253044128 0.31156489253044128
0.35050329566001892 0.35050329566001892 0.35050329566001892
0.39828348159790039 0.39828348159790039 0.39828348159790039
0.45292502641677856 0.45292502641677856 0.45292502641677856
0.50882816314697266 0.50882816314697266 0.50882816314697266
0.34152224659919739 0.34152224659919739 0.34152224659919739
0.35818856954574585 0.35818856954574585 0.35818856954574585
0.38275155425071716 0.38275155425071716 0.38275155425071716
0.41416329145431519 0.41416329145431519 0.41416329145431519
0.45806285738945007 0.45806285738945007 0.45806285738945007
0.50999963283538818 0.50999963283538818 0.50999963283538818
0.5629991888999939 0.5629991888999939 0.5629991888999939
0.44784748554229736 0.44784748554229736 0.44784748554229736
0.45495325326919556 0.45495325326919556 0.45495325326919556
0.46723070740699768 0.46723070740699768 0.46723070740699768
0.48763200640678406 0.48763200640678406 0.48763200640678406
0.5293201208114624 0.5293201208114624 0.5293201208114624
0.57714825868606567 0.57714825868606567 0.57714825868606567
0.62530773878097534 0.62530773878097534 0.62530773878097534
0.55815678834915161 0.55815678834915161 0.55815678834915161
0.56078529357910156 0.56078529357910156 0.56078529357910156
0.56675750017166138 0.56675750017166138 0.56675750017166138
0.58179813623428345 0.58179813623428345 0.58179813623428345
0.61428594589233398 0.61428594589233398 0.61428594589233398
0.6538507342338562 0.6538507342338562 0.6538507342338562
0.6948961615562439 0.6948961615562439 0.6948961615562439
0.66731029748916626 0.66731029748916626 0.66731029748916626
0.6691896915435791 0.6691896915435791 0.6691896915435791
0.67345911264419556 0.67345911264419556 0.67345911264419556
0.68526601791381836 0.68526601791381836 0.68526601791381836
0.70747917890548706 0.70747917890548706 0.70747917890548706
0.73674553632736206 0.73674553632736206 0.73674553632736206
0.76900583505630493 0.76900583505630493 0.76900583505630493
0.77023601531982422 0.77023601531982422 0.77023601531982422
0.77247446775436401 0.77247446775436401 0.77247446775436401
0.77558916807174683 0.77558916807174683 0.77558916807174683
0.78368568420410156 0.78368568420410156 0.78368568420410156
0.79875653982162476 0.79875653982162476 0.79875653982162476
0.81987595558166504 0.81987595558166504 0.81987595558166504
0.84415501356124878 0.84415501356124878 0.84415501356124878
0.8625367283821106 0.8625367283821106 0.8625367283821106
0.8653450608253479 0.8653450608253479 0.8653450608253479
0.86776357889175415 0.86776357889175415 0.86776357889175415
0.87316721677780151 0.87316721677780151 0.87316721677780151
0.88359928131103516 0.88359928131103516 0.88359928131103516
0.89848548173904419 0.89848548173904419 0.89848548173904419
0.91643494367599487 0.91643494367599487 0.91643494367599487
0.3452412486076355 0.3452412486076355 0.3452412486076355
0.36519953608512878 0.36519953608512878 0.36519953608512878
0.39506304264068604 0.39506304264068604 0.39506304264068604
0.4316563606262207 0.4316563606262207 0.4316563606262207
0.47599330544471741 0.47599330544471741 0.47599330544471741
0.52594125270843506 0.52594125270843506 0.52594125270843506
0.5758206844329834 0.5758206844329834 0.5758206844329834
0.42769822478294373 0.42769822478294373 0.42769822478294373
0.44026076793670654 0.44026076793670654 0.44026076793670654
0.46150824427604675 0.46150824427604675 0.46150824427604675
0.49114760756492615 0.49114760756492615 0.49114760756492615
0.5311395525932312 0.5311395525932312 0.5311395525932312
0.57776123285293579 0.57776123285293579 0.57776123285293579
0.62483119964599609 0.62483119964599609 0.62483119964599609
0.52305704355239868 0.52305704355239868 0.52305704355239868
0.52867001295089722 0.52867001295089722 0.52867001295089722
0.53986018896102905 0.53986018896102905 0.53986018896102905
0.56050777435302734 0.56050777435302734 0.56050777435302734
0.59500455856323242 0.59500455856323242 0.59500455856323242
0.6366039514541626 0.6366039514541626 0.6366039514541626
0.67893755435943604 0.67893755435943604 0.67893755435943604
0.62113767862319946 0.62113767862319946 0.62113767862319946
0.62306874990463257 0.62306874990463257 0.62306874990463257
0.62832009792327881 0.62832009792327881 0.62832009792327881
0.64244049787521362 0.64244049787521362 0.64244049787521362
0.66905045509338379 0.66905045509338379 0.66905045509338379
0.70316797494888306 0.70316797494888306 0.70316797494888306
0.73906582593917847 0.73906582593917847 0.73906582593917847
0.71633374691009521 0.71633374691009521 0.71633374691009521
0.71780264377593994 0.71780264377593994 0.71780264377593994
0.72116410732269287 0.72116410732269287 0.72116410732269287
0.73113220930099487 0.73113220930099487 0.73113220930099487
0.74978697299957275 0.74978697299957275 0.74978697299957275
0.77520668506622314 0.77520668506622314 0.77520668506622314
0.80365830659866333 0.80365830659866333 0.80365830659866333
0.80577766895294189 0.80577766895294189 0.80577766895294189
0.80810576677322388 0.80810576677322388 0.80810576677322388
0.81072807312011719 0.81072807312011719 0.81072807312011719
0.81756794452667236 0.81756794452667236 0.81756794452667236
0.83037352561950684 0.83037352561950684 0.83037352561950684
0.84837543964385986 0.84837543964385986 0.84837543964385986
0.8700447678565979 0.8700447678565979 0.8700447678565979
0.88738435506820679 0.88738435506820679 0.88738435506820679
0.8903496265411377 0.8903496265411377 0.8903496265411377
0.89330357313156128 0.89330357313156128 0.89330357313156128
0.89807188510894775 0.89807188510894775 0.89807188510894775
0.9068906307220459 0.9068906307220459 0.9068906307220459
0.91947859525680542 0.91947859525680542 0.91947859525680542
0.93551188707351685 0.93551188707351685 0.93551188707351685
0.45235422253608704 0.45235422253608704 0.45235422253608704
0.46407264471054077 0.46407264471054077 0.46407264471054077
0.485463947057724 0.485463947057724 0.485463947057724
0.51629900932312012 0.51629900932312012 0.51629900932312012
0.55623883008956909 0.55623883008956909 0.55623883008956909
0.60231298208236694 0.60231298208236694 0.60231298208236694
0.64798992872238159 0.64798992872238159 0.64798992872238159
0.52361100912094116 0.52361100912094116 0.52361100912094116
0.5322757363319397 0.5322757363319397 0.5322757363319397
0.54789751768112183 0.54789751768112183 0.54789751768112183
0.57294738292694092 0.57294738292694092 0.57294738292694092
0.60767161846160889 0.60767161846160889 0.60767161846160889
0.64893823862075806 0.64893823862075806 0.64893823862075806
0.69001954793930054 0.69001954793930054 0.69001954793930054
0.60685467720031738 0.60685467720031738 0.60685467720031738
0.61039787530899048 0.61039787530899048 0.61039787530899048
0.6194424033164978 0.6194424033164978 0.6194424033164978
0.63686680793762207 0.63686680793762207 0.63686680793762207
0.66489326953887939 0.66489326953887939 0.66489326953887939
0.69975489377975464 0.69975489377975464 0.69975489377975464
0.73570269346237183 0.73570269346237183 0.73570269346237183
0.69258385896682739 0.69258385896682739 0.69258385896682739
0.69283747673034668 0.69283747673034668 0.69283747673034668
0.69645923376083374 0.69645923376083374 0.69645923376083374
0.70797175168991089 0.70797175168991089 0.70797175168991089
0.72891414165496826 0.72891414165496826 0.72891414165496826
0.7565227746963501 0.7565227746963501 0.7565227746963501
0.78671526908874512 0.78671526908874512 0.78671526908874512
0.77256739139556885 0.77256739139556885 0.77256739139556885
0.77330833673477173 0.77330833673477173 0.77330833673477173
0.77513927221298218 0.77513927221298218 0.77513927221298218
0.78263157606124878 0.78263157606124878 0.78263157606124878
0.79738986492156982 0.79738986492156982 0.79738986492156982
0.81787270307540894 0.81787270307540894 0.81787270307540894
0.84203094244003296 0.84203094244003296 0.84203094244003296
0.84727686643600464 0.84727686643600464 0.84727686643600464
0.84945464134216309 0.84945464134216309 0.84945464134216309
0.85167533159255981 0.85167533159255981 0.85167533159255981
0.85676884651184082 0.85676884651184082 0.85676884651184082
0.86666691303253174 0.86666691303253174 0.86666691303253174
0.8809821605682373 0.8809821605682373 0.8809821605682373
0.89931988716125488 0.89931988716125488 0.89931988716125488
0.91816961765289307 0.91816961765289307 0.91816961765289307
0.92129969596862793 0.92129969596862793 0.92129969596862793
0.92359292507171631 0.92359292507171631 0.92359292507171631
0.92751318216323853 0.92751318216323853 0.92751318216323853
0.93413794040679932 0.93413794040679932 0.93413794040679932
0.94403475522994995 0.94403475522994995 0.94403475522994995
0.95760446786880493 0.95760446786880493 0.95760446786880493
0.55076771974563599 0.55076771974563599 0.55076771974563599
0.55699515342712402 0.55699515342712402 0.55699515342712402
0.5721287727355957 0.5721287727355957 0.5721287727355957
0.5971716046333313 0.5971716046333313 0.5971716046333313
0.63180655241012573 0.63180655241012573 0.63180655241012573
0.67387455701828003 0.67387455701828003 0.67387455701828003
0.71759533882141113 0.71759533882141113 0.71759533882141113
0.61270606517791748 0.61270606517791748 0.61270606517791748
0.61904263496398926 0.61904263496398926 0.61904263496398926
0.63046646118164062 0.63046646118164062 0.63046646118164062
0.65073949098587036 0.65073949098587036 0.65073949098587036
0.68018412590026855 0.68018412590026855 0.68018412590026855
0.71605479717254639 0.71605479717254639 0.71605479717254639
0.75184887647628784 0.75184887647628784 0.75184887647628784
0.68672603368759155 0.68672603368759155 0.68672603368759155
0.68841427564620972 0.68841427564620972 0.68841427564620972
0.69454056024551392 0.69454056024551392 0.69454056024551392
0.70868778228759766 0.70868778228759766 0.70868778228759766
0.73158067464828491 0.73158067464828491 0.73158067464828491
0.76034867763519287 0.76034867763519287 0.76034867763519287
0.79045814275741577 0.79045814275741577 0.79045814275741577
0.7638857364654541 0.7638857364654541 0.7638857364654541
0.76061797142028809 0.76061797142028809 0.76061797142028809
0.76163876056671143 0.76163876056671143 0.76163876056671143
0.77059602737426758 0.77059602737426758 0.77059602737426758
0.7871214747428894 0.7871214747428894 0.7871214747428894
0.8095705509185791 0.8095705509185791 0.8095705509185791
0.8344569206237793 0.8344569206237793 0.8344569206237793
0.82758092880249023 0.82758092880249023 0.82758092880249023
0.82774603366851807 0.82774603366851807 0.82774603366851807
0.8285973072052002 0.8285973072052002 0.8285973072052002
0.83416581153869629 0.83416581153869629 0.83416581153869629
0.84563529491424561 0.84563529491424561 0.84563529491424561
0.86205029487609863 0.86205029487609863 0.86205029487609863
0.88228768110275269 0.88228768110275269 0.88228768110275269
0.88988935947418213 0.88988935947418213 0.88988935947418213
0.89200621843338013 0.89200621843338013 0.89200621843338013
0.89364349842071533 0.89364349842071533 0.89364349842071533
0.89766234159469604 0.89766234159469604 0.89766234159469604
0.90528959035873413 0.90528959035873413 0.90528959035873413
0.91674154996871948 0.91674154996871948 0.91674154996871948
0.93196588754653931 0.93196588754653931 0.93196588754653931
0.95134580135345459 0.95134580135345459 0.95134580135345459
0.95423203706741333 0.95423203706741333 0.95423203706741333
0.95633816719055176 0.95633816719055176 0.95633816719055176
0.95953243970870972 0.95953243970870972 0.95953243970870972
0.96483683586120605 0.96483683586120605 0.96483683586120605
0.97228449583053589 0.97228449583053589 0.97228449583053589
0.98263645172119141 0.98263645172119141 0.98263645172119141
