films/ilford_delta_100.cube
# Created by: G'MIC (https://gmic.eu)
TITLE "ilford_delta_100"
# LUT size
LUT_3D_SIZE 5
# Data domain
DOMAIN_MIN 0.0 0.0 0.0
DOMAIN_MAX 1.0 1.0 1.0
# LUT data points
0.034429199993610382 0.034429199993610382 0.034429199993610382
0.053002212196588516 0.053002212196588516 0.053002212196588516
0.080002769827842712 0.080002769827842712 0.080002769827842712
0.14491961896419525 0.14491961896419525 0.14491961896419525
0.24735651910305023 0.24735651910305023 0.24735651910305023
0.19507740437984467 0.19507740437984467 0.19507740437984467
0.2292131781578064 0.2292131781578064 0.2292131781578064
0.29608356952667236 0.29608356952667236 0.29608356952667236
0.33640861511230469 0.33640861511230469 0.33640861511230469
0.41125550866127014 0.41125550866127014 0.41125550866127014
0.43539971113204956 0.43539971113204956 0.43539971113204956
0.45997890830039978 0.45997890830039978 0.45997890830039978
0.50453072786331177 0.50453072786331177 0.50453072786331177
0.5314900279045105 0.5314900279045105 0.5314900279045105
0.56720811128616333 0.56720811128616333 0.56720811128616333
0.66584455966949463 0.66584455966949463 0.66584455966949463
0.66593813896179199 0.66593813896179199 0.66593813896179199
0.68515366315841675 0.68515366315841675 0.68515366315841675
0.70650643110275269 0.70650643110275269 0.70650643110275269
0.71613115072250366 0.71613115072250366 0.71613115072250366
0.85868841409683228 0.85868841409683228 0.85868841409683228
0.8585660457611084 0.8585660457611084 0.8585660457611084
0.85313558578491211 0.85313558578491211 0.85313558578491211
0.86153888702392578 0.86153888702392578 0.86153888702392578
0.86129456758499146 0.86129456758499146 0.86129456758499146
0.094229482114315033 0.094229482114315033 0.094229482114315033
0.13622845709323883 0.13622845709323883 0.13622845709323883
0.1774480938911438 0.1774480938911438 0.1774480938911438
0.21861842274665833 0.21861842274665833 0.21861842274665833
0.34455609321594238 0.34455609321594238 0.34455609321594238
0.29961872100830078 0.29961872100830078 0.29961872100830078
0.31576448678970337 0.31576448678970337 0.31576448678970337
0.35535642504692078 0.35535642504692078 0.35535642504692078
0.39615580439567566 0.39615580439567566 0.39615580439567566
0.45845642685890198 0.45845642685890198 0.45845642685890198
0.49727264046669006 0.49727264046669006 0.49727264046669006
0.522816002368927 0.522816002368927 0.522816002368927
0.52794116735458374 0.52794116735458374 0.52794116735458374
0.56054526567459106 0.56054526567459106 0.56054526567459106
0.6003108024597168 0.6003108024597168 0.6003108024597168
0.69293183088302612 0.69293183088302612 0.69293183088302612
0.69336801767349243 0.69336801767349243 0.69336801767349243
0.70434165000915527 0.70434165000915527 0.70434165000915527
0.71877789497375488 0.71877789497375488 0.71877789497375488
0.73884040117263794 0.73884040117263794 0.73884040117263794
0.8637082576751709 0.8637082576751709 0.8637082576751709
0.86090552806854248 0.86090552806854248 0.86090552806854248
0.86817556619644165 0.86817556619644165 0.86817556619644165
0.88183188438415527 0.88183188438415527 0.88183188438415527
0.90487682819366455 0.90487682819366455 0.90487682819366455
0.19816529750823975 0.19816529750823975 0.19816529750823975
0.24323685467243195 0.24323685467243195 0.24323685467243195
0.29149606823921204 0.29149606823921204 0.29149606823921204
0.34463191032409668 0.34463191032409668 0.34463191032409668
0.43388435244560242 0.43388435244560242 0.43388435244560242
0.42555171251296997 0.42555171251296997 0.42555171251296997
0.4255254864692688 0.4255254864692688 0.4255254864692688
0.44554528594017029 0.44554528594017029 0.44554528594017029
0.48687338829040527 0.48687338829040527 0.48687338829040527
0.54336142539978027 0.54336142539978027 0.54336142539978027
0.58662176132202148 0.58662176132202148 0.58662176132202148
0.58065336942672729 0.58065336942672729 0.58065336942672729
0.58564507961273193 0.58564507961273193 0.58564507961273193
0.61766022443771362 0.61766022443771362 0.61766022443771362
0.66086292266845703 0.66086292266845703 0.66086292266845703
0.72988051176071167 0.72988051176071167 0.72988051176071167
0.72994339466094971 0.72994339466094971 0.72994339466094971
0.74442040920257568 0.74442040920257568 0.74442040920257568
0.75684463977813721 0.75684463977813721 0.75684463977813721
0.77534633874893188 0.77534633874893188 0.77534633874893188
0.89045971632003784 0.89045971632003784 0.89045971632003784
0.89334654808044434 0.89334654808044434 0.89334654808044434
0.89718854427337646 0.89718854427337646 0.89718854427337646
0.9046446681022644 0.9046446681022644 0.9046446681022644
0.9133373498916626 0.9133373498916626 0.9133373498916626
0.3784312903881073 0.3784312903881073 0.3784312903881073
0.40565833449363708 0.40565833449363708 0.40565833449363708
0.43754974007606506 0.43754974007606506 0.43754974007606506
0.48393732309341431 0.48393732309341431 0.48393732309341431
0.55529582500457764 0.55529582500457764 0.55529582500457764
0.52162271738052368 0.52162271738052368 0.52162271738052368
0.53664958477020264 0.53664958477020264 0.53664958477020264
0.55688732862472534 0.55688732862472534 0.55688732862472534
0.57815396785736084 0.57815396785736084 0.57815396785736084
0.62913608551025391 0.62913608551025391 0.62913608551025391
0.65908455848693848 0.65908455848693848 0.65908455848693848
0.6692507266998291 0.6692507266998291 0.6692507266998291
0.67582869529724121 0.67582869529724121 0.67582869529724121
0.69866031408309937 0.69866031408309937 0.69866031408309937
0.72438079118728638 0.72438079118728638 0.72438079118728638
0.79864084720611572 0.79864084720611572 0.79864084720611572
0.79271537065505981 0.79271537065505981 0.79271537065505981
0.80500668287277222 0.80500668287277222 0.80500668287277222
0.81349384784698486 0.81349384784698486 0.81349384784698486
0.82222545146942139 0.82222545146942139 0.82222545146942139
0.91833096742630005 0.91833096742630005 0.91833096742630005
0.93131130933761597 0.93131130933761597 0.93131130933761597
0.93573617935180664 0.93573617935180664 0.93573617935180664
0.93690580129623413 0.93690580129623413 0.93690580129623413
0.948050856590271 0.948050856590271 0.948050856590271
0.54462409019470215 0.54462409019470215 0.54462409019470215
0.57303476333618164 0.57303476333618164 0.57303476333618164
0.59385049343109131 0.59385049343109131 0.59385049343109131
0.62024217844009399 0.62024217844009399 0.62024217844009399
0.67546349763870239 0.67546349763870239 0.67546349763870239
0.63938206434249878 0.63938206434249878 0.63938206434249878
0.64673322439193726 0.64673322439193726 0.64673322439193726
0.66518181562423706 0.66518181562423706 0.66518181562423706
0.67570328712463379 0.67570328712463379 0.67570328712463379
0.7230222225189209 0.7230222225189209 0.7230222225189209
0.74511921405792236 0.74511921405792236 0.74511921405792236
0.75274181365966797 0.75274181365966797 0.75274181365966797
0.76224809885025024 0.76224809885025024 0.76224809885025024
0.77164202928543091 0.77164202928543091 0.77164202928543091
0.79282695055007935 0.79282695055007935 0.79282695055007935
0.85187041759490967 0.85187041759490967 0.85187041759490967
0.86036717891693115 0.86036717891693115 0.86036717891693115
0.86906176805496216 0.86906176805496216 0.86906176805496216
0.86318117380142212 0.86318117380142212 0.86318117380142212
0.86243200302124023 0.86243200302124023 0.86243200302124023
0.95622199773788452 0.95622199773788452 0.95622199773788452
0.96694517135620117 0.96694517135620117 0.96694517135620117
0.97312891483306885 0.97312891483306885 0.97312891483306885
0.97467231750488281 0.97467231750488281 0.97467231750488281
0.95088231563568115 0.95088231563568115 0.95088231563568115
