films/ilford_pan_f_plus_50.cube
TITLE "data/luts/rawtherapee/HaldCLUT/Black-and-White/Ilford/Ilford Pan F Plus 50.png"
LUT_3D_SIZE 64
DOMAIN_MIN 0 0 0
DOMAIN_MAX 1 1 1
0.000000 0.000000 0.000000
0.000000 0.000000 0.000000
0.000000 0.000000 0.000000
0.000000 0.000000 0.000000
0.000000 0.000000 0.000000
0.000000 0.000000 0.000000
0.000000 0.000000 0.000000
0.000000 0.000000 0.000000
0.000000 0.000000 0.000000
0.000000 0.000000 0.000000
0.000000 0.000000 0.000000
0.000000 0.000000 0.000000
0.000000 0.000000 0.000000
0.003922 0.003922 0.003922
0.003922 0.003922 0.003922
0.003922 0.003922 0.003922
0.003922 0.003922 0.003922
0.003922 0.003922 0.003922
0.003922 0.003922 0.003922
0.003922 0.003922 0.003922
0.007843 0.007843 0.007843
0.007843 0.007843 0.007843
0.007843 0.007843 0.007843
0.007843 0.007843 0.007843
0.011765 0.011765 0.011765
0.011765 0.011765 0.011765
0.011765 0.011765 0.011765
0.012885 0.012885 0.012885
0.015686 0.015686 0.015686
0.015686 0.015686 0.015686
0.019608 0.019608 0.019608
0.021040 0.021040 0.021040
0.023529 0.023529 0.023529
0.027451 0.027451 0.027451
0.031373 0.031373 0.031373
0.033115 0.033115 0.033115
0.038095 0.038095 0.038095
0.043075 0.043075 0.043075
0.047059 0.047059 0.047059
0.050980 0.050980 0.050980
0.054093 0.054093 0.054093
0.059073 0.059073 0.059073
0.064052 0.064052 0.064052
0.070588 0.070588 0.070588
0.077933 0.077933 0.077933
0.082913 0.082913 0.082913
0.087893 0.087893 0.087893
0.096794 0.096794 0.096794
0.105696 0.105696 0.105696
0.110675 0.110675 0.110675
0.119577 0.119577 0.119577
0.128478 0.128478 0.128478
0.137379 0.137379 0.137379
0.146281 0.146281 0.146281
0.157423 0.157423 0.157423
0.164083 0.164083 0.164083
0.172985 0.172985 0.172985
0.185808 0.185808 0.185808
0.198631 0.198631 0.198631
0.211142 0.211142 0.211142
0.221102 0.221102 0.221102
0.237099 0.237099 0.237099
0.252786 0.252786 0.252786
0.266667 0.266667 0.266667
0.001058 0.001058 0.001058
0.003922 0.003922 0.003922
0.003922 0.003922 0.003922
0.004980 0.004980 0.004980
0.004980 0.004980 0.004980
0.004980 0.004980 0.004980
0.006752 0.006752 0.006752
0.007843 0.007843 0.007843
0.008901 0.008901 0.008901
0.008901 0.008901 0.008901
0.008901 0.008901 0.008901
0.008901 0.008901 0.008901
0.012823 0.012823 0.012823
0.012823 0.012823 0.012823
0.012823 0.012823 0.012823
0.013010 0.013010 0.013010
0.016744 0.016744 0.016744
0.016744 0.016744 0.016744
0.016744 0.016744 0.016744
0.020666 0.020666 0.020666
0.020666 0.020666 0.020666
0.023633 0.023633 0.023633
0.024588 0.024588 0.024588
0.025646 0.025646 0.025646
0.028509 0.028509 0.028509
0.029567 0.029567 0.029567
0.032448 0.032448 0.032448
0.034307 0.034307 0.034307
0.037411 0.037411 0.037411
0.040647 0.040647 0.040647
0.041706 0.041706 0.041706
0.046299 0.046299 0.046299
0.049175 0.049175 0.049175
0.053097 0.053097 0.053097
0.057018 0.057018 0.057018
0.060940 0.060940 0.060940
0.064862 0.064862 0.064862
0.068783 0.068783 0.068783
0.076626 0.076626 0.076626
0.080548 0.080548 0.080548
0.084469 0.084469 0.084469
0.089631 0.089631 0.089631
0.097541 0.097541 0.097541
0.102521 0.102521 0.102521
0.108923 0.108923 0.108923
0.116402 0.116402 0.116402
0.122003 0.122003 0.122003
0.130283 0.130283 0.130283
0.139185 0.139185 0.139185
0.144987 0.144987 0.144987
0.153066 0.153066 0.153066
0.161967 0.161967 0.161967
0.170868 0.170868 0.170868
0.179770 0.179770 0.179770
0.188671 0.188671 0.188671
0.197572 0.197572 0.197572
0.207532 0.207532 0.207532
0.219297 0.219297 0.219297
0.232120 0.232120 0.232120
0.244715 0.244715 0.244715
0.257967 0.257967 0.257967
0.272964 0.272964 0.272964
0.287333 0.287333 0.287333
0.304077 0.304077 0.304077
0.006038 0.006038 0.006038
0.007843 0.007843 0.007843
0.009960 0.009960 0.009960
0.009960 0.009960 0.009960
0.009960 0.009960 0.009960
0.011765 0.011765 0.011765
0.013075 0.013075 0.013075
0.013881 0.013881 0.013881
0.013881 0.013881 0.013881
0.015686 0.015686 0.015686
0.017803 0.017803 0.017803
0.017803 0.017803 0.017803
0.018232 0.018232 0.018232
0.020683 0.020683 0.020683
0.021724 0.021724 0.021724
0.021724 0.021724 0.021724
0.025646 0.025646 0.025646
0.025646 0.025646 0.025646
0.025646 0.025646 0.025646
0.029567 0.029567 0.029567
0.030407 0.030407 0.030407
0.033489 0.033489 0.033489
0.035471 0.035471 0.035471
0.037411 0.037411 0.037411
0.040387 0.040387 0.040387
0.041332 0.041332 0.041332
0.045254 0.045254 0.045254
0.046374 0.046374 0.046374
0.049175 0.049175 0.049175
0.053097 0.053097 0.053097
0.057018 0.057018 0.057018
0.059794 0.059794 0.059794
0.063430 0.063430 0.063430
0.068410 0.068410 0.068410
0.071215 0.071215 0.071215
0.075623 0.075623 0.075623
0.080032 0.080032 0.080032
0.084441 0.084441 0.084441
0.090966 0.090966 0.090966
0.095374 0.095374 0.095374
0.101463 0.101463 0.101463
0.106443 0.106443 0.106443
0.112626 0.112626 0.112626
0.119047 0.119047 0.119047
0.125533 0.125533 0.125533
0.132088 0.132088 0.132088
0.139185 0.139185 0.139185
0.145969 0.145969 0.145969
0.154871 0.154871 0.154871
0.161497 0.161497 0.161497
0.168752 0.168752 0.168752
0.177653 0.177653 0.177653
0.186555 0.186555 0.186555
0.195456 0.195456 0.195456
0.204357 0.204357 0.204357
0.215039 0.215039 0.215039
0.224477 0.224477 0.224477
0.235789 0.235789 0.235789
0.249183 0.249183 0.249183
0.262577 0.262577 0.262577
0.275912 0.275912 0.275912
0.290196 0.290196 0.290196
0.304564 0.304564 0.304564
0.319763 0.319763 0.319763
0.011765 0.011765 0.011765
0.012621 0.012621 0.012621
0.014939 0.014939 0.014939
0.014939 0.014939 0.014939
0.015686 0.015686 0.015686
0.016795 0.016795 0.016795
0.018861 0.018861 0.018861
0.018861 0.018861 0.018861
0.020112 0.020112 0.020112
0.022782 0.022782 0.022782
0.022782 0.022782 0.022782
0.023529 0.023529 0.023529
0.026704 0.026704 0.026704
0.026704 0.026704 0.026704
0.029920 0.029920 0.029920
0.030626 0.030626 0.030626
0.030863 0.030863 0.030863
0.034547 0.034547 0.034547
0.034547 0.034547 0.034547
0.038469 0.038469 0.038469
0.040025 0.040025 0.040025
0.042390 0.042390 0.042390
0.042390 0.042390 0.042390
0.046312 0.046312 0.046312
0.050233 0.050233 0.050233
0.052602 0.052602 0.052602
0.054155 0.054155 0.054155
0.058077 0.058077 0.058077
0.060255 0.060255 0.060255
0.061998 0.061998 0.061998
0.066222 0.066222 0.066222
0.069841 0.069841 0.069841
0.073763 0.073763 0.073763
0.077684 0.077684 0.077684
0.082160 0.082160 0.082160
0.086938 0.086938 0.086938
0.092250 0.092250 0.092250
0.097230 0.097230 0.097230
0.102020 0.102020 0.102020
0.107190 0.107190 0.107190
0.112824 0.112824 0.112824
0.117149 0.117149 0.117149
0.125801 0.125801 0.125801
0.131030 0.131030 0.131030
0.136413 0.136413 0.136413
0.144805 0.144805 0.144805
0.149891 0.149891 0.149891
0.158283 0.158283 0.158283
0.163923 0.163923 0.163923
0.172674 0.172674 0.172674
0.181207 0.181207 0.181207
0.187310 0.187310 0.187310
0.198530 0.198530 0.198530
0.205315 0.205315 0.205315
0.216860 0.216860 0.216860
0.226082 0.226082 0.226082
0.238157 0.238157 0.238157
0.249015 0.249015 0.249015
0.260629 0.260629 0.260629
0.273452 0.273452 0.273452
0.287021 0.287021 0.287021
0.302616 0.302616 0.302616
0.315842 0.315842 0.315842
0.332586 0.332586 0.332586
0.019608 0.019608 0.019608
0.019919 0.019919 0.019919
0.019919 0.019919 0.019919
0.019919 0.019919 0.019919
0.023841 0.023841 0.023841
0.023841 0.023841 0.023841
0.023841 0.023841 0.023841
0.027326 0.027326 0.027326
0.027762 0.027762 0.027762
0.027762 0.027762 0.027762
0.031684 0.031684 0.031684
0.031684 0.031684 0.031684
0.032617 0.032617 0.032617
0.035605 0.035605 0.035605
0.038655 0.038655 0.038655
0.039527 0.039527 0.039527
0.039527 0.039527 0.039527
0.043448 0.043448 0.043448
0.043448 0.043448 0.043448
0.047370 0.047370 0.047370
0.048926 0.048926 0.048926
0.051292 0.051292 0.051292
0.054964 0.054964 0.054964
0.055277 0.055277 0.055277
0.059135 0.059135 0.059135
0.062060 0.062060 0.062060
0.063119 0.063119 0.063119
0.066978 0.066978 0.066978
0.070899 0.070899 0.070899
0.074136 0.074136 0.074136
0.075476 0.075476 0.075476
0.080174 0.080174 0.080174
0.085154 0.085154 0.085154
0.090134 0.090134 0.090134
0.094429 0.094429 0.094429
0.098350 0.098350 0.098350
0.102272 0.102272 0.102272
0.106500 0.106500 0.106500
0.114037 0.114037 0.114037
0.118121 0.118121 0.118121
0.124992 0.124992 0.124992
0.129972 0.129972 0.129972
0.135159 0.135159 0.135159
0.141675 0.141675 0.141675
0.148833 0.148833 0.148833
0.154079 0.154079 0.154079
0.162714 0.162714 0.162714
0.167793 0.167793 0.167793
0.176595 0.176595 0.176595
0.184694 0.184694 0.184694
0.190476 0.190476 0.190476
0.199378 0.199378 0.199378
0.208279 0.208279 0.208279
0.217180 0.217180 0.217180
0.226393 0.226393 0.226393
0.238904 0.238904 0.238904
0.248117 0.248117 0.248117
0.260747 0.260747 0.260747
0.273452 0.273452 0.273452
0.286275 0.286275 0.286275
0.299844 0.299844 0.299844
0.313725 0.313725 0.313725
0.327607 0.327607 0.327607
0.341488 0.341488 0.341488
0.024899 0.024899 0.024899
0.025957 0.025957 0.025957
0.028820 0.028820 0.028820
0.028820 0.028820 0.028820
0.029132 0.029132 0.029132
0.032742 0.032742 0.032742
0.032742 0.032742 0.032742
0.032742 0.032742 0.032742
0.036664 0.036664 0.036664
0.036664 0.036664 0.036664
0.040585 0.040585 0.040585
0.040585 0.040585 0.040585
0.042562 0.042562 0.042562
0.044507 0.044507 0.044507
0.047557 0.047557 0.047557
0.048428 0.048428 0.048428
0.049673 0.049673 0.049673
0.052350 0.052350 0.052350
0.053524 0.053524 0.053524
0.056271 0.056271 0.056271
0.058654 0.058654 0.058654
0.060193 0.060193 0.060193
0.064115 0.064115 0.064115
0.066011 0.066011 0.066011
0.068036 0.068036 0.068036
0.071958 0.071958 0.071958
0.075879 0.075879 0.075879
0.077000 0.077000 0.077000
0.080562 0.080562 0.080562
0.083722 0.083722 0.083722
0.087774 0.087774 0.087774
0.091566 0.091566 0.091566
0.095487 0.095487 0.095487
0.099409 0.099409 0.099409
0.104015 0.104015 0.104015
0.108995 0.108995 0.108995
0.114366 0.114366 0.114366
0.118976 0.118976 0.118976
0.123934 0.123934 0.123934
0.129566 0.129566 0.129566
0.134703 0.134703 0.134703
0.140156 0.140156 0.140156
0.146924 0.146924 0.146924
0.152754 0.152754 0.152754
0.159428 0.159428 0.159428
0.166636 0.166636 0.166636
0.172420 0.172420 0.172420
0.180517 0.180517 0.180517
0.186866 0.186866 0.186866
0.194398 0.194398 0.194398
0.203299 0.203299 0.203299
0.212200 0.212200 0.212200
0.221102 0.221102 0.221102
0.230003 0.230003 0.230003
0.238904 0.238904 0.238904
0.251322 0.251322 0.251322
0.260781 0.260781 0.260781
0.273452 0.273452 0.273452
0.285383 0.285383 0.285383
0.298786 0.298786 0.298786
0.311920 0.311920 0.311920
0.324743 0.324743 0.324743
0.337566 0.337566 0.337566
0.351758 0.351758 0.351758
0.033800 0.033800 0.033800
0.037722 0.037722 0.037722
0.037722 0.037722 0.037722
0.037722 0.037722 0.037722
0.038033 0.038033 0.038033
0.041643 0.041643 0.041643
0.041643 0.041643 0.041643
0.045129 0.045129 0.045129
0.045565 0.045565 0.045565
0.046605 0.046605 0.046605
0.049486 0.049486 0.049486
0.049486 0.049486 0.049486
0.053408 0.053408 0.053408
0.053408 0.053408 0.053408
0.057330 0.057330 0.057330
0.057330 0.057330 0.057330
0.061251 0.061251 0.061251
0.061251 0.061251 0.061251
0.064959 0.064959 0.064959
0.065481 0.065481 0.065481
0.069094 0.069094 0.069094
0.072518 0.072518 0.072518
0.073016 0.073016 0.073016
0.076937 0.076937 0.076937
0.080076 0.080076 0.080076
0.082670 0.082670 0.082670
0.084819 0.084819 0.084819
0.088702 0.088702 0.088702
0.091960 0.091960 0.091960
0.095861 0.095861 0.095861
0.099115 0.099115 0.099115
0.101899 0.101899 0.101899
0.106878 0.106878 0.106878
0.111858 0.111858 0.111858
0.116153 0.116153 0.116153
0.121154 0.121154 0.121154
0.125730 0.125730 0.125730
0.130307 0.130307 0.130307
0.136378 0.136378 0.136378
0.140954 0.140954 0.140954
0.146716 0.146716 0.146716
0.151696 0.151696 0.151696
0.158294 0.158294 0.158294
0.164676 0.164676 0.164676
0.170557 0.170557 0.170557
0.177618 0.177618 0.177618
0.184438 0.184438 0.184438
0.190189 0.190189 0.190189
0.198319 0.198319 0.198319
0.206889 0.206889 0.206889
0.214628 0.214628 0.214628
0.221680 0.221680 0.221680
0.232431 0.232431 0.232431
0.241332 0.241332 0.241332
0.251727 0.251727 0.251727
0.262671 0.262671 0.262671
0.273452 0.273452 0.273452
0.285350 0.285350 0.285350
0.296756 0.296756 0.296756
0.310234 0.310234 0.310234
0.321569 0.321569 0.321569
0.335450 0.335450 0.335450
0.349331 0.349331 0.349331
0.363212 0.363212 0.363212
0.046187 0.046187 0.046187
0.046623 0.046623 0.046623
0.046623 0.046623 0.046623
0.049445 0.049445 0.049445
0.050545 0.050545 0.050545
0.050545 0.050545 0.050545
0.052703 0.052703 0.052703
0.054466 0.054466 0.054466
0.055020 0.055020 0.055020
0.058388 0.058388 0.058388
0.058388 0.058388 0.058388
0.061763 0.061763 0.061763
0.062309 0.062309 0.062309
0.064301 0.064301 0.064301
0.066231 0.066231 0.066231
0.069738 0.069738 0.069738
0.070153 0.070153 0.070153
0.073894 0.073894 0.073894
0.074074 0.074074 0.074074
0.077996 0.077996 0.077996
0.079379 0.079379 0.079379
0.081917 0.081917 0.081917
0.085811 0.085811 0.085811
0.086558 0.086558 0.086558
0.089760 0.089760 0.089760
0.093571 0.093571 0.093571
0.097603 0.097603 0.097603
0.098724 0.098724 0.098724
0.103462 0.103462 0.103462
0.105447 0.105447 0.105447
0.109700 0.109700 0.109700
0.113290 0.113290 0.113290
0.117211 0.117211 0.117211
0.124287 0.124287 0.124287
0.128616 0.128616 0.128616
0.132656 0.132656 0.132656
0.136695 0.136695 0.136695
0.140741 0.140741 0.140741
0.148259 0.148259 0.148259
0.152298 0.152298 0.152298
0.159194 0.159194 0.159194
0.164270 0.164270 0.164270
0.169354 0.169354 0.169354
0.174479 0.174479 0.174479
0.183000 0.183000 0.183000
0.188360 0.188360 0.188360
0.195387 0.195387 0.195387
0.202241 0.202241 0.202241
0.210727 0.210727 0.210727
0.218833 0.218833 0.218833
0.225023 0.225023 0.225023
0.233925 0.233925 0.233925
0.242826 0.242826 0.242826
0.255213 0.255213 0.255213
0.264364 0.264364 0.264364
0.273452 0.273452 0.273452
0.285887 0.285887 0.285887
0.296504 0.296504 0.296504
0.307999 0.307999 0.307999
0.320787 0.320787 0.320787
0.333645 0.333645 0.333645
0.346467 0.346467 0.346467
0.359173 0.359173 0.359173
0.372113 0.372113 0.372113
0.055524 0.055524 0.055524
0.059446 0.059446 0.059446
0.059446 0.059446 0.059446
0.059446 0.059446 0.059446
0.060068 0.060068 0.060068
0.063368 0.063368 0.063368
0.063368 0.063368 0.063368
0.063921 0.063921 0.063921
0.067289 0.067289 0.067289
0.067289 0.067289 0.067289
0.070216 0.070216 0.070216
0.071211 0.071211 0.071211
0.075132 0.075132 0.075132
0.075132 0.075132 0.075132
0.078321 0.078321 0.078321
0.079083 0.079083 0.079083
0.082975 0.082975 0.082975
0.083341 0.083341 0.083341
0.086897 0.086897 0.086897
0.087938 0.087938 0.087938
0.091066 0.091066 0.091066
0.094740 0.094740 0.094740
0.098413 0.098413 0.098413
0.098790 0.098790 0.098790
0.102583 0.102583 0.102583
0.105667 0.105667 0.105667
0.110426 0.110426 0.110426
0.111547 0.111547 0.111547
0.114694 0.114694 0.114694
0.118270 0.118270 0.118270
0.122250 0.122250 0.122250
0.126113 0.126113 0.126113
0.130034 0.130034 0.130034
0.133956 0.133956 0.133956
0.138562 0.138562 0.138562
0.143888 0.143888 0.143888
0.148699 0.148699 0.148699
0.153511 0.153511 0.153511
0.158481 0.158481 0.158481
0.163757 0.163757 0.163757
0.169250 0.169250 0.169250
0.177093 0.177093 0.177093
0.181222 0.181222 0.181222
0.187302 0.187302 0.187302
0.193323 0.193323 0.193323
0.201183 0.201183 0.201183
0.206528 0.206528 0.206528
0.215064 0.215064 0.215064
0.220823 0.220823 0.220823
0.229567 0.229567 0.229567
0.238469 0.238469 0.238469
0.247370 0.247370 0.247370
0.256271 0.256271 0.256271
0.266168 0.266168 0.266168
0.277373 0.277373 0.277373
0.286798 0.286798 0.286798
0.299097 0.299097 0.299097
0.309878 0.309878 0.309878
0.320822 0.320822 0.320822
0.333383 0.333383 0.333383
0.346467 0.346467 0.346467
0.357174 0.357174 0.357174
0.368192 0.368192 0.368192
0.381015 0.381015 0.381015
0.068347 0.068347 0.068347
0.068347 0.068347 0.068347
0.069254 0.069254 0.069254
0.070028 0.070028 0.070028
0.072269 0.072269 0.072269
0.072269 0.072269 0.072269
0.073950 0.073950 0.073950
0.076190 0.076190 0.076190
0.076457 0.076457 0.076457
0.078832 0.078832 0.078832
0.080112 0.080112 0.080112
0.081739 0.081739 0.081739
0.084034 0.084034 0.084034
0.086853 0.086853 0.086853
0.087955 0.087955 0.087955
0.091877 0.091877 0.091877
0.092410 0.092410 0.092410
0.095798 0.095798 0.095798
0.097239 0.097239 0.097239
0.099720 0.099720 0.099720
0.102290 0.102290 0.102290
0.104762 0.104762 0.104762
0.107563 0.107563 0.107563
0.111485 0.111485 0.111485
0.113352 0.113352 0.113352
0.115406 0.115406 0.115406
0.119354 0.119354 0.119354
0.123249 0.123249 0.123249
0.126175 0.126175 0.126175
0.130701 0.130701 0.130701
0.135014 0.135014 0.135014
0.137513 0.137513 0.137513
0.141425 0.141425 0.141425
0.146405 0.146405 0.146405
0.150994 0.150994 0.150994
0.155369 0.155369 0.155369
0.159744 0.159744 0.159744
0.164119 0.164119 0.164119
0.170308 0.170308 0.170308
0.175110 0.175110 0.175110
0.181264 0.181264 0.181264
0.186243 0.186243 0.186243
0.191223 0.191223 0.191223
0.198773 0.198773 0.198773
0.205104 0.205104 0.205104
0.211765 0.211765 0.211765
0.218985 0.218985 0.218985
0.226357 0.226357 0.226357
0.232947 0.232947 0.232947
0.241768 0.241768 0.241768
0.250669 0.250669 0.250669
0.259570 0.259570 0.259570
0.268472 0.268472 0.268472
0.277880 0.277880 0.277880
0.289236 0.289236 0.289236
0.299097 0.299097 0.299097
0.309928 0.309928 0.309928
0.320822 0.320822 0.320822
0.330817 0.330817 0.330817
0.342546 0.342546 0.342546
0.355369 0.355369 0.355369
0.366075 0.366075 0.366075
0.377093 0.377093 0.377093
0.389916 0.389916 0.389916
0.079988 0.079988 0.079988
0.080307 0.080307 0.080307
0.081170 0.081170 0.081170
0.081170 0.081170 0.081170
0.083909 0.083909 0.083909
0.085092 0.085092 0.085092
0.085092 0.085092 0.085092
0.087831 0.087831 0.087831
0.089013 0.089013 0.089013
0.090187 0.090187 0.090187
0.092578 0.092578 0.092578
0.092935 0.092935 0.092935
0.095955 0.095955 0.095955
0.096857 0.096857 0.096857
0.100515 0.100515 0.100515
0.100909 0.100909 0.100909
0.104700 0.104700 0.104700
0.106308 0.106308 0.106308
0.108621 0.108621 0.108621
0.111510 0.111510 0.111510
0.113630 0.113630 0.113630
0.116464 0.116464 0.116464
0.120311 0.120311 0.120311
0.120951 0.120951 0.120951
0.124308 0.124308 0.124308
0.127929 0.127929 0.127929
0.132151 0.132151 0.132151
0.135227 0.135227 0.135227
0.137594 0.137594 0.137594
0.142254 0.142254 0.142254
0.144289 0.144289 0.144289
0.148837 0.148837 0.148837
0.151758 0.151758 0.151758
0.158158 0.158158 0.158158
0.162547 0.162547 0.162547
0.166788 0.166788 0.166788
0.171028 0.171028 0.171028
0.175269 0.175269 0.175269
0.180205 0.180205 0.180205
0.186489 0.186489 0.186489
0.190974 0.190974 0.190974
0.198817 0.198817 0.198817
0.203652 0.203652 0.203652
0.209026 0.209026 0.209026
0.216895 0.216895 0.216895
0.222907 0.222907 0.222907
0.231320 0.231320 0.231320
0.239527 0.239527 0.239527
0.245689 0.245689 0.245689
0.254591 0.254591 0.254591
0.263492 0.263492 0.263492
0.272393 0.272393 0.272393
0.281295 0.281295 0.281295
0.290196 0.290196 0.290196
0.301836 0.301836 0.301836
0.310738 0.310738 0.310738
0.320822 0.320822 0.320822
0.332912 0.332912 0.332912
0.342546 0.342546 0.342546
0.353969 0.353969 0.353969
0.364270 0.364270 0.364270
0.377093 0.377093 0.377093
0.388858 0.388858 0.388858
0.398817 0.398817 0.398817
0.090072 0.090072 0.090072
0.093869 0.093869 0.093869
0.093993 0.093993 0.093993
0.093993 0.093993 0.093993
0.097790 0.097790 0.097790
0.097790 0.097790 0.097790
0.097915 0.097915 0.097915
0.097915 0.097915 0.097915
0.101732 0.101732 0.101732
0.101836 0.101836 0.101836
0.105633 0.105633 0.105633
0.105758 0.105758 0.105758
0.109555 0.109555 0.109555
0.109679 0.109679 0.109679
0.113477 0.113477 0.113477
0.113601 0.113601 0.113601
0.117438 0.117438 0.117438
0.117523 0.117523 0.117523
0.121426 0.121426 0.121426
0.125241 0.125241 0.125241
0.125366 0.125366 0.125366
0.129246 0.129246 0.129246
0.132843 0.132843 0.132843
0.133992 0.133992 0.133992
0.137065 0.137065 0.137065
0.141020 0.141020 0.141020
0.144851 0.144851 0.144851
0.146058 0.146058 0.146058
0.151005 0.151005 0.151005
0.152817 0.152817 0.152817
0.157100 0.157100 0.157100
0.160660 0.160660 0.160660
0.164536 0.164536 0.164536
0.168491 0.168491 0.168491
0.173088 0.173088 0.173088
0.178089 0.178089 0.178089
0.183069 0.183069 0.183069
0.188109 0.188109 0.188109
0.192997 0.192997 0.192997
0.198008 0.198008 0.198008
0.203771 0.203771 0.203771
0.211524 0.211524 0.211524
0.216827 0.216827 0.216827
0.221849 0.221849 0.221849
0.230626 0.230626 0.230626
0.235730 0.235730 0.235730
0.244507 0.244507 0.244507
0.250816 0.250816 0.250816
0.258512 0.258512 0.258512
0.267414 0.267414 0.267414
0.276315 0.276315 0.276315
0.285216 0.285216 0.285216
0.294118 0.294118 0.294118
0.303019 0.303019 0.303019
0.311920 0.311920 0.311920
0.324016 0.324016 0.324016
0.333645 0.333645 0.333645
0.342546 0.342546 0.342546
0.353918 0.353918 0.353918
0.364270 0.364270 0.364270
0.376992 0.376992 0.376992
0.385994 0.385994 0.385994
0.398784 0.398784 0.398784
0.407719 0.407719 0.407719
0.106816 0.106816 0.106816
0.106816 0.106816 0.106816
0.107320 0.107320 0.107320
0.107750 0.107750 0.107750
0.110738 0.110738 0.110738
0.110738 0.110738 0.110738
0.111316 0.111316 0.111316
0.111671 0.111671 0.111671
0.114659 0.114659 0.114659
0.115059 0.115059 0.115059
0.117680 0.117680 0.117680
0.118581 0.118581 0.118581
0.122502 0.122502 0.122502
0.122977 0.122977 0.122977
0.125760 0.125760 0.125760
0.126468 0.126468 0.126468
0.130345 0.130345 0.130345
0.130894 0.130894 0.130894
0.134267 0.134267 0.134267
0.135580 0.135580 0.135580
0.138559 0.138559 0.138559
0.142110 0.142110 0.142110
0.145842 0.145842 0.145842
0.146224 0.146224 0.146224
0.149953 0.149953 0.149953
0.153116 0.153116 0.153116
0.154856 0.154856 0.154856
0.158917 0.158917 0.158917
0.162237 0.162237 0.162237
0.165640 0.165640 0.165640
0.169650 0.169650 0.169650
0.173483 0.173483 0.173483
0.177404 0.177404 0.177404
0.181041 0.181041 0.181041
0.185932 0.185932 0.185932
0.190912 0.190912 0.190912
0.196158 0.196158 0.196158
0.200886 0.200886 0.200886
0.205851 0.205851 0.205851
0.211276 0.211276 0.211276
0.217361 0.217361 0.217361
0.224522 0.224522 0.224522
0.229692 0.229692 0.229692
0.235042 0.235042 0.235042
0.243573 0.243573 0.243573
0.249486 0.249486 0.249486
0.257454 0.257454 0.257454
0.266355 0.266355 0.266355
0.272269 0.272269 0.272269
0.280237 0.280237 0.280237
0.289138 0.289138 0.289138
0.298039 0.298039 0.298039
0.306941 0.306941 0.306941
0.315842 0.315842 0.315842
0.324743 0.324743 0.324743
0.334578 0.334578 0.334578
0.343812 0.343812 0.343812
0.355369 0.355369 0.355369
0.364270 0.364270 0.364270
0.374031 0.374031 0.374031
0.385994 0.385994 0.385994
0.394896 0.394896 0.394896
0.407719 0.407719 0.407719
0.420542 0.420542 0.420542
0.117709 0.117709 0.117709
0.119639 0.119639 0.119639
0.119639 0.119639 0.119639
0.119639 0.119639 0.119639
0.121631 0.121631 0.121631
0.123561 0.123561 0.123561
0.123561 0.123561 0.123561
0.125552 0.125552 0.125552
0.127482 0.127482 0.127482
0.127482 0.127482 0.127482
0.129474 0.129474 0.129474
0.131404 0.131404 0.131404
0.133396 0.133396 0.133396
0.135325 0.135325 0.135325
0.136875 0.136875 0.136875
0.139247 0.139247 0.139247
0.141239 0.141239 0.141239
0.143168 0.143168 0.143168
0.146814 0.146814 0.146814
0.147343 0.147343 0.147343
0.151012 0.151012 0.151012
0.153003 0.153003 0.153003
0.154933 0.154933 0.154933
0.158855 0.158855 0.158855
0.161765 0.161765 0.161765
0.164262 0.164262 0.164262
0.166729 0.166729 0.166729
0.170619 0.170619 0.170619
0.173683 0.173683 0.173683
0.178126 0.178126 0.178126
0.180638 0.180638 0.180638
0.185080 0.185080 0.185080
0.188796 0.188796 0.188796
0.193775 0.193775 0.193775
0.198070 0.198070 0.198070
0.202877 0.202877 0.202877
0.207336 0.207336 0.207336
0.213694 0.213694 0.213694
0.218184 0.218184 0.218184
0.223654 0.223654 0.223654
0.229045 0.229045 0.229045
0.235479 0.235479 0.235479
0.241872 0.241872 0.241872
0.248285 0.248285 0.248285
0.254711 0.254711 0.254711
0.263083 0.263083 0.263083
0.270277 0.270277 0.270277
0.277249 0.277249 0.277249
0.284253 0.284253 0.284253
0.293059 0.293059 0.293059
0.301961 0.301961 0.301961
