films/ilford_delta_3200.cube
# Created by: G'MIC (https://gmic.eu)
TITLE "ilford_delta_3200"
# LUT size
LUT_3D_SIZE 5
# Data domain
DOMAIN_MIN 0.0 0.0 0.0
DOMAIN_MAX 1.0 1.0 1.0
# LUT data points
0.10006818920373917 0.10006818920373917 0.10006818920373917
0.11167775839567184 0.11167775839567184 0.11167775839567184
0.22003616392612457 0.22003616392612457 0.22003616392612457
0.38400065898895264 0.38400065898895264 0.38400065898895264
0.58622455596923828 0.58622455596923828 0.58622455596923828
0.15280608832836151 0.15280608832836151 0.15280608832836151
0.15393581986427307 0.15393581986427307 0.15393581986427307
0.26295626163482666 0.26295626163482666 0.26295626163482666
0.4123435914516449 0.4123435914516449 0.4123435914516449
0.62053859233856201 0.62053859233856201 0.62053859233856201
0.29909703135490417 0.29909703135490417 0.29909703135490417
0.3228192925453186 0.3228192925453186 0.3228192925453186
0.38263404369354248 0.38263404369354248 0.38263404369354248
0.51354432106018066 0.51354432106018066 0.51354432106018066
0.71193581819534302 0.71193581819534302 0.71193581819534302
0.55506360530853271 0.55506360530853271 0.55506360530853271
0.56412571668624878 0.56412571668624878 0.56412571668624878
0.60479986667633057 0.60479986667633057 0.60479986667633057
0.66577327251434326 0.66577327251434326 0.66577327251434326
0.80676108598709106 0.80676108598709106 0.80676108598709106
0.86632043123245239 0.86632043123245239 0.86632043123245239
0.87476742267608643 0.87476742267608643 0.87476742267608643
0.88940614461898804 0.88940614461898804 0.88940614461898804
0.9121701717376709 0.9121701717376709 0.9121701717376709
0.96467775106430054 0.96467775106430054 0.96467775106430054
0.11276710033416748 0.11276710033416748 0.11276710033416748
0.13215433061122894 0.13215433061122894 0.13215433061122894
0.24218837916851044 0.24218837916851044 0.24218837916851044
0.40529778599739075 0.40529778599739075 0.40529778599739075
0.60691404342651367 0.60691404342651367 0.60691404342651367
0.18663378059864044 0.18663378059864044 0.18663378059864044
0.23213928937911987 0.23213928937911987 0.23213928937911987
0.33007502555847168 0.33007502555847168 0.33007502555847168
0.46438583731651306 0.46438583731651306 0.46438583731651306
0.65965694189071655 0.65965694189071655 0.65965694189071655
0.37447044253349304 0.37447044253349304 0.37447044253349304
0.3907279372215271 0.3907279372215271 0.3907279372215271
0.45349103212356567 0.45349103212356567 0.45349103212356567
0.56408274173736572 0.56408274173736572 0.56408274173736572
0.72676438093185425 0.72676438093185425 0.72676438093185425
0.60274118185043335 0.60274118185043335 0.60274118185043335
0.61309432983398438 0.61309432983398438 0.61309432983398438
0.64507895708084106 0.64507895708084106 0.64507895708084106
0.69422942399978638 0.69422942399978638 0.69422942399978638
0.81717002391815186 0.81717002391815186 0.81717002391815186
0.86594033241271973 0.86594033241271973 0.86594033241271973
0.8788144588470459 0.8788144588470459 0.8788144588470459
0.88912302255630493 0.88912302255630493 0.88912302255630493
0.9203115701675415 0.9203115701675415 0.9203115701675415
0.96766573190689087 0.96766573190689087 0.96766573190689087
0.20280651748180389 0.20280651748180389 0.20280651748180389
0.25858044624328613 0.25858044624328613 0.25858044624328613
0.33755305409431458 0.33755305409431458 0.33755305409431458
0.45320239663124084 0.45320239663124084 0.45320239663124084
0.66465944051742554 0.66465944051742554 0.66465944051742554
0.29410359263420105 0.29410359263420105 0.29410359263420105
0.34098473191261292 0.34098473191261292 0.34098473191261292
0.41795679926872253 0.41795679926872253 0.41795679926872253
0.52891457080841064 0.52891457080841064 0.52891457080841064
0.71393841505050659 0.71393841505050659 0.71393841505050659
0.39619910717010498 0.39619910717010498 0.39619910717010498
0.44956660270690918 0.44956660270690918 0.44956660270690918
0.54910504817962646 0.54910504817962646 0.54910504817962646
0.6498381495475769 0.6498381495475769 0.6498381495475769
0.77412086725234985 0.77412086725234985 0.77412086725234985
0.64390146732330322 0.64390146732330322 0.64390146732330322
0.67517673969268799 0.67517673969268799 0.67517673969268799
0.71229106187820435 0.71229106187820435 0.71229106187820435
0.77082949876785278 0.77082949876785278 0.77082949876785278
0.86236751079559326 0.86236751079559326 0.86236751079559326
0.90207576751708984 0.90207576751708984 0.90207576751708984
0.90242558717727661 0.90242558717727661 0.90242558717727661
0.9062235951423645 0.9062235951423645 0.9062235951423645
0.93054157495498657 0.93054157495498657 0.93054157495498657
0.96982485055923462 0.96982485055923462 0.96982485055923462
0.42564159631729126 0.42564159631729126 0.42564159631729126
0.45804688334465027 0.45804688334465027 0.45804688334465027
0.54095727205276489 0.54095727205276489 0.54095727205276489
0.61169719696044922 0.61169719696044922 0.61169719696044922
0.71949917078018188 0.71949917078018188 0.71949917078018188
0.49330985546112061 0.49330985546112061 0.49330985546112061
0.52494567632675171 0.52494567632675171 0.52494567632675171
0.59561938047409058 0.59561938047409058 0.59561938047409058
0.66010540723800659 0.66010540723800659 0.66010540723800659
0.73572832345962524 0.73572832345962524 0.73572832345962524
0.55629009008407593 0.55629009008407593 0.55629009008407593
0.57603704929351807 0.57603704929351807 0.57603704929351807
0.66031903028488159 0.66031903028488159 0.66031903028488159
0.73887008428573608 0.73887008428573608 0.73887008428573608
0.82031583786010742 0.82031583786010742 0.82031583786010742
0.66261756420135498 0.66261756420135498 0.66261756420135498
0.69781041145324707 0.69781041145324707 0.69781041145324707
0.75969916582107544 0.75969916582107544 0.75969916582107544
0.84211087226867676 0.84211087226867676 0.84211087226867676
0.90708965063095093 0.90708965063095093 0.90708965063095093
0.89100134372711182 0.89100134372711182 0.89100134372711182
0.90488439798355103 0.90488439798355103 0.90488439798355103
0.91709220409393311 0.91709220409393311 0.91709220409393311
0.96321165561676025 0.96321165561676025 0.96321165561676025
0.98621600866317749 0.98621600866317749 0.98621600866317749
0.74647217988967896 0.74647217988967896 0.74647217988967896
0.7651633620262146 0.7651633620262146 0.7651633620262146
0.78334861993789673 0.78334861993789673 0.78334861993789673
0.83782023191452026 0.83782023191452026 0.83782023191452026
0.89363491535186768 0.89363491535186768 0.89363491535186768
0.77324295043945312 0.77324295043945312 0.77324295043945312
0.78271907567977905 0.78271907567977905 0.78271907567977905
0.81024682521820068 0.81024682521820068 0.81024682521820068
0.85949116945266724 0.85949116945266724 0.85949116945266724
0.88748836517333984 0.88748836517333984 0.88748836517333984
0.78947526216506958 0.78947526216506958 0.78947526216506958
0.81554281711578369 0.81554281711578369 0.81554281711578369
0.83285242319107056 0.83285242319107056 0.83285242319107056
0.88382565975189209 0.88382565975189209 0.88382565975189209
0.9291074275970459 0.9291074275970459 0.9291074275970459
0.82169681787490845 0.82169681787490845 0.82169681787490845
0.83525246381759644 0.83525246381759644 0.83525246381759644
0.86731529235839844 0.86731529235839844 0.86731529235839844
0.92778474092483521 0.92778474092483521 0.92778474092483521
0.97089439630508423 0.97089439630508423 0.97089439630508423
0.94607269763946533 0.94607269763946533 0.94607269763946533
0.94554293155670166 0.94554293155670166 0.94554293155670166
0.94846302270889282 0.94846302270889282 0.94846302270889282
0.98730933666229248 0.98730933666229248 0.98730933666229248
0.997109055519104 0.997109055519104 0.997109055519104
