films/ilford_xp_2.cube
# Created by: G'MIC (https://gmic.eu)
TITLE "ilford_xp_2"
# LUT size
LUT_3D_SIZE 7
# Data domain
DOMAIN_MIN 0.0 0.0 0.0
DOMAIN_MAX 1.0 1.0 1.0
# LUT data points
0.018189089372754097 0.018189089372754097 0.018189089372754097
0.025682097300887108 0.025682097300887108 0.025682097300887108
0.039317380636930466 0.039317380636930466 0.039317380636930466
0.061871055513620377 0.061871055513620377 0.061871055513620377
0.11982777714729309 0.11982777714729309 0.11982777714729309
0.18807940185070038 0.18807940185070038 0.18807940185070038
0.26050534844398499 0.26050534844398499 0.26050534844398499
0.082946330308914185 0.082946330308914185 0.082946330308914185
0.086533412337303162 0.086533412337303162 0.086533412337303162
0.10276803374290466 0.10276803374290466 0.10276803374290466
0.13022106885910034 0.13022106885910034 0.13022106885910034
0.17624732851982117 0.17624732851982117 0.17624732851982117
0.23673522472381592 0.23673522472381592 0.23673522472381592
0.30570051074028015 0.30570051074028015 0.30570051074028015
0.1640501469373703 0.1640501469373703 0.1640501469373703
0.16890232264995575 0.16890232264995575 0.16890232264995575
0.18775893747806549 0.18775893747806549 0.18775893747806549
0.21554854512214661 0.21554854512214661 0.21554854512214661
0.25397983193397522 0.25397983193397522 0.25397983193397522
0.30344271659851074 0.30344271659851074 0.30344271659851074
0.36718291044235229 0.36718291044235229 0.36718291044235229
0.26339858770370483 0.26339858770370483 0.26339858770370483
0.27185854315757751 0.27185854315757751 0.27185854315757751
0.2916567325592041 0.2916567325592041 0.2916567325592041
0.31907126307487488 0.31907126307487488 0.31907126307487488
0.35130685567855835 0.35130685567855835 0.35130685567855835
0.38891664147377014 0.38891664147377014 0.38891664147377014
0.44746547937393188 0.44746547937393188 0.44746547937393188
0.39843478798866272 0.39843478798866272 0.39843478798866272
0.39796346426010132 0.39796346426010132 0.39796346426010132
0.41442990303039551 0.41442990303039551 0.41442990303039551
0.44197872281074524 0.44197872281074524 0.44197872281074524
0.47174549102783203 0.47174549102783203 0.47174549102783203
0.50621777772903442 0.50621777772903442 0.50621777772903442
0.55353075265884399 0.55353075265884399 0.55353075265884399
0.54722243547439575 0.54722243547439575 0.54722243547439575
0.54073864221572876 0.54073864221572876 0.54073864221572876
0.55340373516082764 0.55340373516082764 0.55340373516082764
0.5795784592628479 0.5795784592628479 0.5795784592628479
0.60457175970077515 0.60457175970077515 0.60457175970077515
0.63484591245651245 0.63484591245651245 0.63484591245651245
0.67218637466430664 0.67218637466430664 0.67218637466430664
0.69205397367477417 0.69205397367477417 0.69205397367477417
0.6824493408203125 0.6824493408203125 0.6824493408203125
0.69185787439346313 0.69185787439346313 0.69185787439346313
0.71587389707565308 0.71587389707565308 0.71587389707565308
0.73047435283660889 0.73047435283660889 0.73047435283660889
0.75424879789352417 0.75424879789352417 0.75424879789352417
0.78617864847183228 0.78617864847183228 0.78617864847183228
0.063914567232131958 0.063914567232131958 0.063914567232131958
0.074137039482593536 0.074137039482593536 0.074137039482593536
0.09341035783290863 0.09341035783290863 0.09341035783290863
0.11820708960294724 0.11820708960294724 0.11820708960294724
0.16460007429122925 0.16460007429122925 0.16460007429122925
0.22644259035587311 0.22644259035587311 0.22644259035587311
0.29588797688484192 0.29588797688484192 0.29588797688484192
0.12324037402868271 0.12324037402868271 0.12324037402868271
0.1334107369184494 0.1334107369184494 0.1334107369184494
0.15288543701171875 0.15288543701171875 0.15288543701171875
0.17634466290473938 0.17634466290473938 0.17634466290473938
0.21710763871669769 0.21710763871669769 0.21710763871669769
0.27368929982185364 0.27368929982185364 0.27368929982185364
0.34048759937286377 0.34048759937286377 0.34048759937286377
0.20142216980457306 0.20142216980457306 0.20142216980457306
0.20817889273166656 0.20817889273166656 0.20817889273166656
0.22729027271270752 0.22729027271270752 0.22729027271270752
0.2532920241355896 0.2532920241355896 0.2532920241355896
0.28967273235321045 0.28967273235321045 0.28967273235321045
0.33827668428421021 0.33827668428421021 0.33827668428421021
0.40052157640457153 0.40052157640457153 0.40052157640457153
0.2987731397151947 0.2987731397151947 0.2987731397151947
0.30362111330032349 0.30362111330032349 0.30362111330032349
0.32194483280181885 0.32194483280181885 0.32194483280181885
0.34894385933876038 0.34894385933876038 0.34894385933876038
0.38186150789260864 0.38186150789260864 0.38186150789260864
0.4214651882648468 0.4214651882648468 0.4214651882648468
0.47840720415115356 0.47840720415115356 0.47840720415115356
0.42208391427993774 0.42208391427993774 0.42208391427993774
0.41920232772827148 0.41920232772827148 0.41920232772827148
0.43587091565132141 0.43587091565132141 0.43587091565132141
0.46493211388587952 0.46493211388587952 0.46493211388587952
0.4964120090007782 0.4964120090007782 0.4964120090007782
0.53283822536468506 0.53283822536468506 0.53283822536468506
0.57935613393783569 0.57935613393783569 0.57935613393783569
0.55902749300003052 0.55902749300003052 0.55902749300003052
0.55244898796081543 0.55244898796081543 0.55244898796081543
0.5663447380065918 0.5663447380065918 0.5663447380065918
0.59470200538635254 0.59470200538635254 0.59470200538635254
0.62286072969436646 0.62286072969436646 0.62286072969436646
0.65450394153594971 0.65450394153594971 0.65450394153594971
0.6915431022644043 0.6915431022644043 0.6915431022644043
0.69120842218399048 0.69120842218399048 0.69120842218399048
0.69043111801147461 0.69043111801147461 0.69043111801147461
0.70091533660888672 0.70091533660888672 0.70091533660888672
0.72209441661834717 0.72209441661834717 0.72209441661834717
0.74369359016418457 0.74369359016418457 0.74369359016418457
0.76895570755004883 0.76895570755004883 0.76895570755004883
0.79766476154327393 0.79766476154327393 0.79766476154327393
0.12395242601633072 0.12395242601633072 0.12395242601633072
0.14113815128803253 0.14113815128803253 0.14113815128803253
0.16580934822559357 0.16580934822559357 0.16580934822559357
0.19095508754253387 0.19095508754253387 0.19095508754253387
0.22990649938583374 0.22990649938583374 0.22990649938583374
0.28500407934188843 0.28500407934188843 0.28500407934188843
0.35014504194259644 0.35014504194259644 0.35014504194259644
0.18585574626922607 0.18585574626922607 0.18585574626922607
0.2007039338350296 0.2007039338350296 0.2007039338350296
0.22268719971179962 0.22268719971179962 0.22268719971179962
0.24512925744056702 0.24512925744056702 0.24512925744056702
0.28153255581855774 0.28153255581855774 0.28153255581855774
0.33295911550521851 0.33295911550521851 0.33295911550521851
0.39524278044700623 0.39524278044700623 0.39524278044700623
0.26515737175941467 0.26515737175941467 0.26515737175941467
0.27279797196388245 0.27279797196388245 0.27279797196388245
0.29087436199188232 0.29087436199188232 0.29087436199188232
0.31491225957870483 0.31491225957870483 0.31491225957870483
0.35025820136070251 0.35025820136070251 0.35025820136070251
0.3977087140083313 0.3977087140083313 0.3977087140083313
0.45511636137962341 0.45511636137962341 0.45511636137962341
0.35935992002487183 0.35935992002487183 0.35935992002487183
0.36283624172210693 0.36283624172210693 0.36283624172210693
0.37789294123649597 0.37789294123649597 0.37789294123649597
0.40133208036422729 0.40133208036422729 0.40133208036422729
0.43641236424446106 0.43641236424446106 0.43641236424446106
0.47907611727714539 0.47907611727714539 0.47907611727714539
0.53073012828826904 0.53073012828826904 0.53073012828826904
0.46904298663139343 0.46904298663139343 0.46904298663139343
0.46978461742401123 0.46978461742401123 0.46978461742401123
0.48378092050552368 0.48378092050552368 0.48378092050552368
0.50878709554672241 0.50878709554672241 0.50878709554672241
0.54049062728881836 0.54049062728881836 0.54049062728881836
0.57792919874191284 0.57792919874191284 0.57792919874191284
0.62194943428039551 0.62194943428039551 0.62194943428039551
0.58886724710464478 0.58886724710464478 0.58886724710464478
0.58930063247680664 0.58930063247680664 0.58930063247680664
0.60237246751785278 0.60237246751785278 0.60237246751785278
0.62585759162902832 0.62585759162902832 0.62585759162902832
0.65406578779220581 0.65406578779220581 0.65406578779220581
0.68579113483428955 0.68579113483428955 0.68579113483428955
0.72150111198425293 0.72150111198425293 0.72150111198425293
0.70641505718231201 0.70641505718231201 0.70641505718231201
0.71027165651321411 0.71027165651321411 0.71027165651321411
0.72203522920608521 0.72203522920608521 0.72203522920608521
0.74138271808624268 0.74138271808624268 0.74138271808624268
0.76427555084228516 0.76427555084228516 0.76427555084228516
0.78998470306396484 0.78998470306396484 0.78998470306396484
0.81789541244506836 0.81789541244506836 0.81789541244506836
0.19879701733589172 0.19879701733589172 0.19879701733589172
0.22102168202400208 0.22102168202400208 0.22102168202400208
0.2475220113992691 0.2475220113992691 0.2475220113992691
0.2746368944644928 0.2746368944644928 0.2746368944644928
0.3081933856010437 0.3081933856010437 0.3081933856010437
0.35947313904762268 0.35947313904762268 0.35947313904762268
0.42029765248298645 0.42029765248298645 0.42029765248298645
0.26659104228019714 0.26659104228019714 0.26659104228019714
0.28090018033981323 0.28090018033981323 0.28090018033981323
0.30356848239898682 0.30356848239898682 0.30356848239898682
0.32871761918067932 0.32871761918067932 0.32871761918067932
0.36246773600578308 0.36246773600578308 0.36246773600578308
0.4095228910446167 0.4095228910446167 0.4095228910446167
0.46570691466331482 0.46570691466331482 0.46570691466331482
0.34558358788490295 0.34558358788490295 0.34558358788490295
0.35484752058982849 0.35484752058982849 0.35484752058982849
0.37272575497627258 0.37272575497627258 0.37272575497627258
0.39647507667541504 0.39647507667541504 0.39647507667541504
0.42968946695327759 0.42968946695327759 0.42968946695327759
0.47297036647796631 0.47297036647796631 0.47297036647796631
0.52391093969345093 0.52391093969345093 0.52391093969345093
0.43399420380592346 0.43399420380592346 0.43399420380592346
0.44033709168434143 0.44033709168434143 0.44033709168434143
0.45510119199752808 0.45510119199752808 0.45510119199752808
0.47712689638137817 0.47712689638137817 0.47712689638137817
0.50921320915222168 0.50921320915222168 0.50921320915222168
0.54898107051849365 0.54898107051849365 0.54898107051849365
0.59424829483032227 0.59424829483032227 0.59424829483032227
0.53184717893600464 0.53184717893600464 0.53184717893600464
0.53696054220199585 0.53696054220199585 0.53696054220199585
0.5508502721786499 0.5508502721786499 0.5508502721786499
0.57242971658706665 0.57242971658706665 0.57242971658706665
0.60132551193237305 0.60132551193237305 0.60132551193237305
0.63600605726242065 0.63600605726242065 0.63600605726242065
0.67520737648010254 0.67520737648010254 0.67520737648010254
0.63538217544555664 0.63538217544555664 0.63538217544555664
0.6409183144569397 0.6409183144569397 0.6409183144569397
0.65414655208587646 0.65414655208587646 0.65414655208587646
0.6744963526725769 0.6744963526725769 0.6744963526725769
0.69985800981521606 0.69985800981521606 0.69985800981521606
0.72930490970611572 0.72930490970611572 0.72930490970611572
0.76211774349212646 0.76211774349212646 0.76211774349212646
0.73796409368515015 0.73796409368515015 0.73796409368515015
0.74503546953201294 0.74503546953201294 0.74503546953201294
0.75757837295532227 0.75757837295532227 0.75757837295532227
0.77511876821517944 0.77511876821517944 0.77511876821517944
0.79703730344772339 0.79703730344772339 0.79703730344772339
0.82165074348449707 0.82165074348449707 0.82165074348449707
0.84835046529769897 0.84835046529769897 0.84835046529769897
0.31002908945083618 0.31002908945083618 0.31002908945083618
0.32402762770652771 0.32402762770652771 0.32402762770652771
0.34638556838035583 0.34638556838035583 0.34638556838035583
0.37238261103630066 0.37238261103630066 0.37238261103630066
0.40460580587387085 0.40460580587387085 0.40460580587387085
0.45049989223480225 0.45049989223480225 0.45049989223480225
0.50388419628143311 0.50388419628143311 0.50388419628143311
0.36823537945747375 0.36823537945747375 0.36823537945747375
0.38133719563484192 0.38133719563484192 0.38133719563484192
0.40218907594680786 0.40218907594680786 0.40218907594680786
0.42660444974899292 0.42660444974899292 0.42660444974899292
0.45780631899833679 0.45780631899833679 0.45780631899833679
0.49935621023178101 0.49935621023178101 0.49935621023178101
0.54799962043762207 0.54799962043762207 0.54799962043762207
0.43989187479019165 0.43989187479019165 0.43989187479019165
0.4516603946685791 0.4516603946685791 0.4516603946685791
0.47038045525550842 0.47038045525550842 0.47038045525550842
0.49298712611198425 0.49298712611198425 0.49298712611198425
0.52166128158569336 0.52166128158569336 0.52166128158569336
0.5585784912109375 0.5585784912109375 0.5585784912109375
0.60170155763626099 0.60170155763626099 0.60170155763626099
0.51915276050567627 0.51915276050567627 0.51915276050567627
0.52986764907836914 0.52986764907836914 0.52986764907836914
0.5469098687171936 0.5469098687171936 0.5469098687171936
0.56754392385482788 0.56754392385482788 0.56754392385482788
0.59385001659393311 0.59385001659393311 0.59385001659393311
0.62686967849731445 0.62686967849731445 0.62686967849731445
0.66468256711959839 0.66468256711959839 0.66468256711959839
0.60409021377563477 0.60409021377563477 0.60409021377563477
0.61394059658050537 0.61394059658050537 0.61394059658050537
0.62928420305252075 0.62928420305252075 0.62928420305252075
0.6488993763923645 0.6488993763923645 0.6488993763923645
0.67292571067810059 0.67292571067810059 0.67292571067810059
0.70216137170791626 0.70216137170791626 0.70216137170791626
0.73554432392120361 0.73554432392120361 0.73554432392120361
0.69271337985992432 0.69271337985992432 0.69271337985992432
0.7019575834274292 0.7019575834274292 0.7019575834274292
0.71617257595062256 0.71617257595062256 0.71617257595062256
0.73446369171142578 0.73446369171142578 0.73446369171142578
0.75655102729797363 0.75655102729797363 0.75655102729797363
0.78210455179214478 0.78210455179214478 0.78210455179214478
0.81086379289627075 0.81086379289627075 0.81086379289627075
0.78123593330383301 0.78123593330383301 0.78123593330383301
0.79057741165161133 0.79057741165161133 0.79057741165161133
0.80377006530761719 0.80377006530761719 0.80377006530761719
0.82047545909881592 0.82047545909881592 0.82047545909881592
0.8402220606803894 0.8402220606803894 0.8402220606803894
0.86250835657119751 0.86250835657119751 0.86250835657119751
0.88686829805374146 0.88686829805374146 0.88686829805374146
0.42784237861633301 0.42784237861633301 0.42784237861633301
0.43728473782539368 0.43728473782539368 0.43728473782539368
0.45415240526199341 0.45415240526199341 0.45415240526199341
0.47747880220413208 0.47747880220413208 0.47747880220413208
0.50867694616317749 0.50867694616317749 0.50867694616317749
0.54970109462738037 0.54970109462738037 0.54970109462738037
0.59533274173736572 0.59533274173736572 0.59533274173736572
0.47855386137962341 0.47855386137962341 0.47855386137962341
0.49109023809432983 0.49109023809432983 0.49109023809432983
0.50942790508270264 0.50942790508270264 0.50942790508270264
0.53137481212615967 0.53137481212615967 0.53137481212615967
0.55896848440170288 0.55896848440170288 0.55896848440170288
0.59481215476989746 0.59481215476989746 0.59481215476989746
0.63544201850891113 0.63544201850891113 0.63544201850891113
0.53980708122253418 0.53980708122253418 0.53980708122253418
0.55535578727722168 0.55535578727722168 0.55535578727722168
0.57555997371673584 0.57555997371673584 0.57555997371673584
0.59501940011978149 0.59501940011978149 0.59501940011978149
0.617656409740448 0.617656409740448 0.617656409740448
0.64745742082595825 0.64745742082595825 0.64745742082595825
0.68271404504776001 0.68271404504776001 0.68271404504776001
0.60819512605667114 0.60819512605667114 0.60819512605667114
0.62441450357437134 0.62441450357437134 0.62441450357437134
0.64478713274002075 0.64478713274002075 0.64478713274002075
0.66230887174606323 0.66230887174606323 0.66230887174606323
0.68141847848892212 0.68141847848892212 0.68141847848892212
0.70689839124679565 0.70689839124679565 0.70689839124679565
0.73776072263717651 0.73776072263717651 0.73776072263717651
0.68039608001708984 0.68039608001708984 0.68039608001708984
0.69469922780990601 0.69469922780990601 0.69469922780990601
0.71228867769241333 0.71228867769241333 0.71228867769241333
0.7296135425567627 0.7296135425567627 0.7296135425567627
0.74843430519104004 0.74843430519104004 0.74843430519104004
0.7715880274772644 0.7715880274772644 0.7715880274772644
0.79887175559997559 0.79887175559997559 0.79887175559997559
0.75537478923797607 0.75537478923797607 0.75537478923797607
0.76752573251724243 0.76752573251724243 0.76752573251724243
0.78280508518218994 0.78280508518218994 0.78280508518218994
0.79966706037521362 0.79966706037521362 0.79966706037521362
0.81827396154403687 0.81827396154403687 0.81827396154403687
0.83968782424926758 0.83968782424926758 0.83968782424926758
0.86429613828659058 0.86429613828659058 0.86429613828659058
0.83107417821884155 0.83107417821884155 0.83107417821884155
0.84197348356246948 0.84197348356246948 0.84197348356246948
0.85597366094589233 0.85597366094589233 0.85597366094589233
0.87170076370239258 0.87170076370239258 0.87170076370239258
0.88933992385864258 0.88933992385864258 0.88933992385864258
0.90907746553421021 0.90907746553421021 0.90907746553421021
0.93097519874572754 0.93097519874572754 0.93097519874572754
0.53885054588317871 0.53885054588317871 0.53885054588317871
0.54433703422546387 0.54433703422546387 0.54433703422546387
0.55748003721237183 0.55748003721237183 0.55748003721237183
0.57804590463638306 0.57804590463638306 0.57804590463638306
0.60635727643966675 0.60635727643966675 0.60635727643966675
0.64316672086715698 0.64316672086715698 0.64316672086715698
0.68525558710098267 0.68525558710098267 0.68525558710098267
0.58200067281723022 0.58200067281723022 0.58200067281723022
0.59470993280410767 0.59470993280410767 0.59470993280410767
0.61128085851669312 0.61128085851669312 0.61128085851669312
0.6305164098739624 0.6305164098739624 0.6305164098739624
0.65431106090545654 0.65431106090545654 0.65431106090545654
0.68512415885925293 0.68512415885925293 0.68512415885925293
0.71902823448181152 0.71902823448181152 0.71902823448181152
0.63453930616378784 0.63453930616378784 0.63453930616378784
0.6531338095664978 0.6531338095664978 0.6531338095664978
0.67521196603775024 0.67521196603775024 0.67521196603775024
0.69089800119400024 0.69089800119400024 0.69089800119400024
0.7078930139541626 0.7078930139541626 0.7078930139541626
0.73181581497192383 0.73181581497192383 0.73181581497192383
0.76031976938247681 0.76031976938247681 0.76031976938247681
0.69349116086959839 0.69349116086959839 0.69349116086959839
0.71366322040557861 0.71366322040557861 0.71366322040557861
0.73862761259078979 0.73862761259078979 0.73862761259078979
0.7510642409324646 0.7510642409324646 0.7510642409324646
0.76395124197006226 0.76395124197006226 0.76395124197006226
0.78367418050765991 0.78367418050765991 0.78367418050765991
0.80855190753936768 0.80855190753936768 0.80855190753936768
0.75469422340393066 0.75469422340393066 0.75469422340393066
0.77194839715957642 0.77194839715957642 0.77194839715957642
0.79081487655639648 0.79081487655639648 0.79081487655639648
0.80619925260543823 0.80619925260543823 0.80619925260543823
0.82094854116439819 0.82094854116439819 0.82094854116439819
0.83941078186035156 0.83941078186035156 0.83941078186035156
0.86182010173797607 0.86182010173797607 0.86182010173797607
0.81825929880142212 0.81825929880142212 0.81825929880142212
0.83240503072738647 0.83240503072738647 0.83240503072738647
0.84815299510955811 0.84815299510955811 0.84815299510955811
0.86369925737380981 0.86369925737380981 0.86369925737380981
0.87966245412826538 0.87966245412826538 0.87966245412826538
0.89774554967880249 0.89774554967880249 0.89774554967880249
0.91865259408950806 0.91865259408950806 0.91865259408950806
0.88335907459259033 0.88335907459259033 0.88335907459259033
0.89558166265487671 0.89558166265487671 0.89558166265487671
0.90974336862564087 0.90974336862564087 0.90974336862564087
0.92445874214172363 0.92445874214172363 0.92445874214172363
0.94046026468276978 0.94046026468276978 0.94046026468276978
0.95797085762023926 0.95797085762023926 0.95797085762023926
0.97746443748474121 0.97746443748474121 0.97746443748474121
