films/ilford_fp_4_plus_125.cube
# Created by: G'MIC (https://gmic.eu)
TITLE "ilford_fp_4_plus_125"
# LUT size
LUT_3D_SIZE 13
# Data domain
DOMAIN_MIN 0.0 0.0 0.0
DOMAIN_MAX 1.0 1.0 1.0
# LUT data points
0.055090092122554779 0.055090092122554779 0.055090092122554779
0.070027157664299011 0.070027157664299011 0.070027157664299011
0.088276371359825134 0.088276371359825134 0.088276371359825134
0.10451081395149231 0.10451081395149231 0.10451081395149231
0.11784843355417252 0.11784843355417252 0.11784843355417252
0.13009782135486603 0.13009782135486603 0.13009782135486603
0.14909029006958008 0.14909029006958008 0.14909029006958008
0.18102309107780457 0.18102309107780457 0.18102309107780457
0.21784603595733643 0.21784603595733643 0.21784603595733643
0.2552700936794281 0.2552700936794281 0.2552700936794281
0.29256099462509155 0.29256099462509155 0.29256099462509155
0.32897841930389404 0.32897841930389404 0.32897841930389404
0.36436629295349121 0.36436629295349121 0.36436629295349121
0.10914740711450577 0.10914740711450577 0.10914740711450577
0.11914026737213135 0.11914026737213135 0.11914026737213135
0.13474300503730774 0.13474300503730774 0.13474300503730774
0.14958551526069641 0.14958551526069641 0.14958551526069641
0.16264051198959351 0.16264051198959351 0.16264051198959351
0.17614226043224335 0.17614226043224335 0.17614226043224335
0.19537627696990967 0.19537627696990967 0.19537627696990967
0.22300812602043152 0.22300812602043152 0.22300812602043152
0.25602740049362183 0.25602740049362183 0.25602740049362183
0.29105356335639954 0.29105356335639954 0.29105356335639954
0.32636556029319763 0.32636556029319763 0.32636556029319763
0.36125123500823975 0.36125123500823975 0.36125123500823975
0.39540302753448486 0.39540302753448486 0.39540302753448486
0.17037826776504517 0.17037826776504517 0.17037826776504517
0.17730604112148285 0.17730604112148285 0.17730604112148285
0.18903651833534241 0.18903651833534241 0.18903651833534241
0.20192128419876099 0.20192128419876099 0.20192128419876099
0.21451495587825775 0.21451495587825775 0.21451495587825775
0.22872959077358246 0.22872959077358246 0.22872959077358246
0.24743208289146423 0.24743208289146423 0.24743208289146423
0.27190974354743958 0.27190974354743958 0.27190974354743958
0.30093246698379517 0.30093246698379517 0.30093246698379517
0.3325481116771698 0.3325481116771698 0.3325481116771698
0.36531654000282288 0.36531654000282288 0.36531654000282288
0.3980962336063385 0.3980962336063385 0.3980962336063385
0.43037110567092896 0.43037110567092896 0.43037110567092896
0.23479774594306946 0.23479774594306946 0.23479774594306946
0.23945438861846924 0.23945438861846924 0.23945438861846924
0.24827621877193451 0.24827621877193451 0.24827621877193451
0.25897932052612305 0.25897932052612305 0.25897932052612305
0.27105438709259033 0.27105438709259033 0.27105438709259033
0.28496864438056946 0.28496864438056946 0.28496864438056946
0.30251482129096985 0.30251482129096985 0.30251482129096985
0.32446137070655823 0.32446137070655823 0.32446137070655823
0.350149005651474 0.350149005651474 0.350149005651474
0.37852573394775391 0.37852573394775391 0.37852573394775391
0.40852236747741699 0.40852236747741699 0.40852236747741699
0.43871060013771057 0.43871060013771057 0.43871060013771057
0.46885472536087036 0.46885472536087036 0.46885472536087036
0.3012804388999939 0.3012804388999939 0.3012804388999939
0.30462279915809631 0.30462279915809631 0.30462279915809631
0.31120797991752625 0.31120797991752625 0.31120797991752625
0.32009738683700562 0.32009738683700562 0.32009738683700562
0.33065041899681091 0.33065041899681091 0.33065041899681091
0.34361594915390015 0.34361594915390015 0.34361594915390015
0.35997197031974792 0.35997197031974792 0.35997197031974792
0.3795035183429718 0.3795035183429718 0.3795035183429718
0.40248927474021912 0.40248927474021912 0.40248927474021912
0.42798107862472534 0.42798107862472534 0.42798107862472534
0.45482322573661804 0.45482322573661804 0.45482322573661804
0.48250138759613037 0.48250138759613037 0.48250138759613037
0.51021063327789307 0.51021063327789307 0.51021063327789307
0.36918884515762329 0.36918884515762329 0.36918884515762329
0.37159371376037598 0.37159371376037598 0.37159371376037598
0.37652048468589783 0.37652048468589783 0.37652048468589783
0.38357600569725037 0.38357600569725037 0.38357600569725037
0.39278817176818848 0.39278817176818848 0.39278817176818848
0.40432393550872803 0.40432393550872803 0.40432393550872803
0.41884630918502808 0.41884630918502808 0.41884630918502808
0.43625831604003906 0.43625831604003906 0.43625831604003906
0.45689201354980469 0.45689201354980469 0.45689201354980469
0.47956502437591553 0.47956502437591553 0.47956502437591553
0.50382184982299805 0.50382184982299805 0.50382184982299805
0.52886426448822021 0.52886426448822021 0.52886426448822021
0.55407553911209106 0.55407553911209106 0.55407553911209106
0.43811163306236267 0.43811163306236267 0.43811163306236267
0.43991753458976746 0.43991753458976746 0.43991753458976746
0.44358038902282715 0.44358038902282715 0.44358038902282715
0.44901865720748901 0.44901865720748901 0.44901865720748901
0.45651102066040039 0.45651102066040039 0.45651102066040039
0.46643850207328796 0.46643850207328796 0.46643850207328796
0.47897037863731384 0.47897037863731384 0.47897037863731384
0.49443760514259338 0.49443760514259338 0.49443760514259338
0.5125311017036438 0.5125311017036438 0.5125311017036438
0.53280848264694214 0.53280848264694214 0.53280848264694214
0.55453276634216309 0.55453276634216309 0.55453276634216309
0.57702362537384033 0.57702362537384033 0.57702362537384033
0.59959918260574341 0.59959918260574341 0.59959918260574341
0.50754988193511963 0.50754988193511963 0.50754988193511963
0.50891906023025513 0.50891906023025513 0.50891906023025513
0.51136088371276855 0.51136088371276855 0.51136088371276855
0.51519215106964111 0.51519215106964111 0.51519215106964111
0.52084314823150635 0.52084314823150635 0.52084314823150635
0.52894347906112671 0.52894347906112671 0.52894347906112671
0.53963321447372437 0.53963321447372437 0.53963321447372437
0.55304402112960815 0.55304402112960815 0.55304402112960815
0.56898963451385498 0.56898963451385498 0.56898963451385498
0.58683764934539795 0.58683764934539795 0.58683764934539795
0.60622185468673706 0.60622185468673706 0.60622185468673706
0.6265331506729126 0.6265331506729126 0.6265331506729126
0.64653682708740234 0.64653682708740234 0.64653682708740234
0.57703006267547607 0.57703006267547607 0.57703006267547607
0.57791632413864136 0.57791632413864136 0.57791632413864136
0.57890713214874268 0.57890713214874268 0.57890713214874268
0.58116775751113892 0.58116775751113892 0.58116775751113892
0.58501499891281128 0.58501499891281128 0.58501499891281128
0.59118694067001343 0.59118694067001343 0.59118694067001343
0.59983175992965698 0.59983175992965698 0.59983175992965698
0.61125057935714722 0.61125057935714722 0.61125057935714722
0.62520760297775269 0.62520760297775269 0.62520760297775269
0.64111781120300293 0.64111781120300293 0.64111781120300293
0.65842342376708984 0.65842342376708984 0.65842342376708984
0.67643499374389648 0.67643499374389648 0.67643499374389648
0.69446820020675659 0.69446820020675659 0.69446820020675659
0.64571315050125122 0.64571315050125122 0.64571315050125122
0.64575862884521484 0.64575862884521484 0.64575862884521484
0.64547568559646606 0.64547568559646606 0.64547568559646606
0.64570045471191406 0.64570045471191406 0.64570045471191406
0.64773911237716675 0.64773911237716675 0.64773911237716675
0.65188294649124146 0.65188294649124146 0.65188294649124146
0.65860825777053833 0.65860825777053833 0.65860825777053833
0.66829973459243774 0.66829973459243774 0.66829973459243774
0.68055897951126099 0.68055897951126099 0.68055897951126099
0.69461619853973389 0.69461619853973389 0.69461619853973389
0.71030408143997192 0.71030408143997192 0.71030408143997192
0.72662532329559326 0.72662532329559326 0.72662532329559326
0.74268138408660889 0.74268138408660889 0.74268138408660889
0.71325063705444336 0.71325063705444336 0.71325063705444336
0.7123030424118042 0.7123030424118042 0.7123030424118042
0.70964807271957397 0.70964807271957397 0.70964807271957397
0.70788085460662842 0.70788085460662842 0.70788085460662842
0.70768624544143677 0.70768624544143677 0.70768624544143677
0.71012932062149048 0.71012932062149048 0.71012932062149048
0.71543192863464355 0.71543192863464355 0.71543192863464355
0.72348272800445557 0.72348272800445557 0.72348272800445557
0.73397421836853027 0.73397421836853027 0.73397421836853027
0.74680286645889282 0.74680286645889282 0.74680286645889282
0.76127386093139648 0.76127386093139648 0.76127386093139648
0.77632778882980347 0.77632778882980347 0.77632778882980347
0.79064798355102539 0.79064798355102539 0.79064798355102539
0.7783578634262085 0.7783578634262085 0.7783578634262085
0.7748340368270874 0.7748340368270874 0.7748340368270874
0.76979708671569824 0.76979708671569824 0.76979708671569824
0.76596289873123169 0.76596289873123169 0.76596289873123169
0.76419156789779663 0.76419156789779663 0.76419156789779663
0.76527369022369385 0.76527369022369385 0.76527369022369385
0.76896989345550537 0.76896989345550537 0.76896989345550537
0.77558010816574097 0.77558010816574097 0.77558010816574097
0.78488880395889282 0.78488880395889282 0.78488880395889282
0.79636991024017334 0.79636991024017334 0.79636991024017334
0.80986696481704712 0.80986696481704712 0.80986696481704712
0.82426893711090088 0.82426893711090088 0.82426893711090088
0.83756780624389648 0.83756780624389648 0.83756780624389648
0.83594882488250732 0.83594882488250732 0.83594882488250732
0.83010661602020264 0.83010661602020264 0.83010661602020264
0.82357227802276611 0.82357227802276611 0.82357227802276611
0.81869977712631226 0.81869977712631226 0.81869977712631226
0.81609976291656494 0.81609976291656494 0.81609976291656494
0.8161429762840271 0.8161429762840271 0.8161429762840271
0.81873971223831177 0.81873971223831177 0.81873971223831177
0.82419198751449585 0.82419198751449585 0.82419198751449585
0.83229458332061768 0.83229458332061768 0.83229458332061768
0.84253281354904175 0.84253281354904175 0.84253281354904175
0.85482478141784668 0.85482478141784668 0.85482478141784668
0.86853998899459839 0.86853998899459839 0.86853998899459839
0.88120990991592407 0.88120990991592407 0.88120990991592407
0.083745323121547699 0.083745323121547699 0.083745323121547699
0.096377275884151459 0.096377275884151459 0.096377275884151459
0.11481893062591553 0.11481893062591553 0.11481893062591553
0.13153818249702454 0.13153818249702454 0.13153818249702454
0.14434440433979034 0.14434440433979034 0.14434440433979034
0.15745259821414948 0.15745259821414948 0.15745259821414948
0.17667806148529053 0.17667806148529053 0.17667806148529053
0.20467573404312134 0.20467573404312134 0.20467573404312134
0.23833085596561432 0.23833085596561432 0.23833085596561432
0.2739470899105072 0.2739470899105072 0.2739470899105072
0.31012842059135437 0.31012842059135437 0.31012842059135437
0.34566417336463928 0.34566417336463928 0.34566417336463928
0.3806728720664978 0.3806728720664978 0.3806728720664978
0.13311117887496948 0.13311117887496948 0.13311117887496948
0.14413495361804962 0.14413495361804962 0.14413495361804962
0.16088850796222687 0.16088850796222687 0.16088850796222687
0.17638108134269714 0.17638108134269714 0.17638108134269714
0.18819922208786011 0.18819922208786011 0.18819922208786011
0.20066569745540619 0.20066569745540619 0.20066569745540619
0.21881459653377533 0.21881459653377533 0.21881459653377533
0.24438725411891937 0.24438725411891937 0.24438725411891937
0.27520930767059326 0.27520930767059326 0.27520930767059326
0.30869871377944946 0.30869871377944946 0.30869871377944946
0.34327110648155212 0.34327110648155212 0.34327110648155212
0.37760218977928162 0.37760218977928162 0.37760218977928162
0.41116011142730713 0.41116011142730713 0.41116011142730713
0.19094112515449524 0.19094112515449524 0.19094112515449524
0.19920922815799713 0.19920922815799713 0.19920922815799713
0.21218237280845642 0.21218237280845642 0.21218237280845642
0.2253725528717041 0.2253725528717041 0.2253725528717041
0.23709505796432495 0.23709505796432495 0.23709505796432495
0.25008457899093628 0.25008457899093628 0.25008457899093628
0.26759183406829834 0.26759183406829834 0.26759183406829834
0.29059892892837524 0.29059892892837524 0.29059892892837524
0.31865331530570984 0.31865331530570984 0.31865331530570984
0.34905156493186951 0.34905156493186951 0.34905156493186951
0.38141947984695435 0.38141947984695435 0.38141947984695435
0.41343218088150024 0.41343218088150024 0.41343218088150024
0.44556781649589539 0.44556781649589539 0.44556781649589539
0.25293388962745667 0.25293388962745667 0.25293388962745667
0.25868877768516541 0.25868877768516541 0.25868877768516541
0.2679780125617981 0.2679780125617981 0.2679780125617981
0.27873069047927856 0.27873069047927856 0.27873069047927856
0.29022210836410522 0.29022210836410522 0.29022210836410522
0.3030979335308075 0.3030979335308075 0.3030979335308075
0.31999069452285767 0.31999069452285767 0.31999069452285767
0.34093528985977173 0.34093528985977173 0.34093528985977173
0.3659224808216095 0.3659224808216095 0.3659224808216095
0.39384198188781738 0.39384198188781738 0.39384198188781738
0.42327001690864563 0.42327001690864563 0.42327001690864563
0.4533449113368988 0.4533449113368988 0.4533449113368988
0.48320704698562622 0.48320704698562622 0.48320704698562622
0.31745269894599915 0.31745269894599915 0.31745269894599915
0.32140740752220154 0.32140740752220154 0.32140740752220154
0.32822388410568237 0.32822388410568237 0.32822388410568237
0.33697161078453064 0.33697161078453064 0.33697161078453064
0.34706953167915344 0.34706953167915344 0.34706953167915344
0.35953021049499512 0.35953021049499512 0.35953021049499512
0.37462791800498962 0.37462791800498962 0.37462791800498962
0.39410847425460815 0.39410847425460815 0.39410847425460815
0.41665929555892944 0.41665929555892944 0.41665929555892944
0.44182729721069336 0.44182729721069336 0.44182729721069336
0.46873390674591064 0.46873390674591064 0.46873390674591064
0.49618875980377197 0.49618875980377197 0.49618875980377197
0.5237545371055603 0.5237545371055603 0.5237545371055603
0.38400381803512573 0.38400381803512573 0.38400381803512573
0.38667643070220947 0.38667643070220947 0.38667643070220947
0.39158731698989868 0.39158731698989868 0.39158731698989868
0.39841815829277039 0.39841815829277039 0.39841815829277039
0.40722382068634033 0.40722382068634033 0.40722382068634033
0.41817775368690491 0.41817775368690491 0.41817775368690491
0.43213793635368347 0.43213793635368347 0.43213793635368347
0.44944506883621216 0.44944506883621216 0.44944506883621216
0.46970066428184509 0.46970066428184509 0.46970066428184509
0.49235230684280396 0.49235230684280396 0.49235230684280396
0.51653647422790527 0.51653647422790527 0.51653647422790527
0.54154878854751587 0.54154878854751587 0.54154878854751587
0.56673222780227661 0.56673222780227661 0.56673222780227661
0.45174536108970642 0.45174536108970642 0.45174536108970642
0.45352718234062195 0.45352718234062195 0.45352718234062195
0.45707139372825623 0.45707139372825623 0.45707139372825623
0.4622768759727478 0.4622768759727478 0.4622768759727478
0.46943926811218262 0.46943926811218262 0.46943926811218262
0.47896257042884827 0.47896257042884827 0.47896257042884827
0.49118819832801819 0.49118819832801819 0.49118819832801819
0.50645297765731812 0.50645297765731812 0.50645297765731812
0.52452725172042847 0.52452725172042847 0.52452725172042847
0.54459160566329956 0.54459160566329956 0.54459160566329956
0.56637823581695557 0.56637823581695557 0.56637823581695557
0.58885008096694946 0.58885008096694946 0.58885008096694946
0.61153507232666016 0.61153507232666016 0.61153507232666016
0.52005255222320557 0.52005255222320557 0.52005255222320557
0.52136689424514771 0.52136689424514771 0.52136689424514771
0.52368998527526855 0.52368998527526855 0.52368998527526855
0.52725553512573242 0.52725553512573242 0.52725553512573242
0.53283184766769409 0.53283184766769409 0.53283184766769409
0.54056423902511597 0.54056423902511597 0.54056423902511597
0.55100017786026001 0.55100017786026001 0.55100017786026001
0.56417375802993774 0.56417375802993774 0.56417375802993774
0.58000928163528442 0.58000928163528442 0.58000928163528442
0.59791761636734009 0.59791761636734009 0.59791761636734009
0.61720937490463257 0.61720937490463257 0.61720937490463257
0.63743412494659424 0.63743412494659424 0.63743412494659424
0.65775096416473389 0.65775096416473389 0.65775096416473389
0.58820861577987671 0.58820861577987671 0.58820861577987671
0.58915424346923828 0.58915424346923828 0.58915424346923828
0.59021276235580444 0.59021276235580444 0.59021276235580444
0.59230363368988037 0.59230363368988037 0.59230363368988037
0.59599441289901733 0.59599441289901733 0.59599441289901733
0.60193783044815063 0.60193783044815063 0.60193783044815063
0.61057645082473755 0.61057645082473755 0.61057645082473755
0.62191569805145264 0.62191569805145264 0.62191569805145264
0.63562822341918945 0.63562822341918945 0.63562822341918945
0.65143924951553345 0.65143924951553345 0.65143924951553345
0.66877049207687378 0.66877049207687378 0.66877049207687378
0.68683815002441406 0.68683815002441406 0.68683815002441406
0.70462006330490112 0.70462006330490112 0.70462006330490112
0.65539556741714478 0.65539556741714478 0.65539556741714478
0.6557239294052124 0.6557239294052124 0.6557239294052124
0.65570604801177979 0.65570604801177979 0.65570604801177979
0.65600985288619995 0.65600985288619995 0.65600985288619995
0.65796828269958496 0.65796828269958496 0.65796828269958496
0.66220343112945557 0.66220343112945557 0.66220343112945557
0.66903996467590332 0.66903996467590332 0.66903996467590332
0.67836755514144897 0.67836755514144897 0.67836755514144897
0.69038206338882446 0.69038206338882446 0.69038206338882446
0.70436406135559082 0.70436406135559082 0.70436406135559082
0.71979117393493652 0.71979117393493652 0.71979117393493652
0.73605501651763916 0.73605501651763916 0.73605501651763916
0.75187623500823975 0.75187623500823975 0.75187623500823975
0.72118073701858521 0.72118073701858521 0.72118073701858521
0.72068303823471069 0.72068303823471069 0.72068303823471069
0.7187315821647644 0.7187315821647644 0.7187315821647644
0.71709048748016357 0.71709048748016357 0.71709048748016357
0.71720415353775024 0.71720415353775024 0.71720415353775024
0.72000890970230103 0.72000890970230103 0.72000890970230103
0.72511881589889526 0.72511881589889526 0.72511881589889526
0.73286932706832886 0.73286932706832886 0.73286932706832886
0.74331772327423096 0.74331772327423096 0.74331772327423096
0.75587928295135498 0.75587928295135498 0.75587928295135498
0.76988512277603149 0.76988512277603149 0.76988512277603149
0.78455710411071777 0.78455710411071777 0.78455710411071777
0.79863929748535156 0.79863929748535156 0.79863929748535156
0.78301697969436646 0.78301697969436646 0.78301697969436646
0.78128468990325928 0.78128468990325928 0.78128468990325928
0.77769285440444946 0.77769285440444946 0.77769285440444946
0.77463787794113159 0.77463787794113159 0.77463787794113159
0.77330851554870605 0.77330851554870605 0.77330851554870605
0.77448040246963501 0.77448040246963501 0.77448040246963501
0.77823829650878906 0.77823829650878906 0.77823829650878906
0.78471970558166504 0.78471970558166504 0.78471970558166504
0.79367697238922119 0.79367697238922119 0.79367697238922119
0.80496203899383545 0.80496203899383545 0.80496203899383545
0.81782543659210205 0.81782543659210205 0.81782543659210205
0.8311503529548645 0.8311503529548645 0.8311503529548645
0.84384417533874512 0.84384417533874512 0.84384417533874512
0.83773016929626465 0.83773016929626465 0.83773016929626465
0.83530837297439575 0.83530837297439575 0.83530837297439575
0.8307604193687439 0.8307604193687439 0.8307604193687439
0.82686406373977661 0.82686406373977661 0.82686406373977661
0.82480967044830322 0.82480967044830322 0.82480967044830322
0.82495474815368652 0.82495474815368652 0.82495474815368652
0.82774728536605835 0.82774728536605835 0.82774728536605835
0.83305013179779053 0.83305013179779053 0.83305013179779053
0.84072619676589966 0.84072619676589966 0.84072619676589966
0.85058599710464478 0.85058599710464478 0.85058599710464478
0.86218881607055664 0.86218881607055664 0.86218881607055664
0.87445616722106934 0.87445616722106934 0.87445616722106934
0.88575363159179688 0.88575363159179688 0.88575363159179688
0.11751188337802887 0.11751188337802887 0.11751188337802887
0.12930029630661011 0.12930029630661011 0.12930029630661011
0.14788748323917389 0.14788748323917389 0.14788748323917389
0.16504798829555511 0.16504798829555511 0.16504798829555511
0.17708280682563782 0.17708280682563782 0.17708280682563782
0.19038724899291992 0.19038724899291992 0.19038724899291992
0.20910315215587616 0.20910315215587616 0.20910315215587616
0.23441649973392487 0.23441649973392487 0.23441649973392487
0.2647642195224762 0.2647642195224762 0.2647642195224762
0.29789704084396362 0.29789704084396362 0.29789704084396362
0.33222818374633789 0.33222818374633789 0.33222818374633789
0.36654177308082581 0.36654177308082581 0.36654177308082581
0.40050116181373596 0.40050116181373596 0.40050116181373596
0.16338084638118744 0.16338084638118744 0.16338084638118744
0.17501772940158844 0.17501772940158844 0.17501772940158844
0.19324259459972382 0.19324259459972382 0.19324259459972382
0.20961979031562805 0.20961979031562805 0.20961979031562805
0.21922619640827179 0.21922619640827179 0.21922619640827179
0.23079068958759308 0.23079068958759308 0.23079068958759308
0.24809800088405609 0.24809800088405609 0.24809800088405609
0.27143746614456177 0.27143746614456177 0.27143746614456177
0.29994311928749084 0.29994311928749084 0.29994311928749084
0.33148550987243652 0.33148550987243652 0.33148550987243652
0.36428236961364746 0.36428236961364746 0.36428236961364746
0.39760088920593262 0.39760088920593262 0.39760088920593262
0.43031060695648193 0.43031060695648193 0.43031060695648193
0.21719315648078918 0.21719315648078918 0.21719315648078918
0.22622038424015045 0.22622038424015045 0.22622038424015045
0.24006475508213043 0.24006475508213043 0.24006475508213043
0.25339809060096741 0.25339809060096741 0.25339809060096741
0.26400500535964966 0.26400500535964966 0.26400500535964966
0.27619308233261108 0.27619308233261108 0.27619308233261108
0.29255130887031555 0.29255130887031555 0.29255130887031555
0.31433430314064026 0.31433430314064026 0.31433430314064026
0.34061074256896973 0.34061074256896973 0.34061074256896973
0.3700282871723175 0.3700282871723175 0.3700282871723175
0.40108197927474976 0.40108197927474976 0.40108197927474976
0.4324706494808197 0.4324706494808197 0.4324706494808197
0.46367865800857544 0.46367865800857544 0.46367865800857544
0.27575084567070007 0.27575084567070007 0.27575084567070007
0.281971275806427 0.281971275806427 0.281971275806427
0.29182189702987671 0.29182189702987671 0.29182189702987671
0.30242323875427246 0.30242323875427246 0.30242323875427246
0.31306734681129456 0.31306734681129456 0.31306734681129456
0.32530072331428528 0.32530072331428528 0.32530072331428528
0.34118524193763733 0.34118524193763733 0.34118524193763733
0.36139288544654846 0.36139288544654846 0.36139288544654846
0.38560226559638977 0.38560226559638977 0.38560226559638977
0.41277351975440979 0.41277351975440979 0.41277351975440979
0.44158604741096497 0.44158604741096497 0.44158604741096497
0.47120559215545654 0.47120559215545654 0.47120559215545654
0.50015765428543091 0.50015765428543091 0.50015765428543091
0.33774974942207336 0.33774974942207336 0.33774974942207336
0.34181028604507446 0.34181028604507446 0.34181028604507446
0.34864374995231628 0.34864374995231628 0.34864374995231628
0.35697287321090698 0.35697287321090698 0.35697287321090698
0.36664223670959473 0.36664223670959473 0.36664223670959473
0.37828439474105835 0.37828439474105835 0.37828439474105835
0.39314395189285278 0.39314395189285278 0.39314395189285278
0.41170299053192139 0.41170299053192139 0.41170299053192139
