films/ilford_delta_100.cube
# Created by: G'MIC (https://gmic.eu)
TITLE "ilford_delta_100"
# LUT size
LUT_3D_SIZE 7
# Data domain
DOMAIN_MIN 0.0 0.0 0.0
DOMAIN_MAX 1.0 1.0 1.0
# LUT data points
0.034429199993610382 0.034429199993610382 0.034429199993610382
0.042505782097578049 0.042505782097578049 0.042505782097578049
0.065425872802734375 0.065425872802734375 0.065425872802734375
0.080002769827842712 0.080002769827842712 0.080002769827842712
0.12837739288806915 0.12837739288806915 0.12837739288806915
0.15795642137527466 0.15795642137527466 0.15795642137527466
0.24735651910305023 0.24735651910305023 0.24735651910305023
0.13152550160884857 0.13152550160884857 0.13152550160884857
0.1409219354391098 0.1409219354391098 0.1409219354391098
0.17695780098438263 0.17695780098438263 0.17695780098438263
0.22190523147583008 0.22190523147583008 0.22190523147583008
0.25215834379196167 0.25215834379196167 0.25215834379196167
0.29284802079200745 0.29284802079200745 0.29284802079200745
0.36356255412101746 0.36356255412101746 0.36356255412101746
0.26882925629615784 0.26882925629615784 0.26882925629615784
0.29736131429672241 0.29736131429672241 0.29736131429672241
0.33142620325088501 0.33142620325088501 0.33142620325088501
0.37105372548103333 0.37105372548103333 0.37105372548103333
0.39671063423156738 0.39671063423156738 0.39671063423156738
0.41357129812240601 0.41357129812240601 0.41357129812240601
0.4621129035949707 0.4621129035949707 0.4621129035949707
0.43539971113204956 0.43539971113204956 0.43539971113204956
0.45138773322105408 0.45138773322105408 0.45138773322105408
0.47618067264556885 0.47618067264556885 0.47618067264556885
0.50453072786331177 0.50453072786331177 0.50453072786331177
0.52250921726226807 0.52250921726226807 0.52250921726226807
0.54467892646789551 0.54467892646789551 0.54467892646789551
0.56720811128616333 0.56720811128616333 0.56720811128616333
0.59437531232833862 0.59437531232833862 0.59437531232833862
0.60071182250976562 0.60071182250976562 0.60071182250976562
0.60021531581878662 0.60021531581878662 0.60021531581878662
0.62495136260986328 0.62495136260986328 0.62495136260986328
0.64223682880401611 0.64223682880401611 0.64223682880401611
0.6590113639831543 0.6590113639831543 0.6590113639831543
0.66792768239974976 0.66792768239974976 0.66792768239974976
0.73693037033081055 0.73693037033081055 0.73693037033081055
0.7394261360168457 0.7394261360168457 0.7394261360168457
0.73465532064437866 0.73465532064437866 0.73465532064437866
0.74767029285430908 0.74767029285430908 0.74767029285430908
0.7597237229347229 0.7597237229347229 0.7597237229347229
0.76316624879837036 0.76316624879837036 0.76316624879837036
0.76225054264068604 0.76225054264068604 0.76225054264068604
0.85868841409683228 0.85868841409683228 0.85868841409683228
0.85368436574935913 0.85368436574935913 0.85368436574935913
0.86233621835708618 0.86233621835708618 0.86233621835708618
0.85313558578491211 0.85313558578491211 0.85313558578491211
0.85726118087768555 0.85726118087768555 0.85726118087768555
0.86417514085769653 0.86417514085769653 0.86417514085769653
0.86129456758499146 0.86129456758499146 0.86129456758499146
0.069934695959091187 0.069934695959091187 0.069934695959091187
0.098009906709194183 0.098009906709194183 0.098009906709194183
0.12580263614654541 0.12580263614654541 0.12580263614654541
0.15001505613327026 0.15001505613327026 0.15001505613327026
0.18004389107227325 0.18004389107227325 0.18004389107227325
0.22724933922290802 0.22724933922290802 0.22724933922290802
0.30539926886558533 0.30539926886558533 0.30539926886558533
0.19062633812427521 0.19062633812427521 0.19062633812427521
0.20504215359687805 0.20504215359687805 0.20504215359687805
0.23501168191432953 0.23501168191432953 0.23501168191432953
0.26482543349266052 0.26482543349266052 0.26482543349266052
0.29256659746170044 0.29256659746170044 0.29256659746170044
0.33659112453460693 0.33659112453460693 0.33659112453460693
0.38923576474189758 0.38923576474189758 0.38923576474189758
0.33050635457038879 0.33050635457038879 0.33050635457038879
0.35545283555984497 0.35545283555984497 0.35545283555984497
0.36900463700294495 0.36900463700294495 0.36900463700294495
0.39178550243377686 0.39178550243377686 0.39178550243377686
0.42090964317321777 0.42090964317321777 0.42090964317321777
0.44897779822349548 0.44897779822349548 0.44897779822349548
0.48783484101295471 0.48783484101295471 0.48783484101295471
0.46868997812271118 0.46868997812271118 0.46868997812271118
0.49654749035835266 0.49654749035835266 0.49654749035835266
0.50216066837310791 0.50216066837310791 0.50216066837310791
0.51431053876876831 0.51431053876876831 0.51431053876876831
0.53816777467727661 0.53816777467727661 0.53816777467727661
0.56163084506988525 0.56163084506988525 0.56163084506988525
0.58764040470123291 0.58764040470123291 0.58764040470123291
0.61006766557693481 0.61006766557693481 0.61006766557693481
0.61926305294036865 0.61926305294036865 0.61926305294036865
0.62448215484619141 0.62448215484619141 0.62448215484619141
0.63459223508834839 0.63459223508834839 0.63459223508834839
0.64900058507919312 0.64900058507919312 0.64900058507919312
0.6628459095954895 0.6628459095954895 0.6628459095954895
0.68064624071121216 0.68064624071121216 0.68064624071121216
0.7525678277015686 0.7525678277015686 0.7525678277015686
0.75029081106185913 0.75029081106185913 0.75029081106185913
0.74885761737823486 0.74885761737823486 0.74885761737823486
0.7568516731262207 0.7568516731262207 0.7568516731262207
0.76448160409927368 0.76448160409927368 0.76448160409927368
0.76582962274551392 0.76582962274551392 0.76582962274551392
0.77452117204666138 0.77452117204666138 0.77452117204666138
0.85745698213577271 0.85745698213577271 0.85745698213577271
0.85471135377883911 0.85471135377883911 0.85471135377883911
0.85915130376815796 0.85915130376815796 0.85915130376815796
0.86179620027542114 0.86179620027542114 0.86179620027542114
0.86641079187393188 0.86641079187393188 0.86641079187393188
0.8848642110824585 0.8848642110824585 0.8848642110824585
0.88686150312423706 0.88686150312423706 0.88686150312423706
0.13121189177036285 0.13121189177036285 0.13121189177036285
0.15348996222019196 0.15348996222019196 0.15348996222019196
0.17187018692493439 0.17187018692493439 0.17187018692493439
0.20275890827178955 0.20275890827178955 0.20275890827178955
0.2247309684753418 0.2247309684753418 0.2247309684753418
0.28079435229301453 0.28079435229301453 0.28079435229301453
0.37095755338668823 0.37095755338668823 0.37095755338668823
0.26826715469360352 0.26826715469360352 0.26826715469360352
0.27874916791915894 0.27874916791915894 0.27874916791915894
0.29470658302307129 0.29470658302307129 0.29470658302307129
0.32131233811378479 0.32131233811378479 0.32131233811378479
0.34763443470001221 0.34763443470001221 0.34763443470001221
0.38343492150306702 0.38343492150306702 0.38343492150306702
0.44134041666984558 0.44134041666984558 0.44134041666984558
0.41248172521591187 0.41248172521591187 0.41248172521591187
0.41833692789077759 0.41833692789077759 0.41833692789077759
0.41546878218650818 0.41546878218650818 0.41546878218650818
0.43740347027778625 0.43740347027778625 0.43740347027778625
0.45842325687408447 0.45842325687408447 0.45842325687408447
0.49255484342575073 0.49255484342575073 0.49255484342575073
0.52815616130828857 0.52815616130828857 0.52815616130828857
0.53062957525253296 0.53062957525253296 0.53062957525253296
0.5429069995880127 0.5429069995880127 0.5429069995880127
0.54261654615402222 0.54261654615402222 0.54261654615402222
0.54801541566848755 0.54801541566848755 0.54801541566848755
0.5637516975402832 0.5637516975402832 0.5637516975402832
0.58972406387329102 0.58972406387329102 0.58972406387329102
0.61553496122360229 0.61553496122360229 0.61553496122360229
0.63600283861160278 0.63600283861160278 0.63600283861160278
0.64567351341247559 0.64567351341247559 0.64567351341247559
0.64496070146560669 0.64496070146560669 0.64496070146560669
0.65598851442337036 0.65598851442337036 0.65598851442337036
0.67183166742324829 0.67183166742324829 0.67183166742324829
0.69244968891143799 0.69244968891143799 0.69244968891143799
0.70888239145278931 0.70888239145278931 0.70888239145278931
0.76141643524169922 0.76141643524169922 0.76141643524169922
0.75966042280197144 0.75966042280197144 0.75966042280197144
0.7628597617149353 0.7628597617149353 0.7628597617149353
0.7750590443611145 0.7750590443611145 0.7750590443611145
0.78636717796325684 0.78636717796325684 0.78636717796325684
0.7927931547164917 0.7927931547164917 0.7927931547164917
0.80912989377975464 0.80912989377975464 0.80912989377975464
0.87410414218902588 0.87410414218902588 0.87410414218902588
0.86673784255981445 0.86673784255981445 0.86673784255981445
0.87330931425094604 0.87330931425094604 0.87330931425094604
0.87724155187606812 0.87724155187606812 0.87724155187606812
0.88350862264633179 0.88350862264633179 0.88350862264633179
0.89216208457946777 0.89216208457946777 0.89216208457946777
0.90606522560119629 0.90606522560119629 0.90606522560119629
0.19816529750823975 0.19816529750823975 0.19816529750823975
0.23687168955802917 0.23687168955802917 0.23687168955802917
0.25056228041648865 0.25056228041648865 0.25056228041648865
0.29149606823921204 0.29149606823921204 0.29149606823921204
0.32689300179481506 0.32689300179481506 0.32689300179481506
0.37109476327896118 0.37109476327896118 0.37109476327896118
0.43388435244560242 0.43388435244560242 0.43388435244560242
0.35365378856658936 0.35365378856658936 0.35365378856658936
0.36256706714630127 0.36256706714630127 0.36256706714630127
0.37406662106513977 0.37406662106513977 0.37406662106513977
0.39522024989128113 0.39522024989128113 0.39522024989128113
0.42083927989006042 0.42083927989006042 0.42083927989006042
0.45807817578315735 0.45807817578315735 0.45807817578315735
0.50600719451904297 0.50600719451904297 0.50600719451904297
0.48485618829727173 0.48485618829727173 0.48485618829727173
0.47941693663597107 0.47941693663597107 0.47941693663597107
0.48265969753265381 0.48265969753265381 0.48265969753265381
0.49576696753501892 0.49576696753501892 0.49576696753501892
0.51467347145080566 0.51467347145080566 0.51467347145080566
0.5486869215965271 0.5486869215965271 0.5486869215965271
0.58225613832473755 0.58225613832473755 0.58225613832473755
0.58662176132202148 0.58662176132202148 0.58662176132202148
0.58209669589996338 0.58209669589996338 0.58209669589996338
0.581043541431427 0.581043541431427 0.581043541431427
0.58564507961273193 0.58564507961273193 0.58564507961273193
0.60444039106369019 0.60444039106369019 0.60444039106369019
0.63311398029327393 0.63311398029327393 0.63311398029327393
0.66086292266845703 0.66086292266845703 0.66086292266845703
0.68196409940719604 0.68196409940719604 0.68196409940719604
0.67935925722122192 0.67935925722122192 0.67935925722122192
0.67932116985321045 0.67932116985321045 0.67932116985321045
0.68982064723968506 0.68982064723968506 0.68982064723968506
0.69839173555374146 0.69839173555374146 0.69839173555374146
0.71975231170654297 0.71975231170654297 0.71975231170654297
0.73301118612289429 0.73301118612289429 0.73301118612289429
0.78225380182266235 0.78225380182266235 0.78225380182266235
0.7833670973777771 0.7833670973777771 0.7833670973777771
0.79113674163818359 0.79113674163818359 0.79113674163818359
0.80039256811141968 0.80039256811141968 0.80039256811141968
0.80653196573257446 0.80653196573257446 0.80653196573257446
0.81492477655410767 0.81492477655410767 0.81492477655410767
0.82236951589584351 0.82236951589584351 0.82236951589584351
0.89045971632003784 0.89045971632003784 0.89045971632003784
0.88991183042526245 0.88991183042526245 0.88991183042526245
0.89970368146896362 0.89970368146896362 0.89970368146896362
0.89718854427337646 0.89718854427337646 0.89718854427337646
0.90114504098892212 0.90114504098892212 0.90114504098892212
0.90758681297302246 0.90758681297302246 0.90758681297302246
0.9133373498916626 0.9133373498916626 0.9133373498916626
0.32404196262359619 0.32404196262359619 0.32404196262359619
0.33985966444015503 0.33985966444015503 0.33985966444015503
0.36144047975540161 0.36144047975540161 0.36144047975540161
0.39027446508407593 0.39027446508407593 0.39027446508407593
0.42721319198608398 0.42721319198608398 0.42721319198608398
0.45854294300079346 0.45854294300079346 0.45854294300079346
0.51806449890136719 0.51806449890136719 0.51806449890136719
0.43806865811347961 0.43806865811347961 0.43806865811347961
0.44443678855895996 0.44443678855895996 0.44443678855895996
0.45979708433151245 0.45979708433151245 0.45979708433151245
0.47626912593841553 0.47626912593841553 0.47626912593841553
0.4965938925743103 0.4965938925743103 0.4965938925743103
0.52831536531448364 0.52831536531448364 0.52831536531448364
0.56988811492919922 0.56988811492919922 0.56988811492919922
0.53111118078231812 0.53111118078231812 0.53111118078231812
0.53885877132415771 0.53885877132415771 0.53885877132415771
0.55116671323776245 0.55116671323776245 0.55116671323776245
0.56121504306793213 0.56121504306793213 0.56121504306793213
0.57512462139129639 0.57512462139129639 0.57512462139129639
0.60133606195449829 0.60133606195449829 0.60133606195449829
0.63214761018753052 0.63214761018753052 0.63214761018753052
0.63170158863067627 0.63170158863067627 0.63170158863067627
0.63221150636672974 0.63221150636672974 0.63221150636672974
0.64011847972869873 0.64011847972869873 0.64011847972869873
0.6441577672958374 0.6441577672958374 0.6441577672958374
0.6576462984085083 0.6576462984085083 0.6576462984085083
0.68180876970291138 0.68180876970291138 0.68180876970291138
0.70369535684585571 0.70369535684585571 0.70369535684585571
0.73271375894546509 0.73271375894546509 0.73271375894546509
0.72363561391830444 0.72363561391830444 0.72363561391830444
0.726409912109375 0.726409912109375 0.726409912109375
0.73291277885437012 0.73291277885437012 0.73291277885437012
0.74021339416503906 0.74021339416503906 0.74021339416503906
0.75887173414230347 0.75887173414230347 0.75887173414230347
0.77068066596984863 0.77068066596984863 0.77068066596984863
0.82386887073516846 0.82386887073516846 0.82386887073516846
0.81487452983856201 0.81487452983856201 0.81487452983856201
0.8215489387512207 0.8215489387512207 0.8215489387512207
0.82917624711990356 0.82917624711990356 0.82917624711990356
0.83241778612136841 0.83241778612136841 0.83241778612136841
0.83632069826126099 0.83632069826126099 0.83632069826126099
0.84402143955230713 0.84402143955230713 0.84402143955230713
0.90841013193130493 0.90841013193130493 0.90841013193130493
0.91496318578720093 0.91496318578720093 0.91496318578720093
0.91612082719802856 0.91612082719802856 0.91612082719802856
0.92019855976104736 0.92019855976104736 0.92019855976104736
0.92252898216247559 0.92252898216247559 0.92252898216247559
0.93308502435684204 0.93308502435684204 0.93308502435684204
0.93883788585662842 0.93883788585662842 0.93883788585662842
0.43806943297386169 0.43806943297386169 0.43806943297386169
0.45432078838348389 0.45432078838348389 0.45432078838348389
0.47333383560180664 0.47333383560180664 0.47333383560180664
0.49030584096908569 0.49030584096908569 0.49030584096908569
0.51171219348907471 0.51171219348907471 0.51171219348907471
0.5560346245765686 0.5560346245765686 0.5560346245765686
0.59559923410415649 0.59559923410415649 0.59559923410415649
0.52229362726211548 0.52229362726211548 0.52229362726211548
0.53186619281768799 0.53186619281768799 0.53186619281768799
0.54601186513900757 0.54601186513900757 0.54601186513900757
0.55883538722991943 0.55883538722991943 0.55883538722991943
0.56910210847854614 0.56910210847854614 0.56910210847854614
0.59565329551696777 0.59565329551696777 0.59565329551696777
0.63313573598861694 0.63313573598861694 0.63313573598861694
0.59919041395187378 0.59919041395187378 0.59919041395187378
0.60798168182373047 0.60798168182373047 0.60798168182373047
0.62041336297988892 0.62041336297988892 0.62041336297988892
0.6290392279624939 0.6290392279624939 0.6290392279624939
0.64138686656951904 0.64138686656951904 0.64138686656951904
0.66229522228240967 0.66229522228240967 0.66229522228240967
0.68848913908004761 0.68848913908004761 0.68848913908004761
0.68812698125839233 0.68812698125839233 0.68812698125839233
0.69471079111099243 0.69471079111099243 0.69471079111099243
0.70632714033126831 0.70632714033126831 0.70632714033126831
0.70720410346984863 0.70720410346984863 0.70720410346984863
0.71738570928573608 0.71738570928573608 0.71738570928573608
0.73525792360305786 0.73525792360305786 0.73525792360305786
0.74533134698867798 0.74533134698867798 0.74533134698867798
0.78033918142318726 0.78033918142318726 0.78033918142318726
0.77702218294143677 0.77702218294143677 0.77702218294143677
0.78461837768554688 0.78461837768554688 0.78461837768554688
0.78628218173980713 0.78628218173980713 0.78628218173980713
0.79519057273864746 0.79519057273864746 0.79519057273864746
0.80246788263320923 0.80246788263320923 0.80246788263320923
0.80580538511276245 0.80580538511276245 0.80580538511276245
0.85815465450286865 0.85815465450286865 0.85815465450286865
0.85204875469207764 0.85204875469207764 0.85204875469207764
0.859108567237854 0.859108567237854 0.859108567237854
0.87255394458770752 0.87255394458770752 0.87255394458770752
0.87281334400177002 0.87281334400177002 0.87281334400177002
0.86735635995864868 0.86735635995864868 0.86735635995864868
0.8769301176071167 0.8769301176071167 0.8769301176071167
0.93052667379379272 0.93052667379379272 0.93052667379379272
0.93686932325363159 0.93686932325363159 0.93686932325363159
0.94037753343582153 0.94037753343582153 0.94037753343582153
0.94584721326828003 0.94584721326828003 0.94584721326828003
0.94484668970108032 0.94484668970108032 0.94484668970108032
0.94547468423843384 0.94547468423843384 0.94547468423843384
0.94761031866073608 0.94761031866073608 0.94761031866073608
0.54462409019470215 0.54462409019470215 0.54462409019470215
0.5642964243888855 0.5642964243888855 0.5642964243888855
0.57821536064147949 0.57821536064147949 0.57821536064147949
0.59385049343109131 0.59385049343109131 0.59385049343109131
0.60948938131332397 0.60948938131332397 0.60948938131332397
0.63592982292175293 0.63592982292175293 0.63592982292175293
0.67546349763870239 0.67546349763870239 0.67546349763870239
0.60963165760040283 0.60963165760040283 0.60963165760040283
0.61126220226287842 0.61126220226287842 0.61126220226287842
0.62254303693771362 0.62254303693771362 0.62254303693771362
0.63908255100250244 0.63908255100250244 0.63908255100250244
0.64255380630493164 0.64255380630493164 0.64255380630493164
0.66439712047576904 0.66439712047576904 0.66439712047576904
0.70160716772079468 0.70160716772079468 0.70160716772079468
0.67032825946807861 0.67032825946807861 0.67032825946807861
0.67421418428421021 0.67421418428421021 0.67421418428421021
0.68731176853179932 0.68731176853179932 0.68731176853179932
0.69413501024246216 0.69413501024246216 0.69413501024246216
0.69861459732055664 0.69861459732055664 0.69861459732055664
0.71730244159698486 0.71730244159698486 0.71730244159698486
0.74974977970123291 0.74974977970123291 0.74974977970123291
0.74511921405792236 0.74511921405792236 0.74511921405792236
0.74751901626586914 0.74751901626586914 0.74751901626586914
0.75863361358642578 0.75863361358642578 0.75863361358642578
0.76224809885025024 0.76224809885025024 0.76224809885025024
0.76621890068054199 0.76621890068054199 0.76621890068054199
0.77924001216888428 0.77924001216888428 0.77924001216888428
0.79282695055007935 0.79282695055007935 0.79282695055007935
0.81617695093154907 0.81617695093154907 0.81617695093154907
0.81921583414077759 0.81921583414077759 0.81921583414077759
0.82715672254562378 0.82715672254562378 0.82715672254562378
0.83379405736923218 0.83379405736923218 0.83379405736923218
0.83109539747238159 0.83109539747238159 0.83109539747238159
0.83274668455123901 0.83274668455123901 0.83274668455123901
0.83656799793243408 0.83656799793243408 0.83656799793243408
0.88963925838470459 0.88963925838470459 0.88963925838470459
0.89664137363433838 0.89664137363433838 0.89664137363433838
0.89699596166610718 0.89699596166610718 0.89699596166610718
0.90283918380737305 0.90283918380737305 0.90283918380737305
0.90077787637710571 0.90077787637710571 0.90077787637710571
0.89816683530807495 0.89816683530807495 0.89816683530807495
0.89145636558532715 0.89145636558532715 0.89145636558532715
0.95622199773788452 0.95622199773788452 0.95622199773788452
0.9690433144569397 0.9690433144569397 0.9690433144569397
0.966045081615448 0.966045081615448 0.966045081615448
0.97312891483306885 0.97312891483306885 0.97312891483306885
0.97512662410736084 0.97512662410736084 0.97512662410736084
0.96422880887985229 0.96422880887985229 0.96422880887985229
0.95088231563568115 0.95088231563568115 0.95088231563568115
