films/ilford_pan_f_plus_50.cube
TITLE "data/luts/rawtherapee/HaldCLUT/Black-and-White/Ilford/Ilford Pan F Plus 50.png"
LUT_3D_SIZE 8
DOMAIN_MIN 0 0 0
DOMAIN_MAX 1 1 1
0.000000 0.000000 0.000000
0.000000 0.000000 0.000000
0.003922 0.003922 0.003922
0.012885 0.012885 0.012885
0.038095 0.038095 0.038095
0.082913 0.082913 0.082913
0.157423 0.157423 0.157423
0.266667 0.266667 0.266667
0.068347 0.068347 0.068347
0.078832 0.078832 0.078832
0.097239 0.097239 0.097239
0.123249 0.123249 0.123249
0.159744 0.159744 0.159744
0.211765 0.211765 0.211765
0.289236 0.289236 0.289236
0.389916 0.389916 0.389916
0.187115 0.187115 0.187115
0.194958 0.194958 0.194958
0.211124 0.211124 0.211124
0.238095 0.238095 0.238095
0.277311 0.277311 0.277311
0.332293 0.332293 0.332293
0.393838 0.393838 0.393838
0.473950 0.473950 0.473950
0.347339 0.347339 0.347339
0.355182 0.355182 0.355182
0.366947 0.366947 0.366947
0.387355 0.387355 0.387355
0.416807 0.416807 0.416807
0.453621 0.453621 0.453621
0.499800 0.499800 0.499800
0.565826 0.565826 0.565826
0.515406 0.515406 0.515406
0.515406 0.515406 0.515406
0.523249 0.523249 0.523249
0.538936 0.538936 0.538936
0.559344 0.559344 0.559344
0.586154 0.586154 0.586154
0.621929 0.621929 0.621929
0.669468 0.669468 0.669468
0.663866 0.663866 0.663866
0.667787 0.667787 0.667787
0.671709 0.671709 0.671709
0.679552 0.679552 0.679552
0.693717 0.693717 0.693717
0.710364 0.710364 0.710364
0.729972 0.729972 0.729972
0.761345 0.761345 0.761345
0.786555 0.786555 0.786555
0.788796 0.788796 0.788796
0.790476 0.790476 0.790476
0.794398 0.794398 0.794398
0.802241 0.802241 0.802241
0.810084 0.810084 0.810084
0.821849 0.821849 0.821849
0.841457 0.841457 0.841457
0.894118 0.894118 0.894118
0.894118 0.894118 0.894118
0.898039 0.898039 0.898039
0.898039 0.898039 0.898039
0.901961 0.901961 0.901961
0.905882 0.905882 0.905882
0.913725 0.913725 0.913725
0.925490 0.925490 0.925490
0.003922 0.003922 0.003922
0.013445 0.013445 0.013445
0.027131 0.027131 0.027131
0.043617 0.043617 0.043617
0.077791 0.077791 0.077791
0.129972 0.129972 0.129972
0.206162 0.206162 0.206162
0.323249 0.323249 0.323249
0.102361 0.102361 0.102361
0.115406 0.115406 0.115406
0.134694 0.134694 0.134694
0.159024 0.159024 0.159024
0.196844 0.196844 0.196844
0.251804 0.251804 0.251804
0.327171 0.327171 0.327171
0.421289 0.421289 0.421289
0.214806 0.214806 0.214806
0.223404 0.223404 0.223404
0.241742 0.241742 0.241742
0.268096 0.268096 0.268096
0.308306 0.308306 0.308306
0.358098 0.358098 0.358098
0.417184 0.417184 0.417184
0.491637 0.491637 0.491637
0.370868 0.370868 0.370868
0.374790 0.374790 0.374790
0.387584 0.387584 0.387584
0.406505 0.406505 0.406505
0.434471 0.434471 0.434471
0.469308 0.469308 0.469308
0.515486 0.515486 0.515486
0.578071 0.578071 0.578071
0.527171 0.527171 0.527171
0.531092 0.531092 0.531092
0.538936 0.538936 0.538936
0.551706 0.551706 0.551706
0.572103 0.572103 0.572103
0.598502 0.598502 0.598502
0.632642 0.632642 0.632642
0.677311 0.677311 0.677311
0.673149 0.673149 0.673149
0.675630 0.675630 0.675630
0.679552 0.679552 0.679552
0.687807 0.687807 0.687807
0.700189 0.700189 0.700189
0.715326 0.715326 0.715326
0.737815 0.737815 0.737815
0.765266 0.765266 0.765266
0.791437 0.791437 0.791437
0.792717 0.792717 0.792717
0.794398 0.794398 0.794398
0.798594 0.798594 0.798594
0.806162 0.806162 0.806162
0.814006 0.814006 0.814006
0.825770 0.825770 0.825770
0.845378 0.845378 0.845378
0.898039 0.898039 0.898039
0.898039 0.898039 0.898039
0.898039 0.898039 0.898039
0.901961 0.901961 0.901961
0.905882 0.905882 0.905882
0.909804 0.909804 0.909804
0.917647 0.917647 0.917647
0.929412 0.929412 0.929412
0.019608 0.019608 0.019608
0.035294 0.035294 0.035294
0.054822 0.054822 0.054822
0.077871 0.077871 0.077871
0.113565 0.113565 0.113565
0.168627 0.168627 0.168627
0.245138 0.245138 0.245138
0.360784 0.360784 0.360784
0.138615 0.138615 0.138615
0.150700 0.150700 0.150700
0.170228 0.170228 0.170228
0.197199 0.197199 0.197199
0.235626 0.235626 0.235626
0.292437 0.292437 0.292437
0.364706 0.364706 0.364706
0.450660 0.450660 0.450660
0.254262 0.254262 0.254262
0.265020 0.265020 0.265020
0.284182 0.284182 0.284182
0.309987 0.309987 0.309987
0.346916 0.346916 0.346916
0.392077 0.392077 0.392077
0.448179 0.448179 0.448179
0.520448 0.520448 0.520448
0.402241 0.402241 0.402241
0.408975 0.408975 0.408975
0.419985 0.419985 0.419985
0.437421 0.437421 0.437421
0.464437 0.464437 0.464437
0.496759 0.496759 0.496759
0.541028 0.541028 0.541028
0.601120 0.601120 0.601120
0.550700 0.550700 0.550700
0.554622 0.554622 0.554622
0.562465 0.562465 0.562465
0.575876 0.575876 0.575876
0.594524 0.594524 0.594524
0.618888 0.618888 0.618888
0.651232 0.651232 0.651232
0.692997 0.692997 0.692997
0.690276 0.690276 0.690276
0.691236 0.691236 0.691236
0.695227 0.695227 0.695227
0.703024 0.703024 0.703024
0.714629 0.714629 0.714629
0.729972 0.729972 0.729972
0.749580 0.749580 0.749580
0.777031 0.777031 0.777031
0.802001 0.802001 0.802001
0.802241 0.802241 0.802241
0.804162 0.804162 0.804162
0.808586 0.808586 0.808586
0.814006 0.814006 0.814006
0.821849 0.821849 0.821849
0.833613 0.833613 0.833613
0.852901 0.852901 0.852901
0.901961 0.901961 0.901961
0.901961 0.901961 0.901961
0.905882 0.905882 0.905882
0.905882 0.905882 0.905882
0.909804 0.909804 0.909804
0.913725 0.913725 0.913725
0.921569 0.921569 0.921569
0.933333 0.933333 0.933333
0.048179 0.048179 0.048179
0.071709 0.071709 0.071709
0.091317 0.091317 0.091317
0.119568 0.119568 0.119568
0.159984 0.159984 0.159984
0.213445 0.213445 0.213445
0.297479 0.297479 0.297479
0.403922 0.403922 0.403922
0.183193 0.183193 0.183193
0.196158 0.196158 0.196158
0.216967 0.216967 0.216967
0.245938 0.245938 0.245938
0.288298 0.288298 0.288298
0.343017 0.343017 0.343017
0.405728 0.405728 0.405728
0.485154 0.485154 0.485154
0.308844 0.308844 0.308844
0.317647 0.317647 0.317647
0.333676 0.333676 0.333676
0.358109 0.358109 0.358109
0.392168 0.392168 0.392168
0.432333 0.432333 0.432333
0.484034 0.484034 0.484034
0.552381 0.552381 0.552381
0.444578 0.444578 0.444578
0.448499 0.448499 0.448499
0.458218 0.458218 0.458218
0.476408 0.476408 0.476408
0.500623 0.500623 0.500623
0.532785 0.532785 0.532785
0.574904 0.574904 0.574904
0.632493 0.632493 0.632493
0.585994 0.585994 0.585994
0.587915 0.587915 0.587915
0.594844 0.594844 0.594844
0.607523 0.607523 0.607523
0.625530 0.625530 0.625530
0.647070 0.647070 0.647070
0.676968 0.676968 0.676968
0.716527 0.716527 0.716527
0.710524 0.710524 0.710524
0.712914 0.712914 0.712914
0.718207 0.718207 0.718207
0.724335 0.724335 0.724335
0.734054 0.734054 0.734054
0.749580 0.749580 0.749580
0.765906 0.765906 0.765906
0.792717 0.792717 0.792717
0.814006 0.814006 0.814006
0.814006 0.814006 0.814006
0.817756 0.817756 0.817756
0.820991 0.820991 0.820991
0.825770 0.825770 0.825770
0.833613 0.833613 0.833613
0.845378 0.845378 0.845378
0.861064 0.861064 0.861064
0.909804 0.909804 0.909804
0.910924 0.910924 0.910924
0.913725 0.913725 0.913725
0.913725 0.913725 0.913725
0.917647 0.917647 0.917647
0.921569 0.921569 0.921569
0.929412 0.929412 0.929412
0.941176 0.941176 0.941176
0.096919 0.096919 0.096919
0.124850 0.124850 0.124850
0.147899 0.147899 0.147899
0.175670 0.175670 0.175670
0.218487 0.218487 0.218487
0.277871 0.277871 0.277871
0.357983 0.357983 0.357983
0.449860 0.449860 0.449860
0.246018 0.246018 0.246018
0.261064 0.261064 0.261064
0.282913 0.282913 0.282913
0.314286 0.314286 0.314286
0.353501 0.353501 0.353501
0.400720 0.400720 0.400720
0.455588 0.455588 0.455588
0.529972 0.529972 0.529972
0.374230 0.374230 0.374230
0.380701 0.380701 0.380701
0.394398 0.394398 0.394398
0.417641 0.417641 0.417641
0.446064 0.446064 0.446064
0.482193 0.482193 0.482193
0.529972 0.529972 0.529972
0.594398 0.594398 0.594398
0.494438 0.494438 0.494438
0.498359 0.498359 0.498359
0.507803 0.507803 0.507803
0.525582 0.525582 0.525582
0.548448 0.548448 0.548448
0.577991 0.577991 0.577991
0.616327 0.616327 0.616327
0.663866 0.663866 0.663866
0.624410 0.624410 0.624410
0.628148 0.628148 0.628148
0.633854 0.633854 0.633854
0.645047 0.645047 0.645047
0.660847 0.660847 0.660847
0.680958 0.680958 0.680958
0.706363 0.706363 0.706363
0.740056 0.740056 0.740056
0.736855 0.736855 0.736855
0.737815 0.737815 0.737815
0.741737 0.741737 0.741737
0.748619 0.748619 0.748619
0.757423 0.757423 0.757423
0.769188 0.769188 0.769188
0.784874 0.784874 0.784874
0.808403 0.808403 0.808403
0.829212 0.829212 0.829212
0.829692 0.829692 0.829692
0.829692 0.829692 0.829692
0.833613 0.833613 0.833613
0.840336 0.840336 0.840336
0.845778 0.845778 0.845778
0.857143 0.857143 0.857143
0.872829 0.872829 0.872829
0.921569 0.921569 0.921569
0.921569 0.921569 0.921569
0.921569 0.921569 0.921569
0.925490 0.925490 0.925490
0.925490 0.925490 0.925490
0.932213 0.932213 0.932213
0.937255 0.937255 0.937255
0.949020 0.949020 0.949020
0.173109 0.173109 0.173109
0.202241 0.202241 0.202241
0.227531 0.227531 0.227531
0.259544 0.259544 0.259544
0.306443 0.306443 0.306443
0.361905 0.361905 0.361905
0.426331 0.426331 0.426331
0.506443 0.506443 0.506443
0.335574 0.335574 0.335574
0.347339 0.347339 0.347339
0.366947 0.366947 0.366947
0.391597 0.391597 0.391597
0.425199 0.425199 0.425199
0.464780 0.464780 0.464780
0.514149 0.514149 0.514149
0.580952 0.580952 0.580952
0.443057 0.443057 0.443057
0.448294 0.448294 0.448294
0.462665 0.462665 0.462665
0.481587 0.481587 0.481587
0.505882 0.505882 0.505882
0.541176 0.541176 0.541176
0.582633 0.582633 0.582633
0.638735 0.638735 0.638735
0.551821 0.551821 0.551821
0.555742 0.555742 0.555742
0.566329 0.566329 0.566329
0.579958 0.579958 0.579958
0.601566 0.601566 0.601566
0.626536 0.626536 0.626536
0.660264 0.660264 0.660264
0.702121 0.702121 0.702121
0.668507 0.668507 0.668507
0.669868 0.669868 0.669868
0.676008 0.676008 0.676008
0.685268 0.685268 0.685268
0.697479 0.697479 0.697479
0.716527 0.716527 0.716527
0.737243 0.737243 0.737243
0.767507 0.767507 0.767507
0.765266 0.765266 0.765266
0.765266 0.765266 0.765266
0.769188 0.769188 0.769188
0.773669 0.773669 0.773669
0.781513 0.781513 0.781513
0.792717 0.792717 0.792717
0.806963 0.806963 0.806963
0.828011 0.828011 0.828011
0.845378 0.845378 0.845378
0.845378 0.845378 0.845378
0.849300 0.849300 0.849300
0.850272 0.850272 0.850272
0.857143 0.857143 0.857143
0.861556 0.861556 0.861556
0.872829 0.872829 0.872829
0.886275 0.886275 0.886275
0.933333 0.933333 0.933333
0.933333 0.933333 0.933333
0.933333 0.933333 0.933333
0.937255 0.937255 0.937255
0.937255 0.937255 0.937255
0.941176 0.941176 0.941176
0.949020 0.949020 0.949020
0.957423 0.957423 0.957423
0.276751 0.276751 0.276751
0.309084 0.309084 0.309084
0.335334 0.335334 0.335334
0.363665 0.363665 0.363665
0.401120 0.401120 0.401120
0.445378 0.445378 0.445378
0.498599 0.498599 0.498599
0.570868 0.570868 0.570868
0.423529 0.423529 0.423529
0.435294 0.435294 0.435294
0.450980 0.450980 0.450980
0.471503 0.471503 0.471503
0.500154 0.500154 0.500154
0.534717 0.534717 0.534717
0.579123 0.579123 0.579123
0.636255 0.636255 0.636255
0.515406 0.515406 0.515406
0.523249 0.523249 0.523249
0.535014 0.535014 0.535014
0.551821 0.551821 0.551821
0.577031 0.577031 0.577031
0.605602 0.605602 0.605602
0.641034 0.641034 0.641034
0.687955 0.687955 0.687955
0.616246 0.616246 0.616246
0.619802 0.619802 0.619802
0.628949 0.628949 0.628949
0.642577 0.642577 0.642577
0.658263 0.658263 0.658263
0.679872 0.679872 0.679872
0.706283 0.706283 0.706283
0.741817 0.741817 0.741817
0.714846 0.714846 0.714846
0.716046 0.716046 0.716046
0.720448 0.720448 0.720448
0.728932 0.728932 0.728932
0.740056 0.740056 0.740056
0.754302 0.754302 0.754302
0.772983 0.772983 0.772983
0.797679 0.797679 0.797679
0.794958 0.794958 0.794958
0.796639 0.796639 0.796639
0.798880 0.798880 0.798880
0.804482 0.804482 0.804482
0.810644 0.810644 0.810644
0.820168 0.820168 0.820168
0.831933 0.831933 0.831933
0.850980 0.850980 0.850980
0.864986 0.864986 0.864986
0.866495 0.866495 0.866495
0.868908 0.868908 0.868908
0.871869 0.871869 0.871869
0.875790 0.875790 0.875790
0.880809 0.880809 0.880809
0.889064 0.889064 0.889064
0.903241 0.903241 0.903241
0.945098 0.945098 0.945098
0.945098 0.945098 0.945098
0.948780 0.948780 0.948780
0.949020 0.949020 0.949020
0.952941 0.952941 0.952941
0.956863 0.956863 0.956863
0.960784 0.960784 0.960784
0.972549 0.972549 0.972549
0.400000 0.400000 0.400000
0.423529 0.423529 0.423529
0.443137 0.443137 0.443137
0.466667 0.466667 0.466667
0.496919 0.496919 0.496919
0.533333 0.533333 0.533333
0.578711 0.578711 0.578711
0.639216 0.639216 0.639216
0.519328 0.519328 0.519328
0.527171 0.527171 0.527171
0.542857 0.542857 0.542857
0.562465 0.562465 0.562465
0.585994 0.585994 0.585994
0.615926 0.615926 0.615926
0.650980 0.650980 0.650980
0.695798 0.695798 0.695798
0.603361 0.603361 0.603361
0.607283 0.607283 0.607283
0.619048 0.619048 0.619048
0.634734 0.634734 0.634734
0.653381 0.653381 0.653381
0.674990 0.674990 0.674990
0.703882 0.703882 0.703882
0.740616 0.740616 0.740616
0.687395 0.687395 0.687395
0.691317 0.691317 0.691317
0.695238 0.695238 0.695238
0.707003 0.707003 0.707003
0.720768 0.720768 0.720768
0.738375 0.738375 0.738375
0.757983 0.757983 0.757983
0.785434 0.785434 0.785434
0.764706 0.764706 0.764706
0.767507 0.767507 0.767507
0.771429 0.771429 0.771429
0.779272 0.779272 0.779272
0.787115 0.787115 0.787115
0.798880 0.798880 0.798880
0.811765 0.811765 0.811765
0.831373 0.831373 0.831373
0.831933 0.831933 0.831933
0.831933 0.831933 0.831933
0.835854 0.835854 0.835854
0.839776 0.839776 0.839776
0.846098 0.846098 0.846098
0.852021 0.852021 0.852021
0.863305 0.863305 0.863305
0.878992 0.878992 0.878992
0.892437 0.892437 0.892437
0.892437 0.892437 0.892437
0.896359 0.896359 0.896359
0.898039 0.898039 0.898039
0.901961 0.901961 0.901961
0.908123 0.908123 0.908123
0.915966 0.915966 0.915966
0.927731 0.927731 0.927731
0.968627 0.968627 0.968627
0.968627 0.968627 0.968627
0.968627 0.968627 0.968627
0.972549 0.972549 0.972549
0.976471 0.976471 0.976471
0.980392 0.980392 0.980392
0.988235 0.988235 0.988235
1.000000 1.000000 1.000000
