films/ilford_delta_3200.cube
# Created by: G'MIC (https://gmic.eu)
TITLE "ilford_delta_3200"
# LUT size
LUT_3D_SIZE 7
# Data domain
DOMAIN_MIN 0.0 0.0 0.0
DOMAIN_MAX 1.0 1.0 1.0
# LUT data points
0.10006818920373917 0.10006818920373917 0.10006818920373917
0.097300931811332703 0.097300931811332703 0.097300931811332703
0.13815245032310486 0.13815245032310486 0.13815245032310486
0.22003616392612457 0.22003616392612457 0.22003616392612457
0.32516935467720032 0.32516935467720032 0.32516935467720032
0.44922161102294922 0.44922161102294922 0.44922161102294922
0.58622455596923828 0.58622455596923828 0.58622455596923828
0.12351219356060028 0.12351219356060028 0.12351219356060028
0.11282480508089066 0.11282480508089066 0.11282480508089066
0.15534014999866486 0.15534014999866486 0.15534014999866486
0.23888371884822845 0.23888371884822845 0.23888371884822845
0.33658686280250549 0.33658686280250549 0.33658686280250549
0.45887839794158936 0.45887839794158936 0.45887839794158936
0.60218757390975952 0.60218757390975952 0.60218757390975952
0.19318754971027374 0.19318754971027374 0.19318754971027374
0.19075016677379608 0.19075016677379608 0.19075016677379608
0.22698122262954712 0.22698122262954712 0.22698122262954712
0.29519262909889221 0.29519262909889221 0.29519262909889221
0.38607063889503479 0.38607063889503479 0.38607063889503479
0.50788474082946777 0.50788474082946777 0.50788474082946777
0.64630663394927979 0.64630663394927979 0.64630663394927979
0.29909703135490417 0.29909703135490417 0.29909703135490417
0.31183081865310669 0.31183081865310669 0.31183081865310669
0.33831951022148132 0.33831951022148132 0.33831951022148132
0.38263404369354248 0.38263404369354248 0.38263404369354248
0.46003705263137817 0.46003705263137817 0.46003705263137817
0.57517004013061523 0.57517004013061523 0.57517004013061523
0.71193581819534302 0.71193581819534302 0.71193581819534302
0.45866429805755615 0.45866429805755615 0.45866429805755615
0.4665648341178894 0.4665648341178894 0.4665648341178894
0.48341548442840576 0.48341548442840576 0.48341548442840576
0.5189826488494873 0.5189826488494873 0.5189826488494873
0.56747031211853027 0.56747031211853027 0.56747031211853027
0.64990389347076416 0.64990389347076416 0.64990389347076416
0.76864331960678101 0.76864331960678101 0.76864331960678101
0.65871548652648926 0.65871548652648926 0.65871548652648926
0.6645437479019165 0.6645437479019165 0.6645437479019165
0.6751137375831604 0.6751137375831604 0.6751137375831604
0.69979757070541382 0.69979757070541382 0.69979757070541382
0.72838437557220459 0.72838437557220459 0.72838437557220459
0.77782583236694336 0.77782583236694336 0.77782583236694336
0.85530215501785278 0.85530215501785278 0.85530215501785278
0.86632043123245239 0.86632043123245239 0.86632043123245239
0.86934876441955566 0.86934876441955566 0.86934876441955566
0.87653714418411255 0.87653714418411255 0.87653714418411255
0.88940614461898804 0.88940614461898804 0.88940614461898804
0.90273082256317139 0.90273082256317139 0.90273082256317139
0.92623054981231689 0.92623054981231689 0.92623054981231689
0.96467775106430054 0.96467775106430054 0.96467775106430054
0.10131505131721497 0.10131505131721497 0.10131505131721497
0.10297512263059616 0.10297512263059616 0.10297512263059616
0.14207644760608673 0.14207644760608673 0.14207644760608673
0.23078472912311554 0.23078472912311554 0.23078472912311554
0.33811065554618835 0.33811065554618835 0.33811065554618835
0.46108725666999817 0.46108725666999817 0.46108725666999817
0.59594154357910156 0.59594154357910156 0.59594154357910156
0.13550497591495514 0.13550497591495514 0.13550497591495514
0.14397615194320679 0.14397615194320679 0.14397615194320679
0.18717646598815918 0.18717646598815918 0.18717646598815918
0.26745784282684326 0.26745784282684326 0.26745784282684326
0.36302748322486877 0.36302748322486877 0.36302748322486877
0.48567566275596619 0.48567566275596619 0.48567566275596619
0.62257754802703857 0.62257754802703857 0.62257754802703857
0.21970438957214355 0.21970438957214355 0.21970438957214355
0.23962870240211487 0.23962870240211487 0.23962870240211487
0.2741864025592804 0.2741864025592804 0.2741864025592804
0.33778432011604309 0.33778432011604309 0.33778432011604309
0.42000302672386169 0.42000302672386169 0.42000302672386169
0.53510451316833496 0.53510451316833496 0.53510451316833496
0.6656000018119812 0.6656000018119812 0.6656000018119812
0.34872105717658997 0.34872105717658997 0.34872105717658997
0.35734453797340393 0.35734453797340393 0.35734453797340393
0.37804889678955078 0.37804889678955078 0.37804889678955078
0.42405498027801514 0.42405498027801514 0.42405498027801514
0.49386411905288696 0.49386411905288696 0.49386411905288696
0.59507125616073608 0.59507125616073608 0.59507125616073608
0.71567404270172119 0.71567404270172119 0.71567404270172119
0.49483710527420044 0.49483710527420044 0.49483710527420044
0.5002899169921875 0.5002899169921875 0.5002899169921875
0.51128154993057251 0.51128154993057251 0.51128154993057251
0.54649370908737183 0.54649370908737183 0.54649370908737183
0.59255731105804443 0.59255731105804443 0.59255731105804443
0.66465812921524048 0.66465812921524048 0.66465812921524048
0.77204215526580811 0.77204215526580811 0.77204215526580811
0.66413146257400513 0.66413146257400513 0.66413146257400513
0.67932868003845215 0.67932868003845215 0.67932868003845215
0.68841922283172607 0.68841922283172607 0.68841922283172607
0.71206128597259521 0.71206128597259521 0.71206128597259521
0.74050909280776978 0.74050909280776978 0.74050909280776978
0.78675884008407593 0.78675884008407593 0.78675884008407593
0.85894250869750977 0.85894250869750977 0.85894250869750977
0.85860908031463623 0.85860908031463623 0.85860908031463623
0.86970031261444092 0.86970031261444092 0.86970031261444092
0.87604403495788574 0.87604403495788574 0.87604403495788574
0.8867989182472229 0.8867989182472229 0.8867989182472229
0.90612542629241943 0.90612542629241943 0.90612542629241943
0.93806594610214233 0.93806594610214233 0.93806594610214233
0.96769255399703979 0.96769255399703979 0.96769255399703979
0.13171890377998352 0.13171890377998352 0.13171890377998352
0.14530248939990997 0.14530248939990997 0.14530248939990997
0.18424853682518005 0.18424853682518005 0.18424853682518005
0.26176580786705017 0.26176580786705017 0.26176580786705017
0.35442647337913513 0.35442647337913513 0.35442647337913513
0.48305052518844604 0.48305052518844604 0.48305052518844604
0.62224453687667847 0.62224453687667847 0.62224453687667847
0.17317658662796021 0.17317658662796021 0.17317658662796021
0.19686268270015717 0.19686268270015717 0.19686268270015717
0.24581679701805115 0.24581679701805115 0.24581679701805115
0.31390398740768433 0.31390398740768433 0.31390398740768433
0.39478239417076111 0.39478239417076111 0.39478239417076111
0.51983070373535156 0.51983070373535156 0.51983070373535156
0.65711367130279541 0.65711367130279541 0.65711367130279541
0.24529798328876495 0.24529798328876495 0.24529798328876495
0.28585001826286316 0.28585001826286316 0.28585001826286316
0.33375924825668335 0.33375924825668335 0.33375924825668335
0.39609017968177795 0.39609017968177795 0.39609017968177795
0.47044646739959717 0.47044646739959717 0.47044646739959717
0.57866185903549194 0.57866185903549194 0.57866185903549194
0.70295703411102295 0.70295703411102295 0.70295703411102295
0.38122290372848511 0.38122290372848511 0.38122290372848511
0.39936506748199463 0.39936506748199463 0.39936506748199463
0.43154016137123108 0.43154016137123108 0.43154016137123108
0.48447826504707336 0.48447826504707336 0.48447826504707336
0.5514829158782959 0.5514829158782959 0.5514829158782959
0.638527512550354 0.638527512550354 0.638527512550354
0.74227052927017212 0.74227052927017212 0.74227052927017212
0.54785698652267456 0.54785698652267456 0.54785698652267456
0.55113166570663452 0.55113166570663452 0.55113166570663452
0.56645357608795166 0.56645357608795166 0.56645357608795166
0.5986626148223877 0.5986626148223877 0.5986626148223877
0.64026737213134766 0.64026737213134766 0.64026737213134766
0.70102179050445557 0.70102179050445557 0.70102179050445557
0.79368174076080322 0.79368174076080322 0.79368174076080322
0.71315723657608032 0.71315723657608032 0.71315723657608032
0.72138267755508423 0.72138267755508423 0.72138267755508423
0.72915595769882202 0.72915595769882202 0.72915595769882202
0.74343138933181763 0.74343138933181763 0.74343138933181763
0.76589083671569824 0.76589083671569824 0.76589083671569824
0.80443429946899414 0.80443429946899414 0.80443429946899414
0.87098437547683716 0.87098437547683716 0.87098437547683716
0.87940299510955811 0.87940299510955811 0.87940299510955811
0.88717830181121826 0.88717830181121826 0.88717830181121826
0.8886873722076416 0.8886873722076416 0.8886873722076416
0.89417099952697754 0.89417099952697754 0.89417099952697754
0.90855664014816284 0.90855664014816284 0.90855664014816284
0.9331439733505249 0.9331439733505249 0.9331439733505249
0.96696192026138306 0.96696192026138306 0.96696192026138306
0.20280651748180389 0.20280651748180389 0.20280651748180389
0.23268519341945648 0.23268519341945648 0.23268519341945648
0.29001867771148682 0.29001867771148682 0.29001867771148682
0.33755305409431458 0.33755305409431458 0.33755305409431458
0.39227977395057678 0.39227977395057678 0.39227977395057678
0.52104383707046509 0.52104383707046509 0.52104383707046509
0.66465944051742554 0.66465944051742554 0.66465944051742554
0.26064267754554749 0.26064267754554749 0.26064267754554749
0.28568148612976074 0.28568148612976074 0.28568148612976074
0.3377285897731781 0.3377285897731781 0.3377285897731781
0.38270249962806702 0.38270249962806702 0.38270249962806702
0.43553349375724792 0.43553349375724792 0.43553349375724792
0.56036752462387085 0.56036752462387085 0.56036752462387085
0.69839608669281006 0.69839608669281006 0.69839608669281006
0.32059922814369202 0.32059922814369202 0.32059922814369202
0.35085406899452209 0.35085406899452209 0.35085406899452209
0.40296545624732971 0.40296545624732971 0.40296545624732971
0.46284633874893188 0.46284633874893188 0.46284633874893188
0.52584350109100342 0.52584350109100342 0.52584350109100342
0.62084370851516724 0.62084370851516724 0.62084370851516724
0.73089301586151123 0.73089301586151123 0.73089301586151123
0.39619910717010498 0.39619910717010498 0.39619910717010498
0.42812398076057434 0.42812398076057434 0.42812398076057434
0.48212721943855286 0.48212721943855286 0.48212721943855286
0.54910504817962646 0.54910504817962646 0.54910504817962646
0.61434102058410645 0.61434102058410645 0.61434102058410645
0.68778532743453979 0.68778532743453979 0.68778532743453979
0.77412086725234985 0.77412086725234985 0.77412086725234985
0.55319446325302124 0.55319446325302124 0.55319446325302124
0.57514578104019165 0.57514578104019165 0.57514578104019165
0.61041414737701416 0.61041414737701416 0.61041414737701416
0.65068596601486206 0.65068596601486206 0.65068596601486206
0.69799304008483887 0.69799304008483887 0.69799304008483887
0.75728696584701538 0.75728696584701538 0.75728696584701538
0.83143562078475952 0.83143562078475952 0.83143562078475952
0.73112344741821289 0.73112344741821289 0.73112344741821289
0.74619817733764648 0.74619817733764648 0.74619817733764648
0.76488763093948364 0.76488763093948364 0.76488763093948364
0.77734208106994629 0.77734208106994629 0.77734208106994629
0.80428594350814819 0.80428594350814819 0.80428594350814819
0.84297448396682739 0.84297448396682739 0.84297448396682739
0.89502948522567749 0.89502948522567749 0.89502948522567749
0.90207576751708984 0.90207576751708984 0.90207576751708984
0.90398645401000977 0.90398645401000977 0.90398645401000977
0.90182352066040039 0.90182352066040039 0.90182352066040039
0.9062235951423645 0.9062235951423645 0.9062235951423645
0.92074525356292725 0.92074525356292725 0.92074525356292725
0.94139319658279419 0.94139319658279419 0.94139319658279419
0.96982485055923462 0.96982485055923462 0.96982485055923462
0.34072330594062805 0.34072330594062805 0.34072330594062805
0.35564348101615906 0.35564348101615906 0.35564348101615906
0.40830916166305542 0.40830916166305542 0.40830916166305542
0.46568781137466431 0.46568781137466431 0.46568781137466431
0.5279771089553833 0.5279771089553833 0.5279771089553833
0.57655066251754761 0.57655066251754761 0.57655066251754761
0.70540279150009155 0.70540279150009155 0.70540279150009155
0.38859045505523682 0.38859045505523682 0.38859045505523682
0.40744778513908386 0.40744778513908386 0.40744778513908386
0.45025664567947388 0.45025664567947388 0.45025664567947388
0.50220620632171631 0.50220620632171631 0.50220620632171631
0.55802196264266968 0.55802196264266968 0.55802196264266968
0.61673134565353394 0.61673134565353394 0.61673134565353394
0.71843016147613525 0.71843016147613525 0.71843016147613525
0.4462721049785614 0.4462721049785614 0.4462721049785614
0.46238157153129578 0.46238157153129578 0.46238157153129578
0.50272923707962036 0.50272923707962036 0.50272923707962036
0.55958724021911621 0.55958724021911621 0.55958724021911621
0.60913366079330444 0.60913366079330444 0.60913366079330444
0.66119903326034546 0.66119903326034546 0.66119903326034546
0.74311405420303345 0.74311405420303345 0.74311405420303345
0.49019470810890198 0.49019470810890198 0.49019470810890198
0.50793546438217163 0.50793546438217163 0.50793546438217163
0.54962939023971558 0.54962939023971558 0.54962939023971558
0.61827892065048218 0.61827892065048218 0.61827892065048218
0.6762549877166748 0.6762549877166748 0.6762549877166748
0.73250997066497803 0.73250997066497803 0.73250997066497803
0.80128765106201172 0.80128765106201172 0.80128765106201172
0.58207637071609497 0.58207637071609497 0.58207637071609497
0.603446364402771 0.603446364402771 0.603446364402771
0.63789421319961548 0.63789421319961548 0.63789421319961548
0.69347923994064331 0.69347923994064331 0.69347923994064331
0.75115799903869629 0.75115799903869629 0.75115799903869629
0.80590683221817017 0.80590683221817017 0.80590683221817017
0.86510294675827026 0.86510294675827026 0.86510294675827026
0.72157567739486694 0.72157567739486694 0.72157567739486694
0.74731594324111938 0.74731594324111938 0.74731594324111938
0.76474350690841675 0.76474350690841675 0.76474350690841675
0.79744184017181396 0.79744184017181396 0.79744184017181396
0.84218311309814453 0.84218311309814453 0.84218311309814453
0.87983208894729614 0.87983208894729614 0.87983208894729614
0.92014390230178833 0.92014390230178833 0.92014390230178833
0.89066368341445923 0.89066368341445923 0.89066368341445923
0.90697962045669556 0.90697962045669556 0.90697962045669556
0.90209192037582397 0.90209192037582397 0.90209192037582397
0.91411596536636353 0.91411596536636353 0.91411596536636353
0.94195032119750977 0.94195032119750977 0.94195032119750977
0.95947247743606567 0.95947247743606567 0.95947247743606567
0.98152273893356323 0.98152273893356323 0.98152273893356323
0.52572977542877197 0.52572977542877197 0.52572977542877197
0.53916525840759277 0.53916525840759277 0.53916525840759277
0.57216352224349976 0.57216352224349976 0.57216352224349976
0.61933809518814087 0.61933809518814087 0.61933809518814087
0.67433691024780273 0.67433691024780273 0.67433691024780273
0.69257783889770508 0.69257783889770508 0.69257783889770508
0.7591673731803894 0.7591673731803894 0.7591673731803894
0.55167669057846069 0.55167669057846069 0.55167669057846069
0.57305467128753662 0.57305467128753662 0.57305467128753662
0.60278332233428955 0.60278332233428955 0.60278332233428955
0.64950913190841675 0.64950913190841675 0.64950913190841675
0.70260345935821533 0.70260345935821533 0.70260345935821533
0.72514420747756958 0.72514420747756958 0.72514420747756958
0.75596439838409424 0.75596439838409424 0.75596439838409424
0.60236108303070068 0.60236108303070068 0.60236108303070068
0.61511003971099854 0.61511003971099854 0.61511003971099854
0.63914722204208374 0.63914722204208374 0.63914722204208374
0.68113714456558228 0.68113714456558228 0.68113714456558228
0.72210204601287842 0.72210204601287842 0.72210204601287842
0.74201720952987671 0.74201720952987671 0.74201720952987671
0.78802502155303955 0.78802502155303955 0.78802502155303955
0.63097822666168213 0.63097822666168213 0.63097822666168213
0.64172768592834473 0.64172768592834473 0.64172768592834473
0.66342008113861084 0.66342008113861084 0.66342008113861084
0.71217566728591919 0.71217566728591919 0.71217566728591919
0.76117658615112305 0.76117658615112305 0.76117658615112305
0.80182331800460815 0.80182331800460815 0.80182331800460815
0.8489145040512085 0.8489145040512085 0.8489145040512085
0.67023879289627075 0.67023879289627075 0.67023879289627075
0.68488079309463501 0.68488079309463501 0.68488079309463501
0.70506030321121216 0.70506030321121216 0.70506030321121216
0.75561428070068359 0.75561428070068359 0.75561428070068359
0.81348472833633423 0.81348472833633423 0.81348472833633423
0.86112576723098755 0.86112576723098755 0.86112576723098755
0.90285056829452515 0.90285056829452515 0.90285056829452515
0.75338846445083618 0.75338846445083618 0.75338846445083618
0.77670001983642578 0.77670001983642578 0.77670001983642578
0.78093814849853516 0.78093814849853516 0.78093814849853516
0.82463127374649048 0.82463127374649048 0.82463127374649048
0.87919002771377563 0.87919002771377563 0.87919002771377563
0.91387534141540527 0.91387534141540527 0.91387534141540527
0.9435991644859314 0.9435991644859314 0.9435991644859314
0.89938193559646606 0.89938193559646606 0.89938193559646606
0.91234201192855835 0.91234201192855835 0.91234201192855835
0.90638107061386108 0.90638107061386108 0.90638107061386108
0.9213254451751709 0.9213254451751709 0.9213254451751709
0.95906275510787964 0.95906275510787964 0.95906275510787964
0.97389078140258789 0.97389078140258789 0.97389078140258789
0.98933058977127075 0.98933058977127075 0.98933058977127075
0.74647217988967896 0.74647217988967896 0.74647217988967896
0.75488907098770142 0.75488907098770142 0.75488907098770142
0.76798826456069946 0.76798826456069946 0.76798826456069946
0.78334861993789673 0.78334861993789673 0.78334861993789673
0.81875693798065186 0.81875693798065186 0.81875693798065186
0.85582536458969116 0.85582536458969116 0.85582536458969116
0.89363491535186768 0.89363491535186768 0.89363491535186768
0.75598269701004028 0.75598269701004028 0.75598269701004028
0.7676616907119751 0.7676616907119751 0.7676616907119751
0.77913832664489746 0.77913832664489746 0.77913832664489746
0.80189555883407593 0.80189555883407593 0.80189555883407593
0.83978277444839478 0.83978277444839478 0.83978277444839478
0.87617510557174683 0.87617510557174683 0.87617510557174683
0.88443899154663086 0.88443899154663086 0.88443899154663086
0.78824359178543091 0.78824359178543091 0.78824359178543091
0.7915462851524353 0.7915462851524353 0.7915462851524353
0.79814118146896362 0.79814118146896362 0.79814118146896362
0.81772595643997192 0.81772595643997192 0.81772595643997192
0.84768426418304443 0.84768426418304443 0.84768426418304443
0.87186110019683838 0.87186110019683838 0.87186110019683838
0.89630186557769775 0.89630186557769775 0.89630186557769775
0.78947526216506958 0.78947526216506958 0.78947526216506958
0.80886554718017578 0.80886554718017578 0.80886554718017578
0.81577849388122559 0.81577849388122559 0.81577849388122559
0.83285242319107056 0.83285242319107056 0.83285242319107056
0.86623066663742065 0.86623066663742065 0.86623066663742065
0.90021157264709473 0.90021157264709473 0.90021157264709473
0.9291074275970459 0.9291074275970459 0.9291074275970459
0.80234944820404053 0.80234944820404053 0.80234944820404053
0.81530666351318359 0.81530666351318359 0.81530666351318359
0.82708281278610229 0.82708281278610229 0.82708281278610229
0.85227113962173462 0.85227113962173462 0.85227113962173462
0.89335078001022339 0.89335078001022339 0.89335078001022339
0.93479776382446289 0.93479776382446289 0.93479776382446289
0.96083366870880127 0.96083366870880127 0.96083366870880127
0.85321837663650513 0.85321837663650513 0.85321837663650513
0.85949212312698364 0.85949212312698364 0.85949212312698364
0.86567693948745728 0.86567693948745728 0.86567693948745728
0.88815820217132568 0.88815820217132568 0.88815820217132568
0.92615145444869995 0.92615145444869995 0.92615145444869995
0.95552909374237061 0.95552909374237061 0.95552909374237061
0.97899931669235229 0.97899931669235229 0.97899931669235229
0.94607269763946533 0.94607269763946533 0.94607269763946533
0.94700437784194946 0.94700437784194946 0.94700437784194946
0.94396424293518066 0.94396424293518066 0.94396424293518066
0.94846302270889282 0.94846302270889282 0.94846302270889282
0.97681868076324463 0.97681868076324463 0.97681868076324463
0.99201023578643799 0.99201023578643799 0.99201023578643799
0.997109055519104 0.997109055519104 0.997109055519104
