films/ilford_hp_5_plus_400.cube
# Created by: G'MIC (https://gmic.eu)
TITLE "ilford_hp_5_plus_400"
# LUT size
LUT_3D_SIZE 13
# Data domain
DOMAIN_MIN 0.0 0.0 0.0
DOMAIN_MAX 1.0 1.0 1.0
# LUT data points
0.022514762356877327 0.022514762356877327 0.022514762356877327
0.029547523707151413 0.029547523707151413 0.029547523707151413
0.034869249910116196 0.034869249910116196 0.034869249910116196
0.043247822672128677 0.043247822672128677 0.043247822672128677
0.062715135514736176 0.062715135514736176 0.062715135514736176
0.081147782504558563 0.081147782504558563 0.081147782504558563
0.098523370921611786 0.098523370921611786 0.098523370921611786
0.13221481442451477 0.13221481442451477 0.13221481442451477
0.18405424058437347 0.18405424058437347 0.18405424058437347
0.23095209896564484 0.23095209896564484 0.23095209896564484
0.29044869542121887 0.29044869542121887 0.29044869542121887
0.36944884061813354 0.36944884061813354 0.36944884061813354
0.43075704574584961 0.43075704574584961 0.43075704574584961
0.047751963138580322 0.047751963138580322 0.047751963138580322
0.054663054645061493 0.054663054645061493 0.054663054645061493
0.062363658100366592 0.062363658100366592 0.062363658100366592
0.073443487286567688 0.073443487286567688 0.073443487286567688
0.091073788702487946 0.091073788702487946 0.091073788702487946
0.11026763916015625 0.11026763916015625 0.11026763916015625
0.13540229201316833 0.13540229201316833 0.13540229201316833
0.17158947885036469 0.17158947885036469 0.17158947885036469
0.21812692284584045 0.21812692284584045 0.21812692284584045
0.26557049155235291 0.26557049155235291 0.26557049155235291
0.32083341479301453 0.32083341479301453 0.32083341479301453
0.39293453097343445 0.39293453097343445 0.39293453097343445
0.44679194688796997 0.44679194688796997 0.44679194688796997
0.074123397469520569 0.074123397469520569 0.074123397469520569
0.084027715027332306 0.084027715027332306 0.084027715027332306
0.093507148325443268 0.093507148325443268 0.093507148325443268
0.10369003564119339 0.10369003564119339 0.10369003564119339
0.12310134619474411 0.12310134619474411 0.12310134619474411
0.14873179793357849 0.14873179793357849 0.14873179793357849
0.17753899097442627 0.17753899097442627 0.17753899097442627
0.21305975317955017 0.21305975317955017 0.21305975317955017
0.25715595483779907 0.25715595483779907 0.25715595483779907
0.30339264869689941 0.30339264869689941 0.30339264869689941
0.35669428110122681 0.35669428110122681 0.35669428110122681
0.42101600766181946 0.42101600766181946 0.42101600766181946
0.46972301602363586 0.46972301602363586 0.46972301602363586
0.11000562459230423 0.11000562459230423 0.11000562459230423
0.12428445369005203 0.12428445369005203 0.12428445369005203
0.13313338160514832 0.13313338160514832 0.13313338160514832
0.13967776298522949 0.13967776298522949 0.13967776298522949
0.16325996816158295 0.16325996816158295 0.16325996816158295
0.19118876755237579 0.19118876755237579 0.19118876755237579
0.21934625506401062 0.21934625506401062 0.21934625506401062
0.25331500172615051 0.25331500172615051 0.25331500172615051
0.29593953490257263 0.29593953490257263 0.29593953490257263
0.34260672330856323 0.34260672330856323 0.34260672330856323
0.39541080594062805 0.39541080594062805 0.39541080594062805
0.45386233925819397 0.45386233925819397 0.45386233925819397
0.49955886602401733 0.49955886602401733 0.49955886602401733
0.1676943451166153 0.1676943451166153 0.1676943451166153
0.17770659923553467 0.17770659923553467 0.17770659923553467
0.18804733455181122 0.18804733455181122 0.18804733455181122
0.20189431309700012 0.20189431309700012 0.20189431309700012
0.22022844851016998 0.22022844851016998 0.22022844851016998
0.24197934567928314 0.24197934567928314 0.24197934567928314
0.26413735747337341 0.26413735747337341 0.26413735747337341
0.29298114776611328 0.29298114776611328 0.29298114776611328
0.33482271432876587 0.33482271432876587 0.33482271432876587
0.383169025182724 0.383169025182724 0.383169025182724
0.43613350391387939 0.43613350391387939 0.43613350391387939
0.49122637510299683 0.49122637510299683 0.49122637510299683
0.53506195545196533 0.53506195545196533 0.53506195545196533
0.22420936822891235 0.22420936822891235 0.22420936822891235
0.23074847459793091 0.23074847459793091 0.23074847459793091
0.24905183911323547 0.24905183911323547 0.24905183911323547
0.26905834674835205 0.26905834674835205 0.26905834674835205
0.28590127825737 0.28590127825737 0.28590127825737
0.30359336733818054 0.30359336733818054 0.30359336733818054
0.31893652677536011 0.31893652677536011 0.31893652677536011
0.33807042241096497 0.33807042241096497 0.33807042241096497
0.37693929672241211 0.37693929672241211 0.37693929672241211
0.42567259073257446 0.42567259073257446 0.42567259073257446
0.47811794281005859 0.47811794281005859 0.47811794281005859
0.5310676097869873 0.5310676097869873 0.5310676097869873
0.57486921548843384 0.57486921548843384 0.57486921548843384
0.28289148211479187 0.28289148211479187 0.28289148211479187
0.2905476987361908 0.2905476987361908 0.2905476987361908
0.31388843059539795 0.31388843059539795 0.31388843059539795
0.33451160788536072 0.33451160788536072 0.33451160788536072
0.35125172138214111 0.35125172138214111 0.35125172138214111
0.36422291398048401 0.36422291398048401 0.36422291398048401
0.3737952709197998 0.3737952709197998 0.3737952709197998
0.39193415641784668 0.39193415641784668 0.39193415641784668
0.42604011297225952 0.42604011297225952 0.42604011297225952
0.47100195288658142 0.47100195288658142 0.47100195288658142
0.52204304933547974 0.52204304933547974 0.52204304933547974
0.57165724039077759 0.57165724039077759 0.57165724039077759
0.61574345827102661 0.61574345827102661 0.61574345827102661
0.36607652902603149 0.36607652902603149 0.36607652902603149
0.37131586670875549 0.37131586670875549 0.37131586670875549
0.3870263397693634 0.3870263397693634 0.3870263397693634
0.40462818741798401 0.40462818741798401 0.40462818741798401
0.41573241353034973 0.41573241353034973 0.41573241353034973
0.42170584201812744 0.42170584201812744 0.42170584201812744
0.42920726537704468 0.42920726537704468 0.42920726537704468
0.44880622625350952 0.44880622625350952 0.44880622625350952
0.48242643475532532 0.48242643475532532 0.48242643475532532
0.52371156215667725 0.52371156215667725 0.52371156215667725
0.56725281476974487 0.56725281476974487 0.56725281476974487
0.61233705282211304 0.61233705282211304 0.61233705282211304
0.65575021505355835 0.65575021505355835 0.65575021505355835
0.45141333341598511 0.45141333341598511 0.45141333341598511
0.45666584372520447 0.45666584372520447 0.45666584372520447
0.46663179993629456 0.46663179993629456 0.46663179993629456
0.47569513320922852 0.47569513320922852 0.47569513320922852
0.47811004519462585 0.47811004519462585 0.47811004519462585
0.48025327920913696 0.48025327920913696 0.48025327920913696
0.49049592018127441 0.49049592018127441 0.49049592018127441
0.51192057132720947 0.51192057132720947 0.51192057132720947
0.54539072513580322 0.54539072513580322 0.54539072513580322
0.58350521326065063 0.58350521326065063 0.58350521326065063
0.61736130714416504 0.61736130714416504 0.61736130714416504
0.6559566855430603 0.6559566855430603 0.6559566855430603
0.69548380374908447 0.69548380374908447 0.69548380374908447
0.53422528505325317 0.53422528505325317 0.53422528505325317
0.53864985704421997 0.53864985704421997 0.53864985704421997
0.54425334930419922 0.54425334930419922 0.54425334930419922
0.54377800226211548 0.54377800226211548 0.54377800226211548
0.53983938694000244 0.53983938694000244 0.53983938694000244
0.54467439651489258 0.54467439651489258 0.54467439651489258
0.55867940187454224 0.55867940187454224 0.55867940187454224
0.58134329319000244 0.58134329319000244 0.58134329319000244
0.61217749118804932 0.61217749118804932 0.61217749118804932
0.64310312271118164 0.64310312271118164 0.64310312271118164
0.6709144115447998 0.6709144115447998 0.6709144115447998
0.70375597476959229 0.70375597476959229 0.70375597476959229
0.73873859643936157 0.73873859643936157 0.73873859643936157
0.61737620830535889 0.61737620830535889 0.61737620830535889
0.61861616373062134 0.61861616373062134 0.61861616373062134
0.61893147230148315 0.61893147230148315 0.61893147230148315
0.61801862716674805 0.61801862716674805 0.61801862716674805
0.61369502544403076 0.61369502544403076 0.61369502544403076
0.61733710765838623 0.61733710765838623 0.61733710765838623
0.63088715076446533 0.63088715076446533 0.63088715076446533
0.65222030878067017 0.65222030878067017 0.65222030878067017
0.6762421727180481 0.6762421727180481 0.6762421727180481
0.70051723718643188 0.70051723718643188 0.70051723718643188
0.72684943675994873 0.72684943675994873 0.72684943675994873
0.75681954622268677 0.75681954622268677 0.75681954622268677
0.78765004873275757 0.78765004873275757 0.78765004873275757
0.70004385709762573 0.70004385709762573 0.70004385709762573
0.69593679904937744 0.69593679904937744 0.69593679904937744
0.69549739360809326 0.69549739360809326 0.69549739360809326
0.69703125953674316 0.69703125953674316 0.69703125953674316
0.69342225790023804 0.69342225790023804 0.69342225790023804
0.6963266134262085 0.6963266134262085 0.6963266134262085
0.70753151178359985 0.70753151178359985 0.70753151178359985
0.72232204675674438 0.72232204675674438 0.72232204675674438
0.73922586441040039 0.73922586441040039 0.73922586441040039
0.75984102487564087 0.75984102487564087 0.75984102487564087
0.78493553400039673 0.78493553400039673 0.78493553400039673
0.81441515684127808 0.81441515684127808 0.81441515684127808
0.8420141339302063 0.8420141339302063 0.8420141339302063
0.76489883661270142 0.76489883661270142 0.76489883661270142
0.75666582584381104 0.75666582584381104 0.75666582584381104
0.7551460862159729 0.7551460862159729 0.7551460862159729
0.7598535418510437 0.7598535418510437 0.7598535418510437
0.7623753547668457 0.7623753547668457 0.7623753547668457
0.76510530710220337 0.76510530710220337 0.76510530710220337
0.77157068252563477 0.77157068252563477 0.77157068252563477
0.78260123729705811 0.78260123729705811 0.78260123729705811
0.79755932092666626 0.79755932092666626 0.79755932092666626
0.81591904163360596 0.81591904163360596 0.81591904163360596
0.83832353353500366 0.83832353353500366 0.83832353353500366
0.86524051427841187 0.86524051427841187 0.86524051427841187
0.8885149359703064 0.8885149359703064 0.8885149359703064
0.044339738786220551 0.044339738786220551 0.044339738786220551
0.047689728438854218 0.047689728438854218 0.047689728438854218
0.053384460508823395 0.053384460508823395 0.053384460508823395
0.064814925193786621 0.064814925193786621 0.064814925193786621
0.085576318204402924 0.085576318204402924 0.085576318204402924
0.10668743401765823 0.10668743401765823 0.10668743401765823
0.13324169814586639 0.13324169814586639 0.13324169814586639
0.1713300496339798 0.1713300496339798 0.1713300496339798
0.21550002694129944 0.21550002694129944 0.21550002694129944
0.26197192072868347 0.26197192072868347 0.26197192072868347
0.31805887818336487 0.31805887818336487 0.31805887818336487
0.39070960879325867 0.39070960879325867 0.39070960879325867
0.4475766122341156 0.4475766122341156 0.4475766122341156
0.068797752261161804 0.068797752261161804 0.068797752261161804
0.073381297290325165 0.073381297290325165 0.073381297290325165
0.080840691924095154 0.080840691924095154 0.080840691924095154
0.092301689088344574 0.092301689088344574 0.092301689088344574
0.11143776029348373 0.11143776029348373 0.11143776029348373
0.1331905722618103 0.1331905722618103 0.1331905722618103
0.16062727570533752 0.16062727570533752 0.16062727570533752
0.19821088016033173 0.19821088016033173 0.19821088016033173
0.24410335719585419 0.24410335719585419 0.24410335719585419
0.29086136817932129 0.29086136817932129 0.29086136817932129
0.34378615021705627 0.34378615021705627 0.34378615021705627
0.41054144501686096 0.41054144501686096 0.41054144501686096
0.46176713705062866 0.46176713705062866 0.46176713705062866
0.099618159234523773 0.099618159234523773 0.099618159234523773
0.10722152143716812 0.10722152143716812 0.10722152143716812
0.11669518053531647 0.11669518053531647 0.11669518053531647
0.1271318644285202 0.1271318644285202 0.1271318644285202
0.14545656740665436 0.14545656740665436 0.14545656740665436
0.1702212393283844 0.1702212393283844 0.1702212393283844
0.19938305020332336 0.19938305020332336 0.19938305020332336
0.23536662757396698 0.23536662757396698 0.23536662757396698
0.27890923619270325 0.27890923619270325 0.27890923619270325
0.32508119940757751 0.32508119940757751 0.32508119940757751
0.37624472379684448 0.37624472379684448 0.37624472379684448
0.43671813607215881 0.43671813607215881 0.43671813607215881
0.48335883021354675 0.48335883021354675 0.48335883021354675
0.14572814106941223 0.14572814106941223 0.14572814106941223
0.15246474742889404 0.15246474742889404 0.15246474742889404
0.16128799319267273 0.16128799319267273 0.16128799319267273
0.16973182559013367 0.16973182559013367 0.16973182559013367
0.18727998435497284 0.18727998435497284 0.18727998435497284
0.21227984130382538 0.21227984130382538 0.21227984130382538
0.24054454267024994 0.24054454267024994 0.24054454267024994
0.27400082349777222 0.27400082349777222 0.27400082349777222
0.31504511833190918 0.31504511833190918 0.31504511833190918
0.36107543110847473 0.36107543110847473 0.36107543110847473
0.41128090023994446 0.41128090023994446 0.41128090023994446
0.46671435236930847 0.46671435236930847 0.46671435236930847
0.51057237386703491 0.51057237386703491 0.51057237386703491
0.20215874910354614 0.20215874910354614 0.20215874910354614
0.20598749816417694 0.20598749816417694 0.20598749816417694
0.21349029242992401 0.21349029242992401 0.21349029242992401
0.22416216135025024 0.22416216135025024 0.22416216135025024
0.24052166938781738 0.24052166938781738 0.24052166938781738
0.26127272844314575 0.26127272844314575 0.26127272844314575
0.28499510884284973 0.28499510884284973 0.28499510884284973
0.31414812803268433 0.31414812803268433 0.31414812803268433
0.3526979386806488 0.3526979386806488 0.3526979386806488
0.39806753396987915 0.39806753396987915 0.39806753396987915
0.44761949777603149 0.44761949777603149 0.44761949777603149
0.50074154138565063 0.50074154138565063 0.50074154138565063
0.54351544380187988 0.54351544380187988 0.54351544380187988
0.26010715961456299 0.26010715961456299 0.26010715961456299
0.26175585389137268 0.26175585389137268 0.26175585389137268
0.270864337682724 0.270864337682724 0.270864337682724
0.28737008571624756 0.28737008571624756 0.28737008571624756
0.30267235636711121 0.30267235636711121 0.30267235636711121
0.31714567542076111 0.31714567542076111 0.31714567542076111
0.33451375365257263 0.33451375365257263 0.33451375365257263
0.35954481363296509 0.35954481363296509 0.35954481363296509
0.39254531264305115 0.39254531264305115 0.39254531264305115
0.43513199687004089 0.43513199687004089 0.43513199687004089
0.48477542400360107 0.48477542400360107 0.48477542400360107
0.5376092791557312 0.5376092791557312 0.5376092791557312
0.58118647336959839 0.58118647336959839 0.58118647336959839
0.32030969858169556 0.32030969858169556 0.32030969858169556
0.32216846942901611 0.32216846942901611 0.32216846942901611
0.33342462778091431 0.33342462778091431 0.33342462778091431
0.35011368989944458 0.35011368989944458 0.35011368989944458
0.36321401596069336 0.36321401596069336 0.36321401596069336
0.37396040558815002 0.37396040558815002 0.37396040558815002
0.38781553506851196 0.38781553506851196 0.38781553506851196
0.41098302602767944 0.41098302602767944 0.41098302602767944
0.44094526767730713 0.44094526767730713 0.44094526767730713
0.47635754942893982 0.47635754942893982 0.47635754942893982
0.52375686168670654 0.52375686168670654 0.52375686168670654
0.57613790035247803 0.57613790035247803 0.57613790035247803
0.6216854453086853 0.6216854453086853 0.6216854453086853
0.39211097359657288 0.39211097359657288 0.39211097359657288
0.39152610301971436 0.39152610301971436 0.39152610301971436
0.39718183875083923 0.39718183875083923 0.39718183875083923
0.41075176000595093 0.41075176000595093 0.41075176000595093
0.42134648561477661 0.42134648561477661 0.42134648561477661
0.42983958125114441 0.42983958125114441 0.42983958125114441
0.44310086965560913 0.44310086965560913 0.44310086965560913
0.46638110280036926 0.46638110280036926 0.46638110280036926
0.49555069208145142 0.49555069208145142 0.49555069208145142
0.52887618541717529 0.52887618541717529 0.52887618541717529
0.56775373220443726 0.56775373220443726 0.56775373220443726
0.61688065528869629 0.61688065528869629 0.61688065528869629
0.6618344783782959 0.6618344783782959 0.6618344783782959
0.46991211175918579 0.46991211175918579 0.46991211175918579
0.4674898087978363 0.4674898087978363 0.4674898087978363
0.46696525812149048 0.46696525812149048 0.46696525812149048
0.47413155436515808 0.47413155436515808 0.47413155436515808
0.47930091619491577 0.47930091619491577 0.47930091619491577
0.48764917254447937 0.48764917254447937 0.48764917254447937
0.50410836935043335 0.50410836935043335 0.50410836935043335
0.52725934982299805 0.52725934982299805 0.52725934982299805
0.55650877952575684 0.55650877952575684 0.55650877952575684
0.58978748321533203 0.58978748321533203 0.58978748321533203
0.62145298719406128 0.62145298719406128 0.62145298719406128
0.66346734762191772 0.66346734762191772 0.66346734762191772
0.70275294780731201 0.70275294780731201 0.70275294780731201
0.54891377687454224 0.54891377687454224 0.54891377687454224
0.54524964094161987 0.54524964094161987 0.54524964094161987
0.54273033142089844 0.54273033142089844 0.54273033142089844
0.54206967353820801 0.54206967353820801 0.54206967353820801
0.54207485914230347 0.54207485914230347 0.54207485914230347
0.55266135931015015 0.55266135931015015 0.55266135931015015
0.56982553005218506 0.56982553005218506 0.56982553005218506
0.59274947643280029 0.59274947643280029 0.59274947643280029
0.62094801664352417 0.62094801664352417 0.62094801664352417
0.65059781074523926 0.65059781074523926 0.65059781074523926
0.67853844165802002 0.67853844165802002 0.67853844165802002
0.71418684720993042 0.71418684720993042 0.71418684720993042
0.74752074480056763 0.74752074480056763 0.74752074480056763
0.62795919179916382 0.62795919179916382 0.62795919179916382
0.62306267023086548 0.62306267023086548 0.62306267023086548
0.62062567472457886 0.62062567472457886 0.62062567472457886
0.62025421857833862 0.62025421857833862 0.62025421857833862
0.61935442686080933 0.61935442686080933 0.61935442686080933
0.6271175742149353 0.6271175742149353 0.6271175742149353
0.64153355360031128 0.64153355360031128 0.64153355360031128
0.66143757104873657 0.66143757104873657 0.66143757104873657
0.68475812673568726 0.68475812673568726 0.68475812673568726
0.70956516265869141 0.70956516265869141 0.70956516265869141
0.73622667789459229 0.73622667789459229 0.73622667789459229
0.76772499084472656 0.76772499084472656 0.76772499084472656
0.79656767845153809 0.79656767845153809 0.79656767845153809
0.70415031909942627 0.70415031909942627 0.70415031909942627
0.70021301507949829 0.70021301507949829 0.70021301507949829
0.7019197940826416 0.7019197940826416 0.7019197940826416
0.70521193742752075 0.70521193742752075 0.70521193742752075
0.70374101400375366 0.70374101400375366 0.70374101400375366
0.70663237571716309 0.70663237571716309 0.70663237571716309
0.71584963798522949 0.71584963798522949 0.71584963798522949
0.72965747117996216 0.72965747117996216 0.72965747117996216
0.74750351905822754 0.74750351905822754 0.74750351905822754
0.76877546310424805 0.76877546310424805 0.76877546310424805
0.79417544603347778 0.79417544603347778 0.79417544603347778
0.82245731353759766 0.82245731353759766 0.82245731353759766
0.84641921520233154 0.84641921520233154 0.84641921520233154
0.76431035995483398 0.76431035995483398 0.76431035995483398
0.76030534505844116 0.76030534505844116 0.76030534505844116
0.76342111825942993 0.76342111825942993 0.76342111825942993
0.77222216129302979 0.77222216129302979 0.77222216129302979
0.77442628145217896 0.77442628145217896 0.77442628145217896
0.7730637788772583 0.7730637788772583 0.7730637788772583
0.77787286043167114 0.77787286043167114 0.77787286043167114
0.78866910934448242 0.78866910934448242 0.78866910934448242
0.80437576770782471 0.80437576770782471 0.80437576770782471
0.8229835033416748 0.8229835033416748 0.8229835033416748
0.84462672472000122 0.84462672472000122 0.84462672472000122
0.86752671003341675 0.86752671003341675 0.86752671003341675
0.88412022590637207 0.88412022590637207 0.88412022590637207
0.067424625158309937 0.067424625158309937 0.067424625158309937
0.069947905838489532 0.069947905838489532 0.069947905838489532
0.073538221418857574 0.073538221418857574 0.073538221418857574
0.085320495069026947 0.085320495069026947 0.085320495069026947
0.11057857424020767 0.11057857424020767 0.11057857424020767
0.14095023274421692 0.14095023274421692 0.14095023274421692
0.17605563998222351 0.17605563998222351 0.17605563998222351
0.21441011130809784 0.21441011130809784 0.21441011130809784
0.2503296434879303 0.2503296434879303 0.2503296434879303
0.291637122631073 0.291637122631073 0.291637122631073
0.34681349992752075 0.34681349992752075 0.34681349992752075
0.41587862372398376 0.41587862372398376 0.41587862372398376
0.47130602598190308 0.47130602598190308 0.47130602598190308
0.094636566936969757 0.094636566936969757 0.094636566936969757
0.098931841552257538 0.098931841552257538 0.098931841552257538
0.10702797025442123 0.10702797025442123 0.10702797025442123
0.11765522509813309 0.11765522509813309 0.11765522509813309
0.13665635883808136 0.13665635883808136 0.13665635883808136
0.16331139206886292 0.16331139206886292 0.16331139206886292
0.19575706124305725 0.19575706124305725 0.19575706124305725
0.23446330428123474 0.23446330428123474 0.23446330428123474
0.27617308497428894 0.27617308497428894 0.27617308497428894
0.3208315372467041 0.3208315372467041 0.3208315372467041
0.37302637100219727 0.37302637100219727 0.37302637100219727
0.43625205755233765 0.43625205755233765 0.43625205755233765
0.48564276099205017 0.48564276099205017 0.48564276099205017
0.13182885944843292 0.13182885944843292 0.13182885944843292
0.13922621309757233 0.13922621309757233 0.13922621309757233
0.14716336131095886 0.14716336131095886 0.14716336131095886
0.15655496716499329 0.15655496716499329 0.15655496716499329
0.17350518703460693 0.17350518703460693 0.17350518703460693
0.19780179858207703 0.19780179858207703 0.19780179858207703
0.22608786821365356 0.22608786821365356 0.22608786821365356
0.26227396726608276 0.26227396726608276 0.26227396726608276
0.30676400661468506 0.30676400661468506 0.30676400661468506
0.35377877950668335 0.35377877950668335 0.35377877950668335
0.4044564962387085 0.4044564962387085 0.4044564962387085
0.46131432056427002 0.46131432056427002 0.46131432056427002
0.50631338357925415 0.50631338357925415 0.50631338357925415
0.18135549128055573 0.18135549128055573 0.18135549128055573
0.18530085682868958 0.18530085682868958 0.18530085682868958
0.19063018262386322 0.19063018262386322 0.19063018262386322
0.19819383323192596 0.19819383323192596 0.19819383323192596
0.21453852951526642 0.21453852951526642 0.21453852951526642
0.23926065862178802 0.23926065862178802 0.23926065862178802
0.26603522896766663 0.26603522896766663 0.26603522896766663
0.29759377241134644 0.29759377241134644 0.29759377241134644
0.33946889638900757 0.33946889638900757 0.33946889638900757
0.38667726516723633 0.38667726516723633 0.38667726516723633
0.43748003244400024 0.43748003244400024 0.43748003244400024
0.49002695083618164 0.49002695083618164 0.49002695083618164
0.53256386518478394 0.53256386518478394 0.53256386518478394
0.23715895414352417 0.23715895414352417 0.23715895414352417
0.23901750147342682 0.23901750147342682 0.23901750147342682
0.24095714092254639 0.24095714092254639 0.24095714092254639
0.24614530801773071 0.24614530801773071 0.24614530801773071
0.2613951563835144 0.2613951563835144 0.2613951563835144
0.28444230556488037 0.28444230556488037 0.28444230556488037
0.30980613827705383 0.30980613827705383 0.30980613827705383
