films/ilford_xp_2.cube
# Created by: G'MIC (https://gmic.eu)
TITLE "ilford_xp_2"
# LUT size
LUT_3D_SIZE 5
# Data domain
DOMAIN_MIN 0.0 0.0 0.0
DOMAIN_MAX 1.0 1.0 1.0
# LUT data points
0.018189089372754097 0.018189089372754097 0.018189089372754097
0.032456759363412857 0.032456759363412857 0.032456759363412857
0.061871055513620377 0.061871055513620377 0.061871055513620377
0.15329824388027191 0.15329824388027191 0.15329824388027191
0.26050534844398499 0.26050534844398499 0.26050534844398499
0.12193015962839127 0.12193015962839127 0.12193015962839127
0.13304151594638824 0.13304151594638824 0.13304151594638824
0.17074577510356903 0.17074577510356903 0.17074577510356903
0.23894350230693817 0.23894350230693817 0.23894350230693817
0.33442342281341553 0.33442342281341553 0.33442342281341553
0.26339858770370483 0.26339858770370483 0.26339858770370483
0.28062808513641357 0.28062808513641357 0.28062808513641357
0.31907126307487488 0.31907126307487488 0.31907126307487488
0.36902099847793579 0.36902099847793579 0.36902099847793579
0.44746547937393188 0.44746547937393188 0.44746547937393188
0.47179475426673889 0.47179475426673889 0.47179475426673889
0.47212812304496765 0.47212812304496765 0.47212812304496765
0.50961822271347046 0.50961822271347046 0.50961822271347046
0.553089439868927 0.553089439868927 0.553089439868927
0.61243271827697754 0.61243271827697754 0.61243271827697754
0.69205397367477417 0.69205397367477417 0.69205397367477417
0.68433362245559692 0.68433362245559692 0.68433362245559692
0.71587389707565308 0.71587389707565308 0.71587389707565308
0.74083822965621948 0.74083822965621948 0.74083822965621948
0.78617864847183228 0.78617864847183228 0.78617864847183228
0.092904061079025269 0.092904061079025269 0.092904061079025269
0.11886750906705856 0.11886750906705856 0.11886750906705856
0.15325774252414703 0.15325774252414703 0.15325774252414703
0.22281216084957123 0.22281216084957123 0.22281216084957123
0.32082617282867432 0.32082617282867432 0.32082617282867432
0.18988505005836487 0.18988505005836487 0.18988505005836487
0.20934499800205231 0.20934499800205231 0.20934499800205231
0.24306648969650269 0.24306648969650269 0.24306648969650269
0.3041054904460907 0.3041054904460907 0.3041054904460907
0.39360478520393372 0.39360478520393372 0.39360478520393372
0.32697266340255737 0.32697266340255737 0.32697266340255737
0.33761566877365112 0.33761566877365112 0.33761566877365112
0.37249529361724854 0.37249529361724854 0.37249529361724854
0.42625534534454346 0.42625534534454346 0.42625534534454346
0.50282210111618042 0.50282210111618042 0.50282210111618042
0.50649499893188477 0.50649499893188477 0.50649499893188477
0.5077330470085144 0.5077330470085144 0.5077330470085144
0.54534602165222168 0.54534602165222168 0.54534602165222168
0.59212809801101685 0.59212809801101685 0.59212809801101685
0.65165746212005615 0.65165746212005615 0.65165746212005615
0.69669502973556519 0.69669502973556519 0.69669502973556519
0.70226597785949707 0.70226597785949707 0.70226597785949707
0.72961866855621338 0.72961866855621338 0.72961866855621338
0.7649267315864563 0.7649267315864563 0.7649267315864563
0.80640268325805664 0.80640268325805664 0.80640268325805664
0.19879701733589172 0.19879701733589172 0.19879701733589172
0.23434352874755859 0.23434352874755859 0.23434352874755859
0.2746368944644928 0.2746368944644928 0.2746368944644928
0.33146926760673523 0.33146926760673523 0.33146926760673523
0.42029765248298645 0.42029765248298645 0.42029765248298645
0.3050382137298584 0.3050382137298584 0.3050382137298584
0.32605355978012085 0.32605355978012085 0.32605355978012085
0.36115461587905884 0.36115461587905884 0.36115461587905884
0.41577225923538208 0.41577225923538208 0.41577225923538208
0.49349230527877808 0.49349230527877808 0.49349230527877808
0.43399420380592346 0.43399420380592346 0.43399420380592346
0.44688335061073303 0.44688335061073303 0.44688335061073303
0.47712689638137817 0.47712689638137817 0.47712689638137817
0.52794462442398071 0.52794462442398071 0.52794462442398071
0.59424829483032227 0.59424829483032227 0.59424829483032227
0.58329194784164429 0.58329194784164429 0.58329194784164429
0.59406054019927979 0.59406054019927979 0.59406054019927979
0.62313461303710938 0.62313461303710938 0.62313461303710938
0.66570854187011719 0.66570854187011719 0.66570854187011719
0.71839779615402222 0.71839779615402222 0.71839779615402222
0.73796409368515015 0.73796409368515015 0.73796409368515015
0.75047367811203003 0.75047367811203003 0.75047367811203003
0.77511876821517944 0.77511876821517944 0.77511876821517944
0.80909454822540283 0.80909454822540283 0.80909454822540283
0.84835046529769897 0.84835046529769897 0.84835046529769897
0.36899048089981079 0.36899048089981079 0.36899048089981079
0.38951277732849121 0.38951277732849121 0.38951277732849121
0.42474561929702759 0.42474561929702759 0.42474561929702759
0.47710791230201721 0.47710791230201721 0.47710791230201721
0.54910480976104736 0.54910480976104736 0.54910480976104736
0.4555051326751709 0.4555051326751709 0.4555051326751709
0.47779750823974609 0.47779750823974609 0.47779750823974609
0.51039379835128784 0.51039379835128784 0.51039379835128784
0.55486124753952026 0.55486124753952026 0.55486124753952026
0.6157987117767334 0.6157987117767334 0.6157987117767334
0.56361359357833862 0.56361359357833862 0.56361359357833862
0.58576112985610962 0.58576112985610962 0.58576112985610962
0.61496317386627197 0.61496317386627197 0.61496317386627197
0.65146446228027344 0.65146446228027344 0.65146446228027344
0.7011878490447998 0.7011878490447998 0.7011878490447998
0.6827576756477356 0.6827576756477356 0.6827576756477356
0.70139789581298828 0.70139789581298828 0.70139789581298828
0.72763937711715698 0.72763937711715698 0.72763937711715698
0.76043248176574707 0.76043248176574707 0.76043248176574707
0.80182099342346191 0.80182099342346191 0.80182099342346191
0.80555433034896851 0.80555433034896851 0.80555433034896851
0.82212156057357788 0.82212156057357788 0.82212156057357788
0.8456529974937439 0.8456529974937439 0.8456529974937439
0.87457448244094849 0.87457448244094849 0.87457448244094849
0.90856200456619263 0.90856200456619263 0.90856200456619263
0.53885054588317871 0.53885054588317871 0.53885054588317871
0.54991650581359863 0.54991650581359863 0.54991650581359863
0.57804590463638306 0.57804590463638306 0.57804590463638306
0.62370705604553223 0.62370705604553223 0.62370705604553223
0.68525558710098267 0.68525558710098267 0.68525558710098267
0.60720264911651611 0.60720264911651611 0.60720264911651611
0.63268309831619263 0.63268309831619263 0.63268309831619263
0.65997093915939331 0.65997093915939331 0.65997093915939331
0.69339996576309204 0.69339996576309204 0.69339996576309204
0.73874378204345703 0.73874378204345703 0.73874378204345703
0.69349116086959839 0.69349116086959839 0.69349116086959839
0.72621935606002808 0.72621935606002808 0.72621935606002808
0.7510642409324646 0.7510642409324646 0.7510642409324646
0.77317041158676147 0.77317041158676147 0.77317041158676147
0.80855190753936768 0.80855190753936768 0.80855190753936768
0.78621262311935425 0.78621262311935425 0.78621262311935425
0.81038600206375122 0.81038600206375122 0.81038600206375122
0.83449262380599976 0.83449262380599976 0.83449262380599976
0.85883420705795288 0.85883420705795288 0.85883420705795288
0.88986086845397949 0.88986086845397949 0.88986086845397949
0.88335907459259033 0.88335907459259033 0.88335907459259033
0.90230697393417358 0.90230697393417358 0.90230697393417358
0.92445874214172363 0.92445874214172363 0.92445874214172363
0.94899255037307739 0.94899255037307739 0.94899255037307739
0.97746443748474121 0.97746443748474121 0.97746443748474121
