films/kodak_kodachrome_64_generic.cube
# Created by: G'MIC (https://gmic.eu)
TITLE "kodak_kodachrome_64_generic"
# LUT size
LUT_3D_SIZE 13
# Data domain
DOMAIN_MIN 0.0 0.0 0.0
DOMAIN_MAX 1.0 1.0 1.0
# LUT data points
0.017421513795852661 0.014741276390850544 0.015702759847044945
0.059148240834474564 0.014399973675608635 0.015814553946256638
0.1190790981054306 0.015790034085512161 0.01779957115650177
0.20492169260978699 0.016864536330103874 0.01717161200940609
0.31066462397575378 0.019226163625717163 0.01616617850959301
0.42839893698692322 0.022156868129968643 0.017161216586828232
0.55018895864486694 0.026117900386452675 0.019621875137090683
0.67073899507522583 0.030996927991509438 0.022949503734707832
0.78757685422897339 0.035919219255447388 0.024823566898703575
0.89721018075942993 0.037590339779853821 0.025178872048854828
0.98091191053390503 0.038088645786046982 0.026567062363028526
1 0.043299626559019089 0.034488782286643982
1 0.052412655204534531 0.046251334249973297
0.025741083547472954 0.056920159608125687 0.018269019201397896
0.059869997203350067 0.056406941264867783 0.018002169206738472
0.11535285413265228 0.056815486401319504 0.020546304062008858
0.19783855974674225 0.059910852462053299 0.020284345373511314
0.30554983019828796 0.063930854201316833 0.019157754257321358
0.42664575576782227 0.068698376417160034 0.020647535100579262
0.54968374967575073 0.074257194995880127 0.023366067558526993
0.66885608434677124 0.080498352646827698 0.027015551924705505
0.78402745723724365 0.087011821568012238 0.030218774452805519
0.89110934734344482 0.089956454932689667 0.031755559146404266
0.9740065336227417 0.089946866035461426 0.032774053514003754
0.99997645616531372 0.093087278306484222 0.037295158952474594
1 0.10127927362918854 0.046334732323884964
0.043572861701250076 0.10928972810506821 0.024733239784836769
0.069565460085868835 0.11054575443267822 0.024005187675356865
0.11657080799341202 0.11200250685214996 0.025675112381577492
0.19726105034351349 0.11562856286764145 0.026354411616921425
0.30709025263786316 0.11969149857759476 0.026961531490087509
0.42966130375862122 0.12640388309955597 0.029107457026839256
0.55017578601837158 0.13384224474430084 0.032182656228542328
0.66874998807907104 0.13976581394672394 0.035591349005699158
0.78323477506637573 0.14572007954120636 0.038642510771751404
0.88817375898361206 0.1504841148853302 0.040635935962200165
0.9679381251335144 0.15194657444953918 0.042227279394865036
0.99928468465805054 0.15359900891780853 0.044748745858669281
1 0.15945117175579071 0.050850361585617065
0.051293004304170609 0.18630078434944153 0.035332415252923965
0.074165716767311096 0.18847140669822693 0.034112278372049332
0.12121710926294327 0.19002114236354828 0.035780094563961029
0.1975911408662796 0.19250643253326416 0.037727326154708862
0.31200063228607178 0.19380220770835876 0.039456028491258621
0.43241995573043823 0.20378197729587555 0.04175153374671936
0.54913061857223511 0.21245408058166504 0.044925719499588013
0.66717714071273804 0.21683402359485626 0.047965060919523239
0.78176015615463257 0.22178748250007629 0.049807380884885788
0.88688123226165771 0.22797788679599762 0.051232088357210159
0.96520745754241943 0.23083131015300751 0.052865855395793915
0.99836403131484985 0.22973805665969849 0.054578803479671478
1 0.23010680079460144 0.058613736182451248
0.03580169752240181 0.29184678196907043 0.049189038574695587
0.057781100273132324 0.29139620065689087 0.046791359782218933
0.098634131252765656 0.29378077387809753 0.048392470926046371
0.17530083656311035 0.29715418815612793 0.052133522927761078
0.30132776498794556 0.29650938510894775 0.054349623620510101
0.42614704370498657 0.30392208695411682 0.05589810386300087
0.54332524538040161 0.31118282675743103 0.059320844709873199
0.66330599784851074 0.31209903955459595 0.062428433448076248
0.77895909547805786 0.31595239043235779 0.062583222985267639
0.88454574346542358 0.32233613729476929 0.063113085925579071
0.96746623516082764 0.32646998763084412 0.065222643315792084
0.99961751699447632 0.32422083616256714 0.066572509706020355
1 0.3205258846282959 0.068407930433750153
0.01369038037955761 0.40224680304527283 0.064077548682689667
0.033251460641622543 0.40160930156707764 0.059307456016540527
0.075633987784385681 0.40364444255828857 0.059475783258676529
0.1631072461605072 0.40554040670394897 0.063727721571922302
0.29198634624481201 0.40479615330696106 0.066921159625053406
0.41537004709243774 0.40962713956832886 0.067204177379608154
0.53479743003845215 0.41393557190895081 0.070434883236885071
0.65610182285308838 0.41414925456047058 0.074432998895645142
0.77030467987060547 0.41869339346885681 0.073350332677364349
0.87492948770523071 0.42508137226104736 0.07396843284368515
0.95956814289093018 0.42935749888420105 0.077574305236339569
0.99870306253433228 0.42855486273765564 0.078739061951637268
1 0.42574408650398254 0.078643918037414551
0.0011411779560148716 0.50943326950073242 0.075558379292488098
0.012555754743516445 0.50980269908905029 0.068522915244102478
0.053575627505779266 0.51100295782089233 0.066878706216812134
0.13772688806056976 0.51176470518112183 0.069644659757614136
0.25940090417861938 0.51188147068023682 0.071851469576358795
0.38908648490905762 0.51396173238754272 0.071127079427242279
0.51684927940368652 0.51645588874816895 0.07258160412311554
0.63988149166107178 0.51863771677017212 0.075454562902450562
0.75398093461990356 0.52350276708602905 0.076712802052497864
0.85767161846160889 0.52920383214950562 0.079961024224758148
0.94299536943435669 0.53314715623855591 0.086360573768615723
0.99369823932647705 0.53354120254516602 0.087749466300010681
1 0.53203308582305908 0.085862480103969574
0 0.61222678422927856 0.07895323634147644
0.0022574779577553272 0.61397427320480347 0.070767030119895935
0.02794373407959938 0.61483776569366455 0.068822182714939117
0.096866771578788757 0.61577802896499634 0.07245374470949173
0.21132747828960419 0.61586230993270874 0.072919763624668121
0.35197150707244873 0.61582291126251221 0.069108299911022186
0.49250614643096924 0.61715066432952881 0.067812822759151459
0.62133169174194336 0.62018656730651855 0.06996937096118927
0.73617702722549438 0.62530481815338135 0.074223868548870087
0.83803725242614746 0.63070845603942871 0.079337552189826965
0.92200553417205811 0.63464224338531494 0.083456210792064667
0.98131352663040161 0.63562232255935669 0.084219537675380707
0.99997663497924805 0.63473743200302124 0.085611738264560699
4.9785539886215702e-05 0.70744490623474121 0.072358056902885437
0.00060617784038186073 0.70900619029998779 0.062698915600776672
0.012300034984946251 0.71018117666244507 0.062974072992801666
0.060971174389123917 0.71237576007843018 0.071079641580581665
0.16962075233459473 0.71229636669158936 0.071064606308937073
0.32433256506919861 0.71016871929168701 0.061701487749814987
0.4754808247089386 0.71036624908447266 0.057787410914897919
0.60876280069351196 0.71347314119338989 0.060516837984323502
0.72315239906311035 0.71935313940048218 0.067745774984359741
0.82068824768066406 0.72544747591018677 0.073822781443595886
0.90162259340286255 0.72903966903686523 0.071637846529483795
0.96360284090042114 0.73116469383239746 0.070885889232158661
0.99793726205825806 0.73147886991500854 0.07907421886920929
0.0040233838371932507 0.78769057989120483 0.048618748784065247
0.0079117864370346069 0.7902866005897522 0.043787728995084763
0.02461516484618187 0.79147523641586304 0.045310419052839279
0.070202216506004333 0.79412919282913208 0.05132148414850235
0.17507106065750122 0.79437243938446045 0.051172759383916855
0.32752451300621033 0.79211896657943726 0.044585298746824265
0.47828620672225952 0.79236304759979248 0.042222671210765839
0.60938990116119385 0.79541647434234619 0.045539796352386475
0.71892452239990234 0.80123090744018555 0.053423039615154266
0.81000220775604248 0.80790448188781738 0.059822771698236465
0.88680636882781982 0.81083804368972778 0.051623757928609848
0.95031267404556274 0.81287050247192383 0.046981856226921082
0.99458539485931396 0.8122560977935791 0.056964904069900513
0.021110190078616142 0.85323548316955566 0.031792182475328445
0.034504204988479614 0.85741221904754639 0.028412926942110062
0.064871467649936676 0.85884606838226318 0.025445392355322838
0.1264258474111557 0.85990422964096069 0.019055610522627831
0.22881358861923218 0.86060088872909546 0.017904961481690407
0.36318826675415039 0.8615802526473999 0.022657431662082672
0.50204247236251831 0.86307710409164429 0.025854477658867836
0.62289166450500488 0.86524868011474609 0.027993399649858475
0.72301375865936279 0.86843055486679077 0.029067918658256531
0.80663192272186279 0.87358343601226807 0.031358726322650909
0.87805485725402832 0.87783879041671753 0.027605827897787094
0.94458818435668945 0.87834006547927856 0.018334615975618362
0.99437040090560913 0.87433928251266479 0.025281928479671478
0.04317435622215271 0.9081762433052063 0.039518736302852631
0.068431451916694641 0.91353029012680054 0.031033804640173912
0.11310906708240509 0.916107177734375 0.02178160659968853
0.1848195493221283 0.91747844219207764 0.010055571794509888
0.28430992364883423 0.91905426979064941 0.0080277686938643456
0.4043528139591217 0.9217877984046936 0.014798153191804886
0.53026878833770752 0.9245036244392395 0.019230995327234268
0.63713502883911133 0.92581510543823242 0.020209323614835739
0.72687739133834839 0.92701601982116699 0.016627352684736252
0.80205965042114258 0.93119865655899048 0.018742460757493973
0.86821770668029785 0.93626689910888672 0.02406330406665802
0.93533414602279663 0.93536603450775146 0.018143342807888985
0.99047809839248657 0.92931538820266724 0.02419605664908886
0.069956429302692413 0.95637065172195435 0.060737922787666321
0.10537854582071304 0.9629325270652771 0.04876708984375
0.15831765532493591 0.96690797805786133 0.037367668002843857
0.23283219337463379 0.96965736150741577 0.026956940069794655
0.32676529884338379 0.97242313623428345 0.023269876837730408
0.43403336405754089 0.97548985481262207 0.026459144428372383
0.54298394918441772 0.97833824157714844 0.029788985848426819
0.63951659202575684 0.9802931547164917 0.03148314356803894
0.72120863199234009 0.98194265365600586 0.031913325190544128
0.79080688953399658 0.98517972230911255 0.037825100123882294
0.8535725474357605 0.98801559209823608 0.046691611409187317
0.9191851019859314 0.98610836267471313 0.047629740089178085
0.97891032695770264 0.97999238967895508 0.054145842790603638
0.018026882782578468 0.011604593135416508 0.052986353635787964
0.061430372297763824 0.012316176667809486 0.053996425122022629
0.12143152207136154 0.013338291086256504 0.056048732250928879
0.20220430195331573 0.015441176481544971 0.055506538599729538
0.30599784851074219 0.016656374558806419 0.055641546845436096
0.42505648732185364 0.01922047883272171 0.058608680963516235
0.54915869235992432 0.021635092794895172 0.062905766069889069
0.67174732685089111 0.025989038869738579 0.067056410014629364
0.78923851251602173 0.031317077577114105 0.069892078638076782
0.89877200126647949 0.034180570393800735 0.0699196457862854
0.98242658376693726 0.034363511949777603 0.070118352770805359
1 0.037528812885284424 0.076545730233192444
1 0.045015640556812286 0.089117296040058136
0.025080811232328415 0.052523083984851837 0.056260891258716583
0.061267148703336716 0.053385581821203232 0.05585499107837677
0.11586158722639084 0.055760849267244339 0.057965837419033051
0.19523493945598602 0.058856215327978134 0.057851873338222504
0.30245068669319153 0.061547867953777313 0.057949934154748917
0.42525982856750488 0.064549528062343597 0.060520142316818237
0.54960322380065918 0.0684385746717453 0.064462505280971527
0.67066812515258789 0.073701851069927216 0.068837381899356842
0.7866089940071106 0.080723978579044342 0.073352411389350891
0.8961946964263916 0.084245659410953522 0.075090713798999786
0.9812195897102356 0.083288274705410004 0.075168490409851074
1 0.085551545023918152 0.077962838113307953
1 0.093270309269428253 0.086645163595676422
0.041082479059696198 0.10849043726921082 0.062820404767990112
0.071532770991325378 0.10830207914113998 0.06244201585650444
0.11940237134695053 0.11112485080957413 0.064324229955673218
0.1960006058216095 0.1146036759018898 0.064833544194698334
0.3064703643321991 0.11696860939264297 0.065739154815673828
0.43036302924156189 0.12128494679927826 0.068264871835708618
0.55135023593902588 0.12567652761936188 0.071439839899539948
0.66905826330184937 0.12996821105480194 0.075017727911472321
0.78537201881408691 0.13585361838340759 0.07890726625919342
0.89586734771728516 0.14183549582958221 0.081592053174972534
0.97936642169952393 0.14310118556022644 0.083097167313098907
1 0.1461264044046402 0.083542540669441223
1 0.15309551358222961 0.088841155171394348
0.047808792442083359 0.18823833763599396 0.073486790060997009
0.073999665677547455 0.18698620796203613 0.072267822921276093
0.11953803896903992 0.18824343383312225 0.073994867503643036
0.19552330672740936 0.19145743548870087 0.075336173176765442
0.31159937381744385 0.19277046620845795 0.077403202652931213
0.43334615230560303 0.19929783046245575 0.079268239438533783
0.54958945512771606 0.20360974967479706 0.082175984978675842
0.66637688875198364 0.20644904673099518 0.084856145083904266
0.78188389539718628 0.21171979606151581 0.086694546043872833
0.89158928394317627 0.22020603716373444 0.088523775339126587
0.97164523601531982 0.22431635856628418 0.089690804481506348
0.99959933757781982 0.22547797858715057 0.090466864407062531
1 0.22920656204223633 0.09480324387550354
0.030256548896431923 0.29347607493400574 0.085244365036487579
0.04964016005396843 0.29096445441246033 0.082265786826610565
0.085878945887088776 0.29314485192298889 0.083410434424877167
0.16607964038848877 0.29682180285453796 0.086291864514350891
0.29912540316581726 0.29608860611915588 0.088054031133651733
0.4247174859046936 0.30398979783058167 0.089069575071334839
0.54196959733963013 0.30800309777259827 0.09314437210559845
0.66145235300064087 0.30782607197761536 0.09589531272649765
0.77792757749557495 0.31186091899871826 0.095798030495643616
0.88517063856124878 0.31870967149734497 0.096247337758541107
0.96611237525939941 0.32290434837341309 0.097733229398727417
0.99904102087020874 0.32267224788665771 0.098838448524475098
1 0.32300752401351929 0.10261823236942291
0.0051226895302534103 0.40227225422859192 0.097856350243091583
0.017611440271139145 0.40037554502487183 0.092248238623142242
0.055727597326040268 0.40341657400131226 0.091794498264789581
0.14613589644432068 0.40574261546134949 0.094752699136734009
0.28674915432929993 0.40467557311058044 0.096334598958492279
0.41605487465858459 0.41105854511260986 0.097907409071922302
0.53429305553436279 0.41555073857307434 0.10215030610561371
0.65368622541427612 0.41575214266777039 0.10493720322847366
0.76831698417663574 0.41943833231925964 0.10427971929311752
0.87365639209747314 0.42500847578048706 0.10482379794120789
0.95621830224990845 0.42859905958175659 0.10737048834562302
0.99694657325744629 0.42861220240592957 0.10881100594997406
1 0.42743757367134094 0.11135760694742203
0 0.50829720497131348 0.10724795609712601
0.001388609642162919 0.5083850622177124 0.099468842148780823
0.033295590430498123 0.51057541370391846 0.097061261534690857
0.12394720315933228 0.51176470518112183 0.09843570739030838
0.25709450244903564 0.5122450590133667 0.10082126408815384
0.39397129416465759 0.51563572883605957 0.10148053616285324
0.52117490768432617 0.519095778465271 0.10473255813121796
0.64118915796279907 0.52178066968917847 0.10812816023826599
0.75285601615905762 0.52607560157775879 0.10873135179281235
0.85539919137954712 0.53094208240509033 0.11037207394838333
0.94018077850341797 0.53388792276382446 0.11434794217348099
0.9917900562286377 0.53429681062698364 0.11619268357753754
1 0.53303128480911255 0.11832879483699799
0 0.61152184009552002 0.10856622457504272
1.1518890232764534e-06 0.61378252506256104 0.10006583482027054
0.01281916256994009 0.61493313312530518 0.096655763685703278
0.090232148766517639 0.61587965488433838 0.098277762532234192
0.21695289015769958 0.61636984348297119 0.099687270820140839
0.36355549097061157 0.61802214384078979 0.098898962140083313
0.50192731618881226 0.61995238065719604 0.1007445827126503
0.62586319446563721 0.62333083152770996 0.10452159494161606
0.73727822303771973 0.62796109914779663 0.1079929992556572
0.83757966756820679 0.63235294818878174 0.11130694299936295
0.92185157537460327 0.63552266359329224 0.1132204532623291
0.9823034405708313 0.6357230544090271 0.1125384047627449
1 0.63521450757980347 0.11699385941028595
0 0.70728212594985962 0.097620643675327301
0 0.71012276411056519 0.091384604573249817
0.0050147711299359798 0.71074926853179932 0.09067738801240921
0.066898837685585022 0.71148383617401123 0.094273298978805542
0.18774503469467163 0.71160471439361572 0.095606349408626556
0.33932045102119446 0.71177268028259277 0.093101978302001953
0.48596298694610596 0.71315693855285645 0.094330713152885437
0.61423522233963013 0.7164151668548584 0.098675638437271118
0.72530543804168701 0.72136759757995605 0.10393211245536804
0.82173770666122437 0.72598934173583984 0.10715091228485107
0.90261298418045044 0.72905236482620239 0.10414043068885803
0.96731460094451904 0.73015183210372925 0.099632352590560913
0.99909824132919312 0.72956901788711548 0.10705587267875671
4.9306832806905732e-05 0.79091793298721313 0.073521934449672699
0.00047881182399578393 0.79228520393371582 0.07582981139421463
0.014998536556959152 0.79233193397521973 0.07843819260597229
0.078048944473266602 0.79334306716918945 0.079799547791481018
0.19196878373622894 0.7934572696685791 0.080948852002620697
0.3392007052898407 0.7929421067237854 0.083029188215732574
0.48490449786186218 0.79536473751068115 0.086191765964031219
0.61248910427093506 0.79789859056472778 0.090694025158882141
0.72020488977432251 0.80228376388549805 0.095591016113758087
0.81030833721160889 0.80728352069854736 0.096879579126834869
0.88585186004638672 0.81083118915557861 0.089610353112220764
0.95057523250579834 0.81221199035644531 0.082787483930587769
0.99552524089813232 0.81091588735580444 0.090955547988414764
0.006400388665497303 0.85934025049209595 0.06227542832493782
0.016215650364756584 0.8606376051902771 0.068488597869873047
0.051058210432529449 0.8604205846786499 0.067477203905582428
0.12331458926200867 0.86048996448516846 0.058044523000717163
0.2327151894569397 0.86132991313934326 0.058307468891143799
0.36623436212539673 0.86332005262374878 0.070308998227119446
0.50177508592605591 0.86532658338546753 0.078502744436264038
0.62177795171737671 0.86755037307739258 0.082775428891181946
0.72208964824676514 0.87098449468612671 0.084326893091201782
0.80498915910720825 0.87520509958267212 0.084117025136947632
0.87589722871780396 0.87912046909332275 0.077557764947414398
0.94400602579116821 0.87977737188339233 0.067575834691524506
0.99530470371246338 0.87579250335693359 0.074752062559127808
0.024008044973015785 0.91382914781570435 0.08567887544631958
0.048408865928649902 0.91773587465286255 0.081547141075134277
0.096664145588874817 0.9188048243522644 0.072903908789157867
0.17606449127197266 0.91893011331558228 0.058472607284784317
0.28166082501411438 0.92119437456130981 0.057003036141395569
0.40221941471099854 0.92360115051269531 0.07023639976978302
0.52484798431396484 0.92674475908279419 0.079479008913040161
0.6331411600112915 0.928661048412323 0.083099350333213806
0.72419911623001099 0.93108850717544556 0.083212368190288544
0.80010581016540527 0.93563073873519897 0.085589103400707245
0.86774992942810059 0.93857449293136597 0.086830109357833862
0.93817591667175293 0.93780785799026489 0.079191453754901886
0.99362826347351074 0.93202120065689087 0.083959899842739105
0.050043337047100067 0.96202534437179565 0.11602658778429031
0.085269808769226074 0.96782678365707397 0.10619089752435684
0.1419956386089325 0.97110068798065186 0.09528815746307373
0.22238904237747192 0.97343534231185913 0.084401041269302368
0.32197993993759155 0.97559952735900879 0.081730008125305176
0.43155631422996521 0.97862070798873901 0.087315395474433899
0.54034435749053955 0.98110318183898926 0.093681558966636658
0.637675940990448 0.98306423425674438 0.097087234258651733
0.72042274475097656 0.98538988828659058 0.10031837224960327
0.79017060995101929 0.98860520124435425 0.10736341029405594
0.85363352298736572 0.99083805084228516 0.11559423059225082
0.92326563596725464 0.98925882577896118 0.11346260458230972
0.98469394445419312 0.98366421461105347 0.11669066548347473
0.019823260605335236 0.01395734865218401 0.10314881801605225
0.063813485205173492 0.01355819683521986 0.1044088751077652
0.12303376942873001 0.015312493778765202 0.10685578733682632
0.20147131383419037 0.016409676522016525 0.10721487551927567
0.30323687195777893 0.018689010292291641 0.1076916828751564
0.42379611730575562 0.019303236156702042 0.11294785887002945
0.54938489198684692 0.020032605156302452 0.11910590529441833
0.6738312840461731 0.022300196811556816 0.12365833669900894
0.79285037517547607 0.026403957977890968 0.12589982151985168
0.90214258432388306 0.030014501884579659 0.12499617040157318
0.9846683144569397 0.032617442309856415 0.12399734556674957
1 0.034674447029829025 0.13032455742359161
1 0.040549751371145248 0.14308194816112518
0.02677714079618454 0.053024441003799438 0.10691731423139572
0.064183071255683899 0.053589675575494766 0.10665930807590485
0.11742779612541199 0.056543134152889252 0.10901676118373871
0.19654124975204468 0.059665605425834656 0.11003123223781586
0.3041263222694397 0.062102120369672775 0.11074432730674744
0.42708539962768555 0.064455710351467133 0.11422261595726013
0.55126798152923584 0.066373415291309357 0.11905185133218765
0.6736871600151062 0.070116095244884491 0.12294486910104752
0.79247194528579712 0.074916467070579529 0.1272323876619339
0.90201008319854736 0.07860177755355835 0.12899307906627655
0.98275172710418701 0.079855933785438538 0.12817999720573425
1 0.082344800233840942 0.13022075593471527
1 0.08824177086353302 0.13809570670127869
0.043671641498804092 0.10742180049419403 0.11316347122192383
0.074432238936424255 0.10789807140827179 0.11324406415224075
0.12037308514118195 0.11105318367481232 0.11532747000455856
0.19761897623538971 0.11449574679136276 0.11679527163505554
0.31124025583267212 0.11682070791721344 0.11872271448373795
0.43386736512184143 0.12036179006099701 0.12126903235912323
0.55288928747177124 0.12320474535226822 0.12455082684755325
0.6715654730796814 0.12766699492931366 0.1266649067401886
0.78940695524215698 0.1327807754278183 0.1311831921339035
0.89968162775039673 0.13804842531681061 0.13439290225505829
0.9795641303062439 0.14033524692058563 0.13469955325126648
1 0.14328669011592865 0.13368350267410278
1 0.14855653047561646 0.13765941560268402
0.052932977676391602 0.18702228367328644 0.12338688969612122
0.077794305980205536 0.18500907719135284 0.12285324931144714
0.12046573311090469 0.1872226893901825 0.12424739450216293
0.19735339283943176 0.19112396240234375 0.12601496279239655
0.31622034311294556 0.19216723740100861 0.12849634885787964
0.43623784184455872 0.19718988239765167 0.13091309368610382
0.55098772048950195 0.20017382502555847 0.1340315192937851
0.66666585206985474 0.20459069311618805 0.13548581302165985
0.78263068199157715 0.2110205739736557 0.13716916739940643
0.8923187255859375 0.21809570491313934 0.1392911821603775
0.97175329923629761 0.22267650067806244 0.13985246419906616
0.99947279691696167 0.22403140366077423 0.13975062966346741
1 0.22856688499450684 0.1437034010887146
0.032649379223585129 0.29156231880187988 0.13340103626251221
0.04806537926197052 0.28950566053390503 0.13105767965316772
0.084685228765010834 0.29232817888259888 0.1315186470746994
0.17090050876140594 0.29419833421707153 0.13450624048709869
0.30105417966842651 0.29478609561920166 0.13650412857532501
0.42475444078445435 0.30223777890205383 0.13830520212650299
0.54243391752243042 0.3045525848865509 0.14311760663986206
0.65943950414657593 0.30656042695045471 0.14460916817188263
0.77408212423324585 0.3128451406955719 0.14224253594875336
0.88366210460662842 0.31887564063072205 0.14335498213768005
