films/kodak_elite_chrome_400.cube
# Created by: G'MIC (https://gmic.eu)
TITLE "kodak_elite_chrome_400"
# LUT size
LUT_3D_SIZE 7
# Data domain
DOMAIN_MIN 0.0 0.0 0.0
DOMAIN_MAX 1.0 1.0 1.0
# LUT data points
0.025030277669429779 0.021244272589683533 0.02131233923137188
0.11025407165288925 0.017781844362616539 0.013653788715600967
0.2316613495349884 0.019513074308633804 0.011018910445272923
0.40558314323425293 0.022100171074271202 0.00052087823860347271
0.58247679471969604 0.025618026033043861 0
0.74768680334091187 0.039490584284067154 0
0.90110558271408081 0.072346903383731842 0
0.09605446457862854 0.1433333158493042 0.064197361469268799
0.15795357525348663 0.13713270425796509 0.053713452070951462
0.28302091360092163 0.12929444015026093 0.042396783828735352
0.44844606518745422 0.11649732291698456 0.020437441766262054
0.61280381679534912 0.091643676161766052 0.0016258240211755037
0.76318919658660889 0.059352606534957886 0
0.90912061929702759 0.060672026127576828 0
0.14854539930820465 0.32199552655220032 0.11986121535301208
0.21441765129566193 0.31786462664604187 0.10992550104856491
0.34861785173416138 0.30928319692611694 0.09233672171831131
0.51197570562362671 0.28671285510063171 0.066603012382984161
0.65682750940322876 0.24550120532512665 0.028326012194156647
0.79389095306396484 0.17395555973052979 0.0049295313656330109
0.93323343992233276 0.11827573925256729 0
0.23939554393291473 0.5221819281578064 0.18549723923206329
0.3119659423828125 0.51855254173278809 0.17874720692634583
0.43220362067222595 0.51703214645385742 0.15928208827972412
0.56908285617828369 0.50870633125305176 0.12684027850627899
0.70261639356613159 0.4961472749710083 0.081485405564308167
0.84163308143615723 0.43673118948936462 0.031516686081886292
0.97578758001327515 0.32353377342224121 0.00040031882235780358
0.40723642706871033 0.68530058860778809 0.2898508608341217
0.44815602898597717 0.6876455545425415 0.28181707859039307
0.52870172262191772 0.6876455545425415 0.26488465070724487
0.62975341081619263 0.68736976385116577 0.2268621027469635
0.74659270048141479 0.68808794021606445 0.16621178388595581
0.8805420994758606 0.67684119939804077 0.086257025599479675
0.99406242370605469 0.62977677583694458 0.0061542736366391182
0.55214917659759521 0.8383830189704895 0.423176109790802
0.5657966136932373 0.83949875831604004 0.41894051432609558
0.61968547105789185 0.84111911058425903 0.40580490231513977
0.70204418897628784 0.84490025043487549 0.37578341364860535
0.79576313495635986 0.84904658794403076 0.32423406839370728
0.90938329696655273 0.8528907299041748 0.20271420478820801
0.99974924325942993 0.83328914642333984 0.036736864596605301
0.68679159879684448 0.97954177856445312 0.5541718602180481
0.6924782395362854 0.97872233390808105 0.5447385311126709
0.72928869724273682 0.98040372133255005 0.53813093900680542
0.789093017578125 0.985298752784729 0.53036046028137207
0.85921245813369751 0.98763078451156616 0.50545227527618408
0.94945329427719116 0.98925602436065674 0.43451622128486633
1 0.97633183002471924 0.26944944262504578
0.020704291760921478 0.024642316624522209 0.10568761080503464
0.098281890153884888 0.018231799826025963 0.092461951076984406
0.22656305134296417 0.016973039135336876 0.074670903384685516
0.40565752983093262 0.021036006510257721 0.044239059090614319
0.58561503887176514 0.023690138012170792 0.013367671519517899
0.74882382154464722 0.037644524127244949 0.00048967247130349278
0.90313088893890381 0.070015639066696167 0
0.081644929945468903 0.14478388428688049 0.1494193971157074
0.14351779222488403 0.13972403109073639 0.14076623320579529
0.27357897162437439 0.13283008337020874 0.12070729583501816
0.44777399301528931 0.11966843158006668 0.087737902998924255
0.61122238636016846 0.090867273509502411 0.047754250466823578
0.76271671056747437 0.064059868454933167 0.011037759482860565
0.91632932424545288 0.069141864776611328 0
0.12993279099464417 0.32186287641525269 0.20790298283100128
0.19984647631645203 0.32155793905258179 0.19736838340759277
0.33800899982452393 0.31478816270828247 0.17696645855903625
0.50476717948913574 0.29222980141639709 0.14411622285842896
0.65015482902526855 0.24915079772472382 0.095793843269348145
0.79023730754852295 0.18225856125354767 0.030724050477147102
0.93651062250137329 0.11501074582338333 1.4361213288793806e-05
0.22364889085292816 0.51667928695678711 0.28105497360229492
0.29068735241889954 0.5221935510635376 0.26792991161346436
0.41771882772445679 0.52153623104095459 0.24804531037807465
0.55799895524978638 0.51403403282165527 0.21356427669525146
0.69302189350128174 0.49518656730651855 0.15996760129928589
0.83389097452163696 0.43704062700271606 0.085111446678638458
0.97229844331741333 0.32858452200889587 0.010115844197571278
0.39239713549613953 0.68210476636886597 0.37335070967674255
0.42923033237457275 0.68532997369766235 0.36412400007247925
0.51122218370437622 0.68661761283874512 0.35080444812774658
0.61413908004760742 0.68637192249298096 0.3186703622341156
0.73352253437042236 0.68601256608963013 0.26247352361679077
0.87080389261245728 0.6767193078994751 0.17444881796836853
0.99365830421447754 0.62558984756469727 0.063013724982738495
0.53270578384399414 0.83461230993270874 0.47927939891815186
0.55462145805358887 0.83638650178909302 0.4772840142250061
0.61016792058944702 0.83793562650680542 0.47026261687278748
0.69011324644088745 0.84089088439941406 0.44505834579467773
0.78480660915374756 0.84423148632049561 0.40034312009811401
0.89867264032363892 0.84778058528900146 0.31113091111183167
0.99418169260025024 0.83367091417312622 0.12281495332717896
0.66414105892181396 0.97499209642410278 0.59187382459640503
0.68443411588668823 0.97821128368377686 0.58943766355514526
0.72960424423217773 0.98114597797393799 0.58490324020385742
0.78471595048904419 0.98426741361618042 0.57371103763580322
0.85152393579483032 0.98637098073959351 0.5478203296661377
0.94241267442703247 0.9899526834487915 0.5075066089630127
1 0.98383736610412598 0.36006495356559753
0.015400725416839123 0.025147560983896255 0.21173456311225891
0.074463911354541779 0.021140258759260178 0.19767923653125763
0.20604723691940308 0.014456416480243206 0.18484321236610413
0.38849881291389465 0.015481148846447468 0.1463092714548111
0.57661324739456177 0.02080802246928215 0.093571573495864868
0.74141925573348999 0.037091977894306183 0.035472329705953598
0.90391409397125244 0.069417007267475128 1.7233456674148329e-05
0.066061191260814667 0.14615373313426971 0.27092382311820984
0.12725278735160828 0.13962328433990479 0.26052772998809814
0.25249791145324707 0.13220518827438354 0.2450355589389801
0.42702397704124451 0.11623343825340271 0.20922742784023285
0.59389996528625488 0.083139620721340179 0.15745097398757935
0.74919480085372925 0.05354493111371994 0.084459446370601654
0.91180706024169922 0.06203213706612587 0.0093896603211760521
0.098873913288116455 0.32319003343582153 0.33295688033103943
0.162882000207901 0.32044109702110291 0.32711201906204224
0.3105827271938324 0.31301546096801758 0.31218567490577698
0.4835064709186554 0.29321762919425964 0.28038400411605835
0.63168716430664062 0.25425276160240173 0.23143686354160309
0.77685129642486572 0.18203204870223999 0.14526320993900299
0.92701798677444458 0.10733669251203537 0.040661711245775223
0.18734301626682281 0.51259726285934448 0.40584826469421387
0.25902214646339417 0.51283162832260132 0.40019485354423523
0.39201211929321289 0.51374506950378418 0.38856968283653259
0.53639513254165649 0.51321464776992798 0.36065977811813354
0.67203116416931152 0.49317428469657898 0.31597122550010681
0.81453728675842285 0.43715906143188477 0.2302313894033432
0.96210432052612305 0.33440503478050232 0.11384181678295135
0.36532622575759888 0.67615538835525513 0.48357173800468445
0.4061739444732666 0.67852938175201416 0.47760379314422607
0.49124777317047119 0.67978781461715698 0.47198456525802612
0.59340816736221313 0.67849206924438477 0.45196858048439026
0.71227949857711792 0.67436212301254272 0.41339430212974548
0.8484494686126709 0.66126495599746704 0.34335842728614807
0.98604786396026611 0.62250214815139771 0.21580858528614044
0.51969677209854126 0.83037644624710083 0.56261390447616577
0.54267573356628418 0.83210593461990356 0.5597529411315918
0.59650629758834839 0.83389139175415039 0.55548584461212158
0.6732221245765686 0.83431375026702881 0.54003775119781494
0.76909345388412476 0.83414995670318604 0.51352590322494507
0.88405138254165649 0.83249968290328979 0.47064584493637085
0.9923626184463501 0.81786632537841797 0.35305601358413696
0.66105598211288452 0.97256600856781006 0.65501135587692261
0.6774711012840271 0.97542423009872437 0.65146595239639282
0.71613401174545288 0.97738832235336304 0.64790022373199463
0.7713315486907959 0.97993463277816772 0.6387561559677124
0.84159559011459351 0.98188096284866333 0.62024295330047607
0.93081068992614746 0.98611128330230713 0.59348350763320923
0.99986284971237183 0.98053658008575439 0.50559282302856445
0.011226639151573181 0.025434801355004311 0.35725244879722595
0.066243879497051239 0.017828173935413361 0.34695467352867126
0.17818348109722137 0.013434167020022869 0.3354344367980957
0.35778194665908813 0.012171292677521706 0.300066739320755
0.55373179912567139 0.01379922591149807 0.24623800814151764
0.72140276432037354 0.028150999918580055 0.17094086110591888
0.89844059944152832 0.063435815274715424 0.054883051663637161
0.052480243146419525 0.14821340143680573 0.41856631636619568
0.10418780148029327 0.14085209369659424 0.41102874279022217
0.22263045608997345 0.12941539287567139 0.40099638700485229
0.39724549651145935 0.11575677990913391 0.36998468637466431
0.56992858648300171 0.081526331603527069 0.32859331369400024
0.72721129655838013 0.048376630991697311 0.25289827585220337
0.89393901824951172 0.052433792501688004 0.1314995288848877
0.06549544632434845 0.32384368777275085 0.47505009174346924
0.12510132789611816 0.32070845365524292 0.47318050265312195
0.27541249990463257 0.31427809596061707 0.46492728590965271
0.45424005389213562 0.29663574695587158 0.44027641415596008
0.60609728097915649 0.25613099336624146 0.40959671139717102
0.75020891427993774 0.17747138440608978 0.34802088141441345
0.9017404317855835 0.10059364140033722 0.23542721569538116
0.14033149182796478 0.51050752401351929 0.5325164794921875
0.21548290550708771 0.50980460643768311 0.5325046181678772
0.35998472571372986 0.51562798023223877 0.52679181098937988
0.51080316305160522 0.50801032781600952 0.50970476865768433
0.64704793691635132 0.49020874500274658 0.48582702875137329
0.78782755136489868 0.43748864531517029 0.4322294294834137
0.9354436993598938 0.32959797978401184 0.33402588963508606
0.33607855439186096 0.67229670286178589 0.59129041433334351
0.37593519687652588 0.67549151182174683 0.59122598171234131
0.46509543061256409 0.67859774827957153 0.58595871925354004
0.57322895526885986 0.67775243520736694 0.571868896484375
0.69110715389251709 0.66997396945953369 0.55322939157485962
0.82390350103378296 0.65389513969421387 0.51810145378112793
0.96411252021789551 0.61125046014785767 0.43571466207504272
0.50439667701721191 0.82763051986694336 0.65824031829833984
0.51983952522277832 0.82901680469512939 0.65425139665603638
0.57427883148193359 0.83011513948440552 0.64794504642486572
0.65390366315841675 0.833454430103302 0.63809740543365479
0.75210893154144287 0.83233702182769775 0.6252816915512085
0.86548084020614624 0.82932472229003906 0.59598338603973389
0.98270708322525024 0.81051176786422729 0.52810090780258179
0.66211426258087158 0.97242641448974609 0.73641979694366455
0.66401350498199463 0.9720914363861084 0.72959345579147339
0.69659245014190674 0.97322994470596313 0.7242816686630249
0.75451338291168213 0.97666352987289429 0.71885055303573608
0.82946455478668213 0.98101192712783813 0.70872008800506592
0.91626441478729248 0.98574888706207275 0.68396091461181641
0.99664068222045898 0.98096299171447754 0.62627065181732178
0.001217576558701694 0.030587902292609215 0.5026060938835144
0.047109011560678482 0.021208833903074265 0.49725550413131714
0.14483276009559631 0.01860441267490387 0.49231863021850586
0.32111981511116028 0.012775645591318607 0.47045773267745972
0.51552885770797729 0.0051485695876181126 0.44443807005882263
0.68800216913223267 0.0061981650069355965 0.38995009660720825
0.86879754066467285 0.032363351434469223 0.26962471008300781
0.0099667869508266449 0.16226932406425476 0.55719459056854248
0.062327232211828232 0.15396708250045776 0.55076402425765991
0.18832649290561676 0.14304742217063904 0.54249542951583862
0.36751413345336914 0.12604460120201111 0.52648669481277466
0.54396557807922363 0.088911868631839752 0.50932854413986206
0.69546514749526978 0.035794321447610855 0.47160446643829346
0.85777747631072998 0.016508633270859718 0.37344545125961304
0.003068647114560008 0.3376915454864502 0.60262966156005859
0.054719842970371246 0.33641231060028076 0.59584379196166992
0.22510561347007751 0.32965433597564697 0.58927696943283081
0.41999125480651855 0.31297224760055542 0.57749170064926147
0.58273375034332275 0.26984027028083801 0.56566143035888672
0.72528690099716187 0.18535873293876648 0.53706008195877075
0.87290561199188232 0.095710679888725281 0.46298989653587341
0.070355616509914398 0.51453685760498047 0.64686691761016846
0.15030123293399811 0.51609599590301514 0.64437413215637207
0.31933355331420898 0.5160069465637207 0.6391717791557312
0.48258811235427856 0.51391053199768066 0.62851154804229736
0.62483561038970947 0.49607393145561218 0.61566704511642456
0.76545935869216919 0.45168992877006531 0.58769416809082031
0.91066396236419678 0.33528599143028259 0.53580105304718018
0.28212955594062805 0.67258697748184204 0.69670647382736206
0.33694696426391602 0.67598038911819458 0.6968420147895813
0.43559113144874573 0.67602431774139404 0.69181638956069946
0.55039083957672119 0.67669415473937988 0.68230807781219482
0.67128109931945801 0.66973698139190674 0.66847002506256104
0.8046882152557373 0.65552526712417603 0.64645165205001831
0.94519537687301636 0.61108744144439697 0.5986102819442749
0.47269311547279358 0.82467037439346313 0.75266706943511963
0.49639624357223511 0.82684063911437988 0.75068503618240356
0.55252277851104736 0.82893776893615723 0.74609935283660889
0.63455355167388916 0.83036309480667114 0.73995798826217651
0.73483675718307495 0.8303225040435791 0.73048651218414307
0.84712350368499756 0.82729196548461914 0.70921468734741211
0.97221833467483521 0.80326193571090698 0.66544067859649658
0.6296006441116333 0.96351104974746704 0.81610226631164551
0.6466827392578125 0.96708399057388306 0.8134225606918335
0.68281596899032593 0.96959602832794189 0.81036794185638428
0.74083101749420166 0.973785400390625 0.80713033676147461
0.81877982616424561 0.97855162620544434 0.80026400089263916
0.90623122453689575 0.98386269807815552 0.78064423799514771
0.99390304088592529 0.97823327779769897 0.73997873067855835
0 0.040084343403577805 0.63219708204269409
0.027421899139881134 0.033204544335603714 0.62952595949172974
0.12488564848899841 0.024509100243449211 0.62509745359420776
0.29683494567871094 0.014008705504238605 0.61387139558792114
0.49683371186256409 0.0040193446911871433 0.60040271282196045
0.66029423475265503 0 0.57896167039871216
0.82684445381164551 0.0014091192279011011 0.50851678848266602
0 0.18677093088626862 0.67645257711410522
0.01990559883415699 0.1775054931640625 0.67416828870773315
0.15083315968513489 0.1619211733341217 0.66811501979827881
0.33997955918312073 0.14153078198432922 0.66009175777435303
0.52363282442092896 0.10195893049240112 0.65410137176513672
0.67605787515640259 0.04331621527671814 0.63560134172439575
0.8322521448135376 0.0063390694558620453 0.57353246212005615
0 0.35602402687072754 0.71840488910675049
0.0043386123143136501 0.35499393939971924 0.71414053440093994
0.1593349426984787 0.34703436493873596 0.70826369524002075
0.38681107759475708 0.32913750410079956 0.70136851072311401
0.56194287538528442 0.29119411110877991 0.69720655679702759
0.70678365230560303 0.20514842867851257 0.68133902549743652
0.85153299570083618 0.094627007842063904 0.63075751066207886
0.0090424483641982079 0.5169636607170105 0.75866836309432983
0.081865914165973663 0.52132022380828857 0.75644207000732422
0.26403975486755371 0.51982110738754272 0.75284332036972046
0.44905802607536316 0.52051597833633423 0.74737954139709473
0.60017412900924683 0.50724655389785767 0.74014997482299805
0.74523711204528809 0.46434298157691956 0.72433620691299438
0.88635599613189697 0.34749326109886169 0.68278604745864868
0.20902973413467407 0.67476511001586914 0.80218851566314697
0.2682044506072998 0.67741835117340088 0.80191004276275635
0.388978511095047 0.67902487516403198 0.79850965738296509
0.51898247003555298 0.68052947521209717 0.79373538494110107
0.64600038528442383 0.6743888258934021 0.78628891706466675
0.7807546854019165 0.65557211637496948 0.77268993854522705
0.91981238126754761 0.60737806558609009 0.73716562986373901
0.43613317608833313 0.82392972707748413 0.84736841917037964
0.46478015184402466 0.82774722576141357 0.84853971004486084
0.52412623167037964 0.82909959554672241 0.84681254625320435
0.60698145627975464 0.82924562692642212 0.84261894226074219
0.71032881736755371 0.82949936389923096 0.83727449178695679
0.82495349645614624 0.82594138383865356 0.82531082630157471
0.95417231321334839 0.80047720670700073 0.79469448328018188
0.60914754867553711 0.9592289924621582 0.8986964225769043
0.63657420873641968 0.96370619535446167 0.90124404430389404
0.67226237058639526 0.96663177013397217 0.90138202905654907
0.7232552170753479 0.97007256746292114 0.89865267276763916
0.80413776636123657 0.97433871030807495 0.89515417814254761
0.89406836032867432 0.98235005140304565 0.88521295785903931
0.98919522762298584 0.97874218225479126 0.85847240686416626
0.0005081625422462821 0.05268077552318573 0.74670577049255371
0.023294247686862946 0.056446194648742676 0.7442091703414917
0.10341883450746536 0.043110731989145279 0.74196195602416992
0.2529451847076416 0.024758612737059593 0.73596018552780151
0.45860278606414795 0.010844406671822071 0.72332394123077393
0.63550257682800293 0.00052955478895455599 0.7079395055770874
0.80332642793655396 0.0014262779150158167 0.67340075969696045
0 0.21262350678443909 0.78593069314956665
0.011911594308912754 0.20713843405246735 0.78602111339569092
0.12152627855539322 0.19083483517169952 0.78291940689086914
0.30125159025192261 0.17003126442432404 0.7784494161605835
0.48827865719795227 0.1263367086648941 0.77149516344070435
0.6476934552192688 0.054919015616178513 0.75713610649108887
0.80761122703552246 0.021783372387290001 0.72325921058654785
3.2866235414985567e-05 0.37921538949012756 0.82384341955184937
0.0089866491034626961 0.37159860134124756 0.82364153861999512
0.14052543044090271 0.36488252878189087 0.82070773839950562
0.35023301839828491 0.35834541916847229 0.81734955310821533
0.53053677082061768 0.3254912793636322 0.81374317407608032
0.68143701553344727 0.23856818675994873 0.80483448505401611
0.82851129770278931 0.11504696309566498 0.77710205316543579
0.0019696105737239122 0.52788358926773071 0.86208468675613403
0.037709195166826248 0.52969527244567871 0.86176514625549316
0.19410616159439087 0.53113633394241333 0.85960513353347778
0.40170294046401978 0.53353321552276611 0.85809189081192017
0.56616860628128052 0.52924877405166626 0.85523700714111328
0.71852970123291016 0.49734324216842651 0.84748399257659912
0.86067241430282593 0.38936609029769897 0.81864231824874878
0.1042340025305748 0.68022400140762329 0.90033698081970215
0.18588550388813019 0.68291354179382324 0.90060150623321533
0.31910112500190735 0.68457835912704468 0.90000027418136597
0.47564747929573059 0.68752568960189819 0.89875811338424683
0.61414545774459839 0.68495029211044312 0.89731276035308838
0.75241899490356445 0.66789549589157104 0.88916051387786865
0.88972014188766479 0.61676174402236938 0.86219674348831177
0.36866065859794617 0.82491689920425415 0.94045227766036987
0.4123014509677887 0.82790714502334595 0.94268262386322021
0.48516249656677246 0.82969415187835693 0.94259214401245117
0.57482469081878662 0.83033472299575806 0.94061863422393799
0.6812933087348938 0.83205610513687134 0.94014042615890503
0.79701584577560425 0.82994222640991211 0.93531310558319092
0.92765051126480103 0.80577611923217773 0.91596990823745728
0.60454279184341431 0.95793908834457397 0.98421740531921387
0.61783242225646973 0.95930927991867065 0.9866863489151001
0.65416824817657471 0.96232795715332031 0.98736995458602905
0.69797170162200928 0.96760749816894531 0.98577308654785156
0.777474045753479 0.9725380539894104 0.98631769418716431
0.87343412637710571 0.97955888509750366 0.98564827442169189
0.97926700115203857 0.9766659140586853 0.97740322351455688
