films/kodak_portra_400.cube
# Created by: G'MIC (https://gmic.eu)
TITLE "kodak_portra_400"
# LUT size
LUT_3D_SIZE 7
# Data domain
DOMAIN_MIN 0.0 0.0 0.0
DOMAIN_MAX 1.0 1.0 1.0
# LUT data points
0.028742233291268349 0.029246700927615166 0.029026554897427559
0.15331253409385681 0.029360543936491013 0.024632995948195457
0.38512915372848511 0.012401221320033073 0.016051767393946648
0.64318734407424927 0.01051623746752739 0.0088321911171078682
0.85154682397842407 0.0019633574411273003 0.00036962173180654645
0.9709174633026123 0.085534922778606415 0
0.9997522234916687 0.21893461048603058 0.00019466923549771309
0.0028721378184854984 0.13447357714176178 0.050482910126447678
0.13026328384876251 0.15378490090370178 0.031288161873817444
0.38415360450744629 0.18016229569911957 0.0037797964178025723
0.64550191164016724 0.18853168189525604 0.00031781665165908635
0.84512263536453247 0.2112991064786911 0
0.98278123140335083 0.26764556765556335 0
1 0.32815071940422058 0
0 0.31183895468711853 0.07887585461139679
0.043868973851203918 0.30409809947013855 0.087747775018215179
0.31398755311965942 0.36021089553833008 0.01718585379421711
0.61184185743331909 0.40583968162536621 8.6167283370741643e-06
0.80954432487487793 0.42070305347442627 8.2651771663222462e-05
0.96019488573074341 0.44612115621566772 0
1 0.46783089637756348 0
0 0.50113356113433838 0.14526446163654327
0.0014737746678292751 0.47438982129096985 0.16093677282333374
0.21315516531467438 0.49151265621185303 0.13352656364440918
0.51171350479125977 0.54709792137145996 0.051347441971302032
0.74862873554229736 0.58255130052566528 0.0005752862780354917
0.92097640037536621 0.59967756271362305 1.1668485967675224e-05
0.99998599290847778 0.6064150333404541 0
0 0.64960235357284546 0.24334970116615295
0.012949804775416851 0.63574737310409546 0.24353997409343719
0.20424468815326691 0.61665290594100952 0.25391063094139099
0.43891912698745728 0.65084046125411987 0.21498009562492371
0.67127186059951782 0.69274055957794189 0.1356159895658493
0.86729192733764648 0.71844041347503662 0.043905865401029587
0.99711990356445312 0.734325110912323 0.0012441597646102309
0.10720053315162659 0.78695863485336304 0.3903692364692688
0.16010680794715881 0.77836304903030396 0.38823384046554565
0.33085620403289795 0.76158535480499268 0.4078819751739502
0.483573317527771 0.7691301703453064 0.40640631318092346
0.6432073712348938 0.79728239774703979 0.37327775359153748
0.81465882062911987 0.82338190078735352 0.30135533213615417
0.98683881759643555 0.85187059640884399 0.23076683282852173
0.49172860383987427 0.93164408206939697 0.61702132225036621
0.51112610101699829 0.92518317699432373 0.61544287204742432
0.57861793041229248 0.9207497239112854 0.64176762104034424
0.64324575662612915 0.91722995042800903 0.65439701080322266
0.71910518407821655 0.92790186405181885 0.63870632648468018
0.8226349949836731 0.94584155082702637 0.6108778715133667
0.94959419965744019 0.9677659273147583 0.59393829107284546
0.020891420543193817 0.036255855113267899 0.1632666289806366
0.19214825332164764 0.015783751383423805 0.18858920037746429
0.40758821368217468 0.0026841405779123306 0.18673242628574371
0.67336231470108032 2.1541820842685411e-06 0.1783488392829895
0.86765927076339722 0.0016480539925396442 0.15617161989212036
0.98010838031768799 0.055892135947942734 0.12041359394788742
1 0.20381036400794983 0.098788276314735413
0.00091883342247456312 0.17925943434238434 0.17827156186103821
0.16489030420780182 0.1776263564825058 0.18327467143535614
0.41534885764122009 0.16835948824882507 0.17177575826644897
0.66871678829193115 0.15251249074935913 0.14825133979320526
0.85126477479934692 0.18195608258247375 0.12636470794677734
0.98070520162582397 0.24997031688690186 0.092736050486564636
1 0.31494209170341492 0.066843591630458832
0 0.38945126533508301 0.22138078510761261
0.10167161375284195 0.36201417446136475 0.21886676549911499
0.34983372688293457 0.38157683610916138 0.1871151328086853
0.63064289093017578 0.40865984559059143 0.11745590716600418
0.81950551271438599 0.4176657497882843 0.060476236045360565
0.95930773019790649 0.44023892283439636 0.037258267402648926
1 0.46002840995788574 0.038748275488615036
0 0.54751753807067871 0.25386208295822144
0.044382520020008087 0.52312731742858887 0.25785589218139648
0.2714698314666748 0.51173168420791626 0.25644677877426147
0.53219300508499146 0.56210470199584961 0.20415948331356049
0.76872521638870239 0.59314525127410889 0.10300252586603165
0.9270433783531189 0.59530758857727051 0.018901944160461426
0.99996590614318848 0.59780079126358032 0.0047378987073898315
0 0.6766127347946167 0.31878137588500977
0.046993870288133621 0.65968418121337891 0.3155352771282196
0.25496131181716919 0.63092207908630371 0.32863429188728333
0.45872628688812256 0.65759479999542236 0.31111955642700195
0.68423235416412354 0.70140069723129272 0.26308336853981018
0.8792913556098938 0.72443491220474243 0.15192413330078125
0.99750018119812012 0.73060470819473267 0.069433428347110748
0.12175758183002472 0.80006903409957886 0.43052542209625244
0.22343569993972778 0.79155033826828003 0.43103966116905212
0.36453467607498169 0.77333462238311768 0.44837141036987305
0.48960384726524353 0.77046400308609009 0.44675290584564209
0.64158886671066284 0.79861587285995483 0.42478540539741516
0.81874942779541016 0.82825589179992676 0.38027319312095642
0.97894692420959473 0.84923022985458374 0.3174995481967926
0.49950063228607178 0.93496346473693848 0.63488924503326416
0.52670180797576904 0.9296143651008606 0.63208931684494019
0.57657772302627563 0.92120832204818726 0.64758527278900146
0.63395828008651733 0.91510248184204102 0.65737462043762207
0.71838974952697754 0.92878621816635132 0.6597830057144165
0.82875847816467285 0.94912683963775635 0.64364731311798096
0.94880318641662598 0.96746981143951416 0.61630046367645264
0.003576001850888133 0.03971404954791069 0.38917350769042969
0.21481440961360931 0.010571124963462353 0.43077242374420166
0.49650311470031738 0.0011649936204776168 0.47057589888572693
0.70428121089935303 0 0.46835747361183167
0.88578730821609497 0 0.44451281428337097
0.98968958854675293 0.0014431673334911466 0.41078466176986694
1 0.18522897362709045 0.40216162800788879
0.00030728508136235178 0.18940381705760956 0.36979779601097107
0.16280287504196167 0.19212278723716736 0.40880778431892395
0.47605979442596436 0.18484869599342346 0.45947906374931335
0.6935126781463623 0.1450175940990448 0.46151795983314514
0.86672681570053101 0.16401247680187225 0.4414975643157959
0.9829866886138916 0.25612950325012207 0.42097377777099609
1 0.3334071934223175 0.4052850604057312
2.0225375919835642e-05 0.43573290109634399 0.43085703253746033
0.077438756823539734 0.43261626362800598 0.42792308330535889
0.42064884305000305 0.43343767523765564 0.44057214260101318
0.65647733211517334 0.43219316005706787 0.42637288570404053
0.83094954490661621 0.43355825543403625 0.40252286195755005
0.96394181251525879 0.45810613036155701 0.39559751749038696
1 0.47770342230796814 0.38289010524749756
0.0097480025142431259 0.6345210075378418 0.47750648856163025
0.16965602338314056 0.61985236406326294 0.46959644556045532
0.3853205144405365 0.57473480701446533 0.45345029234886169
0.56858360767364502 0.58669012784957886 0.4294191300868988
0.77534711360931396 0.60037261247634888 0.3838924765586853
0.93041110038757324 0.59948456287384033 0.34347197413444519
0.99971503019332886 0.59934264421463013 0.32438048720359802
0.17925719916820526 0.72357118129730225 0.49287569522857666
0.24385352432727814 0.71339130401611328 0.48124077916145325
0.3649505078792572 0.68299973011016846 0.46619969606399536
0.50208753347396851 0.67088472843170166 0.45955049991607666
0.69411122798919678 0.70923078060150146 0.43914812803268433
0.88197511434555054 0.72581243515014648 0.389609694480896
0.99760109186172485 0.72527921199798584 0.31329220533370972
0.25534507632255554 0.8204275369644165 0.52915757894515991
0.32185372710227966 0.81460034847259521 0.52717500925064087
0.41508591175079346 0.79590463638305664 0.53094130754470825
0.52048778533935547 0.7783195972442627 0.53499376773834229
0.65548396110534668 0.80082470178604126 0.52178478240966797
0.8195568323135376 0.83042365312576294 0.49646595120429993
0.98267799615859985 0.85178548097610474 0.46726560592651367
0.50580370426177979 0.93962353467941284 0.65892219543457031
0.52172857522964478 0.93713456392288208 0.66031181812286377
0.58979338407516479 0.93258756399154663 0.68196481466293335
0.64353817701339722 0.91968965530395508 0.68847441673278809
0.72790229320526123 0.92660093307495117 0.69436502456665039
0.82619976997375488 0.94591641426086426 0.67605596780776978
0.95332270860671997 0.96707892417907715 0.66234815120697021
0.001475794124417007 0.044831324368715286 0.60909938812255859
0.2192949652671814 0.020460121333599091 0.63482248783111572
0.54850614070892334 0.00014056036889087409 0.68107801675796509
0.77481311559677124 0.0083665736019611359 0.70413708686828613
0.88436073064804077 0.0053533813916146755 0.67584288120269775
0.98916137218475342 0.069285176694393158 0.65650540590286255
1 0.2210068553686142 0.63103878498077393
0.0030538521241396666 0.2086261659860611 0.5962519645690918
0.18302050232887268 0.20933008193969727 0.62343233823776245
0.52792525291442871 0.20583620667457581 0.67277508974075317
0.75864881277084351 0.21469835937023163 0.69865995645523071
0.87766891717910767 0.22634963691234589 0.67872005701065063
0.98609006404876709 0.28170830011367798 0.65708392858505249
1 0.35350558161735535 0.62898850440979004
0 0.39841374754905701 0.56607967615127563
0.097661487758159637 0.40681493282318115 0.58157658576965332
0.43656203150749207 0.4370189905166626 0.6258399486541748
0.70079559087753296 0.47634133696556091 0.67393672466278076
0.83844339847564697 0.47557204961776733 0.65947532653808594
0.95724642276763916 0.49292266368865967 0.64465564489364624
0.99958509206771851 0.50968384742736816 0.62515079975128174
0.00041396197048015893 0.63777297735214233 0.63371157646179199
0.11313103884458542 0.63420021533966064 0.6299666166305542
0.41733905673027039 0.63188999891281128 0.62872827053070068
0.62869000434875488 0.6319471001625061 0.63813847303390503
0.79704803228378296 0.6317935585975647 0.62967300415039062
0.92568099498748779 0.62740027904510498 0.6151573657989502
0.99800711870193481 0.6287611722946167 0.60225307941436768
0.1655910313129425 0.79138422012329102 0.67000770568847656
0.33359357714653015 0.78532916307449341 0.67057269811630249
0.49558806419372559 0.76002562046051025 0.65611094236373901
0.59776633977890015 0.72491812705993652 0.63252216577529907
0.72627943754196167 0.7291637659072876 0.61334943771362305
0.88553231954574585 0.73479646444320679 0.58617395162582397
0.99361443519592285 0.72843629121780396 0.55028229951858521
0.44194296002388 0.86151444911956787 0.67742884159088135
0.46981099247932434 0.85444307327270508 0.67173409461975098
0.51907896995544434 0.84000074863433838 0.65614145994186401
0.58059203624725342 0.81408464908599854 0.6412690281867981
0.68078356981277466 0.80818527936935425 0.63522064685821533
0.82636493444442749 0.83648663759231567 0.62361770868301392
0.97969144582748413 0.85446852445602417 0.6073538064956665
0.55183565616607666 0.95816731452941895 0.73206067085266113
0.56910496950149536 0.9519273042678833 0.72697299718856812
0.6035836935043335 0.95077061653137207 0.72617733478546143
0.65852528810501099 0.93399322032928467 0.73201984167098999
0.73916304111480713 0.92920929193496704 0.74257898330688477
0.82960540056228638 0.94566565752029419 0.73065292835235596
0.95485192537307739 0.96997308731079102 0.72608250379562378
0.13600194454193115 0.087111964821815491 0.76398372650146484
0.33027684688568115 0.072626747190952301 0.77458524703979492
0.56002253293991089 0.033685363829135895 0.79770010709762573
0.78338384628295898 0.10605527460575104 0.83240550756454468
0.92793101072311401 0.17923367023468018 0.83925020694732666
0.99243450164794922 0.22043038904666901 0.81370663642883301
1 0.3148094117641449 0.79058760404586792
0.11558075249195099 0.23732869327068329 0.75277554988861084
0.30016365647315979 0.24072025716304779 0.76600551605224609
0.54418373107910156 0.25372320413589478 0.78968584537506104
0.76694536209106445 0.30071783065795898 0.82433211803436279
0.90477848052978516 0.35193851590156555 0.82930999994277954
0.98551267385482788 0.38032063841819763 0.81107103824615479
1 0.41975343227386475 0.7912178635597229
0.0093037774786353111 0.41513487696647644 0.7129065990447998
0.18544474244117737 0.41484448313713074 0.7309575080871582
0.47778216004371643 0.4421197772026062 0.75846236944198608
0.71102410554885864 0.5003349781036377 0.80128788948059082
0.87252920866012573 0.55055886507034302 0.8223491907119751
0.9602392315864563 0.54051440954208374 0.80440217256546021
1 0.5513342022895813 0.78805011510848999
8.6167283370741643e-06 0.58141195774078369 0.70461136102676392
0.07912839949131012 0.57791221141815186 0.70390969514846802
0.38612174987792969 0.5870317816734314 0.71753650903701782
0.62840181589126587 0.6263129711151123 0.75574588775634766
0.82690715789794922 0.67648935317993164 0.80088752508163452
0.93550336360931396 0.6730036735534668 0.79627275466918945
0.99993103742599487 0.67110949754714966 0.7801242470741272
0.15514619648456573 0.76601308584213257 0.76135170459747314
0.29347604513168335 0.76723051071166992 0.76427757740020752
0.46283635497093201 0.76450753211975098 0.76292043924331665
0.62277674674987793 0.76286953687667847 0.76445412635803223
0.77000963687896729 0.76353073120117188 0.76665151119232178
0.90128064155578613 0.7642592191696167 0.76330405473709106
0.996856689453125 0.7575840950012207 0.74683183431625366
0.41736450791358948 0.90019172430038452 0.79089593887329102
0.46740812063217163 0.90380483865737915 0.79596084356307983
0.56549793481826782 0.89097708463668823 0.79105323553085327
0.66198331117630005 0.87209051847457886 0.7806592583656311
0.73478519916534424 0.83696073293685913 0.75761187076568604
0.84479087591171265 0.84417879581451416 0.74515557289123535
0.98786246776580811 0.8577193021774292 0.73422092199325562
0.55630415678024292 0.98763161897659302 0.81890159845352173
0.58946520090103149 0.98177415132522583 0.81558603048324585
0.65189498662948608 0.97797095775604248 0.81970393657684326
0.70571887493133545 0.96164757013320923 0.81034207344055176
0.75784444808959961 0.94500565528869629 0.80154037475585938
0.83813703060150146 0.94428831338882446 0.79792088270187378
0.95867323875427246 0.96927744150161743 0.7968900203704834
0.36829471588134766 0.19191284477710724 0.88627392053604126
0.4584086537361145 0.19290384650230408 0.88965731859207153
0.60039335489273071 0.19711363315582275 0.8986508846282959
0.75872361660003662 0.25023099780082703 0.91461467742919922
0.91446399688720703 0.35298100113868713 0.93504476547241211
0.9983212947845459 0.40718340873718262 0.93151390552520752
1 0.42605996131896973 0.91361421346664429
0.33575323224067688 0.30749770998954773 0.87898582220077515
0.43527913093566895 0.31316602230072021 0.88490349054336548
0.58477234840393066 0.33054706454277039 0.89381271600723267
0.74583214521408081 0.37660360336303711 0.9098854660987854
0.90050923824310303 0.45682337880134583 0.9310230016708374
0.99233675003051758 0.49913430213928223 0.92899227142333984
1 0.50223338603973389 0.91395461559295654
0.24825817346572876 0.45320084691047668 0.8579941987991333
0.37520328164100647 0.4601876437664032 0.86555880308151245
0.54132628440856934 0.48009997606277466 0.87898200750350952
0.71453738212585449 0.52738118171691895 0.89916515350341797
0.8730771541595459 0.58991450071334839 0.92021423578262329
0.98094934225082397 0.62070602178573608 0.92388927936553955
1 0.611255943775177 0.91326594352722168
0.057053316384553909 0.5920225977897644 0.82252132892608643
0.20271949470043182 0.58790630102157593 0.82503783702850342
0.44147601723670959 0.5959661602973938 0.84276276826858521
0.65087604522705078 0.63240236043930054 0.8707919716835022
0.83515912294387817 0.69438177347183228 0.90229958295822144
0.96152162551879883 0.72395449876785278 0.9176592230796814
1 0.71383434534072876 0.90787923336029053
0.042235773056745529 0.72238481044769287 0.8312983512878418
0.17449061572551727 0.71879631280899048 0.8299747109413147
0.3697296679019928 0.71245366334915161 0.82575279474258423
0.54810094833374023 0.71062958240509033 0.82550817728042603
0.76376843452453613 0.75487363338470459 0.86654704809188843
0.92982059717178345 0.81048226356506348 0.90526247024536133
0.99836397171020508 0.80612653493881226 0.90065151453018188
0.34588554501533508 0.87802398204803467 0.8749462366104126
0.41202539205551147 0.87730294466018677 0.87444901466369629
0.50997841358184814 0.8752705454826355 0.87307316064834595
0.6317259669303894 0.87203609943389893 0.87359833717346191
0.75523895025253296 0.86482161283493042 0.86959928274154663
0.8880799412727356 0.8833199143409729 0.88432818651199341
0.99109315872192383 0.88728064298629761 0.88520091772079468
0.51877188682556152 0.99213415384292603 0.8973650336265564
0.5524747371673584 0.99168920516967773 0.89704573154449463
0.6250120997428894 0.99387699365615845 0.90289425849914551
0.72025167942047119 0.9892382025718689 0.90697669982910156
0.80314654111862183 0.98390746116638184 0.90265071392059326
0.87321692705154419 0.9662247896194458 0.88834506273269653
0.96751278638839722 0.97303152084350586 0.88368195295333862
0.54311007261276245 0.40125957131385803 0.98893296718597412
0.58257275819778442 0.41216230392456055 0.98890030384063721
0.66636359691619873 0.40399953722953796 0.98955857753753662
0.76792615652084351 0.43402206897735596 0.9921068549156189
0.88012516498565674 0.48681390285491943 0.99568158388137817
0.98258388042449951 0.54171347618103027 0.99858975410461426
0.99990898370742798 0.56775432825088501 0.99651873111724854
0.53673034906387329 0.46911430358886719 0.98642945289611816
0.57803362607955933 0.4770933985710144 0.98681491613388062
0.65754294395446777 0.48511978983879089 0.9885326623916626
0.75811147689819336 0.51231920719146729 0.99109703302383423
0.8731386661529541 0.54268378019332886 0.99372893571853638
0.97685766220092773 0.59610885381698608 0.99764245748519897
1 0.61240822076797485 0.99790710210800171
0.51220953464508057 0.57381051778793335 0.97980624437332153
0.55450588464736938 0.57459241151809692 0.98106652498245239
0.64025211334228516 0.58439117670059204 0.98345309495925903
0.74417251348495483 0.60621351003646851 0.98591488599777222
0.86210542917251587 0.63706225156784058 0.99131911993026733
0.97103387117385864 0.677634596824646 0.99611097574234009
1 0.68706858158111572 0.99633938074111938
0.46514120697975159 0.66855549812316895 0.96774065494537354
0.50899571180343628 0.66673088073730469 0.97022151947021484
0.5908464789390564 0.67008084058761597 0.97210103273391724
0.71117889881134033 0.68512582778930664 0.97848218679428101
0.84443217515945435 0.71915751695632935 0.98775720596313477
0.96012520790100098 0.75775390863418579 0.99313724040985107
1 0.76964646577835083 0.9931069016456604
0.34765982627868652 0.75878149271011353 0.95581328868865967
0.4059390127658844 0.75730985403060913 0.95696830749511719
0.49805968999862671 0.75261068344116211 0.95657873153686523
0.63319522142410278 0.75547868013381958 0.96145868301391602
0.79435038566589355 0.78136467933654785 0.97739326953887939
0.93583571910858154 0.83241552114486694 0.99188756942749023
0.99987775087356567 0.8498767614364624 0.99354082345962524
0.41580232977867126 0.87008774280548096 0.96980029344558716
0.45228224992752075 0.86859124898910522 0.97004598379135132
0.5137021541595459 0.86589688062667847 0.96846741437911987
0.60015344619750977 0.85743266344070435 0.96285289525985718
0.72325879335403442 0.85729235410690308 0.96522897481918335
0.88337248563766479 0.88550812005996704 0.98138725757598877
0.99724036455154419 0.92337584495544434 0.98790407180786133
0.49538430571556091 0.98690128326416016 0.98459553718566895
0.54054391384124756 0.98670953512191772 0.9851754903793335
0.58969759941101074 0.98668956756591797 0.98566383123397827
0.68479961156845093 0.98571455478668213 0.98695826530456543
0.77913087606430054 0.98379737138748169 0.98683112859725952
0.87880933284759521 0.98151916265487671 0.98572158813476562
0.98674219846725464 0.98790419101715088 0.98725777864456177
