films/kodak_kodachrome_64_generic.cube
# Created by: G'MIC (https://gmic.eu)
TITLE "kodak_kodachrome_64_generic"
# LUT size
LUT_3D_SIZE 7
# Data domain
DOMAIN_MIN 0.0 0.0 0.0
DOMAIN_MAX 1.0 1.0 1.0
# LUT data points
0.017421513795852661 0.014741276390850544 0.015702759847044945
0.1190790981054306 0.015790034085512161 0.01779957115650177
0.31066462397575378 0.019226163625717163 0.01616617850959301
0.55018895864486694 0.026117900386452675 0.019621875137090683
0.78757685422897339 0.035919219255447388 0.024823566898703575
0.98091191053390503 0.038088645786046982 0.026567062363028526
1 0.052412655204534531 0.046251334249973297
0.043572861701250076 0.10928972810506821 0.024733239784836769
0.11657080799341202 0.11200250685214996 0.025675112381577492
0.30709025263786316 0.11969149857759476 0.026961531490087509
0.55017578601837158 0.13384224474430084 0.032182656228542328
0.78323477506637573 0.14572007954120636 0.038642510771751404
0.9679381251335144 0.15194657444953918 0.042227279394865036
1 0.15945117175579071 0.050850361585617065
0.03580169752240181 0.29184678196907043 0.049189038574695587
0.098634131252765656 0.29378077387809753 0.048392470926046371
0.30132776498794556 0.29650938510894775 0.054349623620510101
0.54332524538040161 0.31118282675743103 0.059320844709873199
0.77895909547805786 0.31595239043235779 0.062583222985267639
0.96746623516082764 0.32646998763084412 0.065222643315792084
1 0.3205258846282959 0.068407930433750153
0.0011411779560148716 0.50943326950073242 0.075558379292488098
0.053575627505779266 0.51100295782089233 0.066878706216812134
0.25940090417861938 0.51188147068023682 0.071851469576358795
0.51684927940368652 0.51645588874816895 0.07258160412311554
0.75398093461990356 0.52350276708602905 0.076712802052497864
0.94299536943435669 0.53314715623855591 0.086360573768615723
1 0.53203308582305908 0.085862480103969574
4.9785539886215702e-05 0.70744490623474121 0.072358056902885437
0.012300034984946251 0.71018117666244507 0.062974072992801666
0.16962075233459473 0.71229636669158936 0.071064606308937073
0.4754808247089386 0.71036624908447266 0.057787410914897919
0.72315239906311035 0.71935313940048218 0.067745774984359741
0.90162259340286255 0.72903966903686523 0.071637846529483795
0.99793726205825806 0.73147886991500854 0.07907421886920929
0.021110190078616142 0.85323548316955566 0.031792182475328445
0.064871467649936676 0.85884606838226318 0.025445392355322838
0.22881358861923218 0.86060088872909546 0.017904961481690407
0.50204247236251831 0.86307710409164429 0.025854477658867836
0.72301375865936279 0.86843055486679077 0.029067918658256531
0.87805485725402832 0.87783879041671753 0.027605827897787094
0.99437040090560913 0.87433928251266479 0.025281928479671478
0.069956429302692413 0.95637065172195435 0.060737922787666321
0.15831765532493591 0.96690797805786133 0.037367668002843857
0.32676529884338379 0.97242313623428345 0.023269876837730408
0.54298394918441772 0.97833824157714844 0.029788985848426819
0.72120863199234009 0.98194265365600586 0.031913325190544128
0.8535725474357605 0.98801559209823608 0.046691611409187317
0.97891032695770264 0.97999238967895508 0.054145842790603638
0.019823260605335236 0.01395734865218401 0.10314881801605225
0.12303376942873001 0.015312493778765202 0.10685578733682632
0.30323687195777893 0.018689010292291641 0.1076916828751564
0.54938489198684692 0.020032605156302452 0.11910590529441833
0.79285037517547607 0.026403957977890968 0.12589982151985168
0.9846683144569397 0.032617442309856415 0.12399734556674957
1 0.040549751371145248 0.14308194816112518
0.043671641498804092 0.10742180049419403 0.11316347122192383
0.12037308514118195 0.11105318367481232 0.11532747000455856
0.31124025583267212 0.11682070791721344 0.11872271448373795
0.55288928747177124 0.12320474535226822 0.12455082684755325
0.78940695524215698 0.1327807754278183 0.1311831921339035
0.9795641303062439 0.14033524692058563 0.13469955325126648
1 0.14855653047561646 0.13765941560268402
0.032649379223585129 0.29156231880187988 0.13340103626251221
0.084685228765010834 0.29232817888259888 0.1315186470746994
0.30105417966842651 0.29478609561920166 0.13650412857532501
0.54243391752243042 0.3045525848865509 0.14311760663986206
0.77408212423324585 0.3128451406955719 0.14224253594875336
0.9663088321685791 0.32309293746948242 0.14456118643283844
1 0.32526734471321106 0.14931902289390564
0 0.50547701120376587 0.15574513375759125
0.021903768181800842 0.50907641649246216 0.14387936890125275
0.255228191614151 0.51214182376861572 0.14785291254520416
0.52596354484558105 0.51918154954910278 0.15527208149433136
0.75229537487030029 0.52692008018493652 0.15933859348297119
0.93662506341934204 0.53395092487335205 0.16252651810646057
1 0.53412866592407227 0.16791869699954987
0 0.70378023386001587 0.15076394379138947
0.0022682489361613989 0.70842069387435913 0.14084385335445404
0.20212981104850769 0.70999777317047119 0.14490269124507904
0.49876341223716736 0.71362221240997314 0.14947621524333954
0.72584074735641479 0.72142565250396729 0.1584002673625946
0.90150773525238037 0.72712504863739014 0.16204392910003662
0.99806267023086548 0.72866731882095337 0.16441909968852997
4.5327578845899552e-05 0.85733675956726074 0.14009399712085724
0.037219583988189697 0.8601304292678833 0.14275133609771729
0.23352676630020142 0.86080729961395264 0.13901486992835999
0.50430774688720703 0.86484760046005249 0.1539648175239563
0.72038489580154419 0.87012797594070435 0.16171333193778992
0.8738899827003479 0.87638217210769653 0.15855899453163147
0.99378639459609985 0.87533807754516602 0.16024136543273926
0.02963593415915966 0.96374797821044922 0.19389230012893677
0.12643681466579437 0.97238010168075562 0.17810826003551483
0.31900808215141296 0.97646868228912354 0.16707207262516022
0.54083871841430664 0.98122268915176392 0.17713484168052673
0.7197946310043335 0.98615145683288574 0.18650388717651367
0.85995370149612427 0.9897875189781189 0.19675825536251068
0.9889717698097229 0.98406815528869629 0.20095828175544739
0.016346516087651253 0.0089905532076954842 0.28223708271980286
0.12148614227771759 0.013891451992094517 0.27437934279441833
0.30405867099761963 0.018054991960525513 0.27804070711135864
0.55137169361114502 0.017579216510057449 0.28411158919334412
0.79091554880142212 0.017962586134672165 0.28743866086006165
0.9722403883934021 0.025427665561437607 0.28743115067481995
1 0.037222005426883698 0.29748609662055969
0.047181747853755951 0.10461358726024628 0.28933650255203247
0.12240470200777054 0.1074039563536644 0.29031616449356079
0.30715087056159973 0.11411355435848236 0.29407855868339539
0.55149608850479126 0.1193942055106163 0.29808393120765686
0.78976696729660034 0.1271977424621582 0.29936593770980835
0.97585427761077881 0.13791362941265106 0.30022141337394714
1 0.14780481159687042 0.30284011363983154
0.037974502891302109 0.28315606713294983 0.30255228281021118
0.090069711208343506 0.28625714778900146 0.30712902545928955
0.31159824132919312 0.29396739602088928 0.30526244640350342
0.54493421316146851 0.30307114124298096 0.31235522031784058
0.77465391159057617 0.30748394131660461 0.31538093090057373
0.95721006393432617 0.31429955363273621 0.31733328104019165
0.99959754943847656 0.31846329569816589 0.32094025611877441
0 0.49989202618598938 0.32095062732696533
0.019146788865327835 0.50380831956863403 0.32095006108283997
0.26120981574058533 0.50627666711807251 0.32358375191688538
0.53226029872894287 0.5139961838722229 0.33011558651924133
0.75596553087234497 0.52140915393829346 0.3341769278049469
0.93801397085189819 0.52821791172027588 0.33311766386032104
0.99995869398117065 0.53268700838088989 0.33567026257514954
0 0.69845670461654663 0.33302229642868042
0.00095636706100776792 0.70326429605484009 0.33113080263137817
0.1972929984331131 0.70672357082366943 0.33661428093910217
0.50945454835891724 0.71229249238967896 0.33528214693069458
0.73168390989303589 0.71734178066253662 0.33875617384910583
0.90481674671173096 0.72151952981948853 0.34997689723968506
0.99845725297927856 0.72496229410171509 0.35436844825744629
0 0.85222345590591431 0.35318979620933533
0.023636613041162491 0.85757505893707275 0.35386291146278381
0.22700768709182739 0.8586534857749939 0.35681778192520142
0.51536446809768677 0.86231106519699097 0.35640349984169006
0.72367590665817261 0.86497622728347778 0.36096790432929993
0.87653636932373047 0.86963009834289551 0.37259700894355774
0.99346768856048584 0.87321674823760986 0.37124839425086975
0.015380380675196648 0.96481776237487793 0.38342183828353882
0.11657741665840149 0.97307956218719482 0.37911072373390198
0.32809901237487793 0.97475129365921021 0.37633201479911804
0.55563050508499146 0.97784608602523804 0.3798556923866272
0.72241818904876709 0.98308044672012329 0.38387423753738403
0.85816425085067749 0.98861134052276611 0.3901059627532959
0.99279451370239258 0.98486876487731934 0.39126443862915039
0.019272105768322945 0.011090222746133804 0.48509940505027771
0.12316258996725082 0.0093466220423579216 0.48340797424316406
0.3012346625328064 0.015134983696043491 0.48561546206474304
0.54922318458557129 0.01333122979849577 0.48305788636207581
0.78486329317092896 0.013346264138817787 0.48455715179443359
0.96344089508056641 0.022396789863705635 0.48709654808044434
1 0.039098359644412994 0.48597198724746704
0.042919442057609558 0.10775529593229294 0.4963897168636322
0.12771333754062653 0.10401545464992523 0.49780374765396118
0.31020951271057129 0.10846340656280518 0.49820047616958618
0.550853431224823 0.11844176054000854 0.49860551953315735
0.78586918115615845 0.12271887063980103 0.50224673748016357
0.96407634019851685 0.13829907774925232 0.50542384386062622
1 0.15492096543312073 0.5037304162979126
0.023995209485292435 0.28427973389625549 0.50798344612121582
0.081185765564441681 0.28754705190658569 0.5088202953338623
0.30549067258834839 0.28910565376281738 0.51026493310928345
0.54706019163131714 0.30157345533370972 0.51294821500778198
0.78057092428207397 0.30243515968322754 0.51738882064819336
0.96492981910705566 0.31567081809043884 0.52455657720565796
1 0.32119601964950562 0.52536797523498535
0 0.49678322672843933 0.52221858501434326
0.02374674566090107 0.50137567520141602 0.52523982524871826
0.26901897788047791 0.50445836782455444 0.52747607231140137
0.53218233585357666 0.50936901569366455 0.53104418516159058
0.76075345277786255 0.51761186122894287 0.53199231624603271
0.9366077184677124 0.52242755889892578 0.53707760572433472
0.99868351221084595 0.52619558572769165 0.53696632385253906
0 0.69831383228302002 0.54019773006439209
0.0040170405991375446 0.700977623462677 0.54180312156677246
0.22014980018138885 0.70409297943115234 0.5460667610168457
0.51231855154037476 0.70880329608917236 0.5475885272026062
0.73226273059844971 0.71371519565582275 0.54839348793029785
0.90576225519180298 0.71595412492752075 0.5535387396812439
0.99895620346069336 0.71993380784988403 0.55468392372131348
0.0012779535027220845 0.85316175222396851 0.55872166156768799
0.049475636333227158 0.85568791627883911 0.56144839525222778
0.25630912184715271 0.85687839984893799 0.56492191553115845
0.52274757623672485 0.85966962575912476 0.56575322151184082
0.72699016332626343 0.86130177974700928 0.56549036502838135
0.87857186794281006 0.86839568614959717 0.56881821155548096
0.99436795711517334 0.87095338106155396 0.56974202394485474
0.030071422457695007 0.96724671125411987 0.56879961490631104
0.13008859753608704 0.97517704963684082 0.57206660509109497
0.33158567547798157 0.97597378492355347 0.57478708028793335
0.5548102855682373 0.97664207220077515 0.57809287309646606
0.72602349519729614 0.98033499717712402 0.57894706726074219
0.86226761341094971 0.98707044124603271 0.58191084861755371
0.99190229177474976 0.98289948701858521 0.5795053243637085
0.042262252420186996 0.0054215672425925732 0.65387427806854248
0.14110918343067169 0.0039239623583853245 0.65966731309890747
0.31033104658126831 0.0065755657851696014 0.66274964809417725
0.54773664474487305 0.0071172378957271576 0.66268700361251831
0.78915244340896606 0.010764611884951591 0.67019975185394287
0.97633963823318481 0.023548470810055733 0.67958265542984009
1 0.040849797427654266 0.66565662622451782
0.061507761478424072 0.095768243074417114 0.67436796426773071
0.14587537944316864 0.095475278794765472 0.67670983076095581
0.31927609443664551 0.10223130136728287 0.67806708812713623
0.55343484878540039 0.11124348640441895 0.6796913743019104
0.78873580694198608 0.1215100884437561 0.68581861257553101
0.96926361322402954 0.13867218792438507 0.69161248207092285
1 0.15652585029602051 0.68540400266647339
0.039770506322383881 0.27542915940284729 0.68924224376678467
0.098506316542625427 0.27799013257026672 0.69135719537734985
0.31015005707740784 0.28152567148208618 0.69280713796615601
0.55208045244216919 0.29051309823989868 0.69451797008514404
0.78255546092987061 0.29913714528083801 0.69927704334259033
0.95944309234619141 0.31338346004486084 0.70601552724838257
1 0.32098910212516785 0.70555806159973145
4.6673944780195598e-06 0.49258497357368469 0.7048153281211853
0.021941600367426872 0.49641424417495728 0.70804685354232788
0.27041834592819214 0.50038772821426392 0.70869916677474976
0.53156775236129761 0.50638884305953979 0.71167200803756714
0.76029956340789795 0.51240378618240356 0.71521842479705811
0.93332880735397339 0.51878196001052856 0.72067159414291382
1 0.51990169286727905 0.72003352642059326
0 0.69219833612442017 0.72035741806030273
0.0082576526328921318 0.69540733098983765 0.72332453727722168
0.23019789159297943 0.69821310043334961 0.72590172290802002
0.50930678844451904 0.70311963558197021 0.72974658012390137
0.73040986061096191 0.70873767137527466 0.73199349641799927
0.90129357576370239 0.71319681406021118 0.73535758256912231
0.99862265586853027 0.71397179365158081 0.73561739921569824
0.00059923657681792974 0.84482932090759277 0.73706036806106567
0.049438878893852234 0.84826743602752686 0.73679184913635254
0.27245962619781494 0.85026770830154419 0.73977535963058472
0.52995562553405762 0.85528737306594849 0.7441641092300415
0.72697436809539795 0.85701972246170044 0.7447502613067627
0.87801939249038696 0.86402815580368042 0.74685764312744141
0.99410319328308105 0.86762320995330811 0.74663889408111572
0.02330646850168705 0.96592104434967041 0.73954379558563232
0.12259527295827866 0.97342890501022339 0.7414671778678894
0.33680227398872375 0.9743114709854126 0.74416720867156982
0.55816525220870972 0.97579604387283325 0.74918586015701294
0.72567474842071533 0.97958636283874512 0.75150096416473389
0.85767966508865356 0.98678106069564819 0.75922858715057373
0.99162650108337402 0.98165923357009888 0.7493857741355896
0.066090032458305359 0.0017817479092627764 0.78582489490509033
0.1561741828918457 0.0025143192615360022 0.79705715179443359
0.3142600953578949 0.0049641327932476997 0.80274474620819092
0.54696464538574219 0.0055336295627057552 0.80611556768417358
0.79570102691650391 0.0091931810602545738 0.81514638662338257
0.98447805643081665 0.020990753546357155 0.82367897033691406
1 0.038506735116243362 0.80846911668777466
0.066742703318595886 0.090177558362483978 0.812477707862854
0.15014947950839996 0.10017397999763489 0.8163912296295166
0.31873807311058044 0.10761367529630661 0.81921482086181641
0.55065250396728516 0.10867414623498917 0.8206404447555542
0.79152429103851318 0.1137668713927269 0.82792776823043823
0.97638213634490967 0.12830862402915955 0.83461731672286987
1 0.1444275975227356 0.83038806915283203
0.035946041345596313 0.27021723985671997 0.82692670822143555
0.105240598320961 0.28070425987243652 0.82924699783325195
0.30951997637748718 0.28606599569320679 0.83531820774078369
0.54829925298690796 0.28890731930732727 0.83426696062088013
0.7828139066696167 0.29121232032775879 0.83961951732635498
0.96468913555145264 0.30482697486877441 0.84673213958740234
1 0.31045874953269958 0.84683346748352051
0.00041520362719893456 0.4902452826499939 0.84832358360290527
0.021689096465706825 0.49532091617584229 0.85016602277755737
0.26764532923698425 0.49634647369384766 0.85314470529556274
0.5390438437461853 0.50162112712860107 0.84973996877670288
0.76540464162826538 0.50696665048599243 0.85550463199615479
0.9419257640838623 0.51581734418869019 0.86076271533966064
1 0.51663869619369507 0.85828310251235962
0 0.6931384801864624 0.86239397525787354
0.0051028681918978691 0.69423294067382812 0.86456513404846191
0.22688524425029755 0.69395041465759277 0.86670953035354614
0.51540970802307129 0.69999188184738159 0.86633491516113281
0.73617589473724365 0.70583456754684448 0.86964839696884155
0.90678095817565918 0.71160459518432617 0.87433749437332153
0.99967473745346069 0.71178662776947021 0.8720131516456604
0 0.84646427631378174 0.8754274845123291
0.010894237086176872 0.84440898895263672 0.87139981985092163
0.26209822297096252 0.84730005264282227 0.87519514560699463
0.53398233652114868 0.85502183437347412 0.8775399923324585
0.73006618022918701 0.85748088359832764 0.87683761119842529
0.88191419839859009 0.86040639877319336 0.87781369686126709
0.99223703145980835 0.86629855632781982 0.88057112693786621
0.00076078524580225348 0.97096246480941772 0.87700062990188599
0.10518226027488708 0.97486484050750732 0.8787376880645752
0.35044968128204346 0.97645968198776245 0.88053888082504272
0.56417477130889893 0.9784666895866394 0.88466227054595947
0.7258298397064209 0.98263782262802124 0.88477593660354614
0.85795217752456665 0.98497259616851807 0.88788360357284546
0.99379909038543701 0.98209637403488159 0.88654476404190063
0.085548907518386841 0.0059748031198978424 0.8899683952331543
0.16751110553741455 0.009091351181268692 0.90481233596801758
0.30560854077339172 0.015385571867227554 0.91448730230331421
0.54351478815078735 0.012575995177030563 0.9151189923286438
0.7931559681892395 0.016294023022055626 0.91960829496383667
0.97867399454116821 0.025599999353289604 0.921214759349823
1 0.04354095458984375 0.91137009859085083
0.072411462664604187 0.094926081597805023 0.91473054885864258
0.15666158497333527 0.11329478770494461 0.92322856187820435
0.32012641429901123 0.11870904266834259 0.92647933959960938
0.54958868026733398 0.11196434497833252 0.92504537105560303
0.79193639755249023 0.11970463395118713 0.93071073293685913
0.97857391834259033 0.12275414913892746 0.93290978670120239
1 0.13854919373989105 0.93727445602416992
0.037680383771657944 0.27541488409042358 0.92929685115814209
0.11286399513483047 0.28574565052986145 0.93597131967544556
0.3162219226360321 0.28626105189323425 0.94081652164459229
0.54941415786743164 0.28091061115264893 0.93665003776550293
0.77713745832443237 0.29041969776153564 0.9435049295425415
0.94551128149032593 0.2969285249710083 0.95044875144958496
0.9998023509979248 0.29965418577194214 0.95496994256973267
0.001411004108376801 0.4873010516166687 0.95299410820007324
0.01494236383587122 0.49309799075126648 0.94906044006347656
0.27643707394599915 0.49398696422576904 0.95777672529220581
0.53646284341812134 0.50027555227279663 0.95405620336532593
0.76047444343566895 0.50293689966201782 0.96110779047012329
0.94088524580001831 0.51346671581268311 0.96283221244812012
1 0.51330971717834473 0.96071231365203857
0 0.68914830684661865 0.96721029281616211
0.020631438121199608 0.68879467248916626 0.9724850058555603
0.2357814610004425 0.69058698415756226 0.9722486138343811
0.51874339580535889 0.69548153877258301 0.97411507368087769
0.7358318567276001 0.70034265518188477 0.97719007730484009
0.90665996074676514 0.70733970403671265 0.98223608732223511
0.9996677041053772 0.70940327644348145 0.9718899130821228
4.0061800973489881e-05 0.83731329441070557 0.98066222667694092
0.050206456333398819 0.8394162654876709 0.98615145683288574
0.26531219482421875 0.84611999988555908 0.98071765899658203
0.53099966049194336 0.85081601142883301 0.98231548070907593
0.72930246591567993 0.85466516017913818 0.98325568437576294
0.88126116991043091 0.85923635959625244 0.98554402589797974
0.99458259344100952 0.85706764459609985 0.98679620027542114
0.019497830420732498 0.95601195096969604 0.97953402996063232
0.1412496417760849 0.96711724996566772 0.98887020349502563
0.3616359531879425 0.97687005996704102 0.98900341987609863
0.56281149387359619 0.97652029991149902 0.9913794994354248
0.72556781768798828 0.98057681322097778 0.99251806735992432
0.85733264684677124 0.98390370607376099 0.99380648136138916
0.99542254209518433 0.98331654071807861 0.99697715044021606
