films/kodak_elite_chrome_200.cube
# Created by: G'MIC (https://gmic.eu)
TITLE "kodak_elite_chrome_200"
# LUT size
LUT_3D_SIZE 7
# Data domain
DOMAIN_MIN 0.0 0.0 0.0
DOMAIN_MAX 1.0 1.0 1.0
# LUT data points
0.026220269501209259 0.022765245288610458 0.02004222571849823
0.12157639116048813 0.012453730218112469 0.0099770938977599144
0.26024612784385681 0.005287559237331152 0.001488853944465518
0.4209291934967041 0.0021333582699298859 0
0.58354443311691284 0 0
0.74530357122421265 0 0
0.89417213201522827 0 0
0.10350379347801208 0.16935519874095917 0.075154893100261688
0.17629460990428925 0.15618467330932617 0.06069590151309967
0.31528142094612122 0.13810937106609344 0.038451910018920898
0.47151279449462891 0.1117970198392868 0.014643127098679543
0.6263115406036377 0.069432534277439117 0.0028132570441812277
0.77095562219619751 0.02955944649875164 0
0.89360231161117554 0.0022070042323321104 0.001122897258028388
0.16395582258701324 0.35197162628173828 0.14686982333660126
0.24897019565105438 0.34500619769096375 0.1309722363948822
0.38931030035018921 0.32833382487297058 0.10383909940719604
0.54322481155395508 0.30150231719017029 0.075785964727401733
0.69528216123580933 0.2649780809879303 0.052207976579666138
0.83226257562637329 0.21501155197620392 0.02824675664305687
0.93723553419113159 0.16637401282787323 0.026742612943053246
0.27781012654304504 0.5392833948135376 0.21148151159286499
0.34914857149124146 0.53988367319107056 0.2002226859331131
0.47759139537811279 0.52736949920654297 0.17505809664726257
0.62417083978652954 0.51042783260345459 0.15000446140766144
0.77238732576370239 0.49080798029899597 0.125234454870224
0.90602117776870728 0.45962485671043396 0.097196884453296661
0.99083191156387329 0.41419842839241028 0.086099438369274139
0.41322830319404602 0.70930099487304688 0.27262920141220093
0.47217243909835815 0.71045827865600586 0.26539921760559082
0.57715767621994019 0.704609215259552 0.24703031778335571
0.70554059743881226 0.69711798429489136 0.22646860778331757
0.84541648626327515 0.68492680788040161 0.20307600498199463
0.96383029222488403 0.6634906530380249 0.177225261926651
1 0.63001793622970581 0.16193406283855438
0.55765920877456665 0.85657531023025513 0.32875519990921021
0.60110676288604736 0.85772019624710083 0.32335653901100159
0.67904967069625854 0.85457175970077515 0.31480121612548828
0.7946162223815918 0.85079056024551392 0.29598239064216614
0.9183657169342041 0.84385758638381958 0.27333715558052063
0.99873811006546021 0.83169710636138916 0.25256088376045227
1 0.8080517053604126 0.23891295492649078
0.70672780275344849 0.98219811916351318 0.37084949016571045
0.73784679174423218 0.98060333728790283 0.36182555556297302
0.79542630910873413 0.97871392965316772 0.35673084855079651
0.88756245374679565 0.978007972240448 0.34863996505737305
0.98237788677215576 0.9753841757774353 0.33213287591934204
1 0.97216153144836426 0.31733912229537964
1 0.9606134295463562 0.3059508204460144
0.017917856574058533 0.021036963909864426 0.1008157953619957
0.096742697060108185 0.010710129514336586 0.086075834929943085
0.23439347743988037 0.0065131690353155136 0.057477060705423355
0.39041662216186523 0.00042814365588128567 0.039648033678531647
0.54879027605056763 0 0.013715213164687157
0.70750290155410767 0 0.00061274511972442269
0.85403811931610107 0 0.0037229349836707115
0.079819217324256897 0.15882501006126404 0.16529832780361176
0.15307275950908661 0.14794017374515533 0.1477082371711731
0.29025214910507202 0.12917150557041168 0.12107817828655243
0.44390839338302612 0.10127793997526169 0.091410450637340546
0.5938764214515686 0.067303799092769623 0.05467287078499794
0.73436760902404785 0.023375328630208969 0.01820862665772438
0.8616102933883667 0 0.01223099697381258
0.13261815905570984 0.34911784529685974 0.23283527791500092
0.22080285847187042 0.34103652834892273 0.21932400763034821
0.36120942234992981 0.32419022917747498 0.19512051343917847
0.51763260364532471 0.30037969350814819 0.16510123014450073
0.66700619459152222 0.26119878888130188 0.12761203944683075
0.80077838897705078 0.20001107454299927 0.084060534834861755
0.90927165746688843 0.13098916411399841 0.06628640741109848
0.23349767923355103 0.54161912202835083 0.29841732978820801
0.31339296698570251 0.53884828090667725 0.28943377733230591
0.44728675484657288 0.52887839078903198 0.26669007539749146
0.59665930271148682 0.51416015625 0.24423167109489441
0.74400448799133301 0.49223929643630981 0.21615540981292725
0.8854604959487915 0.45788159966468811 0.18425457179546356
0.98371750116348267 0.40658068656921387 0.16632747650146484
0.37623631954193115 0.71506971120834351 0.35646018385887146
0.43390223383903503 0.71259021759033203 0.355846107006073
0.54394435882568359 0.7075926661491394 0.33899453282356262
0.67479872703552246 0.69962471723556519 0.32240325212478638
0.81475573778152466 0.68751174211502075 0.30129948258399963
0.94809895753860474 0.66651022434234619 0.27584338188171387
1 0.62868338823318481 0.25661686062812805
0.51695764064788818 0.8597601056098938 0.41884517669677734
0.56396543979644775 0.85907697677612305 0.41436862945556641
0.64737910032272339 0.85655772686004639 0.40393537282943726
0.76008528470993042 0.85304898023605347 0.39148113131523132
0.88458740711212158 0.84635275602340698 0.37270689010620117
0.98953533172607422 0.83315825462341309 0.35111117362976074
1 0.80727308988571167 0.33424368500709534
0.66017210483551025 0.98407375812530518 0.46598497033119202
0.70098674297332764 0.98382073640823364 0.45446693897247314
0.76302987337112427 0.98287582397460938 0.44727343320846558
0.85305577516555786 0.98253917694091797 0.4443090558052063
0.95163863897323608 0.98015588521957397 0.43053418397903442
1 0.97452235221862793 0.4139845073223114
1 0.95618295669555664 0.40126827359199524
0.0058625014498829842 0.018776852637529373 0.21748074889183044
0.064835399389266968 0.015150346793234348 0.19696946442127228
0.19736966490745544 0.0026826148387044668 0.17308452725410461
0.35549813508987427 0 0.14626592397689819
0.51323181390762329 0 0.11257766932249069
0.67057341337203979 0 0.077491998672485352
0.82239079475402832 0 0.058211009949445724
0.047825697809457779 0.15235140919685364 0.28118297457695007
0.11691058427095413 0.13836267590522766 0.26637628674507141
0.24983631074428558 0.11325693875551224 0.24035640060901642
0.40645971894264221 0.082257412374019623 0.20707331597805023
0.55227857828140259 0.051129180938005447 0.16761964559555054
0.6892772912979126 0.014972851611673832 0.1244896799325943
0.82073736190795898 0 0.098054863512516022
0.071592874825000763 0.34585243463516235 0.34905579686164856
0.16389775276184082 0.33833217620849609 0.34252205491065979
0.31514057517051697 0.31502422690391541 0.31893846392631531
0.47559258341789246 0.28642541170120239 0.28831154108047485
0.62199831008911133 0.24422562122344971 0.25064575672149658
0.75189602375030518 0.18173179030418396 0.20740567147731781
0.8649897575378418 0.11492876708507538 0.17438676953315735
0.16353738307952881 0.53801846504211426 0.41985785961151123
0.25154903531074524 0.53609752655029297 0.41381335258483887
0.39614519476890564 0.5262109637260437 0.39541217684745789
0.55246627330780029 0.51005131006240845 0.37226492166519165
0.69949352741241455 0.48517456650733948 0.34367406368255615
0.8371574878692627 0.45023524761199951 0.31231504678726196
0.94655042886734009 0.3944394588470459 0.28509485721588135
0.30361482501029968 0.7107536792755127 0.48090448975563049
0.37289220094680786 0.71067655086517334 0.47915288805961609
0.49027693271636963 0.7063828706741333 0.46537202596664429
0.62704318761825562 0.6972353458404541 0.4478875994682312
0.76583373546600342 0.68456947803497314 0.42646461725234985
0.90157675743103027 0.66602009534835815 0.40149727463722229
0.99644571542739868 0.62660932540893555 0.37598639726638794
0.45991089940071106 0.85893625020980835 0.53587287664413452
0.50813055038452148 0.85836601257324219 0.53591024875640869
0.59606873989105225 0.85632067918777466 0.52532565593719482
0.7092205286026001 0.85161334276199341 0.51236295700073242
0.83766037225723267 0.84561675786972046 0.492948979139328
0.95878899097442627 0.83316588401794434 0.47033199667930603
1 0.80536121129989624 0.44918620586395264
0.61623311042785645 0.98619300127029419 0.58004730939865112
0.6515306830406189 0.98680675029754639 0.57579547166824341
0.7135196328163147 0.98564451932907104 0.57034003734588623
0.80489176511764526 0.98430800437927246 0.56230384111404419
0.91598635911941528 0.98180133104324341 0.54597741365432739
0.9985353946685791 0.97395700216293335 0.52720922231674194
1 0.95361977815628052 0.51161974668502808
0.00041450050775893033 0.0060808667913079262 0.34323671460151672
0.054259970784187317 0.0028318366967141628 0.32425007224082947
0.16970111429691315 8.5628736997023225e-05 0.30193847417831421
0.31786435842514038 0 0.27594736218452454
0.47489279508590698 0 0.24852925539016724
0.629283607006073 0 0.21699050068855286
0.76720952987670898 0 0.18544746935367584
0.010676948353648186 0.12956373393535614 0.40945512056350708
0.078285500407218933 0.11907152831554413 0.394052654504776
0.20762088894844055 0.097003862261772156 0.37021490931510925
0.35957372188568115 0.072294361889362335 0.33902212977409363
0.50529956817626953 0.041508231312036514 0.3045356273651123
0.64319503307342529 0.010636318475008011 0.26984032988548279
0.77388346195220947 0 0.23488093912601471
0.0197867751121521 0.32810312509536743 0.47967353463172913
0.1092693880200386 0.3202381432056427 0.47153356671333313
0.27139219641685486 0.29996177554130554 0.45127445459365845
0.42858174443244934 0.27173143625259399 0.42153099179267883
0.57147371768951416 0.22820219397544861 0.38704410195350647
0.70016264915466309 0.16624565422534943 0.34895116090774536
0.81359010934829712 0.090762212872505188 0.31038913130760193
0.090827688574790955 0.53321892023086548 0.55164551734924316
0.18458643555641174 0.53036367893218994 0.54595506191253662
0.34604999423027039 0.52205044031143188 0.53009158372879028
0.5062938928604126 0.50504100322723389 0.50686299800872803
0.65157830715179443 0.47778922319412231 0.4786628782749176
0.78623944520950317 0.43830925226211548 0.44746944308280945
0.90213620662689209 0.37203648686408997 0.41332057118415833
0.23258204758167267 0.71007388830184937 0.61085766553878784
0.30879011750221252 0.71079498529434204 0.60915118455886841
0.43545624613761902 0.70600837469100952 0.59728884696960449
0.5790213942527771 0.69584077596664429 0.57939308881759644
0.71992594003677368 0.68235021829605103 0.55663716793060303
0.85561066865921021 0.66331326961517334 0.53111940622329712
0.97287499904632568 0.62332868576049805 0.50173956155776978
0.39850863814353943 0.86117982864379883 0.65931463241577148
0.45306587219238281 0.86319887638092041 0.66073113679885864
0.54334086179733276 0.85946422815322876 0.65314012765884399
0.6613040566444397 0.85437583923339844 0.6396632194519043
0.79195427894592285 0.84887504577636719 0.6198229193687439
0.91655373573303223 0.83566325902938843 0.59682929515838623
0.99924182891845703 0.8057558536529541 0.57160431146621704
0.55800783634185791 0.98821908235549927 0.69845974445343018
0.59759253263473511 0.99006295204162598 0.70046317577362061
0.66240662336349487 0.98892331123352051 0.69633609056472778
0.75670862197875977 0.98803985118865967 0.68674832582473755
0.86925572156906128 0.98662900924682617 0.67067557573318481
0.97417372465133667 0.97928106784820557 0.65127992630004883
1 0.95701485872268677 0.6304280161857605
0 0.00016569250146858394 0.46299436688423157
0.04535592719912529 0 0.44829106330871582
0.14735981822013855 0 0.42934992909431458
0.28200709819793701 0 0.40564340353012085
0.43165230751037598 0 0.37896439433097839
0.57990086078643799 0 0.34903153777122498
0.71387887001037598 0 0.32113060355186462
0.00048415240598842502 0.10367210209369659 0.5274055004119873
0.062545701861381531 0.08991367369890213 0.51383513212203979
0.17657355964183807 0.067439720034599304 0.49197018146514893
0.31702783703804016 0.05547269806265831 0.46499171853065491
0.4606984555721283 0.032352760434150696 0.43344050645828247
0.59735822677612305 0.0037441628519445658 0.39818227291107178
0.72384560108184814 0 0.36517322063446045
0.0010904648806899786 0.30044770240783691 0.59743452072143555
0.083322785794734955 0.29191878437995911 0.58854174613952637
0.23576541244983673 0.27083015441894531 0.56986790895462036
0.38503891229629517 0.24953766167163849 0.54232615232467651
0.52459812164306641 0.2085631936788559 0.50977146625518799
0.64952510595321655 0.14194847643375397 0.47191643714904785
0.75992542505264282 0.062068205326795578 0.43138536810874939
0.051774807274341583 0.51877492666244507 0.66863274574279785
0.14191684126853943 0.51720774173736572 0.66306287050247192
0.30348828434944153 0.50688266754150391 0.64922189712524414
0.46411395072937012 0.49283170700073242 0.62636768817901611
0.6064530611038208 0.46211960911750793 0.59856903553009033
0.73737025260925293 0.41894429922103882 0.5679175853729248
0.84999942779541016 0.33991771936416626 0.52915626764297485
0.18478879332542419 0.70623880624771118 0.72909438610076904
0.26017084717750549 0.70887702703475952 0.72828406095504761
0.39049723744392395 0.7019762396812439 0.71833980083465576
0.53680247068405151 0.68913155794143677 0.70026814937591553
0.67648094892501831 0.67635715007781982 0.67672139406204224
0.80912137031555176 0.65297800302505493 0.65191882848739624
0.93049710988998413 0.60880851745605469 0.62106376886367798
0.34844940900802612 0.86236846446990967 0.77817147970199585
0.40376931428909302 0.86456972360610962 0.78152436017990112
0.49809649586677551 0.86059969663619995 0.7738993763923645
0.61884450912475586 0.8575824499130249 0.76003581285476685
0.74672520160675049 0.85052734613418579 0.74141621589660645
0.87223207950592041 0.83488041162490845 0.72015231847763062
0.98453646898269653 0.80495971441268921 0.69260871410369873
0.50584906339645386 0.99002331495285034 0.81516611576080322
0.54806196689605713 0.99166667461395264 0.82059454917907715
0.6158829927444458 0.99112957715988159 0.81560820341110229
0.71297705173492432 0.9921538233757019 0.80664068460464478
0.82309496402740479 0.99119961261749268 0.79354524612426758
0.93578773736953735 0.98507785797119141 0.77510708570480347
1 0.96402066946029663 0.75050133466720581
0 0 0.57174009084701538
0.037418574094772339 0 0.56223070621490479
0.12659887969493866 0 0.54936504364013672
0.24951858818531036 0 0.5276561975479126
0.39283660054206848 0 0.49775120615959167
0.53949391841888428 0 0.46981257200241089
0.67669004201889038 0 0.44721633195877075
0.0012687533162534237 0.057683456689119339 0.63265424966812134
0.055793941020965576 0.045950841158628464 0.62054121494293213
0.15165054798126221 0.037133999168872833 0.60205334424972534
0.27915775775909424 0.026518354192376137 0.57698267698287964
0.41656956076622009 0.0057936273515224457 0.54479265213012695
0.54982477426528931 0 0.51095306873321533
0.6781008243560791 0 0.48271042108535767
0.017291752621531487 0.25029632449150085 0.69918990135192871
0.093576900660991669 0.24322141706943512 0.68995887041091919
0.20867465436458588 0.22327639162540436 0.671558678150177
0.34605363011360168 0.20027934014797211 0.64593690633773804
0.47868961095809937 0.15737023949623108 0.61368471384048462
0.59487295150756836 0.084162525832653046 0.57437598705291748
0.70589357614517212 0.022448312491178513 0.53742915391921997
0.053942423313856125 0.48931372165679932 0.77189558744430542
0.13668985664844513 0.49152442812919617 0.76610022783279419
0.28203129768371582 0.48359397053718567 0.75354772806167603
0.43136316537857056 0.46386787295341492 0.73198479413986206
0.56917357444763184 0.43107885122299194 0.70470350980758667
0.69093972444534302 0.37193223834037781 0.67055052518844604
0.79834896326065063 0.29237279295921326 0.63203686475753784
0.16780464351177216 0.69295620918273926 0.83496582508087158
0.23922683298587799 0.69754087924957275 0.83500713109970093
0.36615920066833496 0.69075280427932739 0.82537323236465454
0.50602418184280396 0.67709708213806152 0.80712902545928955
0.64162087440490723 0.66253542900085449 0.7835579514503479
0.77194333076477051 0.63964927196502686 0.76105648279190063
0.88926619291305542 0.58923947811126709 0.72981357574462891
0.32766842842102051 0.85852652788162231 0.88583695888519287
0.37821078300476074 0.86080509424209595 0.89265137910842896
0.46903857588768005 0.85764449834823608 0.88268178701400757
0.586761474609375 0.85298377275466919 0.870189368724823
0.70927137136459351 0.84718966484069824 0.85348254442214966
0.83461952209472656 0.83474105596542358 0.83576542139053345
0.95283788442611694 0.80384939908981323 0.80860054492950439
0.48450696468353271 0.99114525318145752 0.92171436548233032
0.51986563205718994 0.99158507585525513 0.9328802227973938
0.58417427539825439 0.99208849668502808 0.92242908477783203
0.67812430858612061 0.99246090650558472 0.91683655977249146
0.78378605842590332 0.9924282431602478 0.90930891036987305
0.89926230907440186 0.98946452140808105 0.89475721120834351
0.99678343534469604 0.97375667095184326 0.87053751945495605
0.00014935662329662591 0 0.66750270128250122
0.038761693984270096 0 0.66145151853561401
0.11686556786298752 0 0.65597325563430786
0.22981975972652435 0 0.63649976253509521
0.3679502010345459 0 0.60328036546707153
0.51301592588424683 0 0.57821613550186157
0.65607368946075439 0 0.56242746114730835
0.0062786773778498173 0.01243407279253006 0.72563838958740234
0.042835354804992676 0.0062496708706021309 0.71238029003143311
0.13659103214740753 0.0094832330942153931 0.69762909412384033
0.25417539477348328 0.001952002989128232 0.6732141375541687
0.38317194581031799 0 0.64115417003631592
0.5134623646736145 0 0.61129540205001831
0.64490252733230591 0 0.58872395753860474
0.047652766108512878 0.18510939180850983 0.78333419561386108
0.080809608101844788 0.17560583353042603 0.7755206823348999
0.1935594230890274 0.15394091606140137 0.7564232349395752
0.3128543496131897 0.12017145752906799 0.72907817363739014
0.43362504243850708 0.074233844876289368 0.69704318046569824
0.54323828220367432 0.022174445912241936 0.66102021932601929
0.66175740957260132 0.0064495461992919445 0.63315296173095703
0.078289121389389038 0.44864025712013245 0.86011785268783569
0.15487837791442871 0.4467599093914032 0.85510063171386719
0.27880266308784485 0.43296509981155396 0.84028011560440063
0.40426036715507507 0.39673355221748352 0.81619447469711304
0.52781522274017334 0.35601508617401123 0.78813707828521729
0.64798223972320557 0.31358563899993896 0.7576601505279541
0.74424713850021362 0.20951500535011292 0.71614474058151245
0.18512322008609772 0.66477859020233154 0.92319309711456299
0.25376167893409729 0.66542917490005493 0.9249427318572998
0.36335533857345581 0.65657216310501099 0.9137846827507019
0.4860207736492157 0.63774013519287109 0.89637863636016846
0.61057049036026001 0.62038236856460571 0.87507849931716919
0.73416256904602051 0.59936273097991943 0.85098302364349365
0.84655475616455078 0.54408687353134155 0.82008552551269531
0.336231529712677 0.84204310178756714 0.97111773490905762
0.38044542074203491 0.84399449825286865 0.9822993278503418
0.46387234330177307 0.84150618314743042 0.97101908922195435
0.56940299272537231 0.83083707094192505 0.96379995346069336
0.68186825513839722 0.82440131902694702 0.94959813356399536
0.8021310567855835 0.81580346822738647 0.93237310647964478
0.91614383459091187 0.78521329164505005 0.90694361925125122
0.49177432060241699 0.98936212062835693 0.9967958927154541
0.51626676321029663 0.98801136016845703 0.99989479780197144
0.57435232400894165 0.99086540937423706 0.99731278419494629
0.65900540351867676 0.98517000675201416 0.99804753065109253
0.75293976068496704 0.98334556818008423 0.99696969985961914
0.86711710691452026 0.98313117027282715 0.99147838354110718
0.97890245914459229 0.97527289390563965 0.97773963212966919
