films/kodak_kodachrome_64.cube
# Created by: G'MIC (https://gmic.eu)
TITLE "kodak_kodachrome_64"
# LUT size
LUT_3D_SIZE 13
# Data domain
DOMAIN_MIN 0.0 0.0 0.0
DOMAIN_MAX 1.0 1.0 1.0
# LUT data points
0.031349003314971924 0.022377314046025276 0.016713235527276993
0.065839715301990509 0.018533907830715179 0.013901908881962299
0.13027641177177429 0.021423324942588806 0.011551337316632271
0.21680210530757904 0.029081815853714943 0.011562137864530087
0.33365297317504883 0.042072564363479614 0.01195704098790884
0.46181616187095642 0.056712593883275986 0.011435879394412041
0.56437200307846069 0.068733096122741699 0.00521087646484375
0.64977675676345825 0.077352933585643768 0.0012895471882075071
0.72754544019699097 0.084715433418750763 0.00028112073778174818
0.80061352252960205 0.092519097030162811 4.7392004489665851e-05
0.87172871828079224 0.10322184860706329 0
0.93807512521743774 0.1153767928481102 0
0.986794114112854 0.12340293079614639 0.0013253454817458987
0.050825245678424835 0.06868927925825119 0.04060383141040802
0.08234386146068573 0.067816413938999176 0.0380222387611866
0.14449962973594666 0.071806006133556366 0.034845806658267975
0.23936468362808228 0.083031825721263885 0.034341432154178619
0.35955095291137695 0.09843725711107254 0.03404935821890831
0.48055940866470337 0.11197693645954132 0.030479790642857552
0.57959741353988647 0.12100978195667267 0.023117154836654663
0.66424477100372314 0.12584136426448822 0.016037706285715103
0.74121111631393433 0.12879651784896851 0.01081237755715847
0.81280761957168579 0.13139453530311584 0.0065400516614317894
0.87968599796295166 0.13347961008548737 0.0027338513173162937
0.93780666589736938 0.13495954871177673 0.00077347102342173457
0.98116666078567505 0.13776999711990356 0.0021837272215634584
0.08459000289440155 0.14187069237232208 0.074125312268733978
0.11112895607948303 0.14294162392616272 0.072076849639415741
0.16929279267787933 0.14803290367126465 0.068911351263523102
0.26695796847343445 0.15962554514408112 0.068318895995616913
0.3885033130645752 0.17270451784133911 0.066817037761211395
0.5056920051574707 0.18306571245193481 0.061822075396776199
0.60026288032531738 0.18804828822612762 0.054865188896656036
0.68195796012878418 0.19009378552436829 0.047512397170066833
0.75715500116348267 0.19064942002296448 0.040560360997915268
0.82784938812255859 0.18875278532505035 0.032798603177070618
0.89273178577423096 0.1834900826215744 0.02357248030602932
0.94588148593902588 0.176888108253479 0.016038723289966583
0.98535174131393433 0.1771186888217926 0.016890387982130051
0.10794717818498611 0.24984061717987061 0.11855453997850418
0.13962692022323608 0.25131967663764954 0.1165115088224411
0.20420575141906738 0.25551435351371765 0.11329352855682373
0.30235391855239868 0.26355078816413879 0.11256978660821915
0.42338865995407104 0.27476730942726135 0.11029625684022903
0.53619372844696045 0.28303337097167969 0.10505995154380798
0.62518042325973511 0.28206256031990051 0.097945734858512878
0.7040550708770752 0.28138142824172974 0.089532710611820221
0.77641099691390991 0.28017395734786987 0.081534184515476227
0.8462216854095459 0.27316224575042725 0.072252117097377777
0.9119342565536499 0.26249083876609802 0.059379994869232178
0.96345251798629761 0.24672096967697144 0.047965329140424728
0.99491864442825317 0.24298825860023499 0.045995868742465973
0.1122419461607933 0.3792167603969574 0.1682165116071701
0.15619179606437683 0.38129439949989319 0.16761079430580139
0.23532965779304504 0.38566851615905762 0.16602203249931335
0.34492394328117371 0.39151155948638916 0.16288374364376068
0.46540269255638123 0.40233781933784485 0.15933579206466675
0.56804764270782471 0.41271564364433289 0.15484581887722015
0.65148717164993286 0.41088292002677917 0.14803925156593323
0.72748315334320068 0.40883722901344299 0.1392042487859726
0.79890340566635132 0.4039575457572937 0.13106289505958557
0.86910849809646606 0.39163053035736084 0.12072888761758804
0.93616640567779541 0.37734633684158325 0.10498150438070297
0.98248636722564697 0.3496406078338623 0.089695557951927185
0.99964749813079834 0.33916085958480835 0.084187932312488556
0.1534586101770401 0.48560336232185364 0.22498095035552979
0.19738566875457764 0.48825168609619141 0.22367016971111298
0.2843671441078186 0.49533146619796753 0.21965575218200684
0.39597678184509277 0.50264781713485718 0.21492640674114227
0.50552582740783691 0.51205992698669434 0.21129676699638367
0.59500730037689209 0.52166599035263062 0.20877228677272797
0.67294937372207642 0.52437937259674072 0.20264121890068054
0.74747419357299805 0.52701282501220703 0.19491147994995117
0.82058519124984741 0.52856123447418213 0.18528948724269867
0.89338523149490356 0.52305757999420166 0.17367392778396606
0.95880275964736938 0.51314502954483032 0.15808995068073273
0.99294734001159668 0.4899137020111084 0.14167551696300507
0.99994057416915894 0.48123940825462341 0.13320718705654144
0.23569996654987335 0.57075101137161255 0.28409895300865173
0.27592074871063232 0.57390618324279785 0.28083279728889465
0.35564050078392029 0.57981079816818237 0.27429026365280151
0.44844493269920349 0.58727860450744629 0.27114900946617126
0.5353197455406189 0.59491735696792603 0.27144122123718262
0.61361241340637207 0.60193586349487305 0.26945456862449646
0.68759089708328247 0.60768550634384155 0.26403138041496277
0.76095253229141235 0.61427664756774902 0.25664898753166199
0.83366817235946655 0.61957776546478271 0.24623078107833862
0.90554124116897583 0.62275898456573486 0.23354329168796539
0.96891307830810547 0.6203010082244873 0.21947026252746582
0.9981989860534668 0.61351579427719116 0.20534799993038177
0.99997305870056152 0.61196202039718628 0.19713173806667328
0.32651665806770325 0.64657413959503174 0.34307458996772766
0.36085331439971924 0.6491386890411377 0.34209656715393066
0.4198402464389801 0.65274059772491455 0.3385641872882843
0.48950058221817017 0.65816968679428101 0.33761182427406311
0.55941617488861084 0.66460108757019043 0.33805900812149048
0.62931126356124878 0.67147243022918701 0.33546772599220276
0.69962751865386963 0.67860698699951172 0.33026912808418274
0.76970165967941284 0.68574666976928711 0.32370501756668091
0.83870726823806763 0.6924012303352356 0.31547355651855469
0.90792566537857056 0.69806820154190063 0.30271041393280029
0.97190743684768677 0.69864064455032349 0.29009366035461426
0.99988347291946411 0.69795453548431396 0.27968522906303406
1 0.69645261764526367 0.2735602855682373
0.39488166570663452 0.71314829587936401 0.40577298402786255
0.42496111989021301 0.71581375598907471 0.40787246823310852
0.46760031580924988 0.71834397315979004 0.4087880551815033
0.521808922290802 0.72262388467788696 0.40797692537307739
0.58185786008834839 0.72854959964752197 0.40629249811172485
0.64473855495452881 0.73534810543060303 0.40327763557434082
0.70975959300994873 0.74241173267364502 0.39906772971153259
0.7749488353729248 0.74919253587722778 0.39531230926513672
0.84042072296142578 0.75506299734115601 0.39065176248550415
0.9083370566368103 0.76018720865249634 0.37981405854225159
0.97139513492584229 0.76272022724151611 0.3673228919506073
1 0.76415795087814331 0.35695731639862061
1 0.76403909921646118 0.34925159811973572
0.44782218337059021 0.77512133121490479 0.46717318892478943
0.4735986590385437 0.77795755863189697 0.47267940640449524
0.50683867931365967 0.7797389030456543 0.47653642296791077
0.5521119236946106 0.78402221202850342 0.47531938552856445
0.60475307703018188 0.78964203596115112 0.47243931889533997
0.66145789623260498 0.79635226726531982 0.46967217326164246
0.72063666582107544 0.80321866273880005 0.46710115671157837
0.78109347820281982 0.80945438146591187 0.4656728208065033
0.84296870231628418 0.81437391042709351 0.46400228142738342
0.91054624319076538 0.81931799650192261 0.45389720797538757
0.97306424379348755 0.82303529977798462 0.44074186682701111
1 0.82625186443328857 0.42891848087310791
1 0.82754814624786377 0.41962149739265442
0.49470049142837524 0.83530104160308838 0.52342706918716431
0.51724088191986084 0.83758044242858887 0.53065115213394165
0.54471766948699951 0.83981704711914062 0.53617823123931885
0.583884596824646 0.8438759446144104 0.53495675325393677
0.63027036190032959 0.84957247972488403 0.53324997425079346
0.68057996034622192 0.85591167211532593 0.53204047679901123
0.73499596118927002 0.86331081390380859 0.53041166067123413
0.79195839166641235 0.87015229463577271 0.5290343165397644
0.85294085741043091 0.87527626752853394 0.5266956090927124
0.91776478290557861 0.87955778837203979 0.51934605836868286
0.9768255352973938 0.8838118314743042 0.50803440809249878
1 0.88809245824813843 0.49560302495956421
1 0.88978183269500732 0.48459383845329285
0.53901934623718262 0.89374595880508423 0.5731123685836792
0.56065744161605835 0.89677000045776367 0.57952249050140381
0.58623439073562622 0.89944636821746826 0.58397179841995239
0.61954212188720703 0.90354859828948975 0.58500581979751587
0.65944993495941162 0.90876096487045288 0.58564203977584839
0.70414191484451294 0.91506850719451904 0.58694964647293091
0.75338888168334961 0.92291527986526489 0.58642810583114624
0.80642932653427124 0.93092221021652222 0.58574628829956055
0.86541157960891724 0.93616044521331787 0.58472543954849243
0.92733514308929443 0.93915694952011108 0.58067506551742554
0.98051780462265015 0.94351589679718018 0.57334160804748535
0.99992102384567261 0.94851469993591309 0.5597802996635437
1 0.9506041407585144 0.54520821571350098
0.58051472902297974 0.94920521974563599 0.61729902029037476
0.60167241096496582 0.95324718952178955 0.62269723415374756
0.62621062994003296 0.95664769411087036 0.62652748823165894
0.65587025880813599 0.96071630716323853 0.62894493341445923
0.69114744663238525 0.96586126089096069 0.6309935450553894
0.7315744161605835 0.97226536273956299 0.63312435150146484
0.77624398469924927 0.97970789670944214 0.63469928503036499
0.82495570182800293 0.9862707257270813 0.63605451583862305
0.88033884763717651 0.98942333459854126 0.63655763864517212
0.9383012056350708 0.99100023508071899 0.63669335842132568
0.98652315139770508 0.99302917718887329 0.63337254524230957
0.99995064735412598 0.99536633491516113 0.61825251579284668
1 0.99610936641693115 0.60043931007385254
0.011699003167450428 0.012108327820897102 0.040506564080715179
0.046747542917728424 0.013320234604179859 0.037579197436571121
0.11525902897119522 0.016695089638233185 0.03654276579618454
0.20582643151283264 0.024254981428384781 0.03782716765999794
0.32309681177139282 0.036686226725578308 0.037567183375358582
0.4476868212223053 0.049372356384992599 0.033341649919748306
0.55265480279922485 0.058676879853010178 0.026504097506403923
0.64015871286392212 0.066092155873775482 0.019005360081791878
0.7179984450340271 0.072416357696056366 0.01381231565028429
0.7900804877281189 0.078738316893577576 0.010544346645474434
0.86315757036209106 0.089959152042865753 0.0075540430843830109
0.93700224161148071 0.10612046718597412 0.0047837053425610065
0.98407232761383057 0.11003929376602173 0.010131821036338806
0.033301379531621933 0.05880451574921608 0.068197391927242279
0.066637091338634491 0.060718655586242676 0.066843725740909576
0.13257388770580292 0.066481001675128937 0.06579308956861496
0.22794301807880402 0.077994219958782196 0.065651074051856995
0.35078403353691101 0.093480966985225677 0.062781929969787598
0.47367778420448303 0.10582716763019562 0.056789606809616089
0.57119214534759521 0.11029507219791412 0.050554882735013962
0.65440797805786133 0.11318542063236237 0.043295677751302719
0.73022592067718506 0.11517813056707382 0.036713767796754837
0.80143862962722778 0.1160939559340477 0.03030070848762989
0.87078601121902466 0.1180078536272049 0.022183781489729881
0.93215930461883545 0.11902029067277908 0.013970094732940197
0.97432249784469604 0.11750172823667526 0.014634869061410427
0.069548740983009338 0.13408403098583221 0.10458359122276306
0.099826276302337646 0.13655488193035126 0.1041056290268898
0.16032437980175018 0.14239297807216644 0.10294950753450394
0.25621739029884338 0.15510894358158112 0.1022287979722023
0.37951910495758057 0.16832533478736877 0.09855574369430542
0.49696177244186401 0.17751629650592804 0.092437490820884705
0.58970403671264648 0.17912736535072327 0.085988767445087433
0.66982460021972656 0.17916060984134674 0.078260935842990875
0.74421173334121704 0.17735320329666138 0.07002364844083786
0.81566441059112549 0.17401362955570221 0.061219699680805206
0.88321280479431152 0.16835771501064301 0.049307234585285187
0.93941360712051392 0.15958918631076813 0.03729705885052681
0.97921013832092285 0.15664923191070557 0.035444147884845734
0.093943230807781219 0.24320636689662933 0.15269143879413605
0.12596374750137329 0.24720676243305206 0.1514459103345871
0.19243219494819641 0.24943386018276215 0.14870378375053406
0.29278314113616943 0.2584092915058136 0.14759895205497742
0.41559803485870361 0.27187833189964294 0.1452251672744751
0.52506464719772339 0.27977573871612549 0.13998019695281982
0.61165177822113037 0.27775320410728455 0.13228178024291992
0.68961387872695923 0.27648213505744934 0.12361866235733032
0.76147401332855225 0.26868844032287598 0.11429031938314438
0.83325636386871338 0.26227268576622009 0.10375469177961349
0.90151125192642212 0.25095868110656738 0.089911438524723053
0.95649778842926025 0.2329726368188858 0.075320318341255188
0.9912298321723938 0.2261020839214325 0.070753701031208038
0.09502679854631424 0.37316012382507324 0.20859584212303162
0.13545233011245728 0.37894874811172485 0.20695801079273224
0.22092129290103912 0.37900367379188538 0.20376749336719513
0.33534890413284302 0.38705918192863464 0.20109765231609344
0.45792147517204285 0.40195885300636292 0.19938421249389648
0.55765163898468018 0.40800648927688599 0.19505362212657928
0.63860112428665161 0.4086662232875824 0.18733438849449158
0.71379351615905762 0.40749472379684448 0.17800521850585938
0.78429776430130005 0.39574757218360901 0.16816921532154083
0.85581123828887939 0.38774979114532471 0.15614339709281921
0.92412185668945312 0.37107491493225098 0.14054325222969055
0.97706866264343262 0.34271019697189331 0.12387648969888687
0.99870556592941284 0.33015751838684082 0.11512070894241333
0.13167198002338409 0.47953057289123535 0.26847851276397705
0.17906147241592407 0.48470333218574524 0.26536893844604492
0.27029448747634888 0.48910382390022278 0.26036661863327026
0.38250869512557983 0.4972083568572998 0.25787603855133057
0.49057909846305847 0.50784683227539062 0.25726187229156494
0.58053678274154663 0.5155368447303772 0.25448203086853027
0.65853321552276611 0.5208209753036499 0.24810953438282013
0.73289936780929565 0.52379739284515381 0.23944590985774994
0.80549544095993042 0.52037495374679565 0.22831840813159943
0.87711244821548462 0.51794034242630005 0.21501776576042175
0.94178122282028198 0.50502806901931763 0.19938662648200989
0.9849555492401123 0.48522302508354187 0.18225008249282837
0.99940586090087891 0.47860413789749146 0.17168956995010376
0.21373637020587921 0.56335461139678955 0.32862845063209534
0.2594987154006958 0.56838822364807129 0.32332959771156311
0.34315288066864014 0.57379931211471558 0.31529557704925537
0.43405339121818542 0.58048719167709351 0.3149905800819397
0.51769387722015381 0.58830076456069946 0.31783723831176758
0.59545731544494629 0.59551137685775757 0.31662207841873169
0.66999000310897827 0.60214406251907349 0.31168004870414734
0.74411332607269287 0.60802245140075684 0.30367890000343323
0.81741416454315186 0.61135584115982056 0.29188275337219238
0.88850635290145874 0.61490434408187866 0.27897608280181885
0.95155876874923706 0.61299467086791992 0.26522430777549744
0.99009627103805542 0.6081242561340332 0.2513962984085083
0.99990540742874146 0.60549557209014893 0.24286574125289917
0.30747440457344055 0.63780891895294189 0.38776460289955139
0.34449714422225952 0.6421586275100708 0.38385757803916931
0.40558475255966187 0.64567285776138306 0.3793589174747467
0.47390812635421753 0.65049046277999878 0.3798222541809082
0.5418621301651001 0.65703970193862915 0.38077780604362488
0.61043113470077515 0.66396635770797729 0.3790317177772522
0.68105459213256836 0.67148792743682861 0.37457185983657837
0.75249278545379639 0.67860186100006104 0.36794039607048035
0.82330316305160522 0.6846010684967041 0.35881450772285461
0.89339911937713623 0.69050353765487671 0.34652519226074219
0.95793730020523071 0.69218534231185913 0.33540201187133789
0.99629348516464233 0.69243407249450684 0.32568508386611938
1 0.6913488507270813 0.31890136003494263
0.38276246190071106 0.70705950260162354 0.44510671496391296
0.41275262832641602 0.71019583940505981 0.44564473628997803
0.45491752028465271 0.71236211061477661 0.44547215104103088
0.50733155012130737 0.71595221757888794 0.44521614909172058
0.56630373001098633 0.72181111574172974 0.44315928220748901
0.62877243757247925 0.72845381498336792 0.43987178802490234
0.69405823945999146 0.73574459552764893 0.43579176068305969
0.76068425178527832 0.74269384145736694 0.43160659074783325
0.82865440845489502 0.74893486499786377 0.42564526200294495
0.89827889204025269 0.75380277633666992 0.41632091999053955
0.963939368724823 0.75539356470108032 0.40716421604156494
0.99905598163604736 0.75807887315750122 0.39829286932945251
1 0.75994950532913208 0.39001420140266418
0.44148463010787964 0.77242803573608398 0.50066292285919189
0.46671673655509949 0.7748914361000061 0.50428378582000732
0.49896398186683655 0.7764856219291687 0.50625097751617432
0.54150277376174927 0.7795175313949585 0.50508183240890503
0.59259402751922607 0.78454071283340454 0.50206249952316284
0.64917957782745361 0.79060769081115723 0.4983062744140625
0.70902711153030396 0.79739803075790405 0.49497896432876587
0.77081394195556641 0.80423718690872192 0.49290180206298828
0.83539873361587524 0.81003093719482422 0.48920324444770813
0.90353250503540039 0.81447207927703857 0.48146912455558777
0.9677433967590332 0.81769669055938721 0.47245118021965027
0.99952870607376099 0.82189005613327026 0.46316462755203247
1 0.82498687505722046 0.4546256959438324
0.49192750453948975 0.83549213409423828 0.55363863706588745
0.5138886570930481 0.83757191896438599 0.55809998512268066
0.54039019346237183 0.83907508850097656 0.56042242050170898
0.57620793581008911 0.84159952402114868 0.55907911062240601
0.62073558568954468 0.84606802463531494 0.55671918392181396
0.67151767015457153 0.85182249546051025 0.55441367626190186
0.72610098123550415 0.85863983631134033 0.55157375335693359
0.78396099805831909 0.86567056179046631 0.55083006620407104
0.84523534774780273 0.87161451578140259 0.547279953956604
0.91011172533035278 0.87643998861312866 0.54063433408737183
0.9705585241317749 0.88115036487579346 0.53197997808456421
0.99952214956283569 0.88676756620407104 0.52278512716293335
1 0.88990932703018188 0.51438248157501221
0.53827476501464844 0.89633673429489136 0.60238045454025269
0.55865293741226196 0.89920377731323242 0.60616815090179443
0.58189773559570312 0.89970117807388306 0.60778552293777466
0.61254894733428955 0.90265876054763794 0.6072995662689209
0.6511915922164917 0.90674829483032227 0.60696440935134888
0.69625389575958252 0.91257435083389282 0.60677200555801392
0.74609577655792236 0.91973555088043213 0.60620754957199097
0.7999388575553894 0.92714786529541016 0.60531729459762573
0.85817235708236694 0.93307995796203613 0.60291534662246704
0.91802442073822021 0.93796104192733765 0.59852206707000732
0.9697989821434021 0.94387525320053101 0.59170264005661011
0.99710017442703247 0.95119184255599976 0.58119148015975952
1 0.9540906548500061 0.57029306888580322
0.58051472902297974 0.95380115509033203 0.64612483978271484
0.59988033771514893 0.95680296421051025 0.64923334121704102
0.6220322847366333 0.95825386047363281 0.65095371007919312
0.6494860053062439 0.96130156517028809 0.65160918235778809
0.68374985456466675 0.96576404571533203 0.65268844366073608
0.7241523265838623 0.97145909070968628 0.65361601114273071
0.76936352252960205 0.97837305068969727 0.65506023168563843
0.81928247213363647 0.98430895805358887 0.65557599067687988
0.87352198362350464 0.98827517032623291 0.65535706281661987
0.92825824022293091 0.99127340316772461 0.65351337194442749
0.97254765033721924 0.99418926239013672 0.64831137657165527
0.9959290623664856 0.99724024534225464 0.63658928871154785
1 0.99813032150268555 0.62318879365921021
0.0048169153742492199 0.007562300655990839 0.079563498497009277
0.036883514374494553 0.0091034835204482079 0.076035954058170319
0.10230789333581924 0.013580157421529293 0.074346147477626801
0.19457212090492249 0.020895505324006081 0.07655208557844162
0.31190639734268188 0.031106268987059593 0.07503192126750946
0.43367654085159302 0.041453372687101364 0.068906880915164948
0.53832149505615234 0.049566589295864105 0.061564546078443527
0.62701618671417236 0.056810088455677032 0.053944353014230728
0.70551717281341553 0.063186287879943848 0.048952993005514145
0.77850210666656494 0.069268651306629181 0.046176940202713013
0.85256576538085938 0.079318076372146606 0.041143067181110382
0.9232671856880188 0.091833941638469696 0.035941854119300842
0.97208487987518311 0.095348760485649109 0.039991430938243866
0.022927511483430862 0.052098862826824188 0.11173960566520691
0.054212354123592377 0.053505931049585342 0.11039886623620987
0.12060576677322388 0.060113631188869476 0.10908947885036469
0.21476712822914124 0.071057938039302826 0.10969112813472748
0.33615043759346008 0.08411775529384613 0.10581578314304352
0.45786410570144653 0.094578824937343597 0.09834715723991394
0.5557560920715332 0.099234685301780701 0.092081300914287567
0.63862818479537964 0.1027078703045845 0.084202304482460022
0.71433454751968384 0.10486891865730286 0.077123440802097321
0.78637939691543579 0.1052776426076889 0.071162968873977661
0.85778194665908813 0.10700203478336334 0.061672959476709366
0.92264389991760254 0.10894756019115448 0.050568241626024246
0.96904021501541138 0.10956677049398422 0.050208926200866699
0.058222990483045578 0.12693703174591064 0.15021033585071564
0.08883502334356308 0.12920130789279938 0.15055882930755615
0.14879718422889709 0.13610576093196869 0.14912712574005127
0.24569259583950043 0.1462370753288269 0.14802387356758118
0.36837118864059448 0.15865705907344818 0.14365684986114502
0.48199906945228577 0.16755661368370056 0.13833719491958618
0.57235252857208252 0.16944499313831329 0.13308161497116089
0.65095239877700806 0.17015136778354645 0.12481441348791122
0.72474366426467896 0.16792485117912292 0.11561321467161179
0.79697555303573608 0.16310304403305054 0.10717406868934631
0.86672890186309814 0.15673568844795227 0.094243712723255157
0.92821168899536133 0.14960470795631409 0.077784232795238495
0.97209036350250244 0.14699874818325043 0.073537923395633698
0.081481143832206726 0.23447509109973907 0.20174264907836914
0.11312113702297211 0.23868317902088165 0.20252770185470581
0.17709963023662567 0.2417261004447937 0.19917631149291992
0.28051194548606873 0.252301424741745 0.19685976207256317
0.40376204252243042 0.26401025056838989 0.19393037259578705
0.50875604152679443 0.27094841003417969 0.19020204246044159
0.59221529960632324 0.26986315846443176 0.1842418760061264
0.66894769668579102 0.26985251903533936 0.17592543363571167
0.74046552181243896 0.2612072229385376 0.16612792015075684
0.81201267242431641 0.2529347836971283 0.15569862723350525
0.88060784339904785 0.24080023169517517 0.14138917624950409
0.93778061866760254 0.22295671701431274 0.12413907796144485
0.97751295566558838 0.21402987837791443 0.11695103347301483
0.067184954881668091 0.36635786294937134 0.26203379034996033
0.10789784789085388 0.36959740519523621 0.26233690977096558
0.19655463099479675 0.37250813841819763 0.25911325216293335
0.31770682334899902 0.38418981432914734 0.25529128313064575
0.44326362013816833 0.39454090595245361 0.25293558835983276
0.53895467519760132 0.39665362238883972 0.24993003904819489
0.61837637424468994 0.39841541647911072 0.24343061447143555
0.69361603260040283 0.40050014853477478 0.2349279522895813
0.76353591680526733 0.39062497019767761 0.22569809854030609
0.83268386125564575 0.38017073273658752 0.21401247382164001
0.89876747131347656 0.36223649978637695 0.19892305135726929
