films/kodak_hie_hs_infra.cube
# Created by: G'MIC (https://gmic.eu)
TITLE "kodak_hie_hs_infra"
# LUT size
LUT_3D_SIZE 13
# Data domain
DOMAIN_MIN 0.0 0.0 0.0
DOMAIN_MAX 1.0 1.0 1.0
# LUT data points
0.052513886243104935 0.052513886243104935 0.052513886243104935
0.10320664942264557 0.10320664942264557 0.10320664942264557
0.16511964797973633 0.16511964797973633 0.16511964797973633
0.23550333082675934 0.23550333082675934 0.23550333082675934
0.31494608521461487 0.31494608521461487 0.31494608521461487
0.40602853894233704 0.40602853894233704 0.40602853894233704
0.50867569446563721 0.50867569446563721 0.50867569446563721
0.61255615949630737 0.61255615949630737 0.61255615949630737
0.71144986152648926 0.71144986152648926 0.71144986152648926
0.79712235927581787 0.79712235927581787 0.79712235927581787
0.86305564641952515 0.86305564641952515 0.86305564641952515
0.92142403125762939 0.92142403125762939 0.92142403125762939
0.97416168451309204 0.97416168451309204 0.97416168451309204
0.11581649631261826 0.11581649631261826 0.11581649631261826
0.15126501023769379 0.15126501023769379 0.15126501023769379
0.20062033832073212 0.20062033832073212 0.20062033832073212
0.26321130990982056 0.26321130990982056 0.26321130990982056
0.33846268057823181 0.33846268057823181 0.33846268057823181
0.42664286494255066 0.42664286494255066 0.42664286494255066
0.52330213785171509 0.52330213785171509 0.52330213785171509
0.62177777290344238 0.62177777290344238 0.62177777290344238
0.71490758657455444 0.71490758657455444 0.71490758657455444
0.79502373933792114 0.79502373933792114 0.79502373933792114
0.85891813039779663 0.85891813039779663 0.85891813039779663
0.91679710149765015 0.91679710149765015 0.91679710149765015
0.97008448839187622 0.97008448839187622 0.97008448839187622
0.1826486736536026 0.1826486736536026 0.1826486736536026
0.20661681890487671 0.20661681890487671 0.20661681890487671
0.24428309500217438 0.24428309500217438 0.24428309500217438
0.29781410098075867 0.29781410098075867 0.29781410098075867
0.36719486117362976 0.36719486117362976 0.36719486117362976
0.44911971688270569 0.44911971688270569 0.44911971688270569
0.53896212577819824 0.53896212577819824 0.53896212577819824
0.6313549280166626 0.6313549280166626 0.6313549280166626
0.71907669305801392 0.71907669305801392 0.71907669305801392
0.79560500383377075 0.79560500383377075 0.79560500383377075
0.85885238647460938 0.85885238647460938 0.85885238647460938
0.91512417793273926 0.91512417793273926 0.91512417793273926
0.9662819504737854 0.9662819504737854 0.9662819504737854
0.24736502766609192 0.24736502766609192 0.24736502766609192
0.26516729593276978 0.26516729593276978 0.26516729593276978
0.29304218292236328 0.29304218292236328 0.29304218292236328
0.33749550580978394 0.33749550580978394 0.33749550580978394
0.40014848113059998 0.40014848113059998 0.40014848113059998
0.4751582145690918 0.4751582145690918 0.4751582145690918
0.55758720636367798 0.55758720636367798 0.55758720636367798
0.64291197061538696 0.64291197061538696 0.64291197061538696
0.72584813833236694 0.72584813833236694 0.72584813833236694
0.8006024956703186 0.8006024956703186 0.8006024956703186
0.86269032955169678 0.86269032955169678 0.86269032955169678
0.91649734973907471 0.91649734973907471 0.91649734973907471
0.96480125188827515 0.96480125188827515 0.96480125188827515
0.32008713483810425 0.32008713483810425 0.32008713483810425
0.33198624849319458 0.33198624849319458 0.33198624849319458
0.35135185718536377 0.35135185718536377 0.35135185718536377
0.38652938604354858 0.38652938604354858 0.38652938604354858
0.44082683324813843 0.44082683324813843 0.44082683324813843
0.50654953718185425 0.50654953718185425 0.50654953718185425
0.5794682502746582 0.5794682502746582 0.5794682502746582
0.6561017632484436 0.6561017632484436 0.6561017632484436
0.73284435272216797 0.73284435272216797 0.73284435272216797
0.804329514503479 0.804329514503479 0.804329514503479
0.86466395854949951 0.86466395854949951 0.86466395854949951
0.91755920648574829 0.91755920648574829 0.91755920648574829
0.96442258358001709 0.96442258358001709 0.96442258358001709
0.40618795156478882 0.40618795156478882 0.40618795156478882
0.4127194881439209 0.4127194881439209 0.4127194881439209
0.42604461312294006 0.42604461312294006 0.42604461312294006
0.45203465223312378 0.45203465223312378 0.45203465223312378
0.49315041303634644 0.49315041303634644 0.49315041303634644
0.54540032148361206 0.54540032148361206 0.54540032148361206
0.60576653480529785 0.60576653480529785 0.60576653480529785
0.67169934511184692 0.67169934511184692 0.67169934511184692
0.73987144231796265 0.73987144231796265 0.73987144231796265
0.80591732263565063 0.80591732263565063 0.80591732263565063
0.86565309762954712 0.86565309762954712 0.86565309762954712
0.91848689317703247 0.91848689317703247 0.91848689317703247
0.96443891525268555 0.96443891525268555 0.96443891525268555
0.50811195373535156 0.50811195373535156 0.50811195373535156
0.51104921102523804 0.51104921102523804 0.51104921102523804
0.51679724454879761 0.51679724454879761 0.51679724454879761
0.53133201599121094 0.53133201599121094 0.53133201599121094
0.55747383832931519 0.55747383832931519 0.55747383832931519
0.59312409162521362 0.59312409162521362 0.59312409162521362
0.63790613412857056 0.63790613412857056 0.63790613412857056
0.69060331583023071 0.69060331583023071 0.69060331583023071
0.74933260679244995 0.74933260679244995 0.74933260679244995
0.81021064519882202 0.81021064519882202 0.81021064519882202
0.86859524250030518 0.86859524250030518 0.86859524250030518
0.92074304819107056 0.92074304819107056 0.92074304819107056
0.96586471796035767 0.96586471796035767 0.96586471796035767
0.63326787948608398 0.63326787948608398 0.63326787948608398
0.63530349731445312 0.63530349731445312 0.63530349731445312
0.63034921884536743 0.63034921884536743 0.63034921884536743
0.62902891635894775 0.62902891635894775 0.62902891635894775
0.6375153660774231 0.6375153660774231 0.6375153660774231
0.65279895067214966 0.65279895067214966 0.65279895067214966
0.67811638116836548 0.67811638116836548 0.67811638116836548
0.71436679363250732 0.71436679363250732 0.71436679363250732
0.76220405101776123 0.76220405101776123 0.76220405101776123
0.81781059503555298 0.81781059503555298 0.81781059503555298
0.87451416254043579 0.87451416254043579 0.87451416254043579
0.92555296421051025 0.92555296421051025 0.92555296421051025
0.96878314018249512 0.96878314018249512 0.96878314018249512
0.80129480361938477 0.80129480361938477 0.80129480361938477
0.80418127775192261 0.80418127775192261 0.80418127775192261
0.78408151865005493 0.78408151865005493 0.78408151865005493
0.7597772479057312 0.7597772479057312 0.7597772479057312
0.7412029504776001 0.7412029504776001 0.7412029504776001
0.72847896814346313 0.72847896814346313 0.72847896814346313
0.73057961463928223 0.73057961463928223 0.73057961463928223
0.74489760398864746 0.74489760398864746 0.74489760398864746
0.77853071689605713 0.77853071689605713 0.77853071689605713
0.82911956310272217 0.82911956310272217 0.82911956310272217
0.8847007155418396 0.8847007155418396 0.8847007155418396
0.93322700262069702 0.93322700262069702 0.93322700262069702
0.97311347723007202 0.97311347723007202 0.97311347723007202
0.92741924524307251 0.92741924524307251 0.92741924524307251
0.94973671436309814 0.94973671436309814 0.94973671436309814
0.94463551044464111 0.94463551044464111 0.94463551044464111
0.91782283782958984 0.91782283782958984 0.91782283782958984
0.87018430233001709 0.87018430233001709 0.87018430233001709
0.8326418399810791 0.8326418399810791 0.8326418399810791
0.80721777677536011 0.80721777677536011 0.80721777677536011
0.7872040867805481 0.7872040867805481 0.7872040867805481
0.80090409517288208 0.80090409517288208 0.80090409517288208
0.84367662668228149 0.84367662668228149 0.84367662668228149
0.89822995662689209 0.89822995662689209 0.89822995662689209
0.94142419099807739 0.94142419099807739 0.94142419099807739
0.97699928283691406 0.97699928283691406 0.97699928283691406
0.91214835643768311 0.91214835643768311 0.91214835643768311
0.95018196105957031 0.95018196105957031 0.95018196105957031
0.99240297079086304 0.99240297079086304 0.99240297079086304
0.99742025136947632 0.99742025136947632 0.99742025136947632
0.98297643661499023 0.98297643661499023 0.98297643661499023
0.96343672275543213 0.96343672275543213 0.96343672275543213
0.91381621360778809 0.91381621360778809 0.91381621360778809
0.85571819543838501 0.85571819543838501 0.85571819543838501
0.84164291620254517 0.84164291620254517 0.84164291620254517
0.86334502696990967 0.86334502696990967 0.86334502696990967
0.90638089179992676 0.90638089179992676 0.90638089179992676
0.9452507495880127 0.9452507495880127 0.9452507495880127
0.97876250743865967 0.97876250743865967 0.97876250743865967
0.91670477390289307 0.91670477390289307 0.91670477390289307
0.94269567728042603 0.94269567728042603 0.94269567728042603
0.98032921552658081 0.98032921552658081 0.98032921552658081
0.9997984766960144 0.9997984766960144 0.9997984766960144
1 1 1
1 1 1
0.99414145946502686 0.99414145946502686 0.99414145946502686
0.95859146118164062 0.95859146118164062 0.95859146118164062
0.91427701711654663 0.91427701711654663 0.91427701711654663
0.90420264005661011 0.90420264005661011 0.90420264005661011
0.92376440763473511 0.92376440763473511 0.92376440763473511
0.94996976852416992 0.94996976852416992 0.94996976852416992
0.97898209095001221 0.97898209095001221 0.97898209095001221
0.88133257627487183 0.88133257627487183 0.88133257627487183
0.91145747900009155 0.91145747900009155 0.91145747900009155
0.95049762725830078 0.95049762725830078 0.95049762725830078
0.99641424417495728 0.99641424417495728 0.99641424417495728
1 1 1
1 1 1
1 1 1
0.99895167350769043 0.99895167350769043 0.99895167350769043
0.98577868938446045 0.98577868938446045 0.98577868938446045
0.97032785415649414 0.97032785415649414 0.97032785415649414
0.96097594499588013 0.96097594499588013 0.96097594499588013
0.96431320905685425 0.96431320905685425 0.96431320905685425
0.98149955272674561 0.98149955272674561 0.98149955272674561
0.049321416765451431 0.049321416765451431 0.049321416765451431
0.097259446978569031 0.097259446978569031 0.097259446978569031
0.15935271978378296 0.15935271978378296 0.15935271978378296
0.23290933668613434 0.23290933668613434 0.23290933668613434
0.31753170490264893 0.31753170490264893 0.31753170490264893
0.4133240282535553 0.4133240282535553 0.4133240282535553
0.51721185445785522 0.51721185445785522 0.51721185445785522
0.62156689167022705 0.62156689167022705 0.62156689167022705
0.71861726045608521 0.71861726045608521 0.71861726045608521
0.8011353611946106 0.8011353611946106 0.8011353611946106
0.86778956651687622 0.86778956651687622 0.86778956651687622
0.92546188831329346 0.92546188831329346 0.92546188831329346
0.97606980800628662 0.97606980800628662 0.97606980800628662
0.10161907970905304 0.10161907970905304 0.10161907970905304
0.13974779844284058 0.13974779844284058 0.13974779844284058
0.19192099571228027 0.19192099571228027 0.19192099571228027
0.2582671046257019 0.2582671046257019 0.2582671046257019
0.33767029643058777 0.33767029643058777 0.33767029643058777
0.42896401882171631 0.42896401882171631 0.42896401882171631
0.52856874465942383 0.52856874465942383 0.52856874465942383
0.62889856100082397 0.62889856100082397 0.62889856100082397
0.72185391187667847 0.72185391187667847 0.72185391187667847
0.8011590838432312 0.8011590838432312 0.8011590838432312
0.86517107486724854 0.86517107486724854 0.86517107486724854
0.92262095212936401 0.92262095212936401 0.92262095212936401
0.97499626874923706 0.97499626874923706 0.97499626874923706
0.16294384002685547 0.16294384002685547 0.16294384002685547
0.19173094630241394 0.19173094630241394 0.19173094630241394
0.23360642790794373 0.23360642790794373 0.23360642790794373
0.2908327579498291 0.2908327579498291 0.2908327579498291
0.36345374584197998 0.36345374584197998 0.36345374584197998
0.44851970672607422 0.44851970672607422 0.44851970672607422
0.54155260324478149 0.54155260324478149 0.54155260324478149
0.63579452037811279 0.63579452037811279 0.63579452037811279
0.72427648305892944 0.72427648305892944 0.72427648305892944
0.80101519823074341 0.80101519823074341 0.80101519823074341
0.86493629217147827 0.86493629217147827 0.86493629217147827
0.92159366607666016 0.92159366607666016 0.92159366607666016
0.97264778614044189 0.97264778614044189 0.97264778614044189
0.2284073680639267 0.2284073680639267 0.2284073680639267
0.2495531439781189 0.2495531439781189 0.2495531439781189
0.28192824125289917 0.28192824125289917 0.28192824125289917
0.33006241917610168 0.33006241917610168 0.33006241917610168
0.39454352855682373 0.39454352855682373 0.39454352855682373
0.47182253003120422 0.47182253003120422 0.47182253003120422
0.55712467432022095 0.55712467432022095 0.55712467432022095
0.64458286762237549 0.64458286762237549 0.64458286762237549
0.72846502065658569 0.72846502065658569 0.72846502065658569
0.80338841676712036 0.80338841676712036 0.80338841676712036
0.86701983213424683 0.86701983213424683 0.86701983213424683
0.92258632183074951 0.92258632183074951 0.92258632183074951
0.97156792879104614 0.97156792879104614 0.97156792879104614
0.30176502466201782 0.30176502466201782 0.30176502466201782
0.31608548760414124 0.31608548760414124 0.31608548760414124
0.34008297324180603 0.34008297324180603 0.34008297324180603
0.37849456071853638 0.37849456071853638 0.37849456071853638
0.43342253565788269 0.43342253565788269 0.43342253565788269
0.50082194805145264 0.50082194805145264 0.50082194805145264
0.57589149475097656 0.57589149475097656 0.57589149475097656
0.65542054176330566 0.65542054176330566 0.65542054176330566
0.73358160257339478 0.73358160257339478 0.73358160257339478
0.80563116073608398 0.80563116073608398 0.80563116073608398
0.86871755123138428 0.86871755123138428 0.86871755123138428
0.92331939935684204 0.92331939935684204 0.92331939935684204
0.97092044353485107 0.97092044353485107 0.97092044353485107
0.38766515254974365 0.38766515254974365 0.38766515254974365
0.39611971378326416 0.39611971378326416 0.39611971378326416
0.41216647624969482 0.41216647624969482 0.41216647624969482
0.44018170237541199 0.44018170237541199 0.44018170237541199
0.48248818516731262 0.48248818516731262 0.48248818516731262
0.53667384386062622 0.53667384386062622 0.53667384386062622
0.59975409507751465 0.59975409507751465 0.59975409507751465
0.66883367300033569 0.66883367300033569 0.66883367300033569
0.73944604396820068 0.73944604396820068 0.73944604396820068
0.80753022432327271 0.80753022432327271 0.80753022432327271
0.86952441930770874 0.86952441930770874 0.86952441930770874
0.92371022701263428 0.92371022701263428 0.92371022701263428
0.97076112031936646 0.97076112031936646 0.97076112031936646
0.49112877249717712 0.49112877249717712 0.49112877249717712
0.49499896168708801 0.49499896168708801 0.49499896168708801
0.50231248140335083 0.50231248140335083 0.50231248140335083
0.51699173450469971 0.51699173450469971 0.51699173450469971
0.54383498430252075 0.54383498430252075 0.54383498430252075
0.58141952753067017 0.58141952753067017 0.58141952753067017
0.62881100177764893 0.62881100177764893 0.62881100177764893
0.68537205457687378 0.68537205457687378 0.68537205457687378
0.74736946821212769 0.74736946821212769 0.74736946821212769
0.810874342918396 0.810874342918396 0.810874342918396
0.87142598628997803 0.87142598628997803 0.87142598628997803
0.92545849084854126 0.92545849084854126 0.92545849084854126
0.97162258625030518 0.97162258625030518 0.97162258625030518
0.6194036602973938 0.6194036602973938 0.6194036602973938
0.62310010194778442 0.62310010194778442 0.62310010194778442
0.61888158321380615 0.61888158321380615 0.61888158321380615
0.61499863862991333 0.61499863862991333 0.61499863862991333
0.62172192335128784 0.62172192335128784 0.62172192335128784
0.63782238960266113 0.63782238960266113 0.63782238960266113
0.66538649797439575 0.66538649797439575 0.66538649797439575
0.70599830150604248 0.70599830150604248 0.70599830150604248
0.75784993171691895 0.75784993171691895 0.75784993171691895
0.81663578748703003 0.81663578748703003 0.81663578748703003
0.87580698728561401 0.87580698728561401 0.87580698728561401
0.9291425347328186 0.9291425347328186 0.9291425347328186
0.9740106463432312 0.9740106463432312 0.9740106463432312
0.78869479894638062 0.78869479894638062 0.78869479894638062
0.79212605953216553 0.79212605953216553 0.79212605953216553
0.77173757553100586 0.77173757553100586 0.77173757553100586
0.74240028858184814 0.74240028858184814 0.74240028858184814
0.72481298446655273 0.72481298446655273 0.72481298446655273
0.7129286527633667 0.7129286527633667 0.7129286527633667
0.71438539028167725 0.71438539028167725 0.71438539028167725
0.73307973146438599 0.73307973146438599 0.73307973146438599
0.7719120979309082 0.7719120979309082 0.7719120979309082
0.82480615377426147 0.82480615377426147 0.82480615377426147
0.8822634220123291 0.8822634220123291 0.8822634220123291
0.93392693996429443 0.93392693996429443 0.93392693996429443
0.97663897275924683 0.97663897275924683 0.97663897275924683
0.94733923673629761 0.94733923673629761 0.94733923673629761
0.95060557126998901 0.95060557126998901 0.95060557126998901
0.93316203355789185 0.93316203355789185 0.93316203355789185
0.89443773031234741 0.89443773031234741 0.89443773031234741
0.85667258501052856 0.85667258501052856 0.85667258501052856
0.81775873899459839 0.81775873899459839 0.81775873899459839
0.78652173280715942 0.78652173280715942 0.78652173280715942
0.7739332914352417 0.7739332914352417 0.7739332914352417
0.79334747791290283 0.79334747791290283 0.79334747791290283
0.83677971363067627 0.83677971363067627 0.83677971363067627
0.88966155052185059 0.88966155052185059 0.88966155052185059
0.93825602531433105 0.93825602531433105 0.93825602531433105
0.97976052761077881 0.97976052761077881 0.97976052761077881
0.94604229927062988 0.94604229927062988 0.94604229927062988
0.98406046628952026 0.98406046628952026 0.98406046628952026
0.99905824661254883 0.99905824661254883 0.99905824661254883
0.99346327781677246 0.99346327781677246 0.99346327781677246
0.97730547189712524 0.97730547189712524 0.97730547189712524
0.94340896606445312 0.94340896606445312 0.94340896606445312
0.89251303672790527 0.89251303672790527 0.89251303672790527
0.84564197063446045 0.84564197063446045 0.84564197063446045
0.83657097816467285 0.83657097816467285 0.83657097816467285
0.85948795080184937 0.85948795080184937 0.85948795080184937
0.89961284399032593 0.89961284399032593 0.89961284399032593
0.94180953502655029 0.94180953502655029 0.94180953502655029
0.98199552297592163 0.98199552297592163 0.98199552297592163
0.93131124973297119 0.93131124973297119 0.93131124973297119
0.96361219882965088 0.96361219882965088 0.96361219882965088
0.99613642692565918 0.99613642692565918 0.99613642692565918
1 1 1
1 1 1
0.99944490194320679 0.99944490194320679 0.99944490194320679
0.98865574598312378 0.98865574598312378 0.98865574598312378
0.95324528217315674 0.95324528217315674 0.95324528217315674
0.91434609889984131 0.91434609889984131 0.91434609889984131
0.90844231843948364 0.90844231843948364 0.90844231843948364
0.92179411649703979 0.92179411649703979 0.92179411649703979
0.94678586721420288 0.94678586721420288 0.94678586721420288
0.9845576286315918 0.9845576286315918 0.9845576286315918
0.90532523393630981 0.90532523393630981 0.90532523393630981
0.93406778573989868 0.93406778573989868 0.93406778573989868
0.97996383905410767 0.97996383905410767 0.97996383905410767
0.99993681907653809 0.99993681907653809 0.99993681907653809
1 1 1
1 1 1
1 1 1
0.99925106763839722 0.99925106763839722 0.99925106763839722
0.9893491268157959 0.9893491268157959 0.9893491268157959
0.97784519195556641 0.97784519195556641 0.97784519195556641
0.9591832160949707 0.9591832160949707 0.9591832160949707
0.95613718032836914 0.95613718032836914 0.95613718032836914
0.98185217380523682 0.98185217380523682 0.98185217380523682
0.050501085817813873 0.050501085817813873 0.050501085817813873
0.097965866327285767 0.097965866327285767 0.097965866327285767
0.16146504878997803 0.16146504878997803 0.16146504878997803
0.23798611760139465 0.23798611760139465 0.23798611760139465
0.32644933462142944 0.32644933462142944 0.32644933462142944
0.42528712749481201 0.42528712749481201 0.42528712749481201
0.53070956468582153 0.53070956468582153 0.53070956468582153
0.63513278961181641 0.63513278961181641 0.63513278961181641
0.72968727350234985 0.72968727350234985 0.72968727350234985
0.8091309666633606 0.8091309666633606 0.8091309666633606
0.87419247627258301 0.87419247627258301 0.87419247627258301
0.92997711896896362 0.92997711896896362 0.92997711896896362
0.97808021306991577 0.97808021306991577 0.97808021306991577
0.094578295946121216 0.094578295946121216 0.094578295946121216
0.13545846939086914 0.13545846939086914 0.13545846939086914
0.1907850056886673 0.1907850056886673 0.1907850056886673
0.26029086112976074 0.26029086112976074 0.26029086112976074
0.34325990080833435 0.34325990080833435 0.34325990080833435
0.43785545229911804 0.43785545229911804 0.43785545229911804
0.53937745094299316 0.53937745094299316 0.53937745094299316
0.64028030633926392 0.64028030633926392 0.64028030633926392
0.73220443725585938 0.73220443725585938 0.73220443725585938
0.81008642911911011 0.81008642911911011 0.81008642911911011
0.8749014139175415 0.8749014139175415 0.8749014139175415
0.93060541152954102 0.93060541152954102 0.93060541152954102
0.97969996929168701 0.97969996929168701 0.97969996929168701
0.15071402490139008 0.15071402490139008 0.15071402490139008
0.18365529179573059 0.18365529179573059 0.18365529179573059
0.22970223426818848 0.22970223426818848 0.22970223426818848
0.29071143269538879 0.29071143269538879 0.29071143269538879
0.36601698398590088 0.36601698398590088 0.36601698398590088
0.45380300283432007 0.45380300283432007 0.45380300283432007
0.54923272132873535 0.54923272132873535 0.54923272132873535
0.64451855421066284 0.64451855421066284 0.64451855421066284
0.73257589340209961 0.73257589340209961 0.73257589340209961
0.80932009220123291 0.80932009220123291 0.80932009220123291
0.87337124347686768 0.87337124347686768 0.87337124347686768
0.9296872615814209 0.9296872615814209 0.9296872615814209
0.97892498970031738 0.97892498970031738 0.97892498970031738
0.21466171741485596 0.21466171741485596 0.21466171741485596
0.23974663019180298 0.23974663019180298 0.23974663019180298
0.27710685133934021 0.27710685133934021 0.27710685133934021
0.32903954386711121 0.32903954386711121 0.32903954386711121
0.39554145932197571 0.39554145932197571 0.39554145932197571
0.47482579946517944 0.47482579946517944 0.47482579946517944
0.5620759129524231 0.5620759129524231 0.5620759129524231
0.65079367160797119 0.65079367160797119 0.65079367160797119
0.73463886976242065 0.73463886976242065 0.73463886976242065
0.8093574047088623 0.8093574047088623 0.8093574047088623
0.87371200323104858 0.87371200323104858 0.87371200323104858
0.9293370246887207 0.9293370246887207 0.9293370246887207
0.9777718186378479 0.9777718186378479 0.9777718186378479
0.28722712397575378 0.28722712397575378 0.28722712397575378
0.30520308017730713 0.30520308017730713 0.30520308017730713
0.33364972472190857 0.33364972472190857 0.33364972472190857
0.37584325671195984 0.37584325671195984 0.37584325671195984
0.43250429630279541 0.43250429630279541 0.43250429630279541
0.50162440538406372 0.50162440538406372 0.50162440538406372
0.5791393518447876 0.5791393518447876 0.5791393518447876
0.65971261262893677 0.65971261262893677 0.65971261262893677
0.73826658725738525 0.73826658725738525 0.73826658725738525
0.8103938102722168 0.8103938102722168 0.8103938102722168
0.87388718128204346 0.87388718128204346 0.87388718128204346
0.92902195453643799 0.92902195453643799 0.92902195453643799
0.97695940732955933 0.97695940732955933 0.97695940732955933
0.37171199917793274 0.37171199917793274 0.37171199917793274
0.38316676020622253 0.38316676020622253 0.38316676020622253
0.40269318222999573 0.40269318222999573 0.40269318222999573
0.43387964367866516 0.43387964367866516 0.43387964367866516
0.47828862071037292 0.47828862071037292 0.47828862071037292
