films/kodak_kodachrome_64.cube
# Created by: G'MIC (https://gmic.eu)
TITLE "kodak_kodachrome_64"
# LUT size
LUT_3D_SIZE 7
# Data domain
DOMAIN_MIN 0.0 0.0 0.0
DOMAIN_MAX 1.0 1.0 1.0
# LUT data points
0.031349003314971924 0.022377314046025276 0.016713235527276993
0.13027641177177429 0.021423324942588806 0.011551337316632271
0.33365297317504883 0.042072564363479614 0.01195704098790884
0.56437200307846069 0.068733096122741699 0.00521087646484375
0.72754544019699097 0.084715433418750763 0.00028112073778174818
0.87172871828079224 0.10322184860706329 0
0.986794114112854 0.12340293079614639 0.0013253454817458987
0.08459000289440155 0.14187069237232208 0.074125312268733978
0.16929279267787933 0.14803290367126465 0.068911351263523102
0.3885033130645752 0.17270451784133911 0.066817037761211395
0.60026288032531738 0.18804828822612762 0.054865188896656036
0.75715500116348267 0.19064942002296448 0.040560360997915268
0.89273178577423096 0.1834900826215744 0.02357248030602932
0.98535174131393433 0.1771186888217926 0.016890387982130051
0.1122419461607933 0.3792167603969574 0.1682165116071701
0.23532965779304504 0.38566851615905762 0.16602203249931335
0.46540269255638123 0.40233781933784485 0.15933579206466675
0.65148717164993286 0.41088292002677917 0.14803925156593323
0.79890340566635132 0.4039575457572937 0.13106289505958557
0.93616640567779541 0.37734633684158325 0.10498150438070297
0.99964749813079834 0.33916085958480835 0.084187932312488556
0.23569996654987335 0.57075101137161255 0.28409895300865173
0.35564050078392029 0.57981079816818237 0.27429026365280151
0.5353197455406189 0.59491735696792603 0.27144122123718262
0.68759089708328247 0.60768550634384155 0.26403138041496277
0.83366817235946655 0.61957776546478271 0.24623078107833862
0.96891307830810547 0.6203010082244873 0.21947026252746582
0.99997305870056152 0.61196202039718628 0.19713173806667328
0.39488166570663452 0.71314829587936401 0.40577298402786255
0.46760031580924988 0.71834397315979004 0.4087880551815033
0.58185786008834839 0.72854959964752197 0.40629249811172485
0.70975959300994873 0.74241173267364502 0.39906772971153259
0.84042072296142578 0.75506299734115601 0.39065176248550415
0.97139513492584229 0.76272022724151611 0.3673228919506073
1 0.76403909921646118 0.34925159811973572
0.49470049142837524 0.83530104160308838 0.52342706918716431
0.54471766948699951 0.83981704711914062 0.53617823123931885
0.63027036190032959 0.84957247972488403 0.53324997425079346
0.73499596118927002 0.86331081390380859 0.53041166067123413
0.85294085741043091 0.87527626752853394 0.5266956090927124
0.9768255352973938 0.8838118314743042 0.50803440809249878
1 0.88978183269500732 0.48459383845329285
0.58051472902297974 0.94920521974563599 0.61729902029037476
0.62621062994003296 0.95664769411087036 0.62652748823165894
0.69114744663238525 0.96586126089096069 0.6309935450553894
0.77624398469924927 0.97970789670944214 0.63469928503036499
0.88033884763717651 0.98942333459854126 0.63655763864517212
0.98652315139770508 0.99302917718887329 0.63337254524230957
1 0.99610936641693115 0.60043931007385254
0.0048169153742492199 0.007562300655990839 0.079563498497009277
0.10230789333581924 0.013580157421529293 0.074346147477626801
0.31190639734268188 0.031106268987059593 0.07503192126750946
0.53832149505615234 0.049566589295864105 0.061564546078443527
0.70551717281341553 0.063186287879943848 0.048952993005514145
0.85256576538085938 0.079318076372146606 0.041143067181110382
0.97208487987518311 0.095348760485649109 0.039991430938243866
0.058222990483045578 0.12693703174591064 0.15021033585071564
0.14879718422889709 0.13610576093196869 0.14912712574005127
0.36837118864059448 0.15865705907344818 0.14365684986114502
0.57235252857208252 0.16944499313831329 0.13308161497116089
0.72474366426467896 0.16792485117912292 0.11561321467161179
0.86672890186309814 0.15673568844795227 0.094243712723255157
0.97209036350250244 0.14699874818325043 0.073537923395633698
0.067184954881668091 0.36635786294937134 0.26203379034996033
0.19655463099479675 0.37250813841819763 0.25911325216293335
0.44326362013816833 0.39454090595245361 0.25293558835983276
0.61837637424468994 0.39841541647911072 0.24343061447143555
0.76353591680526733 0.39062497019767761 0.22569809854030609
0.89876747131347656 0.36223649978637695 0.19892305135726929
0.98718202114105225 0.32132530212402344 0.16951128840446472
0.18218463659286499 0.55058979988098145 0.38221532106399536
0.30853021144866943 0.56027865409851074 0.37615764141082764
0.49352538585662842 0.57490617036819458 0.37644863128662109
0.6463930606842041 0.58938068151473999 0.37106198072433472
0.79249280691146851 0.59810596704483032 0.3563913106918335
0.92662668228149414 0.59953063726425171 0.32915410399436951
0.99864464998245239 0.59039485454559326 0.30943673849105835
0.36754205822944641 0.69882982969284058 0.48579543828964233
0.43684431910514832 0.70401889085769653 0.48759710788726807
0.54828190803527832 0.71265751123428345 0.48437437415122986
0.676361083984375 0.72627407312393188 0.47691592574119568
0.81130433082580566 0.73893076181411743 0.46848174929618835
0.94535207748413086 0.74666059017181396 0.45338770747184753
1 0.75101202726364136 0.43889656662940979
0.48792365193367004 0.83349055051803589 0.58454495668411255
0.53366667032241821 0.83585530519485474 0.58589631319046021
0.61041033267974854 0.84087443351745605 0.58090174198150635
0.7166791558265686 0.85188812017440796 0.57447546720504761
0.83502340316772461 0.86576765775680542 0.57112234830856323
0.95752108097076416 0.87612903118133545 0.56075870990753174
1 0.88531160354614258 0.54826158285140991
0.58072572946548462 0.95688438415527344 0.6751943826675415
0.61708492040634155 0.95771998167037964 0.6746596097946167
0.67586743831634521 0.9636911153793335 0.67337048053741455
0.76229441165924072 0.97560697793960571 0.67523622512817383
0.8662227988243103 0.98635399341583252 0.67465507984161377
0.96618646383285522 0.99324363470077515 0.66779786348342896
1 0.99719405174255371 0.64951539039611816
0.0012211519060656428 0.0040828930214047432 0.19260098040103912
0.054409489035606384 0.0070880218409001827 0.19229379296302795
0.28130114078521729 0.015669355168938637 0.18854576349258423
0.49481746554374695 0.025292340666055679 0.18223954737186432
0.65554171800613403 0.036390222609043121 0.17540353536605835
0.80323642492294312 0.05140705406665802 0.16359955072402954
0.92028355598449707 0.060636810958385468 0.14972442388534546
0.022382773458957672 0.096976079046726227 0.28407147526741028
0.10038797557353973 0.10475721210241318 0.28496178984642029
0.31720462441444397 0.12642936408519745 0.27834239602088928
0.51534515619277954 0.13550639152526855 0.27490666508674622
0.6674269437789917 0.13439543545246124 0.25946778059005737
0.80452424287796021 0.12290944159030914 0.24031418561935425
0.9143822193145752 0.10808943212032318 0.21141338348388672
0.027418129146099091 0.3358919620513916 0.39574429392814636
0.13957998156547546 0.34935387969017029 0.4013136625289917
0.38724318146705627 0.36585110425949097 0.39268243312835693
0.55962842702865601 0.36201333999633789 0.38353192806243896
0.70394086837768555 0.3500823974609375 0.37105298042297363
0.83362269401550293 0.32500454783439636 0.35416138172149658
0.92576098442077637 0.28416484594345093 0.32162141799926758
0.14054344594478607 0.52779746055603027 0.4888603687286377
0.26664343476295471 0.5378410816192627 0.49065396189689636
0.45141410827636719 0.55179834365844727 0.48585069179534912
0.60030204057693481 0.56297969818115234 0.48374336957931519
0.74237328767776489 0.57175678014755249 0.47932946681976318
0.8776518702507019 0.57107537984848022 0.46233618259429932
0.97609740495681763 0.55442607402801514 0.44144827127456665
0.33545047044754028 0.68274378776550293 0.56815516948699951
0.40823155641555786 0.68912076950073242 0.56859683990478516
0.51751828193664551 0.69696158170700073 0.56616306304931641
0.6416471004486084 0.70877110958099365 0.56374478340148926
0.77290064096450806 0.72002619504928589 0.55953758955001831
0.90699678659439087 0.7275547981262207 0.54839181900024414
0.99829840660095215 0.72850769758224487 0.53692209720611572
0.46728429198265076 0.82114654779434204 0.64894759654998779
0.51086717844009399 0.82294684648513794 0.64769238233566284
0.58589941263198853 0.82876574993133545 0.64371997117996216
0.69013428688049316 0.8402717113494873 0.64179784059524536
0.8092648983001709 0.85330545902252197 0.63869088888168335
0.93786901235580444 0.86137235164642334 0.63179999589920044
1 0.86869055032730103 0.62302374839782715
0.56458616256713867 0.94856876134872437 0.73009568452835083
0.59967738389968872 0.951274573802948 0.72826611995697021
0.65691733360290527 0.9567866325378418 0.72610116004943848
0.74235856533050537 0.96895688772201538 0.72706764936447144
0.84601289033889771 0.98163968324661255 0.72699898481369019
0.96512150764465332 0.98727977275848389 0.72402763366699219
1 0.99204713106155396 0.7112153172492981
0 0 0.33569526672363281
0.026886479929089546 1.077091019396903e-05 0.33499154448509216
0.21825356781482697 0.0032003964297473431 0.33431175351142883
0.4300825297832489 0.0066462047398090363 0.33244070410728455
0.58666861057281494 0.0065451380796730518 0.32721564173698425
0.72694849967956543 0.0090360306203365326 0.31305605173110962
0.83946913480758667 0.016590477898716927 0.29684662818908691
0.0062068416737020016 0.070935674011707306 0.4123704731464386
0.07229296863079071 0.076667815446853638 0.4105607271194458
0.26716408133506775 0.098729722201824188 0.40647399425506592
0.46189141273498535 0.11110752820968628 0.40288332104682922
0.61287987232208252 0.10851887613534927 0.39508482813835144
0.7442854642868042 0.087692946195602417 0.37878766655921936
0.84622585773468018 0.067663289606571198 0.35709607601165771
0.032813966274261475 0.31722161173820496 0.50067239999771118
0.11553493142127991 0.33081883192062378 0.50329083204269409
0.34871560335159302 0.34371489286422729 0.49812024831771851
0.51926290988922119 0.3493104875087738 0.49256068468093872
0.6630634069442749 0.34343016147613525 0.48352435231208801
0.78947490453720093 0.3093721866607666 0.46825429797172546
0.88035160303115845 0.2612578272819519 0.44395226240158081
0.12989956140518188 0.5112801194190979 0.5779348611831665
0.24526382982730865 0.51973932981491089 0.57913327217102051
0.41825881600379944 0.53509396314620972 0.57597059011459351
0.5655023455619812 0.54566961526870728 0.57567834854125977
0.70617127418518066 0.55604660511016846 0.57196247577667236
0.83981120586395264 0.5494459867477417 0.56139343976974487
0.94098144769668579 0.52845841646194458 0.54462069272994995
0.30588090419769287 0.66763496398925781 0.64765876531600952
0.37448891997337341 0.67204552888870239 0.64769613742828369
0.48606115579605103 0.68160545825958252 0.64579278230667114
0.61032086610794067 0.69265377521514893 0.64517849683761597
0.73997205495834351 0.70424431562423706 0.64246529340744019
0.87525004148483276 0.71035325527191162 0.63474208116531372
0.9752197265625 0.70906263589859009 0.62516158819198608
0.43595165014266968 0.80450868606567383 0.71688520908355713
0.47735708951950073 0.80564355850219727 0.71775805950164795
0.55692583322525024 0.81497347354888916 0.71596968173980713
0.66118055582046509 0.8262101411819458 0.71510285139083862
0.77800881862640381 0.83891814947128296 0.71187418699264526
0.90342491865158081 0.84737622737884521 0.7056460976600647
0.99725461006164551 0.85304063558578491 0.69933956861495972
0.53633975982666016 0.9322361946105957 0.78809791803359985
0.57341551780700684 0.93937265872955322 0.79007089138031006
0.63284611701965332 0.94858592748641968 0.7899775505065918
0.71808582544326782 0.96037620306015015 0.79018950462341309
0.8208356499671936 0.97351372241973877 0.78916639089584351
0.93248063325881958 0.98145210742950439 0.78426980972290039
0.99978405237197876 0.98637157678604126 0.77571111917495728
0 0 0.43463152647018433
0.026744648814201355 0 0.43988540768623352
0.20751577615737915 0.00073848053580150008 0.44085118174552917
0.39330270886421204 0.007199007086455822 0.43615949153900146
0.54229813814163208 0.0021413916256278753 0.43348035216331482
0.6766008734703064 0 0.42424789071083069
0.78383469581604004 0.00039167216164059937 0.41645482182502747
0.0013701196294277906 0.055797919631004333 0.50730746984481812
0.052376482635736465 0.063454374670982361 0.50450599193572998
0.24588495492935181 0.087531164288520813 0.50157535076141357
0.43358314037322998 0.10274210572242737 0.50034791231155396
0.57400447130203247 0.088485166430473328 0.49269360303878784
0.70448273420333862 0.060067165642976761 0.47733709216117859
0.80607712268829346 0.042895000427961349 0.46134933829307556
0.032324217259883881 0.30708295106887817 0.59265619516372681
0.12479867041110992 0.31135651469230652 0.58902788162231445
0.3309958279132843 0.33401620388031006 0.58661752939224243
0.49350267648696899 0.32942900061607361 0.58202749490737915
0.62749916315078735 0.31536927819252014 0.57014244794845581
0.75311601161956787 0.28904449939727783 0.55804121494293213
0.84403473138809204 0.24840570986270905 0.5411757230758667
0.1114458441734314 0.49930554628372192 0.66108065843582153
0.22376364469528198 0.50586825609207153 0.66150623559951782
0.39331141114234924 0.52043038606643677 0.65939211845397949
0.5404820442199707 0.53212416172027588 0.66042447090148926
0.67496281862258911 0.54014253616333008 0.65619975328445435
0.80610460042953491 0.53530281782150269 0.64890921115875244
0.90794366598129272 0.51541340351104736 0.63514930009841919
0.28078392148017883 0.65645867586135864 0.72506946325302124
0.34866708517074585 0.65909737348556519 0.72505015134811401
0.45938539505004883 0.66838383674621582 0.72261393070220947
0.58414655923843384 0.67882013320922852 0.72284811735153198
0.70861011743545532 0.68862539529800415 0.7213212251663208
0.843436598777771 0.69359993934631348 0.71590703725814819
0.95329582691192627 0.69053685665130615 0.7069019079208374
0.40630260109901428 0.79214626550674438 0.7889828085899353
0.45348665118217468 0.7967914342880249 0.78892934322357178
0.53197163343429565 0.80451732873916626 0.78790909051895142
0.63539350032806396 0.81216365098953247 0.7870631217956543
0.75048631429672241 0.82207155227661133 0.78426593542098999
0.87439411878585815 0.83286821842193604 0.78024584054946899
0.97835004329681396 0.83801823854446411 0.77459317445755005
0.50923377275466919 0.92101562023162842 0.85437768697738647
0.54774504899978638 0.93038535118103027 0.85723298788070679
0.60744559764862061 0.94274163246154785 0.85660266876220703
0.69322490692138672 0.95218217372894287 0.85665535926818848
0.79724752902984619 0.96292227506637573 0.8553544282913208
0.91541868448257446 0.97276496887207031 0.85177820920944214
0.99994468688964844 0.98075181245803833 0.84601879119873047
0 0 0.51490294933319092
0.0053358189761638641 0 0.52678662538528442
0.17519870400428772 1.4361213288793806e-05 0.5245739221572876
0.36053675413131714 0.00073113536927849054 0.5188707709312439
0.50702410936355591 0.0012463887687772512 0.52135670185089111
0.63701218366622925 0 0.51154738664627075
0.74031037092208862 0 0.50001484155654907
0.00019881303887814283 0.047646030783653259 0.58557486534118652
0.039122667163610458 0.060557946562767029 0.58617138862609863
0.22986675798892975 0.082525677978992462 0.58420509099960327
0.40843060612678528 0.088985010981559753 0.58350527286529541
0.54306834936141968 0.07776922732591629 0.57811266183853149
0.66599613428115845 0.043111465871334076 0.56403642892837524
0.76033973693847656 0.025462131947278976 0.54678565263748169
0.036906283348798752 0.29145863652229309 0.67701894044876099
0.12885294854640961 0.3066902756690979 0.67092138528823853
0.31364265084266663 0.32237401604652405 0.66898983716964722
0.47002261877059937 0.32070967555046082 0.66740661859512329
0.60113126039505005 0.31208908557891846 0.65985661745071411
0.72470438480377197 0.27972933650016785 0.64614522457122803
0.80933582782745361 0.22471188008785248 0.62028950452804565
0.1269792765378952 0.48883858323097229 0.74162822961807251
0.2246556282043457 0.49693837761878967 0.74050331115722656
0.37096765637397766 0.50745993852615356 0.74004709720611572
0.51512593030929565 0.51705121994018555 0.74263232946395874
0.64638149738311768 0.52708065509796143 0.7412184476852417
0.77596443891525269 0.51914328336715698 0.73568880558013916
0.87760597467422485 0.49609079957008362 0.71535539627075195
0.26792675256729126 0.64314365386962891 0.80275624990463257
0.33327192068099976 0.64526516199111938 0.80127203464508057
0.43795043230056763 0.6534193754196167 0.8001631498336792
0.56033635139465332 0.66282385587692261 0.80095958709716797
0.68227684497833252 0.67216199636459351 0.80263787508010864
0.8148268461227417 0.67699849605560303 0.7968909740447998
0.92467677593231201 0.67473959922790527 0.78621697425842285
0.38971331715583801 0.77892953157424927 0.86057335138320923
0.43363267183303833 0.7829776406288147 0.8624005913734436
0.51049923896789551 0.79029160737991333 0.86141574382781982
0.61238282918930054 0.79701364040374756 0.86109775304794312
0.72368115186691284 0.80624139308929443 0.85997152328491211
0.84652620553970337 0.81606316566467285 0.85526376962661743
0.95091730356216431 0.82054620981216431 0.85642439126968384
0.49656069278717041 0.91349571943283081 0.92334175109863281
0.52874112129211426 0.91890245676040649 0.9292304515838623
0.58678460121154785 0.92875975370407104 0.92847192287445068
0.67011523246765137 0.93762516975402832 0.92796248197555542
0.77022498846054077 0.95135962963104248 0.92653554677963257
0.88610261678695679 0.96388417482376099 0.92839789390563965
0.99281620979309082 0.97317487001419067 0.92281037569046021
0.00035900040529668331 0.00060928944731131196 0.57231777906417847
0.016980832442641258 0 0.58038723468780518
0.16713972389698029 0 0.57643741369247437
0.34110525250434875 0 0.57193100452423096
0.48587849736213684 0 0.57308095693588257
0.61621713638305664 0 0.56483471393585205
0.72641915082931519 0.001253973226994276 0.55439233779907227
0.00062173581682145596 0.049161501228809357 0.63270378112792969
0.039535090327262878 0.054670941084623337 0.63228702545166016
0.23367178440093994 0.062360696494579315 0.62909901142120361
0.39147195219993591 0.067484237253665924 0.62883681058883667
0.52407783269882202 0.054829705506563187 0.62013721466064453
0.64819681644439697 0.037240900099277496 0.61170893907546997
0.74711686372756958 0.027584239840507507 0.59672760963439941
0.045790683478116989 0.29186713695526123 0.71573078632354736
0.14322616159915924 0.30161312222480774 0.71508079767227173
0.3050001859664917 0.31219834089279175 0.71412110328674316
0.45443329215049744 0.31394279003143311 0.70687705278396606
0.5838133692741394 0.29531115293502808 0.7012944221496582
0.70488709211349487 0.26431712508201599 0.69004827737808228
0.78956979513168335 0.21106766164302826 0.66970080137252808
0.14503452181816101 0.47838088870048523 0.78817892074584961
0.22897489368915558 0.49004366993904114 0.783225417137146
0.36330083012580872 0.49931317567825317 0.78805965185165405
0.50111246109008789 0.50832784175872803 0.78670585155487061
0.63170260190963745 0.51483696699142456 0.78332823514938354
0.76011186838150024 0.51225113868713379 0.77857553958892822
0.85770487785339355 0.49789762496948242 0.76441609859466553
0.26657748222351074 0.63197529315948486 0.84738373756408691
0.32699790596961975 0.63942551612854004 0.84113883972167969
0.42810142040252686 0.64579039812088013 0.84680724143981934
0.54603534936904907 0.652332603931427 0.84887748956680298
0.66770559549331665 0.66186094284057617 0.84808194637298584
0.79710638523101807 0.66830718517303467 0.84188365936279297
0.90595370531082153 0.66655439138412476 0.83333224058151245
0.38493174314498901 0.77214270830154419 0.90161418914794922
0.42807742953300476 0.77748477458953857 0.9088934063911438
0.50215995311737061 0.7839546799659729 0.9098929762840271
0.59944254159927368 0.78930217027664185 0.90209776163101196
0.70827639102935791 0.79911255836486816 0.90327906608581543
0.83148938417434692 0.80823737382888794 0.90066331624984741
0.93846327066421509 0.80984765291213989 0.90025228261947632
0.49843871593475342 0.91908705234527588 0.97109675407409668
0.52534013986587524 0.91558396816253662 0.9755101203918457
0.58090692758560181 0.92611563205718994 0.97204285860061646
0.66009485721588135 0.93047064542770386 0.97222357988357544
0.75598198175430298 0.94460839033126831 0.97480326890945435
0.86870580911636353 0.95744246244430542 0.97782176733016968
0.97460734844207764 0.9517446756362915 0.97061264514923096
