films/kodak_hie_hs_infra.cube
# Created by: G'MIC (https://gmic.eu)
TITLE "kodak_hie_hs_infra"
# LUT size
LUT_3D_SIZE 7
# Data domain
DOMAIN_MIN 0.0 0.0 0.0
DOMAIN_MAX 1.0 1.0 1.0
# LUT data points
0.052513886243104935 0.052513886243104935 0.052513886243104935
0.16511964797973633 0.16511964797973633 0.16511964797973633
0.31494608521461487 0.31494608521461487 0.31494608521461487
0.50867569446563721 0.50867569446563721 0.50867569446563721
0.71144986152648926 0.71144986152648926 0.71144986152648926
0.86305564641952515 0.86305564641952515 0.86305564641952515
0.97416168451309204 0.97416168451309204 0.97416168451309204
0.1826486736536026 0.1826486736536026 0.1826486736536026
0.24428309500217438 0.24428309500217438 0.24428309500217438
0.36719486117362976 0.36719486117362976 0.36719486117362976
0.53896212577819824 0.53896212577819824 0.53896212577819824
0.71907669305801392 0.71907669305801392 0.71907669305801392
0.85885238647460938 0.85885238647460938 0.85885238647460938
0.9662819504737854 0.9662819504737854 0.9662819504737854
0.32008713483810425 0.32008713483810425 0.32008713483810425
0.35135185718536377 0.35135185718536377 0.35135185718536377
0.44082683324813843 0.44082683324813843 0.44082683324813843
0.5794682502746582 0.5794682502746582 0.5794682502746582
0.73284435272216797 0.73284435272216797 0.73284435272216797
0.86466395854949951 0.86466395854949951 0.86466395854949951
0.96442258358001709 0.96442258358001709 0.96442258358001709
0.50811195373535156 0.50811195373535156 0.50811195373535156
0.51679724454879761 0.51679724454879761 0.51679724454879761
0.55747383832931519 0.55747383832931519 0.55747383832931519
0.63790613412857056 0.63790613412857056 0.63790613412857056
0.74933260679244995 0.74933260679244995 0.74933260679244995
0.86859524250030518 0.86859524250030518 0.86859524250030518
0.96586471796035767 0.96586471796035767 0.96586471796035767
0.80129480361938477 0.80129480361938477 0.80129480361938477
0.78408151865005493 0.78408151865005493 0.78408151865005493
0.7412029504776001 0.7412029504776001 0.7412029504776001
0.73057961463928223 0.73057961463928223 0.73057961463928223
0.77853071689605713 0.77853071689605713 0.77853071689605713
0.8847007155418396 0.8847007155418396 0.8847007155418396
0.97311347723007202 0.97311347723007202 0.97311347723007202
0.91214835643768311 0.91214835643768311 0.91214835643768311
0.99240297079086304 0.99240297079086304 0.99240297079086304
0.98297643661499023 0.98297643661499023 0.98297643661499023
0.91381621360778809 0.91381621360778809 0.91381621360778809
0.84164291620254517 0.84164291620254517 0.84164291620254517
0.90638089179992676 0.90638089179992676 0.90638089179992676
0.97876250743865967 0.97876250743865967 0.97876250743865967
0.88133257627487183 0.88133257627487183 0.88133257627487183
0.95049762725830078 0.95049762725830078 0.95049762725830078
1 1 1
1 1 1
0.98577868938446045 0.98577868938446045 0.98577868938446045
0.96097594499588013 0.96097594499588013 0.96097594499588013
0.98149955272674561 0.98149955272674561 0.98149955272674561
0.050501085817813873 0.050501085817813873 0.050501085817813873
0.16146504878997803 0.16146504878997803 0.16146504878997803
0.32644933462142944 0.32644933462142944 0.32644933462142944
0.53070956468582153 0.53070956468582153 0.53070956468582153
0.72968727350234985 0.72968727350234985 0.72968727350234985
0.87419247627258301 0.87419247627258301 0.87419247627258301
0.97808021306991577 0.97808021306991577 0.97808021306991577
0.15071402490139008 0.15071402490139008 0.15071402490139008
0.22970223426818848 0.22970223426818848 0.22970223426818848
0.36601698398590088 0.36601698398590088 0.36601698398590088
0.54923272132873535 0.54923272132873535 0.54923272132873535
0.73257589340209961 0.73257589340209961 0.73257589340209961
0.87337124347686768 0.87337124347686768 0.87337124347686768
0.97892498970031738 0.97892498970031738 0.97892498970031738
0.28722712397575378 0.28722712397575378 0.28722712397575378
0.33364972472190857 0.33364972472190857 0.33364972472190857
0.43250429630279541 0.43250429630279541 0.43250429630279541
0.5791393518447876 0.5791393518447876 0.5791393518447876
0.73826658725738525 0.73826658725738525 0.73826658725738525
0.87388718128204346 0.87388718128204346 0.87388718128204346
0.97695940732955933 0.97695940732955933 0.97695940732955933
0.47269830107688904 0.47269830107688904 0.47269830107688904
0.48886784911155701 0.48886784911155701 0.48886784911155701
0.53534501791000366 0.53534501791000366 0.53534501791000366
0.62698948383331299 0.62698948383331299 0.62698948383331299
0.75109648704528809 0.75109648704528809 0.75109648704528809
0.87626916170120239 0.87626916170120239 0.87626916170120239
0.97692900896072388 0.97692900896072388 0.97692900896072388
0.74904471635818481 0.74904471635818481 0.74904471635818481
0.74561434984207153 0.74561434984207153 0.74561434984207153
0.70969671010971069 0.70969671010971069 0.70969671010971069
0.70494872331619263 0.70494872331619263 0.70494872331619263
0.77501612901687622 0.77501612901687622 0.77501612901687622
0.883758544921875 0.883758544921875 0.883758544921875
0.98024731874465942 0.98024731874465942 0.98024731874465942
0.98901772499084473 0.98901772499084473 0.98901772499084473
0.99729108810424805 0.99729108810424805 0.99729108810424805
0.97386044263839722 0.97386044263839722 0.97386044263839722
0.86437594890594482 0.86437594890594482 0.86437594890594482
0.83332353830337524 0.83332353830337524 0.83332353830337524
0.89577770233154297 0.89577770233154297 0.89577770233154297
0.98210430145263672 0.98210430145263672 0.98210430145263672
0.91363430023193359 0.91363430023193359 0.91363430023193359
0.99354392290115356 0.99354392290115356 0.99354392290115356
1 1 1
1 1 1
0.98314189910888672 0.98314189910888672 0.98314189910888672
0.94975429773330688 0.94975429773330688 0.94975429773330688
0.97654873132705688 0.97654873132705688 0.97654873132705688
0.051452770829200745 0.051452770829200745 0.051452770829200745
0.17735299468040466 0.17735299468040466 0.17735299468040466
0.35527512431144714 0.35527512431144714 0.35527512431144714
0.56400203704833984 0.56400203704833984 0.56400203704833984
0.76064050197601318 0.76064050197601318 0.76064050197601318
0.88797134160995483 0.88797134160995483 0.88797134160995483
0.98428857326507568 0.98428857326507568 0.98428857326507568
0.14386840164661407 0.14386840164661407 0.14386840164661407
0.23920084536075592 0.23920084536075592 0.23920084536075592
0.38764667510986328 0.38764667510986328 0.38764667510986328
0.57696998119354248 0.57696998119354248 0.57696998119354248
0.75716739892959595 0.75716739892959595 0.75716739892959595
0.89071840047836304 0.89071840047836304 0.89071840047836304
0.98858809471130371 0.98858809471130371 0.98858809471130371
0.27133902907371521 0.27133902907371521 0.27133902907371521
0.33390951156616211 0.33390951156616211 0.33390951156616211
0.44715982675552368 0.44715982675552368 0.44715982675552368
0.60184097290039062 0.60184097290039062 0.60184097290039062
0.76208865642547607 0.76208865642547607 0.76208865642547607
0.89085710048675537 0.89085710048675537 0.89085710048675537
0.98756438493728638 0.98756438493728638 0.98756438493728638
0.43444028496742249 0.43444028496742249 0.43444028496742249
0.46447044610977173 0.46447044610977173 0.46447044610977173
0.53115743398666382 0.53115743398666382 0.53115743398666382
0.64150315523147583 0.64150315523147583 0.64150315523147583
0.77303206920623779 0.77303206920623779 0.77303206920623779
0.89130383729934692 0.89130383729934692 0.89130383729934692
0.98550808429718018 0.98550808429718018 0.98550808429718018
0.67254692316055298 0.67254692316055298 0.67254692316055298
0.66387617588043213 0.66387617588043213 0.66387617588043213
0.66705548763275146 0.66705548763275146 0.66705548763275146
0.70821768045425415 0.70821768045425415 0.70821768045425415
0.80346882343292236 0.80346882343292236 0.80346882343292236
0.89598089456558228 0.89598089456558228 0.89598089456558228
0.98412686586380005 0.98412686586380005 0.98412686586380005
0.98128598928451538 0.98128598928451538 0.98128598928451538
0.96299052238464355 0.96299052238464355 0.96299052238464355
0.91250276565551758 0.91250276565551758 0.91250276565551758
0.82937115430831909 0.82937115430831909 0.82937115430831909
0.84485715627670288 0.84485715627670288 0.84485715627670288
0.90664631128311157 0.90664631128311157 0.90664631128311157
0.9837457537651062 0.9837457537651062 0.9837457537651062
0.98920601606369019 0.98920601606369019 0.98920601606369019
1 1 1
1 1 1
0.99978423118591309 0.99978423118591309 0.99978423118591309
0.98217260837554932 0.98217260837554932 0.98217260837554932
0.95343118906021118 0.95343118906021118 0.95343118906021118
0.99386894702911377 0.99386894702911377 0.99386894702911377
0.05083039402961731 0.05083039402961731 0.05083039402961731
0.2107899934053421 0.2107899934053421 0.2107899934053421
0.40090620517730713 0.40090620517730713 0.40090620517730713
0.59658956527709961 0.59658956527709961 0.59658956527709961
0.76831722259521484 0.76831722259521484 0.76831722259521484
0.89615404605865479 0.89615404605865479 0.89615404605865479
0.99157369136810303 0.99157369136810303 0.99157369136810303
0.15585993230342865 0.15585993230342865 0.15585993230342865
0.26968032121658325 0.26968032121658325 0.26968032121658325
0.43502774834632874 0.43502774834632874 0.43502774834632874
0.61707490682601929 0.61707490682601929 0.61707490682601929
0.78026479482650757 0.78026479482650757 0.78026479482650757
0.90322935581207275 0.90322935581207275 0.90322935581207275
0.99530988931655884 0.99530988931655884 0.99530988931655884
0.27848890423774719 0.27848890423774719 0.27848890423774719
0.35689249634742737 0.35689249634742737 0.35689249634742737
0.48560610413551331 0.48560610413551331 0.48560610413551331
0.64265400171279907 0.64265400171279907 0.64265400171279907
0.79485082626342773 0.79485082626342773 0.79485082626342773
0.91075831651687622 0.91075831651687622 0.91075831651687622
0.99542427062988281 0.99542427062988281 0.99542427062988281
0.41069674491882324 0.41069674491882324 0.41069674491882324
0.45873996615409851 0.45873996615409851 0.45873996615409851
0.54985028505325317 0.54985028505325317 0.54985028505325317
0.67272543907165527 0.67272543907165527 0.67272543907165527
0.80107301473617554 0.80107301473617554 0.80107301473617554
0.90965956449508667 0.90965956449508667 0.90965956449508667
0.99287831783294678 0.99287831783294678 0.99287831783294678
0.57485604286193848 0.57485604286193848 0.57485604286193848
0.59536105394363403 0.59536105394363403 0.59536105394363403
0.64219385385513306 0.64219385385513306 0.64219385385513306
0.71847105026245117 0.71847105026245117 0.71847105026245117
0.81852656602859497 0.81852656602859497 0.81852656602859497
0.91220879554748535 0.91220879554748535 0.91220879554748535
0.98880529403686523 0.98880529403686523 0.98880529403686523
0.87295246124267578 0.87295246124267578 0.87295246124267578
0.85996586084365845 0.85996586084365845 0.85996586084365845
0.81666308641433716 0.81666308641433716 0.81666308641433716
0.80815201997756958 0.80815201997756958 0.80815201997756958
0.85286998748779297 0.85286998748779297 0.85286998748779297
0.92566907405853271 0.92566907405853271 0.92566907405853271
0.98497468233108521 0.98497468233108521 0.98497468233108521
1 1 1
1 1 1
0.99999135732650757 0.99999135732650757 0.99999135732650757
0.99240076541900635 0.99240076541900635 0.99240076541900635
0.9409821629524231 0.9409821629524231 0.9409821629524231
0.94125676155090332 0.94125676155090332 0.94125676155090332
0.99055081605911255 0.99055081605911255 0.99055081605911255
0.091990962624549866 0.091990962624549866 0.091990962624549866
0.29114264249801636 0.29114264249801636 0.29114264249801636
0.47049811482429504 0.47049811482429504 0.47049811482429504
0.6444743275642395 0.6444743275642395 0.6444743275642395
0.79903662204742432 0.79903662204742432 0.79903662204742432
0.9242546558380127 0.9242546558380127 0.9242546558380127
0.99946314096450806 0.99946314096450806 0.99946314096450806
0.20357964932918549 0.20357964932918549 0.20357964932918549
0.33719608187675476 0.33719608187675476 0.33719608187675476
0.50577348470687866 0.50577348470687866 0.50577348470687866
0.67142575979232788 0.67142575979232788 0.67142575979232788
0.8148835301399231 0.8148835301399231 0.8148835301399231
0.92962861061096191 0.92962861061096191 0.92962861061096191
0.99990808963775635 0.99990808963775635 0.99990808963775635
0.32918933033943176 0.32918933033943176 0.32918933033943176
0.41850844025611877 0.41850844025611877 0.41850844025611877
0.55094420909881592 0.55094420909881592 0.55094420909881592
0.69943779706954956 0.69943779706954956 0.69943779706954956
0.8289482593536377 0.8289482593536377 0.8289482593536377
0.93341875076293945 0.93341875076293945 0.93341875076293945
0.99985909461975098 0.99985909461975098 0.99985909461975098
0.4371640682220459 0.4371640682220459 0.4371640682220459
0.49710604548454285 0.49710604548454285 0.49710604548454285
0.5997510552406311 0.5997510552406311 0.5997510552406311
0.72264760732650757 0.72264760732650757 0.72264760732650757
0.8368300199508667 0.8368300199508667 0.8368300199508667
0.93221980333328247 0.93221980333328247 0.93221980333328247
0.99897283315658569 0.99897283315658569 0.99897283315658569
0.54549998044967651 0.54549998044967651 0.54549998044967651
0.58212274312973022 0.58212274312973022 0.58212274312973022
0.66066151857376099 0.66066151857376099 0.66066151857376099
0.75898075103759766 0.75898075103759766 0.75898075103759766
0.84917902946472168 0.84917902946472168 0.84917902946472168
0.93062049150466919 0.93062049150466919 0.93062049150466919
0.99574673175811768 0.99574673175811768 0.99574673175811768
0.73442584276199341 0.73442584276199341 0.73442584276199341
0.73656493425369263 0.73656493425369263 0.73656493425369263
0.7577328085899353 0.7577328085899353 0.7577328085899353
0.80875128507614136 0.80875128507614136 0.80875128507614136
0.87265473604202271 0.87265473604202271 0.87265473604202271
0.93022441864013672 0.93022441864013672 0.93022441864013672
0.98906075954437256 0.98906075954437256 0.98906075954437256
0.99739289283752441 0.99739289283752441 0.99739289283752441
0.99610823392868042 0.99610823392868042 0.99610823392868042
0.98320204019546509 0.98320204019546509 0.98320204019546509
0.96492463350296021 0.96492463350296021 0.96492463350296021
0.94442319869995117 0.94442319869995117 0.94442319869995117
0.9423530101776123 0.9423530101776123 0.9423530101776123
0.99153941869735718 0.99153941869735718 0.99153941869735718
0.21526448428630829 0.21526448428630829 0.21526448428630829
0.40321516990661621 0.40321516990661621 0.40321516990661621
0.55911087989807129 0.55911087989807129 0.55911087989807129
0.70518189668655396 0.70518189668655396 0.70518189668655396
0.84245592355728149 0.84245592355728149 0.84245592355728149
0.96214073896408081 0.96214073896408081 0.96214073896408081
1 1 1
0.33916282653808594 0.33916282653808594 0.33916282653808594
0.4616800844669342 0.4616800844669342 0.4616800844669342
0.59768658876419067 0.59768658876419067 0.59768658876419067
0.73405110836029053 0.73405110836029053 0.73405110836029053
0.85805046558380127 0.85805046558380127 0.85805046558380127
0.96209675073623657 0.96209675073623657 0.96209675073623657
1 1 1
0.44574961066246033 0.44574961066246033 0.44574961066246033
0.52822613716125488 0.52822613716125488 0.52822613716125488
0.63800352811813354 0.63800352811813354 0.63800352811813354
0.75957965850830078 0.75957965850830078 0.75957965850830078
0.86882531642913818 0.86882531642913818 0.86882531642913818
0.96098297834396362 0.96098297834396362 0.96098297834396362
1 1 1
0.52810168266296387 0.52810168266296387 0.52810168266296387
0.58795738220214844 0.58795738220214844 0.58795738220214844
0.67757868766784668 0.67757868766784668 0.67757868766784668
0.78243499994277954 0.78243499994277954 0.78243499994277954
0.87963026762008667 0.87963026762008667 0.87963026762008667
0.96078348159790039 0.96078348159790039 0.96078348159790039
1 1 1
0.61187189817428589 0.61187189817428589 0.61187189817428589
0.65101021528244019 0.65101021528244019 0.65101021528244019
0.72233891487121582 0.72233891487121582 0.72233891487121582
0.81519293785095215 0.81519293785095215 0.81519293785095215
0.89605104923248291 0.89605104923248291 0.89605104923248291
0.9597896933555603 0.9597896933555603 0.9597896933555603
0.99999284744262695 0.99999284744262695 0.99999284744262695
0.71415483951568604 0.71415483951568604 0.71415483951568604
0.73547542095184326 0.73547542095184326 0.73547542095184326
0.77555298805236816 0.77555298805236816 0.77555298805236816
0.84790360927581787 0.84790360927581787 0.84790360927581787
0.91005116701126099 0.91005116701126099 0.91005116701126099
0.95394599437713623 0.95394599437713623 0.95394599437713623
0.99879521131515503 0.99879521131515503 0.99879521131515503
0.94746750593185425 0.94746750593185425 0.94746750593185425
0.95258057117462158 0.95258057117462158 0.95258057117462158
0.94534885883331299 0.94534885883331299 0.94534885883331299
0.92820030450820923 0.92820030450820923 0.92820030450820923
0.94185394048690796 0.94185394048690796 0.94185394048690796
0.95907598733901978 0.95907598733901978 0.95907598733901978
0.99906319379806519 0.99906319379806519 0.99906319379806519
0.4209848940372467 0.4209848940372467 0.4209848940372467
0.54093253612518311 0.54093253612518311 0.54093253612518311
0.65033078193664551 0.65033078193664551 0.65033078193664551
0.76348918676376343 0.76348918676376343 0.76348918676376343
0.87445610761642456 0.87445610761642456 0.87445610761642456
0.97058385610580444 0.97058385610580444 0.97058385610580444
1 1 1
0.51584601402282715 0.51584601402282715 0.51584601402282715
0.59792006015777588 0.59792006015777588 0.59792006015777588
0.69119417667388916 0.69119417667388916 0.69119417667388916
0.79289942979812622 0.79289942979812622 0.79289942979812622
0.89375728368759155 0.89375728368759155 0.89375728368759155
0.98194694519042969 0.98194694519042969 0.98194694519042969
1 1 1
0.58771097660064697 0.58771097660064697 0.58771097660064697
0.64960724115371704 0.64960724115371704 0.64960724115371704
0.72720938920974731 0.72720938920974731 0.72720938920974731
0.81503641605377197 0.81503641605377197 0.81503641605377197
0.90575230121612549 0.90575230121612549 0.90575230121612549
0.98589551448822021 0.98589551448822021 0.98589551448822021
1 1 1
0.64324384927749634 0.64324384927749634 0.64324384927749634
0.69602072238922119 0.69602072238922119 0.69602072238922119
0.76371508836746216 0.76371508836746216 0.76371508836746216
0.84255445003509521 0.84255445003509521 0.84255445003509521
0.92263215780258179 0.92263215780258179 0.92263215780258179
0.99005091190338135 0.99005091190338135 0.99005091190338135
1 1 1
0.71917754411697388 0.71917754411697388 0.71917754411697388
0.75181841850280762 0.75181841850280762 0.75181841850280762
0.80313819646835327 0.80313819646835327 0.80313819646835327
0.87776130437850952 0.87776130437850952 0.87776130437850952
0.94813412427902222 0.94813412427902222 0.94813412427902222
0.99483639001846313 0.99483639001846313 0.99483639001846313
1 1 1
0.8071027398109436 0.8071027398109436 0.8071027398109436
0.81675517559051514 0.81675517559051514 0.81675517559051514
0.84081166982650757 0.84081166982650757 0.84081166982650757
0.90427839756011963 0.90427839756011963 0.90427839756011963
0.97092193365097046 0.97092193365097046 0.97092193365097046
0.9948350191116333 0.9948350191116333 0.9948350191116333
1 1 1
0.88413053750991821 0.88413053750991821 0.88413053750991821
0.88243198394775391 0.88243198394775391 0.88243198394775391
0.91021108627319336 0.91021108627319336 0.91021108627319336
0.93011409044265747 0.93011409044265747 0.93011409044265747
0.95707374811172485 0.95707374811172485 0.95707374811172485
0.99476784467697144 0.99476784467697144 0.99476784467697144
1 1 1
