films/kodak_portra_160_vc.cube
# Created by: G'MIC (https://gmic.eu)
TITLE "kodak_portra_160_vc"
# LUT size
LUT_3D_SIZE 5
# Data domain
DOMAIN_MIN 0.0 0.0 0.0
DOMAIN_MAX 1.0 1.0 1.0
# LUT data points
0.018843153491616249 0.024042975157499313 0.029004011303186417
0.18730361759662628 0.042748618870973587 0.026964418590068817
0.55602598190307617 0.031727030873298645 0.0076954858377575874
0.86955195665359497 0.061077777296304703 0
1 0.18035835027694702 0.0045271781273186207
0 0.20606505870819092 0.075171947479248047
0.17383311688899994 0.23997762799263 0.033686798065900803
0.58799517154693604 0.26404142379760742 0
0.86372697353363037 0.26700380444526672 0
1 0.32004627585411072 0
0.00073083618190139532 0.52439415454864502 0.20426340401172638
0.077411562204360962 0.52750253677368164 0.18670177459716797
0.50784260034561157 0.56388533115386963 0.078315377235412598
0.82909196615219116 0.54480236768722534 0
1 0.51447349786758423 0
0.22683301568031311 0.74642294645309448 0.40057528018951416
0.28952845931053162 0.7444344162940979 0.40276023745536804
0.49795472621917725 0.75181221961975098 0.36711105704307556
0.75088256597518921 0.77248996496200562 0.2519989013671875
0.98957580327987671 0.78043234348297119 0.068464107811450958
0.63038688898086548 0.92757195234298706 0.68425112962722778
0.65740382671356201 0.92498761415481567 0.69284194707870483
0.71113574504852295 0.92725640535354614 0.70374864339828491
0.79334574937820435 0.93984001874923706 0.6736481785774231
0.93427371978759766 0.95856529474258423 0.6088874340057373
0.004942785482853651 0.052019935101270676 0.24851645529270172
0.21823176741600037 0.050148669630289078 0.23498965799808502
0.56656277179718018 0.00031810087966732681 0.21053524315357208
0.87115061283111572 0.069124706089496613 0.23247972130775452
0.9995914101600647 0.26470580697059631 0.26181766390800476
0.00025921990163624287 0.26177221536636353 0.27086743712425232
0.24308101832866669 0.27115091681480408 0.27981612086296082
0.60366928577423096 0.27575156092643738 0.26046562194824219
0.86206859350204468 0.30525708198547363 0.25221782922744751
0.99907416105270386 0.36317110061645508 0.24857386946678162
0.087681956589221954 0.5530814528465271 0.36090904474258423
0.26920914649963379 0.54854375123977661 0.36473533511161804
0.54247498512268066 0.56797522306442261 0.30234792828559875
0.8384476900100708 0.53332036733627319 0.1974036693572998
0.99683529138565063 0.5235331654548645 0.17051979899406433
0.34874680638313293 0.7589380145072937 0.4983375072479248
0.41475304961204529 0.75349664688110352 0.49484893679618835
0.54848945140838623 0.75291192531585693 0.48544979095458984
0.7676241397857666 0.77776801586151123 0.40873843431472778
0.98894935846328735 0.77468258142471313 0.30060812830924988
0.6452832818031311 0.92611610889434814 0.71179318428039551
0.67270529270172119 0.92740488052368164 0.71957415342330933
0.72651344537734985 0.92545956373214722 0.73178327083587646
0.79811257123947144 0.93685537576675415 0.70429641008377075
0.93687611818313599 0.95708078145980835 0.6550934910774231
0.00088077620603144169 0.14101694524288177 0.59088659286499023
0.29750269651412964 0.15889936685562134 0.59326553344726562
0.63124650716781616 0.18822668492794037 0.57450097799301147
0.84934508800506592 0.047495525330305099 0.4927937388420105
1 0.19074985384941101 0.46861571073532104
0.0021099464502185583 0.38006231188774109 0.6124500036239624
0.32921388745307922 0.36936423182487488 0.61260658502578735
0.6300169825553894 0.38638633489608765 0.58431333303451538
0.84949725866317749 0.31733870506286621 0.51549214124679565
0.99965769052505493 0.38585647940635681 0.50750720500946045
0.12954361736774445 0.59709382057189941 0.58510935306549072
0.35914576053619385 0.59670901298522949 0.59222447872161865
0.59785664081573486 0.58073228597640991 0.58110648393630981
0.82883554697036743 0.57481354475021362 0.55676233768463135
0.99456095695495605 0.6029658317565918 0.55622208118438721
0.51173895597457886 0.77546954154968262 0.657135009765625
0.5690540075302124 0.77199995517730713 0.66178035736083984
0.64599335193634033 0.76194179058074951 0.6557234525680542
0.79002541303634644 0.77516931295394897 0.61189430952072144
0.9863353967666626 0.76595795154571533 0.54214167594909668
0.7083733081817627 0.93221253156661987 0.7838863730430603
0.71423733234405518 0.93419301509857178 0.78028750419616699
0.75057423114776611 0.93009400367736816 0.78152543306350708
0.81549215316772461 0.93605059385299683 0.7753455638885498
0.95209974050521851 0.96103805303573608 0.73547828197479248
0.17047293484210968 0.31208187341690063 0.83066034317016602
0.41979169845581055 0.34176227450370789 0.82865345478057861
0.68895012140274048 0.42163646221160889 0.8205445408821106
0.8677976131439209 0.46773245930671692 0.79853278398513794
0.99548053741455078 0.42247194051742554 0.74895578622817993
0.28641390800476074 0.46963346004486084 0.83125752210617065
0.45734086632728577 0.48161247372627258 0.8282616138458252
0.69841331243515015 0.53400689363479614 0.81931030750274658
0.8592035174369812 0.56595307588577271 0.79795026779174805
0.99065542221069336 0.50853472948074341 0.75317990779876709
0.34012791514396667 0.65780013799667358 0.81068313121795654
0.4729161262512207 0.66161853075027466 0.80747997760772705
0.67479020357131958 0.6591181755065918 0.81091982126235962
0.84035569429397583 0.67845344543457031 0.79984265565872192
0.98196357488632202 0.64505833387374878 0.76820176839828491
0.51078993082046509 0.80472207069396973 0.80545520782470703
0.56977188587188721 0.80080342292785645 0.80392622947692871
0.68588465452194214 0.79865068197250366 0.8071134090423584
0.82310956716537476 0.79223537445068359 0.80346864461898804
0.97963583469390869 0.78172647953033447 0.7732388973236084
0.71475183963775635 0.94571971893310547 0.8593403697013855
0.7411949634552002 0.94728398323059082 0.85991495847702026
0.78980344533920288 0.94440293312072754 0.8627132773399353
0.85727888345718384 0.94434773921966553 0.87100672721862793
0.95639467239379883 0.96146953105926514 0.84728336334228516
0.56331276893615723 0.57049471139907837 0.96926891803741455
0.63720941543579102 0.58942770957946777 0.9648367166519165
0.773406982421875 0.63277417421340942 0.95811003446578979
0.90067917108535767 0.69726753234863281 0.95124441385269165
0.99871826171875 0.69917923212051392 0.94170832633972168
0.59079712629318237 0.64217400550842285 0.96868574619293213
0.65860044956207275 0.65237963199615479 0.96498304605484009
0.779041588306427 0.68198251724243164 0.95840102434158325
0.89863079786300659 0.73677569627761841 0.94992166757583618
0.99223536252975464 0.73941409587860107 0.94168955087661743
0.63607358932495117 0.75543117523193359 0.96257519721984863
0.67727279663085938 0.75150376558303833 0.96242880821228027
0.77284765243530273 0.75639051198959351 0.96035134792327881
0.89440625905990601 0.78962153196334839 0.95517140626907349
0.98842799663543701 0.80124831199645996 0.95272785425186157
0.61463648080825806 0.85813325643539429 0.95963722467422485
0.65457254648208618 0.85746568441390991 0.95926451683044434
0.74206167459487915 0.85711932182312012 0.96090114116668701
0.87297904491424561 0.86170309782028198 0.9623790979385376
0.98059755563735962 0.88473737239837646 0.95577788352966309
0.72203445434570312 0.97381997108459473 0.97258704900741577
0.7369721531867981 0.96981841325759888 0.96450525522232056
0.79427117109298706 0.96928530931472778 0.96557897329330444
0.87784278392791748 0.97112929821014404 0.97332161664962769
0.98156607151031494 0.97620493173599243 0.97341299057006836
