films/kodak_portra_800.cube
# Created by: G'MIC (https://gmic.eu)
TITLE "kodak_portra_800"
# LUT size
LUT_3D_SIZE 5
# Data domain
DOMAIN_MIN 0.0 0.0 0.0
DOMAIN_MAX 1.0 1.0 1.0
# LUT data points
0.042835012078285217 0.049381360411643982 0.048555828630924225
0.24549908936023712 0.047100141644477844 0.037752639502286911
0.63939106464385986 0 0.020074328407645226
0.94788211584091187 0.0059920665808022022 0.00016479492478538305
1 0.14943772554397583 0
5.4931639169808477e-05 0.21784719824790955 0.069161854684352875
0.19295622408390045 0.25509300827980042 0.029683774337172508
0.63719958066940308 0.30378925800323486 0.0025753993541002274
0.94042032957077026 0.33641603589057922 0
1 0.38654768466949463 0
0 0.4800267219543457 0.069094911217689514
0.042665921151638031 0.48067969083786011 0.03225066140294075
0.51599955558776855 0.57017874717712402 0
0.87905925512313843 0.62819164991378784 0
1 0.63393133878707886 0
0 0.73465967178344727 0.11498134583234787
0.0025023964699357748 0.72563892602920532 0.089486561715602875
0.38147276639938354 0.74747234582901001 0.0092338109388947487
0.76563423871994019 0.82081794738769531 0
0.99832671880722046 0.84287989139556885 0
0.27364915609359741 0.96638834476470947 0.43784621357917786
0.34735345840454102 0.96248221397399902 0.43528178334236145
0.52269196510314941 0.96156048774719238 0.43881651759147644
0.72540396451950073 0.97463995218276978 0.367818683385849
0.94523894786834717 0.98276656866073608 0.14689292013645172
0.011314586736261845 0.050523106008768082 0.26316940784454346
0.27019372582435608 0.022531216964125633 0.27338048815727234
0.65576374530792236 0 0.26356419920921326
0.95659726858139038 0 0.22903716564178467
1 0.094847738742828369 0.21369604766368866
0.0014144896995276213 0.2530943751335144 0.25503891706466675
0.25222516059875488 0.2662300169467926 0.2632392942905426
0.65289729833602905 0.25860068202018738 0.25664153695106506
0.94125574827194214 0.3009946346282959 0.23767948150634766
1 0.3670957088470459 0.20135948061943054
0.013987971469759941 0.52405828237533569 0.28596389293670654
0.13930967450141907 0.51523494720458984 0.269420325756073
0.53872907161712646 0.57144749164581299 0.20537957549095154
0.87873262166976929 0.61955016851425171 0.17402459681034088
1 0.6245000958442688 0.15670225024223328
0.0037390764337033033 0.75483936071395874 0.29614797234535217
0.053373329341411591 0.74261146783828735 0.28329172730445862
0.39507776498794556 0.75155574083328247 0.23999856412410736
0.76332026720046997 0.81418734788894653 0.15648737549781799
0.9995574951171875 0.84359472990036011 0.09300549328327179
0.3144671618938446 0.96340018510818481 0.51962530612945557
0.36905774474143982 0.96363526582717896 0.51111000776290894
0.53392362594604492 0.9598010778427124 0.50422394275665283
0.72681587934494019 0.97364652156829834 0.47162267565727234
0.94675946235656738 0.98747128248214722 0.34791603684425354
0.011978568509221077 0.033775869756937027 0.60317200422286987
0.30128535628318787 0.012046439573168755 0.61950778961181641
0.69213265180587769 0 0.64039486646652222
0.9506421685218811 0 0.60809051990509033
1 0.0016487570246681571 0.54682475328445435
0.00022937550966162235 0.26595437526702881 0.58863216638565063
0.27205821871757507 0.26976713538169861 0.6052088737487793
0.67971312999725342 0.24832119047641754 0.62943404912948608
0.93735378980636597 0.21222665905952454 0.60014480352401733
1 0.31749475002288818 0.57064199447631836
0.017167229205369949 0.56718367338180542 0.56538856029510498
0.29504963755607605 0.57725191116333008 0.57793253660202026
0.59848010540008545 0.59090054035186768 0.58198720216751099
0.87531965970993042 0.61563241481781006 0.58824455738067627
1 0.63898509740829468 0.57828325033187866
0.32648217678070068 0.79084020853042603 0.60506802797317505
0.41505089402198792 0.78739631175994873 0.60165810585021973
0.51411896944046021 0.77344578504562378 0.55085974931716919
0.77695035934448242 0.81435990333557129 0.54180598258972168
0.99541139602661133 0.84085226058959961 0.56011641025543213
0.48564034700393677 0.96462470293045044 0.69894421100616455
0.48845198750495911 0.96522027254104614 0.67323386669158936
0.57055097818374634 0.95757675170898438 0.65156388282775879
0.74066030979156494 0.97162139415740967 0.64728474617004395
0.95205754041671753 0.98736655712127686 0.60595512390136719
0.14640967547893524 0.011141683906316757 0.86558198928833008
0.40464514493942261 0.0045149857178330421 0.87099826335906982
0.69676518440246582 0 0.87674742937088013
0.94319957494735718 0.019136242568492889 0.8885839581489563
1 0.013681075535714626 0.84717279672622681
0.1411835104227066 0.27692106366157532 0.85733973979949951
0.39315328001976013 0.27401381731033325 0.86245429515838623
0.68341231346130371 0.28776407241821289 0.87277781963348389
0.92252254486083984 0.32231307029724121 0.87629657983779907
0.99973917007446289 0.34206095337867737 0.84474140405654907
0.00086595123866572976 0.55517220497131348 0.82138091325759888
0.26232367753982544 0.55913203954696655 0.8259696364402771
0.61179155111312866 0.59165865182876587 0.83741915225982666
0.87569957971572876 0.63641685247421265 0.85773485898971558
1 0.64409089088439941 0.84151983261108398
0.30557465553283691 0.81110405921936035 0.81497442722320557
0.42932519316673279 0.80926895141601562 0.81461644172668457
0.61940032243728638 0.81393951177597046 0.82049798965454102
0.80719691514968872 0.82592952251434326 0.82231622934341431
0.99225890636444092 0.85108113288879395 0.84471350908279419
0.62569499015808105 0.97246885299682617 0.86151123046875
0.65904301404953003 0.97116959095001221 0.86278915405273438
0.72179853916168213 0.97013336420059204 0.86057645082473755
0.78249412775039673 0.96747690439224243 0.82698291540145874
0.94894373416900635 0.98270648717880249 0.82683300971984863
0.40865838527679443 0.12509036064147949 0.99351876974105835
0.54468995332717896 0.1098182201385498 0.99857884645462036
0.72431498765945435 0.12000235915184021 0.99898117780685425
0.91927170753479004 0.23599041998386383 0.99925768375396729
1 0.32918763160705566 0.99645787477493286
0.44207242131233215 0.34357276558876038 0.99891161918640137
0.54717457294464111 0.35019975900650024 0.99907964468002319
0.71855169534683228 0.3756403923034668 0.99859797954559326
0.90134620666503906 0.45422431826591492 0.99711966514587402
1 0.49191895127296448 0.99752449989318848
0.37684613466262817 0.59562784433364868 0.99346208572387695
0.50326293706893921 0.6120416522026062 0.99316513538360596
0.68499690294265747 0.63049358129501343 0.99370908737182617
0.87053221464157104 0.67257648706436157 0.99456727504730225
1 0.70271837711334229 0.99235981702804565
0.37155395746231079 0.809467613697052 0.9816286563873291
0.45613348484039307 0.80682867765426636 0.98155611753463745
0.61251223087310791 0.81019461154937744 0.98340636491775513
0.83359658718109131 0.83849918842315674 0.986095130443573
0.9927901029586792 0.8728940486907959 0.98762315511703491
0.64642846584320068 0.97851085662841797 0.9795454740524292
0.66796743869781494 0.97529065608978271 0.97976112365722656
0.75221508741378784 0.97860747575759888 0.98352360725402832
0.86807125806808472 0.98098868131637573 0.98546367883682251
0.98196613788604736 0.9864996075630188 0.98585987091064453
