films/kodak_kodachrome_200.cube
# Created by: G'MIC (https://gmic.eu)
TITLE "kodak_kodachrome_200"
# LUT size
LUT_3D_SIZE 5
# Data domain
DOMAIN_MIN 0.0 0.0 0.0
DOMAIN_MAX 1.0 1.0 1.0
# LUT data points
0.022304356098175049 0.016766522079706192 0.018288077786564827
0.20550565421581268 0.016652500256896019 0.019813522696495056
0.51190102100372314 0.017424609512090683 0.02367878332734108
0.75498843193054199 0.013787512667477131 0.022488657385110855
0.91181772947311401 0.032059598714113235 0.016655087471008301
0.075517661869525909 0.24336689710617065 0.11511491984128952
0.2710212767124176 0.23934479057788849 0.1233241930603981
0.55572628974914551 0.23770195245742798 0.12748478353023529
0.77271902561187744 0.22002483904361725 0.11322835087776184
0.93679654598236084 0.21841278672218323 0.094150647521018982
0.17511865496635437 0.54080480337142944 0.28676217794418335
0.363474041223526 0.53621739149093628 0.28488978743553162
0.58767455816268921 0.53873199224472046 0.2835974395275116
0.78205674886703491 0.53541594743728638 0.25439459085464478
0.94379842281341553 0.52383047342300415 0.2043159008026123
0.4122677743434906 0.73682785034179688 0.4667847752571106
0.49824678897857666 0.74123924970626831 0.47863966226577759
0.63452070951461792 0.74049282073974609 0.47105702757835388
0.7904161810874939 0.73737436532974243 0.45099332928657532
0.95632505416870117 0.73093551397323608 0.39776712656021118
0.54240494966506958 0.897194504737854 0.60647058486938477
0.61110633611679077 0.91183775663375854 0.62611961364746094
0.70196056365966797 0.91988992691040039 0.63515180349349976
0.82432454824447632 0.93662279844284058 0.65039116144180298
0.98815000057220459 0.91661059856414795 0.59580308198928833
0.016915669664740562 0.017393253743648529 0.11711778491735458
0.19423837959766388 0.017388632521033287 0.1254611611366272
0.51340436935424805 0.020726582035422325 0.1271422803401947
0.7534523606300354 0.0069786817766726017 0.11409009993076324
0.93089944124221802 0.013068659231066704 0.084247246384620667
0.06899406760931015 0.24072319269180298 0.24853168427944183
0.25555220246315002 0.23932000994682312 0.25484356284141541
0.54773634672164917 0.2331441342830658 0.25463512539863586
0.76998484134674072 0.21890006959438324 0.23183716833591461
0.94685131311416626 0.20417614281177521 0.19076962769031525
0.14999653398990631 0.53836309909820557 0.40620601177215576
0.34363329410552979 0.54388648271560669 0.41308307647705078
0.57801693677902222 0.54017752408981323 0.41545292735099792
0.77327919006347656 0.5334894061088562 0.39271366596221924
0.9418521523475647 0.52172297239303589 0.35055992007255554
0.40456598997116089 0.74276220798492432 0.5567474365234375
0.49238759279251099 0.74926704168319702 0.56319129467010498
0.62576407194137573 0.74032539129257202 0.5592840313911438
0.78280782699584961 0.73782014846801758 0.54985201358795166
0.95071536302566528 0.73328715562820435 0.51509112119674683
0.5571901798248291 0.91879040002822876 0.68388605117797852
0.61293768882751465 0.93467026948928833 0.69814479351043701
0.69883382320404053 0.92607790231704712 0.69527387619018555
0.82765710353851318 0.93555980920791626 0.69767028093338013
0.98787039518356323 0.92837637662887573 0.67468452453613281
0.012049641460180283 0.0113817248493433 0.29588484764099121
0.16979657113552094 0.015496960841119289 0.3041941225528717
0.49489673972129822 0.013040774501860142 0.31846174597740173
0.73729890584945679 0.0077581219375133514 0.30922549962997437
0.91548651456832886 0.0019063163781538606 0.26237037777900696
0.048421356827020645 0.23181372880935669 0.41346433758735657
0.23237918317317963 0.23072324693202972 0.42190364003181458
0.52816593647003174 0.22902652621269226 0.4298643171787262
0.7539253830909729 0.2010536789894104 0.42018049955368042
0.91671347618103027 0.17409536242485046 0.39523759484291077
0.098133504390716553 0.53872501850128174 0.54125279188156128
0.31416583061218262 0.54005330801010132 0.5490107536315918
0.56134068965911865 0.53985553979873657 0.55657416582107544
0.75615483522415161 0.53127062320709229 0.552604079246521
0.92695325613021851 0.50851732492446899 0.5335686206817627
0.38347417116165161 0.74303257465362549 0.65378451347351074
0.47330135107040405 0.74358844757080078 0.65606534481048584
0.61324739456176758 0.74176108837127686 0.65988016128540039
0.77270561456680298 0.74038398265838623 0.65993040800094604
0.94442868232727051 0.7330353856086731 0.64911484718322754
0.56375974416732788 0.93235903978347778 0.76288402080535889
0.60609310865402222 0.93846988677978516 0.76887255907058716
0.69095462560653687 0.93851327896118164 0.77005195617675781
0.82027155160903931 0.94106048345565796 0.77305847406387329
0.99169349670410156 0.94384181499481201 0.76591795682907104
0.0086940089240670204 0.0073367846198379993 0.44360986351966858
0.14831256866455078 0.0049606324173510075 0.45275148749351501
0.47549611330032349 0.011442072689533234 0.47118547558784485
0.72229909896850586 5.6547276471974328e-05 0.4711114764213562
0.89059942960739136 2.1003274014219642e-05 0.4635520875453949
0.022465949878096581 0.20404870808124542 0.53528165817260742
0.18586869537830353 0.2051132470369339 0.54454880952835083
0.5091291069984436 0.19786608219146729 0.55772602558135986
0.74390929937362671 0.17107479274272919 0.56238722801208496
0.90748417377471924 0.14138481020927429 0.54955792427062988
0.043830137699842453 0.53235453367233276 0.64740043878555298
0.27033594250679016 0.53157538175582886 0.65413326025009155
0.54788875579833984 0.53114455938339233 0.66336959600448608
0.75039207935333252 0.52166515588760376 0.67056006193161011
0.93366134166717529 0.49716940522193909 0.66367143392562866
0.33748361468315125 0.74264907836914062 0.74881255626678467
0.44780489802360535 0.74095910787582397 0.74632894992828369
0.59963607788085938 0.7408021092414856 0.75307124853134155
0.76422995328903198 0.73743855953216553 0.75961458683013916
0.94014084339141846 0.73182493448257446 0.76000064611434937
0.54670310020446777 0.95073878765106201 0.85261893272399902
0.59090131521224976 0.94572222232818604 0.85540002584457397
0.67583256959915161 0.95068323612213135 0.85537081956863403
0.80548465251922607 0.94882422685623169 0.8587678074836731
0.98643487691879272 0.95378744602203369 0.85986274480819702
0.01043701171875 3.0338062060764059e-05 0.52828669548034668
0.14042307436466217 0.0019792295061051846 0.55127912759780884
0.43330246210098267 0.0017715304857119918 0.56315702199935913
0.69307011365890503 0 0.57312911748886108
0.88475048542022705 0.0080203041434288025 0.57615357637405396
0.020065084099769592 0.1663571298122406 0.61556136608123779
0.16319791972637177 0.16004608571529388 0.62518644332885742
0.48986521363258362 0.15542088449001312 0.6369023323059082
0.72191125154495239 0.1419006735086441 0.65371996164321899
0.89690482616424561 0.12702104449272156 0.64615708589553833
0.022917550057172775 0.5148201584815979 0.72499310970306396
0.21162866055965424 0.51339799165725708 0.734019935131073
0.5311579704284668 0.51067459583282471 0.74218815565109253
0.74251902103424072 0.48701003193855286 0.75564813613891602
0.91441291570663452 0.48130050301551819 0.75431805849075317
0.29138597846031189 0.73251062631607056 0.83113765716552734
0.39726006984710693 0.73256093263626099 0.83146262168884277
0.57751655578613281 0.73049074411392212 0.83953237533569336
0.75032484531402588 0.72847682237625122 0.84920042753219604
0.93693935871124268 0.72193300724029541 0.86112046241760254
0.51550537347793579 0.95166635513305664 0.93910908699035645
0.55945318937301636 0.93930244445800781 0.93793994188308716
0.65423226356506348 0.94708931446075439 0.94408845901489258
0.78949934244155884 0.95423036813735962 0.96109813451766968
0.984200119972229 0.95871448516845703 0.97199875116348267
