films/kodak_t-max_400.cube
TITLE "data/luts/rawtherapee/HaldCLUT/Black-and-White/Kodak/Kodak T-Max 400.png"
LUT_3D_SIZE 64
DOMAIN_MIN 0 0 0
DOMAIN_MAX 1 1 1
0.000000 0.000000 0.000000
0.000000 0.000000 0.000000
0.000000 0.000000 0.000000
0.000000 0.000000 0.000000
0.000000 0.000000 0.000000
0.000000 0.000000 0.000000
0.000000 0.000000 0.000000
0.000000 0.000000 0.000000
0.000000 0.000000 0.000000
0.000000 0.000000 0.000000
0.000000 0.000000 0.000000
0.000000 0.000000 0.000000
0.000000 0.000000 0.000000
0.000000 0.000000 0.000000
0.000000 0.000000 0.000000
0.000000 0.000000 0.000000
0.000000 0.000000 0.000000
0.000000 0.000000 0.000000
0.000000 0.000000 0.000000
0.000000 0.000000 0.000000
0.000000 0.000000 0.000000
0.000000 0.000000 0.000000
0.000000 0.000000 0.000000
0.000000 0.000000 0.000000
0.000000 0.000000 0.000000
0.000000 0.000000 0.000000
0.000000 0.000000 0.000000
0.000000 0.000000 0.000000
0.000000 0.000000 0.000000
0.000000 0.000000 0.000000
0.000000 0.000000 0.000000
0.000000 0.000000 0.000000
0.000000 0.000000 0.000000
0.000000 0.000000 0.000000
0.000000 0.000000 0.000000
0.000000 0.000000 0.000000
0.000000 0.000000 0.000000
0.000000 0.000000 0.000000
0.000000 0.000000 0.000000
0.000000 0.000000 0.000000
0.000000 0.000000 0.000000
0.000000 0.000000 0.000000
0.000000 0.000000 0.000000
0.000000 0.000000 0.000000
0.000000 0.000000 0.000000
0.000000 0.000000 0.000000
0.000000 0.000000 0.000000
0.000000 0.000000 0.000000
0.000000 0.000000 0.000000
0.000000 0.000000 0.000000
0.000000 0.000000 0.000000
0.000000 0.000000 0.000000
0.000000 0.000000 0.000000
0.000000 0.000000 0.000000
0.000000 0.000000 0.000000
0.000000 0.000000 0.000000
0.000000 0.000000 0.000000
0.000000 0.000000 0.000000
0.000000 0.000000 0.000000
0.000000 0.000000 0.000000
0.000000 0.000000 0.000000
0.000000 0.000000 0.000000
0.000000 0.000000 0.000000
0.000000 0.000000 0.000000
0.000000 0.000000 0.000000
0.000000 0.000000 0.000000
0.000000 0.000000 0.000000
0.000857 0.000857 0.000857
0.001058 0.001058 0.001058
0.001058 0.001058 0.001058
0.001058 0.001058 0.001058
0.001058 0.001058 0.001058
0.001058 0.001058 0.001058
0.001058 0.001058 0.001058
0.001058 0.001058 0.001058
0.001058 0.001058 0.001058
0.001058 0.001058 0.001058
0.001058 0.001058 0.001058
0.001058 0.001058 0.001058
0.001058 0.001058 0.001058
0.001058 0.001058 0.001058
0.001058 0.001058 0.001058
0.001058 0.001058 0.001058
0.001058 0.001058 0.001058
0.001058 0.001058 0.001058
0.001058 0.001058 0.001058
0.001058 0.001058 0.001058
0.001058 0.001058 0.001058
0.001058 0.001058 0.001058
0.001058 0.001058 0.001058
0.001058 0.001058 0.001058
0.001058 0.001058 0.001058
0.001058 0.001058 0.001058
0.001058 0.001058 0.001058
0.001058 0.001058 0.001058
0.001058 0.001058 0.001058
0.001058 0.001058 0.001058
0.001058 0.001058 0.001058
0.001058 0.001058 0.001058
0.001058 0.001058 0.001058
0.001058 0.001058 0.001058
0.001058 0.001058 0.001058
0.001058 0.001058 0.001058
0.001058 0.001058 0.001058
0.001058 0.001058 0.001058
0.001058 0.001058 0.001058
0.001058 0.001058 0.001058
0.001058 0.001058 0.001058
0.001058 0.001058 0.001058
0.001058 0.001058 0.001058
0.001058 0.001058 0.001058
0.001058 0.001058 0.001058
0.001058 0.001058 0.001058
0.001058 0.001058 0.001058
0.001058 0.001058 0.001058
0.001058 0.001058 0.001058
0.001058 0.001058 0.001058
0.001058 0.001058 0.001058
0.001058 0.001058 0.001058
0.001058 0.001058 0.001058
0.000941 0.000941 0.000941
0.000000 0.000000 0.000000
0.000000 0.000000 0.000000
0.000000 0.000000 0.000000
0.000000 0.000000 0.000000
0.000000 0.000000 0.000000
0.000000 0.000000 0.000000
0.000000 0.000000 0.000000
0.003922 0.003922 0.003922
0.003922 0.003922 0.003922
0.003922 0.003922 0.003922
0.003922 0.003922 0.003922
0.003922 0.003922 0.003922
0.003922 0.003922 0.003922
0.003922 0.003922 0.003922
0.003922 0.003922 0.003922
0.003922 0.003922 0.003922
0.003922 0.003922 0.003922
0.003922 0.003922 0.003922
0.003922 0.003922 0.003922
0.003922 0.003922 0.003922
0.003922 0.003922 0.003922
0.003922 0.003922 0.003922
0.003922 0.003922 0.003922
0.003922 0.003922 0.003922
0.003922 0.003922 0.003922
0.003922 0.003922 0.003922
0.003922 0.003922 0.003922
0.003922 0.003922 0.003922
0.003922 0.003922 0.003922
0.003922 0.003922 0.003922
0.003922 0.003922 0.003922
0.003922 0.003922 0.003922
0.003922 0.003922 0.003922
0.003922 0.003922 0.003922
0.003922 0.003922 0.003922
0.003922 0.003922 0.003922
0.003922 0.003922 0.003922
0.003922 0.003922 0.003922
0.003922 0.003922 0.003922
0.003922 0.003922 0.003922
0.003922 0.003922 0.003922
0.003922 0.003922 0.003922
0.003922 0.003922 0.003922
0.003922 0.003922 0.003922
0.003922 0.003922 0.003922
0.006038 0.006038 0.006038
0.003922 0.003922 0.003922
0.003922 0.003922 0.003922
0.003922 0.003922 0.003922
0.003922 0.003922 0.003922
0.003922 0.003922 0.003922
0.003922 0.003922 0.003922
0.003922 0.003922 0.003922
0.003922 0.003922 0.003922
0.003922 0.003922 0.003922
0.003922 0.003922 0.003922
0.003922 0.003922 0.003922
0.003922 0.003922 0.003922
0.003922 0.003922 0.003922
0.003922 0.003922 0.003922
0.003922 0.003922 0.003922
0.003922 0.003922 0.003922
0.003922 0.003922 0.003922
0.003922 0.003922 0.003922
0.003922 0.003922 0.003922
0.003922 0.003922 0.003922
0.003922 0.003922 0.003922
0.003922 0.003922 0.003922
0.003922 0.003922 0.003922
0.003922 0.003922 0.003922
0.003922 0.003922 0.003922
0.007843 0.007843 0.007843
0.007843 0.007843 0.007843
0.007843 0.007843 0.007843
0.007843 0.007843 0.007843
0.007843 0.007843 0.007843
0.007843 0.007843 0.007843
0.007843 0.007843 0.007843
0.007843 0.007843 0.007843
0.007843 0.007843 0.007843
0.007843 0.007843 0.007843
0.007843 0.007843 0.007843
0.007843 0.007843 0.007843
0.007843 0.007843 0.007843
0.007843 0.007843 0.007843
0.007843 0.007843 0.007843
0.007843 0.007843 0.007843
0.007843 0.007843 0.007843
0.007843 0.007843 0.007843
0.007843 0.007843 0.007843
0.007843 0.007843 0.007843
0.007843 0.007843 0.007843
0.007843 0.007843 0.007843
0.007843 0.007843 0.007843
0.007843 0.007843 0.007843
0.007843 0.007843 0.007843
0.007843 0.007843 0.007843
0.007843 0.007843 0.007843
0.007843 0.007843 0.007843
0.007843 0.007843 0.007843
0.007843 0.007843 0.007843
0.007843 0.007843 0.007843
0.007843 0.007843 0.007843
0.007843 0.007843 0.007843
0.007843 0.007843 0.007843
0.007843 0.007843 0.007843
0.007843 0.007843 0.007843
0.007843 0.007843 0.007843
0.007843 0.007843 0.007843
0.007843 0.007843 0.007843
0.007843 0.007843 0.007843
0.007843 0.007843 0.007843
0.007843 0.007843 0.007843
0.007843 0.007843 0.007843
0.007843 0.007843 0.007843
0.007843 0.007843 0.007843
0.007843 0.007843 0.007843
0.007843 0.007843 0.007843
0.007843 0.007843 0.007843
0.007843 0.007843 0.007843
0.007843 0.007843 0.007843
0.007843 0.007843 0.007843
0.007843 0.007843 0.007843
0.007843 0.007843 0.007843
0.007843 0.007843 0.007843
0.007843 0.007843 0.007843
0.007843 0.007843 0.007843
0.007843 0.007843 0.007843
0.007843 0.007843 0.007843
0.007843 0.007843 0.007843
0.007155 0.007155 0.007155
0.007096 0.007096 0.007096
0.007096 0.007096 0.007096
0.007096 0.007096 0.007096
0.007096 0.007096 0.007096
0.011765 0.011765 0.011765
0.011765 0.011765 0.011765
0.011765 0.011765 0.011765
0.011765 0.011765 0.011765
0.011765 0.011765 0.011765
0.011765 0.011765 0.011765
0.011765 0.011765 0.011765
0.011765 0.011765 0.011765
0.012076 0.012076 0.012076
0.012076 0.012076 0.012076
0.012076 0.012076 0.012076
0.012076 0.012076 0.012076
0.012076 0.012076 0.012076
0.012076 0.012076 0.012076
0.012076 0.012076 0.012076
0.012076 0.012076 0.012076
0.012076 0.012076 0.012076
0.012076 0.012076 0.012076
0.012076 0.012076 0.012076
0.012076 0.012076 0.012076
0.012076 0.012076 0.012076
0.012076 0.012076 0.012076
0.012076 0.012076 0.012076
0.012076 0.012076 0.012076
0.012076 0.012076 0.012076
0.012076 0.012076 0.012076
0.012076 0.012076 0.012076
0.012076 0.012076 0.012076
0.012076 0.012076 0.012076
0.012076 0.012076 0.012076
0.012076 0.012076 0.012076
0.012076 0.012076 0.012076
0.012076 0.012076 0.012076
0.012076 0.012076 0.012076
0.012076 0.012076 0.012076
0.012076 0.012076 0.012076
0.012076 0.012076 0.012076
0.012076 0.012076 0.012076
0.012076 0.012076 0.012076
0.012076 0.012076 0.012076
0.012076 0.012076 0.012076
0.012076 0.012076 0.012076
0.012076 0.012076 0.012076
0.012076 0.012076 0.012076
0.012076 0.012076 0.012076
0.012076 0.012076 0.012076
0.012076 0.012076 0.012076
0.012076 0.012076 0.012076
0.012076 0.012076 0.012076
0.012076 0.012076 0.012076
0.012076 0.012076 0.012076
0.012076 0.012076 0.012076
0.012076 0.012076 0.012076
0.012076 0.012076 0.012076
0.012076 0.012076 0.012076
0.012076 0.012076 0.012076
0.011765 0.011765 0.011765
0.011765 0.011765 0.011765
0.011765 0.011765 0.011765
0.011765 0.011765 0.011765
0.011765 0.011765 0.011765
0.011765 0.011765 0.011765
0.011765 0.011765 0.011765
0.008154 0.008154 0.008154
0.017056 0.017056 0.017056
0.017056 0.017056 0.017056
0.017056 0.017056 0.017056
0.017056 0.017056 0.017056
0.017056 0.017056 0.017056
0.017056 0.017056 0.017056
0.017056 0.017056 0.017056
0.017056 0.017056 0.017056
0.017056 0.017056 0.017056
0.017056 0.017056 0.017056
0.017056 0.017056 0.017056
0.017056 0.017056 0.017056
0.017056 0.017056 0.017056
0.017056 0.017056 0.017056
0.017056 0.017056 0.017056
0.017056 0.017056 0.017056
0.017056 0.017056 0.017056
0.017056 0.017056 0.017056
0.017056 0.017056 0.017056
0.017056 0.017056 0.017056
0.017056 0.017056 0.017056
0.017056 0.017056 0.017056
0.017056 0.017056 0.017056
0.017056 0.017056 0.017056
0.017056 0.017056 0.017056
0.017056 0.017056 0.017056
0.017056 0.017056 0.017056
0.017056 0.017056 0.017056
0.017056 0.017056 0.017056
0.017056 0.017056 0.017056
0.017056 0.017056 0.017056
0.017056 0.017056 0.017056
0.019608 0.019608 0.019608
0.019608 0.019608 0.019608
0.019608 0.019608 0.019608
0.019608 0.019608 0.019608
0.019608 0.019608 0.019608
0.019608 0.019608 0.019608
0.019608 0.019608 0.019608
0.017056 0.017056 0.017056
0.017056 0.017056 0.017056
0.017056 0.017056 0.017056
0.017056 0.017056 0.017056
0.017056 0.017056 0.017056
0.019284 0.019284 0.019284
0.017056 0.017056 0.017056
0.017056 0.017056 0.017056
0.017056 0.017056 0.017056
0.017056 0.017056 0.017056
0.017056 0.017056 0.017056
0.017056 0.017056 0.017056
0.017056 0.017056 0.017056
0.017056 0.017056 0.017056
0.017056 0.017056 0.017056
0.017056 0.017056 0.017056
0.017056 0.017056 0.017056
0.017056 0.017056 0.017056
0.017056 0.017056 0.017056
0.015686 0.015686 0.015686
0.015686 0.015686 0.015686
0.015686 0.015686 0.015686
0.015686 0.015686 0.015686
0.013823 0.013823 0.013823
0.013134 0.013134 0.013134
0.022035 0.022035 0.022035
0.022035 0.022035 0.022035
0.022035 0.022035 0.022035
0.022035 0.022035 0.022035
0.022035 0.022035 0.022035
0.022035 0.022035 0.022035
0.022035 0.022035 0.022035
0.022035 0.022035 0.022035
0.022035 0.022035 0.022035
0.022676 0.022676 0.022676
0.023529 0.023529 0.023529
0.023529 0.023529 0.023529
0.023529 0.023529 0.023529
0.023529 0.023529 0.023529
0.023529 0.023529 0.023529
0.023529 0.023529 0.023529
0.023529 0.023529 0.023529
0.023529 0.023529 0.023529
0.023529 0.023529 0.023529
0.023838 0.023838 0.023838
0.025957 0.025957 0.025957
0.025957 0.025957 0.025957
0.025957 0.025957 0.025957
0.025957 0.025957 0.025957
0.025957 0.025957 0.025957
0.025957 0.025957 0.025957
0.025957 0.025957 0.025957
0.025957 0.025957 0.025957
0.025957 0.025957 0.025957
0.025957 0.025957 0.025957
0.025957 0.025957 0.025957
0.025957 0.025957 0.025957
0.025957 0.025957 0.025957
0.025957 0.025957 0.025957
0.025957 0.025957 0.025957
0.025957 0.025957 0.025957
0.025957 0.025957 0.025957
0.025957 0.025957 0.025957
0.025957 0.025957 0.025957
0.025957 0.025957 0.025957
0.025957 0.025957 0.025957
0.025957 0.025957 0.025957
0.025957 0.025957 0.025957
0.025957 0.025957 0.025957
0.025957 0.025957 0.025957
0.025957 0.025957 0.025957
0.025957 0.025957 0.025957
0.025957 0.025957 0.025957
0.025957 0.025957 0.025957
0.025957 0.025957 0.025957
0.023529 0.023529 0.023529
0.023529 0.023529 0.023529
0.023529 0.023529 0.023529
0.023529 0.023529 0.023529
0.022676 0.022676 0.022676
0.022035 0.022035 0.022035
0.022035 0.022035 0.022035
0.022035 0.022035 0.022035
0.022035 0.022035 0.022035
0.022035 0.022035 0.022035
0.022035 0.022035 0.022035
0.022035 0.022035 0.022035
0.020263 0.020263 0.020263
0.019608 0.019608 0.019608
0.030937 0.030937 0.030937
0.030937 0.030937 0.030937
0.030937 0.030937 0.030937
0.030937 0.030937 0.030937
0.030937 0.030937 0.030937
0.030937 0.030937 0.030937
0.030937 0.030937 0.030937
0.030937 0.030937 0.030937
0.030937 0.030937 0.030937
0.030937 0.030937 0.030937
0.030937 0.030937 0.030937
0.030937 0.030937 0.030937
0.030937 0.030937 0.030937
0.030937 0.030937 0.030937
0.030937 0.030937 0.030937
0.030937 0.030937 0.030937
0.030937 0.030937 0.030937
0.030937 0.030937 0.030937
0.030937 0.030937 0.030937
0.030937 0.030937 0.030937
0.031110 0.031110 0.031110
0.031373 0.031373 0.031373
0.034637 0.034637 0.034637
0.031373 0.031373 0.031373
0.033032 0.033032 0.033032
0.034858 0.034858 0.034858
0.034858 0.034858 0.034858
0.034858 0.034858 0.034858
0.034858 0.034858 0.034858
0.034858 0.034858 0.034858
0.034858 0.034858 0.034858
0.034858 0.034858 0.034858
0.034858 0.034858 0.034858
0.034858 0.034858 0.034858
0.034858 0.034858 0.034858
0.034858 0.034858 0.034858
0.034858 0.034858 0.034858
0.034858 0.034858 0.034858
0.034858 0.034858 0.034858
0.034858 0.034858 0.034858
0.034858 0.034858 0.034858
0.034858 0.034858 0.034858
0.031373 0.031373 0.031373
0.033475 0.033475 0.033475
0.034858 0.034858 0.034858
0.034858 0.034858 0.034858
0.031373 0.031373 0.031373
0.031373 0.031373 0.031373
0.030937 0.030937 0.030937
0.030937 0.030937 0.030937
0.030937 0.030937 0.030937
0.030937 0.030937 0.030937
0.030937 0.030937 0.030937
0.030937 0.030937 0.030937
0.030937 0.030937 0.030937
0.030937 0.030937 0.030937
0.030937 0.030937 0.030937
0.030937 0.030937 0.030937
0.030937 0.030937 0.030937
0.027451 0.027451 0.027451
0.027368 0.027368 0.027368
0.027015 0.027015 0.027015
0.027015 0.027015 0.027015
0.027015 0.027015 0.027015
0.039838 0.039838 0.039838
0.039838 0.039838 0.039838
0.039838 0.039838 0.039838
0.039838 0.039838 0.039838
0.039838 0.039838 0.039838
0.039838 0.039838 0.039838
0.039838 0.039838 0.039838
0.039838 0.039838 0.039838
0.039838 0.039838 0.039838
0.039838 0.039838 0.039838
0.039838 0.039838 0.039838
0.039838 0.039838 0.039838
0.039838 0.039838 0.039838
0.039838 0.039838 0.039838
0.039838 0.039838 0.039838
0.039838 0.039838 0.039838
0.039838 0.039838 0.039838
0.040204 0.040204 0.040204
0.040461 0.040461 0.040461
0.043760 0.043760 0.043760
0.043760 0.043760 0.043760
0.043760 0.043760 0.043760
0.043760 0.043760 0.043760
0.043760 0.043760 0.043760
0.043760 0.043760 0.043760
0.043760 0.043760 0.043760
0.043760 0.043760 0.043760
0.043760 0.043760 0.043760
0.043760 0.043760 0.043760
0.043760 0.043760 0.043760
0.043760 0.043760 0.043760
0.043760 0.043760 0.043760
0.043760 0.043760 0.043760
0.043760 0.043760 0.043760
0.043760 0.043760 0.043760
0.043760 0.043760 0.043760
0.043760 0.043760 0.043760
0.043760 0.043760 0.043760
0.043760 0.043760 0.043760
0.043760 0.043760 0.043760
0.043760 0.043760 0.043760
0.043760 0.043760 0.043760
0.043760 0.043760 0.043760
0.043760 0.043760 0.043760
0.043760 0.043760 0.043760
0.043760 0.043760 0.043760
0.043760 0.043760 0.043760
0.043760 0.043760 0.043760
0.040618 0.040618 0.040618
0.040461 0.040461 0.040461
0.039838 0.039838 0.039838
0.039838 0.039838 0.039838
0.039838 0.039838 0.039838
0.039838 0.039838 0.039838
0.039838 0.039838 0.039838
0.039838 0.039838 0.039838
0.039838 0.039838 0.039838
0.039838 0.039838 0.039838
0.039838 0.039838 0.039838
0.039838 0.039838 0.039838
0.035917 0.035917 0.035917
0.035917 0.035917 0.035917
0.035917 0.035917 0.035917
0.035917 0.035917 0.035917
0.048739 0.048739 0.048739
0.048739 0.048739 0.048739
0.048739 0.048739 0.048739
0.048739 0.048739 0.048739
0.048739 0.048739 0.048739
0.048739 0.048739 0.048739
0.048739 0.048739 0.048739
0.048739 0.048739 0.048739
0.048739 0.048739 0.048739
0.048739 0.048739 0.048739
0.048739 0.048739 0.048739
0.048739 0.048739 0.048739
0.050420 0.050420 0.050420
0.050420 0.050420 0.050420
0.052661 0.052661 0.052661
0.052661 0.052661 0.052661
0.052661 0.052661 0.052661
0.052661 0.052661 0.052661
0.052661 0.052661 0.052661
0.052661 0.052661 0.052661
0.052661 0.052661 0.052661
0.052661 0.052661 0.052661
0.052661 0.052661 0.052661
0.052661 0.052661 0.052661
0.052661 0.052661 0.052661
0.052661 0.052661 0.052661
0.052661 0.052661 0.052661
0.052661 0.052661 0.052661
0.052661 0.052661 0.052661
0.052661 0.052661 0.052661
0.052661 0.052661 0.052661
0.052661 0.052661 0.052661
0.052661 0.052661 0.052661
0.052661 0.052661 0.052661
0.052661 0.052661 0.052661
0.052661 0.052661 0.052661
0.052661 0.052661 0.052661
0.052661 0.052661 0.052661
0.052661 0.052661 0.052661
0.052661 0.052661 0.052661
0.052661 0.052661 0.052661
0.052661 0.052661 0.052661
0.052661 0.052661 0.052661
0.052661 0.052661 0.052661
0.052661 0.052661 0.052661
0.052661 0.052661 0.052661
0.052661 0.052661 0.052661
0.052661 0.052661 0.052661
0.052661 0.052661 0.052661
0.052661 0.052661 0.052661
0.051558 0.051558 0.051558
0.050420 0.050420 0.050420
0.048739 0.048739 0.048739
0.048739 0.048739 0.048739
0.048739 0.048739 0.048739
0.048739 0.048739 0.048739
0.048739 0.048739 0.048739
0.048739 0.048739 0.048739
0.048739 0.048739 0.048739
0.048739 0.048739 0.048739
0.046178 0.046178 0.046178
0.044818 0.044818 0.044818
0.044818 0.044818 0.044818
0.044818 0.044818 0.044818
0.060380 0.060380 0.060380
0.060380 0.060380 0.060380
0.060380 0.060380 0.060380
0.061562 0.061562 0.061562
0.061562 0.061562 0.061562
0.061562 0.061562 0.061562
0.061562 0.061562 0.061562
0.061562 0.061562 0.061562
0.061562 0.061562 0.061562
0.061562 0.061562 0.061562
0.061562 0.061562 0.061562
0.061562 0.061562 0.061562
0.061562 0.061562 0.061562
0.061562 0.061562 0.061562
0.061562 0.061562 0.061562
0.061562 0.061562 0.061562
0.061562 0.061562 0.061562
0.061562 0.061562 0.061562
0.061562 0.061562 0.061562
0.061562 0.061562 0.061562
0.061562 0.061562 0.061562
0.061562 0.061562 0.061562
0.061562 0.061562 0.061562
0.061562 0.061562 0.061562
0.061562 0.061562 0.061562
0.061562 0.061562 0.061562
0.061562 0.061562 0.061562
0.061562 0.061562 0.061562
0.061562 0.061562 0.061562
0.061562 0.061562 0.061562
0.061562 0.061562 0.061562
0.061562 0.061562 0.061562
0.061562 0.061562 0.061562
0.061562 0.061562 0.061562
0.061562 0.061562 0.061562
0.061562 0.061562 0.061562
0.061562 0.061562 0.061562
0.061562 0.061562 0.061562
0.061562 0.061562 0.061562
0.061562 0.061562 0.061562
0.061562 0.061562 0.061562
0.061562 0.061562 0.061562
0.061562 0.061562 0.061562
0.061562 0.061562 0.061562
0.061562 0.061562 0.061562
0.061562 0.061562 0.061562
0.061562 0.061562 0.061562
0.061562 0.061562 0.061562
0.061562 0.061562 0.061562
0.061562 0.061562 0.061562
0.061562 0.061562 0.061562
0.061562 0.061562 0.061562
0.061562 0.061562 0.061562
0.060380 0.060380 0.060380
0.060380 0.060380 0.060380
0.058076 0.058076 0.058076
0.057641 0.057641 0.057641
0.057641 0.057641 0.057641
0.057641 0.057641 0.057641
0.057641 0.057641 0.057641
0.057641 0.057641 0.057641
0.056458 0.056458 0.056458
0.053719 0.053719 0.053719
0.053719 0.053719 0.053719
0.070464 0.070464 0.070464
0.070464 0.070464 0.070464
0.070464 0.070464 0.070464
0.070464 0.070464 0.070464
0.070464 0.070464 0.070464
0.070464 0.070464 0.070464
0.070464 0.070464 0.070464
0.070464 0.070464 0.070464
0.070464 0.070464 0.070464
0.070464 0.070464 0.070464
0.070464 0.070464 0.070464
0.070464 0.070464 0.070464
0.074261 0.074261 0.074261
0.074261 0.074261 0.074261
0.074261 0.074261 0.074261
0.074261 0.074261 0.074261
0.074261 0.074261 0.074261
0.074261 0.074261 0.074261
0.074261 0.074261 0.074261
0.074261 0.074261 0.074261
0.074261 0.074261 0.074261
0.074385 0.074385 0.074385
0.074385 0.074385 0.074385
0.074385 0.074385 0.074385
0.074385 0.074385 0.074385
0.074385 0.074385 0.074385
0.074385 0.074385 0.074385
0.074385 0.074385 0.074385
0.074385 0.074385 0.074385
0.074385 0.074385 0.074385
0.074385 0.074385 0.074385
0.074385 0.074385 0.074385
0.074385 0.074385 0.074385
0.074385 0.074385 0.074385
0.074385 0.074385 0.074385
0.074385 0.074385 0.074385
0.074385 0.074385 0.074385
0.074385 0.074385 0.074385
0.074385 0.074385 0.074385
0.074385 0.074385 0.074385
0.074385 0.074385 0.074385
0.074385 0.074385 0.074385
0.074344 0.074344 0.074344
0.074261 0.074261 0.074261
0.074370 0.074370 0.074370
0.074368 0.074368 0.074368
0.074261 0.074261 0.074261
0.074261 0.074261 0.074261
0.074261 0.074261 0.074261
0.074261 0.074261 0.074261
0.070464 0.070464 0.070464
0.070464 0.070464 0.070464
0.070464 0.070464 0.070464
0.070464 0.070464 0.070464
0.070464 0.070464 0.070464
0.070464 0.070464 0.070464
0.070464 0.070464 0.070464
0.070416 0.070416 0.070416
0.067868 0.067868 0.067868
0.066542 0.066542 0.066542
0.066542 0.066542 0.066542
0.066542 0.066542 0.066542
0.066542 0.066542 0.066542
0.066418 0.066418 0.066418
0.083287 0.083287 0.083287
0.083287 0.083287 0.083287
0.083287 0.083287 0.083287
0.083287 0.083287 0.083287
0.083287 0.083287 0.083287
0.083287 0.083287 0.083287
0.084220 0.084220 0.084220
0.084220 0.084220 0.084220
0.084220 0.084220 0.084220
0.084220 0.084220 0.084220
0.084220 0.084220 0.084220
0.084220 0.084220 0.084220
0.084220 0.084220 0.084220
0.084220 0.084220 0.084220
0.084220 0.084220 0.084220
0.084220 0.084220 0.084220
0.084220 0.084220 0.084220
0.084220 0.084220 0.084220
0.084220 0.084220 0.084220
0.087208 0.087208 0.087208
0.087208 0.087208 0.087208
0.087208 0.087208 0.087208
0.087208 0.087208 0.087208
0.087208 0.087208 0.087208
0.087208 0.087208 0.087208
0.087208 0.087208 0.087208
0.087208 0.087208 0.087208
0.087208 0.087208 0.087208
0.087208 0.087208 0.087208
0.087208 0.087208 0.087208
0.087208 0.087208 0.087208
0.087208 0.087208 0.087208
0.087208 0.087208 0.087208
0.087208 0.087208 0.087208
0.087208 0.087208 0.087208
0.087208 0.087208 0.087208
0.087208 0.087208 0.087208
0.087208 0.087208 0.087208
0.087208 0.087208 0.087208
0.087208 0.087208 0.087208
0.087208 0.087208 0.087208
0.087208 0.087208 0.087208
0.087208 0.087208 0.087208
0.087208 0.087208 0.087208
0.087208 0.087208 0.087208
0.087208 0.087208 0.087208
0.087208 0.087208 0.087208
0.084220 0.084220 0.084220
0.084220 0.084220 0.084220
0.084220 0.084220 0.084220
0.084220 0.084220 0.084220
0.084220 0.084220 0.084220
0.083287 0.083287 0.083287
0.083287 0.083287 0.083287
0.083287 0.083287 0.083287
0.083287 0.083287 0.083287
0.083287 0.083287 0.083287
0.082148 0.082148 0.082148
0.080299 0.080299 0.080299
0.079439 0.079439 0.079439
0.079365 0.079365 0.079365
0.079365 0.079365 0.079365
0.079365 0.079365 0.079365
0.076377 0.076377 0.076377
0.096110 0.096110 0.096110
0.096110 0.096110 0.096110
0.096110 0.096110 0.096110
0.096110 0.096110 0.096110
0.096110 0.096110 0.096110
0.096110 0.096110 0.096110
0.096110 0.096110 0.096110
0.096110 0.096110 0.096110
0.096110 0.096110 0.096110
0.096110 0.096110 0.096110
0.096110 0.096110 0.096110
0.096110 0.096110 0.096110
0.096110 0.096110 0.096110
0.096110 0.096110 0.096110
0.096110 0.096110 0.096110
0.098101 0.098101 0.098101
0.098101 0.098101 0.098101
0.098101 0.098101 0.098101
0.098101 0.098101 0.098101
0.098101 0.098101 0.098101
0.098101 0.098101 0.098101
0.098101 0.098101 0.098101
0.098101 0.098101 0.098101
0.098101 0.098101 0.098101
0.098101 0.098101 0.098101
0.098101 0.098101 0.098101
0.098101 0.098101 0.098101
0.098101 0.098101 0.098101
0.098101 0.098101 0.098101
0.098101 0.098101 0.098101
0.098101 0.098101 0.098101
0.098101 0.098101 0.098101
0.098101 0.098101 0.098101
0.098101 0.098101 0.098101
0.098101 0.098101 0.098101
0.098101 0.098101 0.098101
0.098101 0.098101 0.098101
0.100031 0.100031 0.100031
0.098101 0.098101 0.098101
0.098101 0.098101 0.098101
0.098101 0.098101 0.098101
0.098101 0.098101 0.098101
0.098101 0.098101 0.098101
0.098101 0.098101 0.098101
0.098101 0.098101 0.098101
0.098101 0.098101 0.098101
0.098101 0.098101 0.098101
0.098101 0.098101 0.098101
0.096110 0.096110 0.096110
0.096110 0.096110 0.096110
0.096110 0.096110 0.096110
0.096110 0.096110 0.096110
