films/kodak_kodachrome_25.cube
# Created by: G'MIC (https://gmic.eu)
TITLE "kodak_kodachrome_25"
# LUT size
LUT_3D_SIZE 13
# Data domain
DOMAIN_MIN 0.0 0.0 0.0
DOMAIN_MAX 1.0 1.0 1.0
# LUT data points
0.017780723050236702 0.013932665809988976 0.018200788646936417
0.04207427054643631 0.012356806546449661 0.010330977849662304
0.08187345415353775 0.016785940155386925 0.0087817925959825516
0.13394877314567566 0.01576639898121357 0.0096324849873781204
0.20858888328075409 0.015260718762874603 0.0088965026661753654
0.32326290011405945 0.014221056364476681 0.004922275897115469
0.48462200164794922 0.014940792694687843 0.0021039925049990416
0.67420035600662231 0.019252313300967216 0.0010575986234471202
0.88700056076049805 0.026260105893015862 0.0038067088462412357
0.99626713991165161 0.053768698126077652 0.020212778821587563
1 0.11389719694852829 0.052268803119659424
0.99996733665466309 0.21125917136669159 0.11797159165143967
0.99997198581695557 0.31223756074905396 0.18882697820663452
0.043171137571334839 0.0657166987657547 0.034760300070047379
0.068641334772109985 0.062932379543781281 0.030073069036006927
0.11969360709190369 0.066287711262702942 0.028120048344135284
0.19677314162254333 0.064570799469947815 0.02349497564136982
0.29584455490112305 0.065030626952648163 0.017793228849768639
0.40588754415512085 0.073844969272613525 0.014534804038703442
0.5539710521697998 0.080404080450534821 0.011544574983417988
0.74058800935745239 0.087335593998432159 0.01035652868449688
0.88640254735946655 0.12013766914606094 0.03075135126709938
0.96920943260192871 0.17158979177474976 0.062198113650083542
0.99396997690200806 0.24039508402347565 0.099918827414512634
0.99946838617324829 0.3189188539981842 0.15835520625114441
1 0.38699054718017578 0.22026756405830383
0.080404110252857208 0.15061001479625702 0.074058160185813904
0.10444633662700653 0.15187133848667145 0.071318395435810089
0.1592620313167572 0.15471832454204559 0.069328576326370239
0.24436387419700623 0.15790665149688721 0.064519323408603668
0.34354409575462341 0.16279873251914978 0.059146717190742493
0.4659370481967926 0.17009295523166656 0.053950201719999313
0.61313599348068237 0.17892482876777649 0.048805549740791321
0.76085090637207031 0.19467861950397491 0.050853297114372253
0.85118871927261353 0.24061520397663116 0.079016439616680145
0.91009479761123657 0.29534196853637695 0.1122952327132225
0.95529240369796753 0.34890419244766235 0.14441496133804321
0.98604488372802734 0.4021400511264801 0.19011178612709045
0.99982678890228271 0.44721156358718872 0.23976020514965057
0.095388732850551605 0.2771981954574585 0.13652020692825317
0.13435162603855133 0.27902340888977051 0.13459774851799011
0.19836276769638062 0.27912753820419312 0.12978038191795349
0.29189547896385193 0.28243783116340637 0.12271993607282639
0.39952141046524048 0.28723791241645813 0.1170041412115097
0.5122869610786438 0.29658162593841553 0.11414582282304764
0.62403410673141479 0.31350338459014893 0.11538271605968475
0.72817641496658325 0.33143085241317749 0.11886155605316162
0.804493248462677 0.36209350824356079 0.13416929543018341
0.86206525564193726 0.39946311712265015 0.15459832549095154
0.91637718677520752 0.43356779217720032 0.1763589084148407
0.96515250205993652 0.46706613898277283 0.21136525273323059
0.99777555465698242 0.49920925498008728 0.25082200765609741
0.13498702645301819 0.42501696944236755 0.20733146369457245
0.18820689618587494 0.4242996871471405 0.20488537847995758
0.26501429080963135 0.41805216670036316 0.19537019729614258
0.35941937565803528 0.41724404692649841 0.18488223850727081
0.45252901315689087 0.42566078901290894 0.18065744638442993
0.53910011053085327 0.43164503574371338 0.17879390716552734
0.62243646383285522 0.43920749425888062 0.17769381403923035
0.70326662063598633 0.44907304644584656 0.17656709253787994
0.7734648585319519 0.4643898606300354 0.18075305223464966
0.83457791805267334 0.48460781574249268 0.18952231109142303
0.89293015003204346 0.50541609525680542 0.2034401148557663
0.95052909851074219 0.52589690685272217 0.22563719749450684
0.99479573965072632 0.54955565929412842 0.25307705998420715
0.32436734437942505 0.53083384037017822 0.25159314274787903
0.35195031762123108 0.53108048439025879 0.2510521411895752
0.39282050728797913 0.52922195196151733 0.24565722048282623
0.45062124729156494 0.5283740758895874 0.23757083714008331
0.51196777820587158 0.5316804051399231 0.23115076124668121
0.57247424125671387 0.53482246398925781 0.22818551957607269
0.63622063398361206 0.53678792715072632 0.22382938861846924
0.69976389408111572 0.5411531925201416 0.22097042202949524
0.75956141948699951 0.54897516965866089 0.22244098782539368
0.81974333524703979 0.55902689695358276 0.2240496426820755
0.87976902723312378 0.57079869508743286 0.23046275973320007
0.94071167707443237 0.58444416522979736 0.23985283076763153
0.99160760641098022 0.60172277688980103 0.25472217798233032
0.46563312411308289 0.60971814393997192 0.28780046105384827
0.48256728053092957 0.61131244897842407 0.28713715076446533
0.50517016649246216 0.61135661602020264 0.28417879343032837
0.53364717960357666 0.61062264442443848 0.27950850129127502
0.5700344443321228 0.61164814233779907 0.27320832014083862
0.61385148763656616 0.61333119869232178 0.26641669869422913
0.66220599412918091 0.61435461044311523 0.26054412126541138
0.71209698915481567 0.61683517694473267 0.25769037008285522
0.76293951272964478 0.62093490362167358 0.25785678625106812
0.81706434488296509 0.62580347061157227 0.25803503394126892
0.87469756603240967 0.63214832544326782 0.26014566421508789
0.93760055303573608 0.64071011543273926 0.26033380627632141
0.99099850654602051 0.65352994203567505 0.26630589365959167
0.55948805809020996 0.6773722767829895 0.32030752301216125
0.56848657131195068 0.67786252498626709 0.31971901655197144
0.58031600713729858 0.67637419700622559 0.31675809621810913
0.5970224142074585 0.67631274461746216 0.31355476379394531
0.62274312973022461 0.67788428068161011 0.30907484889030457
0.65578025579452515 0.67905330657958984 0.30280491709709167
0.69411957263946533 0.68093270063400269 0.2967771589756012
0.73501992225646973 0.68300986289978027 0.29297706484794617
0.77884507179260254 0.68535739183425903 0.29156765341758728
0.82787519693374634 0.68736064434051514 0.29082012176513672
0.88362449407577515 0.69077867269515991 0.28946354985237122
0.94503724575042725 0.69520246982574463 0.28586694598197937
0.99422371387481689 0.70501381158828735 0.28735160827636719
0.62548798322677612 0.74261474609375 0.3516019880771637
0.63139593601226807 0.74110370874404907 0.35208776593208313
0.63858640193939209 0.73737156391143799 0.34910613298416138
0.65191996097564697 0.73775124549865723 0.34664437174797058
0.67171245813369751 0.74004054069519043 0.34435358643531799
0.69776183366775513 0.74137967824935913 0.34100323915481567
0.72952258586883545 0.74333155155181885 0.33630397915840149
0.76392483711242676 0.74633991718292236 0.33212494850158691
0.8015742301940918 0.74743729829788208 0.32923656702041626
0.84612834453582764 0.74852949380874634 0.32744839787483215
0.90068823099136353 0.74973732233047485 0.32281768321990967
0.95795798301696777 0.75274378061294556 0.31772950291633606
0.99792754650115967 0.76005429029464722 0.31621208786964417
0.68084126710891724 0.8088688850402832 0.38411542773246765
0.6855890154838562 0.80800789594650269 0.38629910349845886
0.69416284561157227 0.80551093816757202 0.38504162430763245
0.70630007982254028 0.805400550365448 0.38250541687011719
0.72049659490585327 0.80668413639068604 0.38225629925727844
0.74091416597366333 0.80682599544525146 0.38006976246833801
0.76966100931167603 0.80909496545791626 0.37718251347541809
0.80023431777954102 0.81174337863922119 0.37359732389450073
0.83178532123565674 0.81181615591049194 0.37072262167930603
0.86976271867752075 0.81102991104125977 0.36726313829421997
0.91995429992675781 0.81292492151260376 0.36182698607444763
0.97185653448104858 0.81622737646102905 0.35597226023674011
0.99974721670150757 0.8220897912979126 0.3512062132358551
0.73908537626266479 0.87527704238891602 0.41714709997177124
0.74311363697052002 0.87726026773452759 0.42134013772010803
0.7562333345413208 0.87731754779815674 0.42121893167495728
0.76915240287780762 0.87787133455276489 0.42055997252464294
0.77668225765228271 0.87720614671707153 0.4194091260433197
0.79109102487564087 0.87685811519622803 0.41770470142364502
0.81902861595153809 0.87916773557662964 0.4163634181022644
0.84720110893249512 0.88053667545318604 0.41369938850402832
0.87376445531845093 0.87880557775497437 0.41008180379867554
0.90536201000213623 0.87687653303146362 0.40588459372520447
0.94611489772796631 0.87790828943252563 0.40094009041786194
0.98719465732574463 0.88088375329971313 0.39534676074981689
1 0.88449269533157349 0.38813140988349915
0.80498141050338745 0.93795585632324219 0.44736215472221375
0.81163376569747925 0.94210875034332275 0.45232626795768738
0.82556813955307007 0.94537067413330078 0.45440039038658142
0.84053385257720947 0.94783991575241089 0.45499798655509949
0.84608608484268188 0.94683432579040527 0.4538530707359314
0.85618370771408081 0.94587105512619019 0.45264336466789246
0.87858986854553223 0.94796144962310791 0.4518989622592926
0.90223062038421631 0.94820481538772583 0.44937607645988464
0.92241007089614868 0.94422215223312378 0.4446977972984314
0.94617915153503418 0.94065982103347778 0.43951481580734253
0.97474759817123413 0.93933677673339844 0.43415850400924683
0.99779999256134033 0.94062644243240356 0.42842891812324524
1 0.94270765781402588 0.42195841670036316
0.86836928129196167 0.98976939916610718 0.47376829385757446
0.87731879949569702 0.99295151233673096 0.47880691289901733
0.8897559642791748 0.99495261907577515 0.48204043507575989
0.90266084671020508 0.99624764919281006 0.48354217410087585
0.90996980667114258 0.99619048833847046 0.48345407843589783
0.91869980096817017 0.99596744775772095 0.4823455810546875
0.93461143970489502 0.9962470531463623 0.48133504390716553
0.95202088356018066 0.99604779481887817 0.47853225469589233
0.96733593940734863 0.99419981241226196 0.47369706630706787
0.98424577713012695 0.99200034141540527 0.46782508492469788
0.99725925922393799 0.99041402339935303 0.46226105093955994
1 0.9903491735458374 0.4565466046333313
1 0.99110949039459229 0.45131316781044006
0.0054691988043487072 0.0082188323140144348 0.055398754775524139
0.027220632880926132 0.01055749598890543 0.054057594388723373
0.062946215271949768 0.014104611240327358 0.056681197136640549
0.1110168918967247 0.012549740262329578 0.058583158999681473
0.18996889889240265 0.010722470469772816 0.053875613957643509
0.30846831202507019 0.0083766113966703415 0.045403528958559036
0.47167694568634033 0.010692342184484005 0.036463569849729538
0.65633606910705566 0.018069114536046982 0.027249369770288467
0.87142419815063477 0.025096174329519272 0.022617997601628304
0.9926685094833374 0.047309216111898422 0.044252447783946991
1 0.096294894814491272 0.089912459254264832
0.99979501962661743 0.1992446631193161 0.17380958795547485
0.99993699789047241 0.31442523002624512 0.25765058398246765
0.028088288381695747 0.054444123059511185 0.063142187893390656
0.053958114236593246 0.05651460587978363 0.064202204346656799
0.100599505007267 0.06058768555521965 0.067317932844161987
0.1723656952381134 0.059256505221128464 0.064350038766860962
0.2797929048538208 0.057580146938562393 0.054949861019849777
0.40098607540130615 0.062623120844364166 0.050803329795598984
0.54351967573165894 0.072176896035671234 0.050933495163917542
0.71980899572372437 0.08425535261631012 0.05065014585852623
0.87418043613433838 0.11430032551288605 0.067661449313163757
0.96403419971466064 0.16196982562541962 0.10438463091850281
0.99008256196975708 0.22562550008296967 0.15625147521495819
0.99731898307800293 0.30760270357131958 0.22424547374248505
1 0.38562598824501038 0.28847700357437134
0.066434361040592194 0.14016768336296082 0.097667217254638672
0.094909235835075378 0.14377120137214661 0.097938045859336853
0.14616027474403381 0.1479782909154892 0.099235460162162781
0.22700203955173492 0.15173827111721039 0.094719871878623962
0.33268511295318604 0.15553820133209229 0.089884139597415924
0.4620945155620575 0.15870743989944458 0.085710518062114716
0.61131352186203003 0.16755710542201996 0.082475803792476654
0.74894487857818604 0.18906229734420776 0.090792335569858551
0.84627407789230347 0.23056024312973022 0.1203540712594986
0.90882039070129395 0.28318619728088379 0.15986882150173187
0.94953882694244385 0.33805301785469055 0.20410017669200897
0.97974199056625366 0.39316904544830322 0.255755215883255
0.99901986122131348 0.4433588981628418 0.30611115694046021
0.084533408284187317 0.27148935198783875 0.15462172031402588
0.12884549796581268 0.27211722731590271 0.15250439941883087
0.183461993932724 0.27357211709022522 0.15028727054595947
0.27553769946098328 0.27891993522644043 0.145392045378685
0.38813740015029907 0.28320175409317017 0.14108963310718536
0.50939887762069702 0.28840380907058716 0.13859815895557404
0.62463271617889404 0.30564898252487183 0.14255212247371674
0.72385615110397339 0.32617458701133728 0.15229572355747223
0.80149823427200317 0.35461455583572388 0.17229281365871429
0.85981267690658569 0.39078256487846375 0.19880048930644989
0.91032522916793823 0.42709806561470032 0.22985000908374786
0.95814085006713867 0.46187245845794678 0.27091202139854431
0.99506473541259766 0.49537694454193115 0.3126276433467865
0.13365840911865234 0.42006972432136536 0.21483433246612549
0.18839253485202789 0.41670215129852295 0.21024863421916962
0.25320243835449219 0.41367200016975403 0.20615506172180176
0.34763836860656738 0.41540300846099854 0.20010039210319519
0.44558700919151306 0.41999512910842896 0.19576625525951385
0.53528153896331787 0.42764085531234741 0.19576984643936157
0.6180533766746521 0.43834933638572693 0.19838209450244904
0.69717830419540405 0.44850391149520874 0.20230753719806671
0.76834684610366821 0.46159294247627258 0.20999833941459656
0.82964104413986206 0.48036143183708191 0.22312696278095245
0.8869594931602478 0.5016402006149292 0.24505428969860077
0.94349336624145508 0.52351117134094238 0.2731112539768219
0.99102568626403809 0.54745149612426758 0.30220562219619751
0.32348930835723877 0.52867096662521362 0.25285401940345764
0.35156095027923584 0.52871590852737427 0.24966272711753845
0.39151173830032349 0.52721661329269409 0.24751219153404236
0.44605299830436707 0.52801036834716797 0.24420194327831268
0.50903105735778809 0.52996170520782471 0.23976914584636688
0.57100731134414673 0.53420203924179077 0.23736995458602905
0.63437390327453613 0.53671830892562866 0.23433038592338562
0.69820481538772583 0.53993707895278931 0.23265936970710754
0.75783056020736694 0.5468132495880127 0.23661735653877258
0.8168950080871582 0.55607134103775024 0.2430277019739151
0.87635082006454468 0.56792730093002319 0.25740015506744385
0.93695837259292603 0.5820080041885376 0.27131882309913635
0.98982900381088257 0.59978187084197998 0.28533843159675598
0.46022871136665344 0.60890567302703857 0.28804570436477661
0.4813140332698822 0.61080336570739746 0.28420540690422058
0.50435769557952881 0.6108202338218689 0.28116071224212646
0.53105181455612183 0.61060106754302979 0.28106203675270081
0.56803613901138306 0.61182749271392822 0.27711930871009827
0.61318111419677734 0.61354607343673706 0.26899713277816772
0.6621583104133606 0.61444032192230225 0.26240181922912598
0.7127801775932312 0.61560666561126709 0.25953328609466553
0.76359432935714722 0.61898148059844971 0.26216945052146912
0.81705892086029053 0.62355762720108032 0.26736247539520264
0.8756105899810791 0.6298983097076416 0.27294203639030457
0.93747162818908691 0.63877737522125244 0.27554485201835632
0.9906076192855835 0.6520501971244812 0.28303328156471252
0.55350017547607422 0.67656385898590088 0.32085767388343811
0.56584268808364868 0.67805999517440796 0.3184066116809845
0.57953345775604248 0.67806160449981689 0.31364628672599792
0.59623944759368896 0.67748719453811646 0.31154793500900269
0.62203079462051392 0.67813456058502197 0.30824059247970581
0.65598469972610474 0.6789546012878418 0.30060389637947083
0.69458311796188354 0.6802215576171875 0.29342770576477051
0.73560971021652222 0.68211072683334351 0.28939983248710632
0.77915757894515991 0.68405401706695557 0.29039177298545837
0.82830369472503662 0.68621408939361572 0.29306489229202271
0.8848804235458374 0.68936747312545776 0.29233074188232422
0.94582176208496094 0.69522827863693237 0.28816375136375427
0.99425685405731201 0.70562100410461426 0.29061537981033325
0.62398415803909302 0.74294871091842651 0.35141780972480774
0.62983894348144531 0.7419973611831665 0.35131266713142395
0.63848835229873657 0.74003374576568604 0.34733414649963379
0.65208345651626587 0.73962461948394775 0.34436491131782532
0.67194187641143799 0.73968881368637085 0.34300047159194946
0.69860458374023438 0.73950850963592529 0.33881387114524841
0.72970849275588989 0.74193269014358521 0.33309099078178406
0.76351189613342285 0.74511134624481201 0.32837387919425964
0.80122071504592896 0.7467615008354187 0.32751384377479553
0.84622484445571899 0.74761563539505005 0.32738563418388367
0.90146684646606445 0.74989157915115356 0.32162025570869446
0.95817595720291138 0.75419652462005615 0.3141629695892334
0.99783146381378174 0.76261705160140991 0.31288465857505798
0.68411815166473389 0.8103950023651123 0.38377124071121216
0.68613070249557495 0.80849838256835938 0.38549283146858215
0.69330394268035889 0.8068397045135498 0.38404020667076111
0.70584803819656372 0.80662357807159424 0.38241061568260193
0.72154408693313599 0.80598747730255127 0.38226732611656189
0.74305629730224609 0.80534297227859497 0.38000625371932983
0.76931709051132202 0.80716359615325928 0.37661179900169373
0.7984045147895813 0.81048178672790527 0.37274786829948425
0.83142799139022827 0.81221038103103638 0.37023219466209412
0.87176287174224854 0.81226450204849243 0.36739644408226013
0.9213486909866333 0.81370848417282104 0.360586017370224
0.97165745496749878 0.81731104850769043 0.35298696160316467
0.99962586164474487 0.82408356666564941 0.3485046923160553
0.74750328063964844 0.8780132532119751 0.41774743795394897
0.74746304750442505 0.87775033712387085 0.42121002078056335
0.75507766008377075 0.87709659337997437 0.42130005359649658
0.76698774099349976 0.87729322910308838 0.42107844352722168
0.77906560897827148 0.87675958871841431 0.42107781767845154
0.79565572738647461 0.8765634298324585 0.41990336775779724
0.81847703456878662 0.87810814380645752 0.41714698076248169
0.84439337253570557 0.87971282005310059 0.41526386141777039
0.8735424280166626 0.88041239976882935 0.41171285510063171
0.90697175264358521 0.87971502542495728 0.40734735131263733
0.94616055488586426 0.87970030307769775 0.40103232860565186
0.98476189374923706 0.88234609365463257 0.39473280310630798
1 0.88717865943908691 0.38818314671516418
0.81855851411819458 0.94406497478485107 0.45085671544075012
0.81892025470733643 0.94490230083465576 0.45472496747970581
0.82522886991500854 0.94536322355270386 0.45675581693649292
0.8359864354133606 0.94644272327423096 0.45716601610183716
0.84532976150512695 0.94640976190567017 0.4569128155708313
0.85837984085083008 0.94622808694839478 0.45541644096374512
0.87734448909759521 0.94734650850296021 0.45443397760391235
0.89883530139923096 0.94801557064056396 0.45200327038764954
0.92215621471405029 0.94706910848617554 0.4479406476020813
0.94698482751846313 0.94434499740600586 0.44251146912574768
0.97265148162841797 0.94239681959152222 0.43649077415466309
0.99554198980331421 0.94351750612258911 0.43072524666786194
1 0.94751936197280884 0.42520600557327271
0.88364988565444946 0.99412709474563599 0.4793858528137207
0.8864288330078125 0.99474775791168213 0.48358142375946045
0.89198899269104004 0.99537825584411621 0.48591846227645874
0.90094184875488281 0.99622428417205811 0.48704814910888672
0.90979194641113281 0.99626225233078003 0.48713159561157227
0.92041349411010742 0.99626225233078003 0.48661953210830688
0.93479293584823608 0.99626225233078003 0.4850776195526123
0.95125240087509155 0.99626225233078003 0.48220369219779968
0.96758377552032471 0.99545884132385254 0.47758254408836365
0.98410922288894653 0.99393856525421143 0.4717041552066803
0.9962841272354126 0.99224686622619629 0.4658278226852417
0.99995261430740356 0.99270302057266235 0.46090170741081238
1 0.99442428350448608 0.4568026065826416
0.0014117222744971514 0.0065803676843643188 0.11814148724079132
0.014065776020288467 0.0092093078419566154 0.12455300986766815
0.044060591608285904 0.01166356448084116 0.13048236072063446
0.090143166482448578 0.0084416260942816734 0.12987406551837921
0.16689570248126984 0.0047650956548750401 0.12482932955026627
0.28666263818740845 0.0045241261832416058 0.11813029646873474
0.44880464673042297 0.0081962281838059425 0.10531499236822128
0.63641595840454102 0.014454680494964123 0.091061852872371674
0.8534245491027832 0.025407962501049042 0.07562912255525589
0.98190438747406006 0.057548284530639648 0.097136721014976501
0.99991744756698608 0.11887304484844208 0.15441103279590607
1 0.21076031029224396 0.23115977644920349
1 0.30762720108032227 0.30223923921585083
0.017663724720478058 0.047113604843616486 0.12178916484117508
0.03965117409825325 0.052262954413890839 0.12627692520618439
0.08285253494977951 0.055605269968509674 0.13208736479282379
0.15365438163280487 0.052950587123632431 0.13060542941093445
0.25510936975479126 0.050249692052602768 0.1240093931555748
0.37968438863754272 0.053928345441818237 0.12066891044378281
0.52308303117752075 0.062766700983047485 0.12063052505254745
0.70131701231002808 0.074157759547233582 0.116639144718647
0.85626167058944702 0.10887635499238968 0.12839539349079132
0.94782477617263794 0.16303004324436188 0.16848136484622955
0.98087072372436523 0.23002567887306213 0.22647161781787872
0.99369102716445923 0.30565732717514038 0.28760895133018494
0.99984955787658691 0.3794492781162262 0.34343245625495911
0.051186610013246536 0.13161668181419373 0.14699582755565643
0.079757973551750183 0.13664239645004272 0.14968372881412506
0.13193871080875397 0.1389450877904892 0.15231871604919434
0.21353816986083984 0.14329589903354645 0.15052163600921631
0.30877253413200378 0.15053369104862213 0.15218056738376617
0.43192610144615173 0.15509788691997528 0.15168483555316925
0.58934396505355835 0.1583845317363739 0.14585199952125549
0.73783266544342041 0.17623011767864227 0.15072505176067352
0.83186715841293335 0.22239314019680023 0.18486315011978149
0.89332473278045654 0.27928030490875244 0.23042124509811401
0.93717283010482788 0.33487731218338013 0.27772831916809082
0.97178906202316284 0.38793739676475525 0.325184166431427
0.99681872129440308 0.43810164928436279 0.36892062425613403
0.070870354771614075 0.26288583874702454 0.19454541802406311
0.10296174883842468 0.26755982637405396 0.19699166715145111
0.1698821634054184 0.26746019721031189 0.19637572765350342
0.26347005367279053 0.27361917495727539 0.19487525522708893
0.37041729688644409 0.27915218472480774 0.19605165719985962
0.49156689643859863 0.28367015719413757 0.19413058459758759
0.60875588655471802 0.29653939604759216 0.19740425050258636
0.70920294523239136 0.31800481677055359 0.21148285269737244
0.78654438257217407 0.34868335723876953 0.23774735629558563
0.84540462493896484 0.3866005539894104 0.26961404085159302
0.89892208576202393 0.42297479510307312 0.30383947491645813
0.94853603839874268 0.45716854929924011 0.34351783990859985
0.98977327346801758 0.49104234576225281 0.38077288866043091
0.099832050502300262 0.41534969210624695 0.24879467487335205
0.14780339598655701 0.41617456078529358 0.24597576260566711
0.23634599149227142 0.41356652975082397 0.24381297826766968
0.33641728758811951 0.41659542918205261 0.24291227757930756
0.43091771006584167 0.41894644498825073 0.24268145859241486
0.52202737331390381 0.42574766278266907 0.24292662739753723
0.60568356513977051 0.43381679058074951 0.24631120264530182
0.68153232336044312 0.44608721137046814 0.25674542784690857
0.75378262996673584 0.45897045731544495 0.26983019709587097
0.8170936107635498 0.47723639011383057 0.28667914867401123
