films/kodak_portra_400.cube
# Created by: G'MIC (https://gmic.eu)
TITLE "kodak_portra_400"
# LUT size
LUT_3D_SIZE 5
# Data domain
DOMAIN_MIN 0.0 0.0 0.0
DOMAIN_MAX 1.0 1.0 1.0
# LUT data points
0.028742233291268349 0.029246700927615166 0.029026554897427559
0.26022765040397644 0.016336822882294655 0.021692791953682899
0.64318734407424927 0.01051623746752739 0.0088321911171078682
0.92393851280212402 0.023375971242785454 0
0.9997522234916687 0.21893461048603058 0.00019466923549771309
6.4625460254319478e-06 0.2166418582201004 0.06175849586725235
0.21360805630683899 0.25146758556365967 0.03154899924993515
0.63486397266387939 0.30449602007865906 0
0.90895545482635498 0.34140762686729431 0.00045934939407743514
1 0.39532020688056946 0
0 0.50113356113433838 0.14526446163654327
0.0638856440782547 0.47128036618232727 0.15905663371086121
0.51171350479125977 0.54709792137145996 0.051347441971302032
0.842548668384552 0.59315192699432373 9.2899099399801344e-05
0.99998599290847778 0.6064150333404541 0
0.0083599016070365906 0.71806025505065918 0.30673140287399292
0.14920635521411896 0.6959378719329834 0.31402111053466797
0.44454404711723328 0.70620274543762207 0.30347371101379395
0.74228841066360474 0.75633186101913452 0.21089541912078857
0.99424481391906738 0.79424041509628296 0.065287739038467407
0.49172860383987427 0.93164408206939697 0.61702132225036621
0.54555994272232056 0.92493164539337158 0.6307070255279541
0.64324575662612915 0.91722995042800903 0.65439701080322266
0.76374250650405884 0.93577694892883301 0.62520790100097656
0.94959419965744019 0.9677659273147583 0.59393829107284546
0.0052078994922339916 0.039782073348760605 0.27171501517295837
0.3256981372833252 0.0088995387777686119 0.32045340538024902
0.68632477521896362 0 0.31991741061210632
0.94239681959152222 0.0031493392307311296 0.27820825576782227
1 0.22577962279319763 0.26894298195838928
4.5507094910135493e-05 0.29974740743637085 0.29748234152793884
0.28910896182060242 0.30348798632621765 0.30814549326896667
0.67098551988601685 0.30440881848335266 0.28850790858268738
0.91577702760696411 0.33452063798904419 0.26646405458450317
1 0.39182451367378235 0.23571309447288513
0.0015091091627255082 0.58804190158843994 0.3638664186000824
0.22340813279151917 0.54684090614318848 0.34562402963638306
0.54894828796386719 0.57231879234313965 0.31461253762245178
0.85562795400619507 0.59591281414031982 0.20224146544933319
0.99923622608184814 0.59674054384231567 0.12520886957645416
0.045370858162641525 0.75145947933197021 0.41852292418479919
0.24605624377727509 0.72887128591537476 0.42251378297805786
0.47449260950088501 0.71192127466201782 0.42524316906929016
0.75524616241455078 0.76661545038223267 0.38742473721504211
0.99316143989562988 0.79256254434585571 0.29073157906532288
0.50514936447143555 0.93693894147872925 0.64538401365280151
0.55160301923751831 0.9304085373878479 0.65246641635894775
0.63773232698440552 0.91637080907821655 0.67024236917495728
0.77365267276763916 0.93877750635147095 0.67342382669448853
0.94916141033172607 0.96773374080657959 0.64055365324020386
0.001475794124417007 0.044831324368715286 0.60909938812255859
0.38681596517562866 0.0055002397857606411 0.65589147806167603
0.77481311559677124 0.0083665736019611359 0.70413708686828613
0.94551593065261841 0.018034273758530617 0.66690331697463989
1 0.2210068553686142 0.63103878498077393
6.5702552092261612e-05 0.30252578854560852 0.57263445854187012
0.32034775614738464 0.31834965944290161 0.62253731489181519
0.73245799541473389 0.3617083728313446 0.68795877695083618
0.92238670587539673 0.38045972585678101 0.66157221794128418
0.99999028444290161 0.43355825543403625 0.62833923101425171
0.00041396197048015893 0.63777297735214233 0.63371157646179199
0.27304169535636902 0.63037735223770142 0.62901502847671509
0.62869000434875488 0.6319471001625061 0.63813847303390503
0.86316239833831787 0.62825846672058105 0.62228858470916748
0.99800711870193481 0.6287611722946167 0.60225307941436768
0.33641263842582703 0.82561814785003662 0.67176181077957153
0.46767649054527283 0.81011337041854858 0.66374802589416504
0.58716154098510742 0.7653958797454834 0.63192224502563477
0.77212274074554443 0.77661275863647461 0.60838687419891357
0.98933500051498413 0.79137331247329712 0.5669974684715271
0.55183565616607666 0.95816731452941895 0.73206067085266113
0.58999419212341309 0.95144867897033691 0.72910386323928833
0.65852528810501099 0.93399322032928467 0.73201984167098999
0.77644222974777222 0.93460047245025635 0.73548120260238647
0.95485192537307739 0.96997308731079102 0.72608250379562378
0.26122543215751648 0.13059996068477631 0.82643377780914307
0.48436051607131958 0.11316060274839401 0.84024292230606079
0.77018684148788452 0.17216730117797852 0.87550652027130127
0.97695326805114746 0.30294936895370483 0.89050185680389404
1 0.36750924587249756 0.85482639074325562
0.16581375896930695 0.34681892395019531 0.8067924976348877
0.4380277693271637 0.3600468635559082 0.82549959421157837
0.73542433977127075 0.42723029851913452 0.86075913906097412
0.94676965475082397 0.50932818651199341 0.87929725646972656
1 0.51795482635498047 0.85574501752853394
0.0003275254275649786 0.5801626443862915 0.75777566432952881
0.26377856731414795 0.58046436309814453 0.76516544818878174
0.63307636976242065 0.62367314100265503 0.81198680400848389
0.89949023723602295 0.70105218887329102 0.86319905519485474
0.99997627735137939 0.690906822681427 0.84920030832290649
0.25834482908248901 0.82199209928512573 0.82000571489334106
0.41395947337150574 0.82357031106948853 0.82056552171707153
0.6233677864074707 0.81617158651351929 0.81640428304672241
0.83025020360946655 0.8233218789100647 0.82469391822814941
0.99503213167190552 0.82233744859695435 0.81464976072311401
0.54236584901809692 0.99430727958679199 0.85909736156463623
0.6062895655632019 0.99211829900741577 0.86053216457366943
0.72253561019897461 0.97957032918930054 0.8609960675239563
0.81127971410751343 0.95322889089584351 0.84053307771682739
0.95910966396331787 0.96887338161468506 0.83719444274902344
0.54311007261276245 0.40125957131385803 0.98893296718597412
0.62032413482666016 0.40656307339668274 0.98890280723571777
0.76792615652084351 0.43402206897735596 0.9921068549156189
0.93889027833938599 0.51344817876815796 0.9974970817565918
0.99990898370742798 0.56775432825088501 0.99651873111724854
0.52865713834762573 0.52387523651123047 0.98406165838241577
0.60602039098739624 0.53319501876831055 0.98479413986206055
0.75263804197311401 0.55841726064682007 0.98905056715011597
0.92643088102340698 0.61387449502944946 0.99502414464950562
1 0.64658385515213013 0.99751287698745728
0.46514120697975159 0.66855549812316895 0.96774065494537354
0.5465768575668335 0.6693916916847229 0.97115844488143921
0.71117889881134033 0.68512582778930664 0.97848218679428101
0.90544533729553223 0.738322913646698 0.99126261472702026
1 0.76964646577835083 0.9931069016456604
0.37120124697685242 0.81130409240722656 0.96135812997817993
0.44979289174079895 0.80753797292709351 0.96151900291442871
0.59560489654541016 0.79906117916107178 0.95675098896026611
0.83526754379272461 0.83179962635040283 0.97714895009994507
0.99953848123550415 0.89047777652740479 0.99199813604354858
0.49538430571556091 0.98690128326416016 0.98459553718566895
0.56328326463699341 0.98687887191772461 0.98535418510437012
0.68479961156845093 0.98571455478668213 0.98695826530456543
0.83314698934555054 0.98298197984695435 0.98752743005752563
0.98674219846725464 0.98790419101715088 0.98725777864456177
