films/kodak_portra_800.cube
# Created by: G'MIC (https://gmic.eu)
TITLE "kodak_portra_800"
# LUT size
LUT_3D_SIZE 7
# Data domain
DOMAIN_MIN 0.0 0.0 0.0
DOMAIN_MAX 1.0 1.0 1.0
# LUT data points
0.042835012078285217 0.049381360411643982 0.048555828630924225
0.15422257781028748 0.050222449004650116 0.041264627128839493
0.36519151926040649 0.02877412736415863 0.032323978841304779
0.63939106464385986 0 0.020074328407645226
0.86762815713882446 0 0.0065880869515240192
0.99315357208251953 0.048631586134433746 0
1 0.14943772554397583 0
0.0050247940234839916 0.14528277516365051 0.060618352144956589
0.11892066150903702 0.16606248915195465 0.041265718638896942
0.35696503520011902 0.18648618459701538 0.018567059189081192
0.6438215970993042 0.17957852780818939 0.00099690759088844061
0.87192541360855103 0.19448296725749969 1.8190870832768269e-05
0.99657183885574341 0.24400152266025543 0
1 0.30079212784767151 0
0 0.30267664790153503 0.071545965969562531
0.022990327328443527 0.30562296509742737 0.058596473187208176
0.30392301082611084 0.36374661326408386 0.011351058259606361
0.61639684438705444 0.41389188170433044 0.0005201451713219285
0.8392825722694397 0.43188309669494629 3.6561254091793671e-05
0.98569118976593018 0.44827982783317566 9.8987657111138105e-05
1 0.47094380855560303 0
0 0.4800267219543457 0.069094911217689514
0.00037261363468132913 0.47333055734634399 0.050247836858034134
0.17825987935066223 0.50019192695617676 0.010934029705822468
0.51599955558776855 0.57017874717712402 0
0.77983337640762329 0.61803793907165527 0
0.95544856786727905 0.63097906112670898 0
1 0.63393133878707886 0
0 0.65045309066772461 0.086157344281673431
0 0.64256554841995239 0.068644776940345764
0.088423334062099457 0.6458246111869812 0.035663019865751266
0.40885573625564575 0.68201857805252075 0.00038692998350597918
0.69026279449462891 0.74587357044219971 0
0.90813720226287842 0.78223103284835815 0
1 0.78220587968826294 0
0.00045402377145364881 0.81746524572372437 0.17329560220241547
0.005123138427734375 0.81410253047943115 0.17046459019184113
0.13601133227348328 0.80785107612609863 0.14744362235069275
0.39195525646209717 0.81835716962814331 0.086392678320407867
0.62335270643234253 0.85152250528335571 0.017292411997914314
0.82982838153839111 0.88217282295227051 5.9868307289434597e-05
0.98506945371627808 0.89315503835678101 0
0.27364915609359741 0.96638834476470947 0.43784621357917786
0.31928589940071106 0.96602845191955566 0.4412257969379425
0.3875063955783844 0.95889592170715332 0.42771902680397034
0.52269196510314941 0.96156048774719238 0.43881651759147644
0.65450155735015869 0.97026222944259644 0.40197309851646423
0.79830765724182129 0.97925639152526855 0.33027464151382446
0.94523894786834717 0.98276656866073608 0.14689292013645172
0.022600062191486359 0.049415543675422668 0.16957555711269379
0.16590367257595062 0.043000299483537674 0.17689266800880432
0.38094040751457214 0.011533056385815144 0.17422966659069061
0.65203571319580078 0 0.15400364995002747
0.87608122825622559 0 0.13696211576461792
0.99593156576156616 0.0072422400116920471 0.1061754897236824
1 0.12022212892770767 0.064111150801181793
0.011503690853714943 0.16337993741035461 0.16507181525230408
0.14275693893432617 0.17079325020313263 0.17079637944698334
0.37605097889900208 0.16942903399467468 0.16629894077777863
0.65288686752319336 0.13220183551311493 0.14964601397514343
0.86864060163497925 0.14921581745147705 0.11785809695720673
0.99604654312133789 0.21035642921924591 0.091971918940544128
1 0.27990776300430298 0.043937593698501587
0.0033065944444388151 0.33163034915924072 0.18342055380344391
0.079709969460964203 0.33176440000534058 0.18455849587917328
0.33096194267272949 0.36729821562767029 0.14892640709877014
0.62798255681991577 0.40735581517219543 0.10861499607563019
0.83804702758789062 0.418966144323349 0.08120853453874588
0.98235136270523071 0.43780657649040222 0.054209407418966293
1 0.45941367745399475 0.021146707236766815
0 0.5053902268409729 0.19634576141834259
0.0021144193597137928 0.49575051665306091 0.18642608821392059
0.18773269653320312 0.50501096248626709 0.15244230628013611
0.53013640642166138 0.57369792461395264 0.077122226357460022
0.78792500495910645 0.61966794729232788 0.022818397730588913
0.94873189926147461 0.62152576446533203 0.025119047611951828
1 0.6260141134262085 0.014498811215162277
0 0.66662883758544922 0.19158750772476196
0 0.65640145540237427 0.19284982979297638
0.088751785457134247 0.64879006147384644 0.17216558754444122
0.4078603982925415 0.68372589349746704 0.10932717472314835
0.69305694103240967 0.74420785903930664 0.02748088538646698
0.9100717306137085 0.7809063196182251 0.00018322514370083809
1 0.77817404270172119 0.021050861105322838
0.00053330964874476194 0.82314783334732056 0.25643125176429749
0.0073060579597949982 0.818065345287323 0.25728622078895569
0.147751584649086 0.8103519082069397 0.24059765040874481
0.39160260558128357 0.81943345069885254 0.20368589460849762
0.62077349424362183 0.84724646806716919 0.14067068696022034
0.82833045721054077 0.87916284799575806 0.042367208749055862
0.9921882152557373 0.89869832992553711 0.0012309354497119784
0.27757197618484497 0.9637906551361084 0.47291061282157898
0.30033195018768311 0.96530044078826904 0.47147265076637268
0.39357626438140869 0.96114009618759155 0.46616634726524353
0.52038025856018066 0.9600226879119873 0.46638065576553345
0.65312832593917847 0.96849191188812256 0.44476047158241272
0.80055302381515503 0.97987455129623413 0.39405494928359985
0.94736123085021973 0.98565733432769775 0.25119727849960327
0.0088273892179131508 0.048020679503679276 0.37409242987632751
0.1623297780752182 0.034688029438257217 0.38117539882659912
0.39864769577980042 0.0021618562750518322 0.38903021812438965
0.66291350126266479 0 0.39017120003700256
0.87798851728439331 0 0.37330734729766846
0.99763977527618408 0.00028462128830142319 0.33504834771156311
1 0.04768785834312439 0.33106371760368347
0.0011202194727957249 0.17070972919464111 0.36180910468101501
0.14095103740692139 0.17417562007904053 0.37301808595657349
0.40101221203804016 0.15357930958271027 0.3854251503944397
0.66164445877075195 0.07564215362071991 0.38258719444274902
0.87464910745620728 0.051651224493980408 0.36324155330657959
0.99635493755340576 0.11309700459241867 0.34798616170883179
1 0.24884641170501709 0.3437800407409668
0.0010226231534034014 0.35904529690742493 0.35829335451126099
0.13196565210819244 0.36826017498970032 0.36922481656074524
0.3789154589176178 0.37539196014404297 0.37099748849868774
0.64095973968505859 0.38505524396896362 0.36857849359512329
0.84329688549041748 0.40626603364944458 0.36541226506233215
0.98665881156921387 0.43791881203651428 0.3604242205619812
1 0.4680684506893158 0.34509199857711792
0.045175172388553619 0.54290074110031128 0.38044765591621399
0.16290766000747681 0.54731917381286621 0.3878304660320282
0.3273777961730957 0.54231554269790649 0.36227542161941528
0.55369788408279419 0.5743986964225769 0.33911359310150146
0.78817707300186157 0.60917210578918457 0.32562687993049622
0.95224469900131226 0.62047094106674194 0.34015354514122009
1 0.62753796577453613 0.32841044664382935
0.10785970091819763 0.69556379318237305 0.39563757181167603
0.14651331305503845 0.69371765851974487 0.38718801736831665
0.23948650062084198 0.68082505464553833 0.35857611894607544
0.44890937209129333 0.69130861759185791 0.33598211407661438
0.70186501741409302 0.74134677648544312 0.3100980818271637
0.9050716757774353 0.77406042814254761 0.29113152623176575
0.99913173913955688 0.77433454990386963 0.31577903032302856
0.04283427819609642 0.83422684669494629 0.4162745475769043
0.11209640651941299 0.83067458868026733 0.40983137488365173
0.25693187117576599 0.82464474439620972 0.40171372890472412
0.42819273471832275 0.82460254430770874 0.37706732749938965
0.62281894683837891 0.84652483463287354 0.35572370886802673
0.82877606153488159 0.87683629989624023 0.32055932283401489
0.99067211151123047 0.89921188354492188 0.24594607949256897
0.32555782794952393 0.96283906698226929 0.56743425130844116
0.35824832320213318 0.96448850631713867 0.56065362691879272
0.46286135911941528 0.96320921182632446 0.56541961431503296
0.54477596282958984 0.95943593978881836 0.54894906282424927
0.65624809265136719 0.96605777740478516 0.52737951278686523
0.80301427841186523 0.97847938537597656 0.50517410039901733
0.94635105133056641 0.98707592487335205 0.43323376774787903
0.011978568509221077 0.033775869756937027 0.60317200422286987
0.16476278007030487 0.019605120643973351 0.61510789394378662
0.44308167695999146 0.0042586983181536198 0.62839031219482422
0.69213265180587769 0 0.64039486646652222
0.86945611238479614 0 0.62235742807388306
0.9968375563621521 0 0.58889675140380859
1 0.0016487570246681571 0.54682475328445435
0.004050026647746563 0.17640118300914764 0.59783166646957397
0.15306349098682404 0.17316307127475739 0.60799801349639893
0.44122537970542908 0.14754848182201385 0.62301427125930786
0.68002772331237793 0.092600278556346893 0.63295561075210571
0.86336487531661987 0.045058906078338623 0.61798381805419922
0.99092280864715576 0.082282125949859619 0.58615517616271973
1 0.14805334806442261 0.5595586895942688
0 0.36700841784477234 0.57590234279632568
0.085373222827911377 0.3702099621295929 0.58506238460540771
0.39712148904800415 0.3781588077545166 0.60099869966506958
0.66100060939788818 0.38522261381149292 0.6160351037979126
0.84650236368179321 0.37261122465133667 0.60303062200546265
0.98499363660812378 0.40185090899467468 0.58780699968338013
1 0.45416393876075745 0.5762946605682373
0.017167229205369949 0.56718367338180542 0.56538856029510498
0.1764368861913681 0.57526999711990356 0.57462340593338013
0.40237534046173096 0.57841330766677856 0.579120934009552
0.59848010540008545 0.59090054035186768 0.58198720216751099
0.79182618856430054 0.60804259777069092 0.58549493551254272
0.94560164213180542 0.62197130918502808 0.58745932579040527
1 0.63898509740829468 0.57828325033187866
0.24495555460453033 0.72721898555755615 0.59178918600082397
0.35182973742485046 0.73020893335342407 0.59360802173614502
0.44333425164222717 0.72369933128356934 0.5833466649055481
0.53788536787033081 0.71369642019271851 0.55593562126159668
0.71838617324829102 0.74777287244796753 0.54856246709823608
0.9035906195640564 0.77307021617889404 0.56770813465118408
0.9975430965423584 0.7798493504524231 0.57782566547393799
0.36838677525520325 0.84818589687347412 0.62218374013900757
0.38519942760467529 0.84782302379608154 0.61458659172058105
0.43543484807014465 0.84448695182800293 0.59545773267745972
0.50275450944900513 0.83411651849746704 0.55815130472183228
0.63877958059310913 0.84303289651870728 0.53845381736755371
0.84457063674926758 0.88201898336410522 0.54654628038406372
0.99116706848144531 0.89917153120040894 0.54316359758377075
0.48564034700393677 0.96462470293045044 0.69894421100616455
0.48583146929740906 0.96519613265991211 0.683674156665802
0.51194530725479126 0.96352547407150269 0.66765713691711426
0.57055097818374634 0.95757675170898438 0.65156388282775879
0.67352092266082764 0.96429562568664551 0.64959323406219482
0.81063961982727051 0.97737115621566772 0.63621699810028076
0.95205754041671753 0.98736655712127686 0.60595512390136719
0.075827881693840027 0.0098825637251138687 0.79379218816757202
0.24899795651435852 0.0068212323822081089 0.79981642961502075
0.48065799474716187 0.0006046070484444499 0.80591315031051636
0.69453006982803345 0 0.81320416927337646
0.87043893337249756 2.8722427032334963e-06 0.81566286087036133
0.9928928017616272 0.0010350395459681749 0.80244654417037964
1 0.0030711304862052202 0.75909394025802612
0.076441489160060883 0.17431741952896118 0.78865844011306763
0.24500444531440735 0.16883654892444611 0.79630380868911743
0.48157355189323425 0.14536327123641968 0.80342847108840942
0.69214057922363281 0.13338272273540497 0.8132326602935791
0.86529237031936646 0.12782849371433258 0.81375271081924438
0.98102390766143799 0.11485376954078674 0.79372704029083252
1 0.17291335761547089 0.76300251483917236
0.014453648589551449 0.3635997474193573 0.76899182796478271
0.17069284617900848 0.37062844634056091 0.77466922998428345
0.44548511505126953 0.37586858868598938 0.78435194492340088
0.66491967439651489 0.40276896953582764 0.79716640710830688
0.84383338689804077 0.41640943288803101 0.80095309019088745
0.975055992603302 0.41020897030830383 0.78487718105316162
1 0.44848495721817017 0.76318156719207764
8.6167283370741643e-06 0.55995649099349976 0.7418515682220459
0.081208355724811554 0.56392204761505127 0.74336785078048706
0.36873778700828552 0.56732422113418579 0.75094646215438843
0.60274845361709595 0.59218090772628784 0.76262736320495605
0.79254782199859619 0.61580586433410645 0.77946013212203979
0.94384616613388062 0.62623393535614014 0.77962124347686768
1 0.64167648553848267 0.7667994499206543
0.19423757493495941 0.73898559808731079 0.74151426553726196
0.31074962019920349 0.73931223154067993 0.74337083101272583
0.4490126371383667 0.74051541090011597 0.74388712644577026
0.59684264659881592 0.74501639604568481 0.74848926067352295
0.74345141649246216 0.75882178544998169 0.75368225574493408
0.90026199817657471 0.77634733915328979 0.76374638080596924
0.99635565280914307 0.79243344068527222 0.77238696813583374
0.45869112014770508 0.86843055486679077 0.76627695560455322
0.47455424070358276 0.8670465350151062 0.763336181640625
0.55569559335708618 0.86676204204559326 0.76588177680969238
0.63526082038879395 0.86355805397033691 0.75719767808914185
0.70741391181945801 0.85769933462142944 0.73259425163269043
0.84135538339614868 0.87631702423095703 0.7319570779800415
0.98777210712432861 0.89593309164047241 0.75445371866226196
0.5879630446434021 0.96881711483001709 0.81360739469528198
0.60606145858764648 0.96892809867858887 0.81258583068847656
0.63808584213256836 0.96700316667556763 0.80819660425186157
0.67205268144607544 0.96473276615142822 0.79688674211502075
0.71384650468826294 0.965984046459198 0.77366435527801514
0.81193476915359497 0.97082769870758057 0.76045656204223633
0.94972431659698486 0.98528975248336792 0.75985842943191528
0.24138469994068146 0.030859928578138351 0.91927695274353027
0.37164539098739624 0.011245757341384888 0.92759805917739868
0.53403985500335693 0.014661616645753384 0.92640531063079834
0.70120799541473389 0.0040605580434203148 0.92948383092880249
0.86380845308303833 0.030769392848014832 0.9372287392616272
0.98514425754547119 0.090377986431121826 0.93993186950683594
1 0.062192235141992569 0.92092335224151611
0.26709169149398804 0.18840035796165466 0.92528361082077026
0.38010513782501221 0.18399715423583984 0.92730343341827393
0.53303372859954834 0.18136875331401825 0.92719310522079468
0.69637137651443481 0.17899708449840546 0.92949831485748291
0.85584795475006104 0.22378364205360413 0.93432015180587769
0.9749869704246521 0.26072093844413757 0.93216961622238159
0.99995869398117065 0.25355178117752075 0.91384029388427734
0.21930442750453949 0.38468998670578003 0.91366004943847656
0.33393463492393494 0.38462305068969727 0.91435122489929199
0.50347083806991577 0.39330309629440308 0.91526156663894653
0.6740802526473999 0.41572055220603943 0.91943389177322388
0.83327686786651611 0.45907643437385559 0.92693805694580078
0.95868295431137085 0.48282644152641296 0.9270433783531189
0.99974125623703003 0.48184394836425781 0.91418349742889404
0.052705038338899612 0.55841207504272461 0.8909263014793396
0.20681807398796082 0.56167572736740112 0.89287060499191284
0.42887559533119202 0.57122695446014404 0.89499908685684204
0.6316036581993103 0.59655046463012695 0.90137547254562378
0.79967749118804932 0.63559484481811523 0.91271394491195679
0.93723946809768677 0.65558409690856934 0.91628241539001465
1 0.65804934501647949 0.90504664182662964
0.13430579006671906 0.73162198066711426 0.87481027841567993
0.24913610517978668 0.72940444946289062 0.87497240304946899
0.41455942392349243 0.73130291700363159 0.87675958871841431
0.58870971202850342 0.74309474229812622 0.88099479675292969
0.74790447950363159 0.76176285743713379 0.88884651660919189
0.90020883083343506 0.78849506378173828 0.90117305517196655
0.99755603075027466 0.79758560657501221 0.9038882851600647
0.42295506596565247 0.87503892183303833 0.87652301788330078
0.46653842926025391 0.87280046939849854 0.87694269418716431
0.54232990741729736 0.8727496862411499 0.87749963998794556
0.64914417266845703 0.876850426197052 0.88149476051330566
0.75664865970611572 0.87833714485168457 0.88370990753173828
0.87615185976028442 0.89109092950820923 0.88989722728729248
0.98581403493881226 0.90500414371490479 0.89919430017471313
0.65044772624969482 0.97486340999603271 0.90356522798538208
0.66326296329498291 0.973896324634552 0.90297269821166992
0.70038628578186035 0.97342520952224731 0.90449529886245728
0.74713766574859619 0.97483879327774048 0.90693092346191406
0.80211061239242554 0.97323811054229736 0.89939868450164795
0.85190498828887939 0.97122478485107422 0.88066136837005615
0.95348626375198364 0.98098325729370117 0.88556057214736938
0.40865838527679443 0.12509036064147949 0.99351876974105835
0.49563983082771301 0.099670454859733582 0.9984850287437439
0.60038483142852783 0.13170601427555084 0.9972083568572998
0.72431498765945435 0.12000235915184021 0.99898117780685425
0.85561013221740723 0.17379079759120941 0.99926471710205078
0.97132515907287598 0.29631194472312927 0.99867695569992065
1 0.32918763160705566 0.99645787477493286
0.44050443172454834 0.25985994935035706 0.99888426065444946
0.50842642784118652 0.26034244894981384 0.99921965599060059
0.60427761077880859 0.26698201894760132 0.99926471710205078
0.72252517938613892 0.27967637777328491 0.99921661615371704
0.84426015615463257 0.32624489068984985 0.99732291698455811
0.96385371685028076 0.40932074189186096 0.99709445238113403
1 0.42670384049415588 0.99627971649169922
0.4351654052734375 0.43410980701446533 0.99760341644287109
0.4969933032989502 0.4382723867893219 0.9980170726776123
0.59207439422607422 0.44811120629310608 0.99800807237625122
0.71216458082199097 0.46830946207046509 0.99766755104064941
0.83412808179855347 0.50779306888580322 0.99701261520385742
0.94851505756378174 0.55824422836303711 0.99749159812927246
1 0.56474190950393677 0.99695402383804321
0.37684613466262817 0.59562784433364868 0.99346208572387695
0.45340555906295776 0.60304170846939087 0.99317800998687744
0.55951839685440063 0.6149865984916687 0.99356740713119507
0.68499690294265747 0.63049358129501343 0.99370908737182617
0.81132984161376953 0.65547508001327515 0.99466985464096069
0.92914396524429321 0.68996328115463257 0.99512416124343872
1 0.70271837711334229 0.99235981702804565
0.30714285373687744 0.73515504598617554 0.98678702116012573
0.37907826900482178 0.73640638589859009 0.98638111352920532
0.49051791429519653 0.74205291271209717 0.98591136932373047
0.62802702188491821 0.75337296724319458 0.98789197206497192
0.78271818161010742 0.77580034732818604 0.989307701587677
0.90726351737976074 0.80446499586105347 0.9907727837562561
0.99725252389907837 0.81983798742294312 0.9889640212059021
0.46302971243858337 0.87505137920379639 0.9769359827041626
0.49881979823112488 0.87541955709457397 0.98129904270172119
0.55600935220718384 0.87026488780975342 0.97685497999191284
0.64193904399871826 0.87189531326293945 0.97677129507064819
0.76416015625 0.8816341757774353 0.97885525226593018
0.88406920433044434 0.89463073015213013 0.9835619330406189
0.98711645603179932 0.91444927453994751 0.98763519525527954
0.64642846584320068 0.97851085662841797 0.9795454740524292
0.65266096591949463 0.97626292705535889 0.97822332382202148
0.69690245389938354 0.97572231292724609 0.98280042409896851
0.75221508741378784 0.97860747575759888 0.98352360725402832
0.82620972394943237 0.9809032678604126 0.98502302169799805
0.90275460481643677 0.98128741979598999 0.98549681901931763
0.98196613788604736 0.9864996075630188 0.98585987091064453
