films/kodak_t-max_3200.cube
# Created by: G'MIC (https://gmic.eu)
TITLE "kodak_t-max_3200"
# LUT size
LUT_3D_SIZE 13
# Data domain
DOMAIN_MIN 0.0 0.0 0.0
DOMAIN_MAX 1.0 1.0 1.0
# LUT data points
0.031207410618662834 0.031207410618662834 0.031207410618662834
0.021440139040350914 0.021440139040350914 0.021440139040350914
0.016694551333785057 0.016694551333785057 0.016694551333785057
0.018995905295014381 0.018995905295014381 0.018995905295014381
0.025698957964777946 0.025698957964777946 0.025698957964777946
0.034202218055725098 0.034202218055725098 0.034202218055725098
0.044591553509235382 0.044591553509235382 0.044591553509235382
0.057023532688617706 0.057023532688617706 0.057023532688617706
0.07117520272731781 0.07117520272731781 0.07117520272731781
0.092019923031330109 0.092019923031330109 0.092019923031330109
0.12608908116817474 0.12608908116817474 0.12608908116817474
0.16937711834907532 0.16937711834907532 0.16937711834907532
0.2220490574836731 0.2220490574836731 0.2220490574836731
0.074236147105693817 0.074236147105693817 0.074236147105693817
0.065638445317745209 0.065638445317745209 0.065638445317745209
0.062821075320243835 0.062821075320243835 0.062821075320243835
0.06419653445482254 0.06419653445482254 0.06419653445482254
0.069918662309646606 0.069918662309646606 0.069918662309646606
0.078581973910331726 0.078581973910331726 0.078581973910331726
0.089769802987575531 0.089769802987575531 0.089769802987575531
0.1034594401717186 0.1034594401717186 0.1034594401717186
0.1208723783493042 0.1208723783493042 0.1208723783493042
0.14575481414794922 0.14575481414794922 0.14575481414794922
0.18169088661670685 0.18169088661670685 0.18169088661670685
0.22675502300262451 0.22675502300262451 0.22675502300262451
0.27681872248649597 0.27681872248649597 0.27681872248649597
0.12599414587020874 0.12599414587020874 0.12599414587020874
0.11758886277675629 0.11758886277675629 0.11758886277675629
0.1141977533698082 0.1141977533698082 0.1141977533698082
0.11558176577091217 0.11558176577091217 0.11558176577091217
0.12159439921379089 0.12159439921379089 0.12159439921379089
0.13133139908313751 0.13133139908313751 0.13133139908313751
0.14362648129463196 0.14362648129463196 0.14362648129463196
0.15873610973358154 0.15873610973358154 0.15873610973358154
0.17833578586578369 0.17833578586578369 0.17833578586578369
0.20602951943874359 0.20602951943874359 0.20602951943874359
0.24380429089069366 0.24380429089069366 0.24380429089069366
0.2885148823261261 0.2885148823261261 0.2885148823261261
0.33569043874740601 0.33569043874740601 0.33569043874740601
0.18733382225036621 0.18733382225036621 0.18733382225036621
0.17879165709018707 0.17879165709018707 0.17879165709018707
0.17442765831947327 0.17442765831947327 0.17442765831947327
0.17537593841552734 0.17537593841552734 0.17537593841552734
0.18196690082550049 0.18196690082550049 0.18196690082550049
0.19325979053974152 0.19325979053974152 0.19325979053974152
0.20660494267940521 0.20660494267940521 0.20660494267940521
0.22269633412361145 0.22269633412361145 0.22269633412361145
0.24309897422790527 0.24309897422790527 0.24309897422790527
0.27126488089561462 0.27126488089561462 0.27126488089561462
0.30948296189308167 0.30948296189308167 0.30948296189308167
0.35198208689689636 0.35198208689689636 0.35198208689689636
0.39480561017990112 0.39480561017990112 0.39480561017990112
0.25831085443496704 0.25831085443496704 0.25831085443496704
0.2510223388671875 0.2510223388671875 0.2510223388671875
0.24649646878242493 0.24649646878242493 0.24649646878242493
0.24639485776424408 0.24639485776424408 0.24639485776424408
0.25359663367271423 0.25359663367271423 0.25359663367271423
0.26597985625267029 0.26597985625267029 0.26597985625267029
0.27933236956596375 0.27933236956596375 0.27933236956596375
0.29578390717506409 0.29578390717506409 0.29578390717506409
0.31723508238792419 0.31723508238792419 0.31723508238792419
0.34531077742576599 0.34531077742576599 0.34531077742576599
0.38023290038108826 0.38023290038108826 0.38023290038108826
0.41764867305755615 0.41764867305755615 0.41764867305755615
0.45475870370864868 0.45475870370864868 0.45475870370864868
0.33747091889381409 0.33747091889381409 0.33747091889381409
0.33319857716560364 0.33319857716560364 0.33319857716560364
0.33123856782913208 0.33123856782913208 0.33123856782913208
0.33229020237922668 0.33229020237922668 0.33229020237922668
0.33937335014343262 0.33937335014343262 0.33937335014343262
0.35065034031867981 0.35065034031867981 0.35065034031867981
0.36258339881896973 0.36258339881896973 0.36258339881896973
0.37776541709899902 0.37776541709899902 0.37776541709899902
0.39931851625442505 0.39931851625442505 0.39931851625442505
0.42503109574317932 0.42503109574317932 0.42503109574317932
0.45433744788169861 0.45433744788169861 0.45433744788169861
0.48531386256217957 0.48531386256217957 0.48531386256217957
0.51622432470321655 0.51622432470321655 0.51622432470321655
0.42413690686225891 0.42413690686225891 0.42413690686225891
0.42352336645126343 0.42352336645126343 0.42352336645126343
0.42470216751098633 0.42470216751098633 0.42470216751098633
0.4285423755645752 0.4285423755645752 0.4285423755645752
0.43558284640312195 0.43558284640312195 0.43558284640312195
0.44366413354873657 0.44366413354873657 0.44366413354873657
0.453084796667099 0.453084796667099 0.453084796667099
0.46623080968856812 0.46623080968856812 0.46623080968856812
0.48436447978019714 0.48436447978019714 0.48436447978019714
0.50568509101867676 0.50568509101867676 0.50568509101867676
0.5286257266998291 0.5286257266998291 0.5286257266998291
0.55318349599838257 0.55318349599838257 0.55318349599838257
0.57780730724334717 0.57780730724334717 0.57780730724334717
0.51879960298538208 0.51879960298538208 0.51879960298538208
0.51854342222213745 0.51854342222213745 0.51854342222213745
0.51985806226730347 0.51985806226730347 0.51985806226730347
0.52417778968811035 0.52417778968811035 0.52417778968811035
0.53017145395278931 0.53017145395278931 0.53017145395278931
0.53554695844650269 0.53554695844650269 0.53554695844650269
0.54189151525497437 0.54189151525497437 0.54189151525497437
0.55239641666412354 0.55239641666412354 0.55239641666412354
0.5668025016784668 0.5668025016784668 0.5668025016784668
0.58343368768692017 0.58343368768692017 0.58343368768692017
0.60053074359893799 0.60053074359893799 0.60053074359893799
0.61888331174850464 0.61888331174850464 0.61888331174850464
0.63784623146057129 0.63784623146057129 0.63784623146057129
0.61300152540206909 0.61300152540206909 0.61300152540206909
0.61070519685745239 0.61070519685745239 0.61070519685745239
0.6096961498260498 0.6096961498260498 0.6096961498260498
0.61161434650421143 0.61161434650421143 0.61161434650421143
0.61519426107406616 0.61519426107406616 0.61519426107406616
0.6186530590057373 0.6186530590057373 0.6186530590057373
0.62358927726745605 0.62358927726745605 0.62358927726745605
0.63176006078720093 0.63176006078720093 0.63176006078720093
0.6427655816078186 0.6427655816078186 0.6427655816078186
0.65494507551193237 0.65494507551193237 0.65494507551193237
0.66739284992218018 0.66739284992218018 0.66739284992218018
0.68101018667221069 0.68101018667221069 0.68101018667221069
0.69569528102874756 0.69569528102874756 0.69569528102874756
0.69478023052215576 0.69478023052215576 0.69478023052215576
0.69300347566604614 0.69300347566604614 0.69300347566604614
0.69117027521133423 0.69117027521133423 0.69117027521133423
0.69078606367111206 0.69078606367111206 0.69078606367111206
0.69158655405044556 0.69158655405044556 0.69158655405044556
0.69362747669219971 0.69362747669219971 0.69362747669219971
0.69762915372848511 0.69762915372848511 0.69762915372848511
0.70348697900772095 0.70348697900772095 0.70348697900772095
0.71117156744003296 0.71117156744003296 0.71117156744003296
0.7198936939239502 0.7198936939239502 0.7198936939239502
0.72921651601791382 0.72921651601791382 0.72921651601791382
0.73958718776702881 0.73958718776702881 0.73958718776702881
0.75099384784698486 0.75099384784698486 0.75099384784698486
0.76179403066635132 0.76179403066635132 0.76179403066635132
0.76406985521316528 0.76406985521316528 0.76406985521316528
0.76432418823242188 0.76432418823242188 0.76432418823242188
0.76341581344604492 0.76341581344604492 0.76341581344604492
0.76298040151596069 0.76298040151596069 0.76298040151596069
0.763435959815979 0.763435959815979 0.763435959815979
0.76540958881378174 0.76540958881378174 0.76540958881378174
0.76885032653808594 0.76885032653808594 0.76885032653808594
0.77380090951919556 0.77380090951919556 0.77380090951919556
0.78004127740859985 0.78004127740859985 0.78004127740859985
0.78707504272460938 0.78707504272460938 0.78707504272460938
0.79518246650695801 0.79518246650695801 0.79518246650695801
0.80428028106689453 0.80428028106689453 0.80428028106689453
0.821369469165802 0.821369469165802 0.821369469165802
0.82718700170516968 0.82718700170516968 0.82718700170516968
0.83030068874359131 0.83030068874359131 0.83030068874359131
0.83038175106048584 0.83038175106048584 0.83038175106048584
0.82904011011123657 0.82904011011123657 0.82904011011123657
0.8278961181640625 0.8278961181640625 0.8278961181640625
0.82764029502868652 0.82764029502868652 0.82764029502868652
0.82927250862121582 0.82927250862121582 0.82927250862121582
0.83201634883880615 0.83201634883880615 0.83201634883880615
0.83608400821685791 0.83608400821685791 0.83608400821685791
0.84155499935150146 0.84155499935150146 0.84155499935150146
0.84814172983169556 0.84814172983169556 0.84814172983169556
0.85509961843490601 0.85509961843490601 0.85509961843490601
0.87486052513122559 0.87486052513122559 0.87486052513122559
0.88350379467010498 0.88350379467010498 0.88350379467010498
0.88950401544570923 0.88950401544570923 0.88950401544570923
0.89020359516143799 0.89020359516143799 0.89020359516143799
0.88835793733596802 0.88835793733596802 0.88835793733596802
0.8861280083656311 0.8861280083656311 0.8861280083656311
0.88459360599517822 0.88459360599517822 0.88459360599517822
0.88442301750183105 0.88442301750183105 0.88442301750183105
0.88568192720413208 0.88568192720413208 0.88568192720413208
0.88836485147476196 0.88836485147476196 0.88836485147476196
0.89249718189239502 0.89249718189239502 0.89249718189239502
0.89751404523849487 0.89751404523849487 0.89751404523849487
0.90325778722763062 0.90325778722763062 0.90325778722763062
0.026861870661377907 0.026861870661377907 0.026861870661377907
0.019516199827194214 0.019516199827194214 0.019516199827194214
0.018082622438669205 0.018082622438669205 0.018082622438669205
0.022357640787959099 0.022357640787959099 0.022357640787959099
0.030450111255049706 0.030450111255049706 0.030450111255049706
0.040437601506710052 0.040437601506710052 0.040437601506710052
0.051698558032512665 0.051698558032512665 0.051698558032512665
0.066751070320606232 0.066751070320606232 0.066751070320606232
0.084902822971343994 0.084902822971343994 0.084902822971343994
0.10717841982841492 0.10717841982841492 0.10717841982841492
0.13974748551845551 0.13974748551845551 0.13974748551845551
0.18378913402557373 0.18378913402557373 0.18378913402557373
0.23950785398483276 0.23950785398483276 0.23950785398483276
0.069479875266551971 0.069479875266551971 0.069479875266551971
0.062797367572784424 0.062797367572784424 0.062797367572784424
0.062437679618597031 0.062437679618597031 0.062437679618597031
0.066501110792160034 0.066501110792160034 0.066501110792160034
0.074312649667263031 0.074312649667263031 0.074312649667263031
0.085103370249271393 0.085103370249271393 0.085103370249271393
0.09795825183391571 0.09795825183391571 0.09795825183391571
0.11387454718351364 0.11387454718351364 0.11387454718351364
0.1339612752199173 0.1339612752199173 0.1339612752199173
0.1603463888168335 0.1603463888168335 0.1603463888168335
0.19674831628799438 0.19674831628799438 0.19674831628799438
0.24320727586746216 0.24320727586746216 0.24320727586746216
0.29533955454826355 0.29533955454826355 0.29533955454826355
0.12158909440040588 0.12158909440040588 0.12158909440040588
0.11488431692123413 0.11488431692123413 0.11488431692123413
0.11345066875219345 0.11345066875219345 0.11345066875219345
0.1175885945558548 0.1175885945558548 0.1175885945558548
0.12615390121936798 0.12615390121936798 0.12615390121936798
0.13828936219215393 0.13828936219215393 0.13828936219215393
0.1528032124042511 0.1528032124042511 0.1528032124042511
0.17030610144138336 0.17030610144138336 0.17030610144138336
0.19233426451683044 0.19233426451683044 0.19233426451683044
0.22164899110794067 0.22164899110794067 0.22164899110794067
0.25984054803848267 0.25984054803848267 0.25984054803848267
0.30496412515640259 0.30496412515640259 0.30496412515640259
0.35271912813186646 0.35271912813186646 0.35271912813186646
0.18489576876163483 0.18489576876163483 0.18489576876163483
0.17774097621440887 0.17774097621440887 0.17774097621440887
0.1745314747095108 0.1745314747095108 0.1745314747095108
0.17737771570682526 0.17737771570682526 0.17737771570682526
0.18705485761165619 0.18705485761165619 0.18705485761165619
0.20156519114971161 0.20156519114971161 0.20156519114971161
0.21755006909370422 0.21755006909370422 0.21755006909370422
0.23615756630897522 0.23615756630897522 0.23615756630897522
0.25932702422142029 0.25932702422142029 0.25932702422142029
0.28918123245239258 0.28918123245239258 0.28918123245239258
0.32659444212913513 0.32659444212913513 0.32659444212913513
0.36862644553184509 0.36862644553184509 0.36862644553184509
0.41157731413841248 0.41157731413841248 0.41157731413841248
0.25972077250480652 0.25972077250480652 0.25972077250480652
0.25295877456665039 0.25295877456665039 0.25295877456665039
0.24916791915893555 0.24916791915893555 0.24916791915893555
0.24892941117286682 0.24892941117286682 0.24892941117286682
0.25891539454460144 0.25891539454460144 0.25891539454460144
0.27593380212783813 0.27593380212783813 0.27593380212783813
0.29270514845848083 0.29270514845848083 0.29270514845848083
0.31140074133872986 0.31140074133872986 0.31140074133872986
0.3346564769744873 0.3346564769744873 0.3346564769744873
0.36340075731277466 0.36340075731277466 0.36340075731277466
0.39787226915359497 0.39787226915359497 0.39787226915359497
0.43463876843452454 0.43463876843452454 0.43463876843452454
0.4713345468044281 0.4713345468044281 0.4713345468044281
0.34368512034416199 0.34368512034416199 0.34368512034416199
0.33921939134597778 0.33921939134597778 0.33921939134597778
0.33736437559127808 0.33736437559127808 0.33736437559127808
0.33826801180839539 0.33826801180839539 0.33826801180839539
0.34821787476539612 0.34821787476539612 0.34821787476539612
0.36322128772735596 0.36322128772735596 0.36322128772735596
0.37813678383827209 0.37813678383827209 0.37813678383827209
0.39507696032524109 0.39507696032524109 0.39507696032524109
0.41700229048728943 0.41700229048728943 0.41700229048728943
0.44268009066581726 0.44268009066581726 0.44268009066581726
0.47198891639709473 0.47198891639709473 0.47198891639709473
0.5028071403503418 0.5028071403503418 0.5028071403503418
0.53301286697387695 0.53301286697387695 0.53301286697387695
0.43424522876739502 0.43424522876739502 0.43424522876739502
0.43303447961807251 0.43303447961807251 0.43303447961807251
0.43467137217521667 0.43467137217521667 0.43467137217521667
0.44033709168434143 0.44033709168434143 0.44033709168434143
0.45034638047218323 0.45034638047218323 0.45034638047218323
0.45986548066139221 0.45986548066139221 0.45986548066139221
0.46986308693885803 0.46986308693885803 0.46986308693885803
0.48387330770492554 0.48387330770492554 0.48387330770492554
0.50234615802764893 0.50234615802764893 0.50234615802764893
0.52359592914581299 0.52359592914581299 0.52359592914581299
0.5464404821395874 0.5464404821395874 0.5464404821395874
0.57047683000564575 0.57047683000564575 0.57047683000564575
0.59418308734893799 0.59418308734893799 0.59418308734893799
0.52846258878707886 0.52846258878707886 0.52846258878707886
0.52889293432235718 0.52889293432235718 0.52889293432235718
0.53185325860977173 0.53185325860977173 0.53185325860977173
0.53934270143508911 0.53934270143508911 0.53934270143508911
0.54957181215286255 0.54957181215286255 0.54957181215286255
0.55391329526901245 0.55391329526901245 0.55391329526901245
0.55923449993133545 0.55923449993133545 0.55923449993133545
0.56989741325378418 0.56989741325378418 0.56989741325378418
0.58532935380935669 0.58532935380935669 0.58532935380935669
0.60186922550201416 0.60186922550201416 0.60186922550201416
0.61736106872558594 0.61736106872558594 0.61736106872558594
0.63475757837295532 0.63475757837295532 0.63475757837295532
0.6532214879989624 0.6532214879989624 0.6532214879989624
0.61950898170471191 0.61950898170471191 0.61950898170471191
0.62019938230514526 0.62019938230514526 0.62019938230514526
0.62156599760055542 0.62156599760055542 0.62156599760055542
0.62557464838027954 0.62557464838027954 0.62557464838027954
0.63092970848083496 0.63092970848083496 0.63092970848083496
0.63497716188430786 0.63497716188430786 0.63497716188430786
0.63974243402481079 0.63974243402481079 0.63974243402481079
0.64811158180236816 0.64811158180236816 0.64811158180236816
0.66016638278961182 0.66016638278961182 0.66016638278961182
0.67192035913467407 0.67192035913467407 0.67192035913467407
0.68261563777923584 0.68261563777923584 0.68261563777923584
0.69518768787384033 0.69518768787384033 0.69518768787384033
0.70927637815475464 0.70927637815475464 0.70927637815475464
0.70052313804626465 0.70052313804626465 0.70052313804626465
0.7020077109336853 0.7020077109336853 0.7020077109336853
0.70231568813323975 0.70231568813323975 0.70231568813323975
0.70258712768554688 0.70258712768554688 0.70258712768554688
0.70357173681259155 0.70357173681259155 0.70357173681259155
0.70702213048934937 0.70702213048934937 0.70702213048934937
0.71180534362792969 0.71180534362792969 0.71180534362792969
0.71809428930282593 0.71809428930282593 0.71809428930282593
0.72581619024276733 0.72581619024276733 0.72581619024276733
0.73408704996109009 0.73408704996109009 0.73408704996109009
0.74246412515640259 0.74246412515640259 0.74246412515640259
0.75202292203903198 0.75202292203903198 0.75202292203903198
0.76318728923797607 0.76318728923797607 0.76318728923797607
0.77017951011657715 0.77017951011657715 0.77017951011657715
0.77376842498779297 0.77376842498779297 0.77376842498779297
0.77516311407089233 0.77516311407089233 0.77516311407089233
0.7750583291053772 0.7750583291053772 0.7750583291053772
0.77458232641220093 0.77458232641220093 0.77458232641220093
0.77574306726455688 0.77574306726455688 0.77574306726455688
0.77812808752059937 0.77812808752059937 0.77812808752059937
0.78191214799880981 0.78191214799880981 0.78191214799880981
0.78670316934585571 0.78670316934585571 0.78670316934585571
0.79245620965957642 0.79245620965957642 0.79245620965957642
0.79896086454391479 0.79896086454391479 0.79896086454391479
0.8067285418510437 0.8067285418510437 0.8067285418510437
0.8156583309173584 0.8156583309173584 0.8156583309173584
0.83116549253463745 0.83116549253463745 0.83116549253463745
0.83763504028320312 0.83763504028320312 0.83763504028320312
0.84152227640151978 0.84152227640151978 0.84152227640151978
0.84209567308425903 0.84209567308425903 0.84209567308425903
0.84072661399841309 0.84072661399841309 0.84072661399841309
0.83997887372970581 0.83997887372970581 0.83997887372970581
0.83999156951904297 0.83999156951904297 0.83999156951904297
0.84123998880386353 0.84123998880386353 0.84123998880386353
0.8438684344291687 0.8438684344291687 0.8438684344291687
0.84775561094284058 0.84775561094284058 0.84775561094284058
0.85288774967193604 0.85288774967193604 0.85288774967193604
0.85935509204864502 0.85935509204864502 0.85935509204864502
0.86668205261230469 0.86668205261230469 0.86668205261230469
0.88515108823776245 0.88515108823776245 0.88515108823776245
0.89431267976760864 0.89431267976760864 0.89431267976760864
0.90083146095275879 0.90083146095275879 0.90083146095275879
0.90208655595779419 0.90208655595779419 0.90208655595779419
0.90048032999038696 0.90048032999038696 0.90048032999038696
0.8982079029083252 0.8982079029083252 0.8982079029083252
0.89638781547546387 0.89638781547546387 0.89638781547546387
0.89605307579040527 0.89605307579040527 0.89605307579040527
0.89715313911437988 0.89715313911437988 0.89715313911437988
0.89978134632110596 0.89978134632110596 0.89978134632110596
0.90376633405685425 0.90376633405685425 0.90376633405685425
0.90918242931365967 0.90918242931365967 0.90918242931365967
0.91528594493865967 0.91528594493865967 0.91528594493865967
0.027279363945126534 0.027279363945126534 0.027279363945126534
0.021880295127630234 0.021880295127630234 0.021880295127630234
0.023606438189744949 0.023606438189744949 0.023606438189744949
0.030040740966796875 0.030040740966796875 0.030040740966796875
0.040024206042289734 0.040024206042289734 0.040024206042289734
0.051296114921569824 0.051296114921569824 0.051296114921569824
0.063458792865276337 0.063458792865276337 0.063458792865276337
0.079717762768268585 0.079717762768268585 0.079717762768268585
0.09964357316493988 0.09964357316493988 0.09964357316493988
0.12545202672481537 0.12545202672481537 0.12545202672481537
0.16070596873760223 0.16070596873760223 0.16070596873760223
0.20773573219776154 0.20773573219776154 0.20773573219776154
0.26287287473678589 0.26287287473678589 0.26287287473678589
0.069647662341594696 0.069647662341594696 0.069647662341594696
0.065284952521324158 0.065284952521324158 0.065284952521324158
0.067526645958423615 0.067526645958423615 0.067526645958423615
0.074211075901985168 0.074211075901985168 0.074211075901985168
0.084301680326461792 0.084301680326461792 0.084301680326461792
0.096714526414871216 0.096714526414871216 0.096714526414871216
0.11112358421087265 0.11112358421087265 0.11112358421087265
0.12897701561450958 0.12897701561450958 0.12897701561450958
0.15080763399600983 0.15080763399600983 0.15080763399600983
0.17931358516216278 0.17931358516216278 0.17931358516216278
0.21718624234199524 0.21718624234199524 0.21718624234199524
0.26490765810012817 0.26490765810012817 0.26490765810012817
0.31807252764701843 0.31807252764701843 0.31807252764701843
0.12165575474500656 0.12165575474500656 0.12165575474500656
0.11788716167211533 0.11788716167211533 0.11788716167211533
0.12003737688064575 0.12003737688064575 0.12003737688064575
0.12663951516151428 0.12663951516151428 0.12663951516151428
0.13728331029415131 0.13728331029415131 0.13728331029415131
0.15111006796360016 0.15111006796360016 0.15111006796360016
0.16759981215000153 0.16759981215000153 0.16759981215000153
0.18709169328212738 0.18709169328212738 0.18709169328212738
0.21079334616661072 0.21079334616661072 0.21079334616661072
0.24156917631626129 0.24156917631626129 0.24156917631626129
0.28018733859062195 0.28018733859062195 0.28018733859062195
0.32539469003677368 0.32539469003677368 0.32539469003677368
0.37273293733596802 0.37273293733596802 0.37273293733596802
0.1877230703830719 0.1877230703830719 0.1877230703830719
0.18339478969573975 0.18339478969573975 0.18339478969573975
0.18390987813472748 0.18390987813472748 0.18390987813472748
0.18931566178798676 0.18931566178798676 0.18931566178798676
0.20059895515441895 0.20059895515441895 0.20059895515441895
0.21607896685600281 0.21607896685600281 0.21607896685600281
0.23397326469421387 0.23397326469421387 0.23397326469421387
0.25451570749282837 0.25451570749282837 0.25451570749282837
0.27940425276756287 0.27940425276756287 0.27940425276756287
0.31007635593414307 0.31007635593414307 0.31007635593414307
0.34716013073921204 0.34716013073921204 0.34716013073921204
0.3885636031627655 0.3885636031627655 0.3885636031627655
0.43082281947135925 0.43082281947135925 0.43082281947135925
0.26732310652732849 0.26732310652732849 0.26732310652732849
0.26235866546630859 0.26235866546630859 0.26235866546630859
0.26140666007995605 0.26140666007995605 0.26140666007995605
0.2648160457611084 0.2648160457611084 0.2648160457611084
0.27612936496734619 0.27612936496734619 0.27612936496734619
0.29262211918830872 0.29262211918830872 0.29262211918830872
0.31087127327919006 0.31087127327919006 0.31087127327919006
