films/kodak_ektachrome_100_vs.cube
# Created by: G'MIC (https://gmic.eu)
TITLE "kodak_ektachrome_100_vs"
# LUT size
LUT_3D_SIZE 5
# Data domain
DOMAIN_MIN 0.0 0.0 0.0
DOMAIN_MAX 1.0 1.0 1.0
# LUT data points
0.021143386140465736 0.013376078568398952 0.010724624618887901
0.16936767101287842 0.0060206842608749866 0.0039779362268745899
0.45871022343635559 0.009375852532684803 0.00015761431131977588
0.77006185054779053 0.0015963835176080465 0
0.99994164705276489 0 0.0015622008359059691
0.093534745275974274 0.21515679359436035 0.098308160901069641
0.26061701774597168 0.2084866464138031 0.071510344743728638
0.52740985155105591 0.18135765194892883 0.041247230023145676
0.80828166007995605 0.11999918520450592 0.019567571580410004
1 0.066455438733100891 0.027963915839791298
0.25104999542236328 0.50020664930343628 0.19120626151561737
0.38656190037727356 0.49608516693115234 0.1668221652507782
0.60029298067092896 0.48896005749702454 0.1471792608499527
0.84874075651168823 0.4585595428943634 0.13382166624069214
1 0.39699137210845947 0.16467297077178955
0.48535612225532532 0.77190631628036499 0.28491020202636719
0.56275105476379395 0.77229291200637817 0.27176293730735779
0.72168439626693726 0.76917922496795654 0.22796675562858582
0.93395048379898071 0.75888818502426147 0.17420139908790588
0.99934446811676025 0.72666639089584351 0.20889429748058319
0.75789159536361694 0.9950408935546875 0.35640785098075867
0.82446169853210449 0.99439948797225952 0.35788094997406006
0.90311259031295776 0.9944724440574646 0.33282732963562012
0.99662429094314575 0.99572771787643433 0.3015713095664978
1 0.98192936182022095 0.21979433298110962
0 0.0047546089626848698 0.13726074993610382
0.12189105153083801 0.0040999171324074268 0.1259792298078537
0.41833892464637756 0.005249696783721447 0.089553087949752808
0.74145543575286865 0.00095907470677047968 0.057323753833770752
0.99865025281906128 0 0.046144627034664154
0.049916945397853851 0.20871712267398834 0.22899770736694336
0.21465228497982025 0.19653688371181488 0.21071550250053406
0.48565247654914856 0.17072337865829468 0.17715373635292053
0.7726709246635437 0.11631086468696594 0.13471785187721252
0.99459189176559448 0.042851824313402176 0.093085072934627533
0.19318817555904388 0.49993795156478882 0.29613089561462402
0.33911773562431335 0.49365556240081787 0.28870135545730591
0.56260758638381958 0.47938281297683716 0.28593170642852783
0.81786561012268066 0.4490867555141449 0.28182384371757507
1 0.38667118549346924 0.28091710805892944
0.4824521541595459 0.77863627672195435 0.29947689175605774
0.55362969636917114 0.77416670322418213 0.29341372847557068
0.70485925674438477 0.76646023988723755 0.28699356317520142
0.90302133560180664 0.75221902132034302 0.31019094586372375
0.99981975555419922 0.71324694156646729 0.38246700167655945
0.78633284568786621 0.99852943420410156 0.35661503672599792
0.8260689377784729 0.99789750576019287 0.34138774871826172
0.90853250026702881 0.99783182144165039 0.31710079312324524
0.99674338102340698 0.99691492319107056 0.26016145944595337
0.99995261430740356 0.98727589845657349 0.2554260790348053
0 0.00070262234658002853 0.29584735631942749
0.060436427593231201 0.0062703299336135387 0.27236440777778625
0.3808479905128479 0.0013267815811559558 0.21967090666294098
0.70909452438354492 2.3696002244832925e-05 0.172896608710289
0.98744314908981323 0 0.14028178155422211
0.021528325974941254 0.19434390962123871 0.41060882806777954
0.14166556298732758 0.18670603632926941 0.38813835382461548
0.43749067187309265 0.15810017287731171 0.33573693037033081
0.73248422145843506 0.10979693382978439 0.27744510769844055
0.99903333187103271 0.035113990306854248 0.20187714695930481
0.060866590589284897 0.48248189687728882 0.52494281530380249
0.22688303887844086 0.47885888814926147 0.51578342914581299
0.49145960807800293 0.46731030941009521 0.49110695719718933
0.76029390096664429 0.44292566180229187 0.4609798789024353
0.99929505586624146 0.37732142210006714 0.41189965605735779
0.35243391990661621 0.7554621696472168 0.56586986780166626
0.43699359893798828 0.75358384847640991 0.57355129718780518
0.60838562250137329 0.74896621704101562 0.57175362110137939
0.81702667474746704 0.7354278564453125 0.57200956344604492
0.99997627735137939 0.70290189981460571 0.57185250520706177
0.80513262748718262 0.99569398164749146 0.36132660508155823
0.84702342748641968 0.99350863695144653 0.36533620953559875
0.92633461952209473 0.99430346488952637 0.35575211048126221
0.99066364765167236 0.9922986626625061 0.35986208915710449
0.99998706579208374 0.98624134063720703 0.49048590660095215
0 0 0.43960171937942505
0.035747140645980835 0 0.41250118613243103
0.32509610056877136 0 0.35619369149208069
0.67259597778320312 0 0.29508361220359802
0.98081701993942261 0 0.24516093730926514
0.00066642015008255839 0.18336759507656097 0.57345294952392578
0.061532847583293915 0.17260898649692535 0.5449366569519043
0.37465354800224304 0.1406722217798233 0.48421117663383484
0.69654643535614014 0.094438754022121429 0.40871483087539673
0.99119526147842407 0.020314086228609085 0.31120523810386658
0 0.47106280922889709 0.70510220527648926
0.089057251811027527 0.46820840239524841 0.69048559665679932
0.41811302304267883 0.4561554491519928 0.65746223926544189
0.71144109964370728 0.4293111264705658 0.6075628399848938
0.99060332775115967 0.36995944380760193 0.53565537929534912
0.16870370507240295 0.74004334211349487 0.80462789535522461
0.2960968017578125 0.73624145984649658 0.79788690805435181
0.51443517208099365 0.73421585559844971 0.78216052055358887
0.75302743911743164 0.72174191474914551 0.75644052028656006
0.99523758888244629 0.6926766037940979 0.71840977668762207
0.64938366413116455 0.9868883490562439 0.73934894800186157
0.68996453285217285 0.99038183689117432 0.74623787403106689
0.77270084619522095 0.98694318532943726 0.75650358200073242
0.89789348840713501 0.985950767993927 0.78028988838195801
1 0.97198909521102905 0.7855224609375
0 0 0.5501214861869812
0.033987533301115036 0 0.53189229965209961
0.2678186297416687 0.0015233058948069811 0.46822801232337952
0.64089339971542358 0.001997779356315732 0.38718891143798828
0.95264548063278198 0.00099104340188205242 0.32530370354652405
0.00034383137244731188 0.16867420077323914 0.69515818357467651
0.035895582288503647 0.16457895934581757 0.66045922040939331
0.31324264407157898 0.13450801372528076 0.58909934759140015
0.65484905242919922 0.098383136093616486 0.51244854927062988
0.97125011682510376 0.046418927609920502 0.40282681584358215
0 0.4608968198299408 0.82862168550491333
0.0096934149041771889 0.45782524347305298 0.81125926971435547
0.35329923033714294 0.44799607992172241 0.76525330543518066
0.66685384511947632 0.42483502626419067 0.70670926570892334
0.96176809072494507 0.36302345991134644 0.62602335214614868
0.017384083941578865 0.72823429107666016 0.95006108283996582
0.13209472596645355 0.7240714430809021 0.94245904684066772
0.42693841457366943 0.72281986474990845 0.92028641700744629
0.69905722141265869 0.7114831805229187 0.88447457551956177
0.97099590301513672 0.6866341233253479 0.82150626182556152
0.50299292802810669 0.97989481687545776 0.99931198358535767
0.54255646467208862 0.97514861822128296 0.99997901916503906
0.65173077583312988 0.97352677583694458 1
0.81131905317306519 0.97547805309295654 0.99940341711044312
0.99426501989364624 0.97353219985961914 0.98451370000839233
