films/kodak_elite_extracolor_100.cube
# Created by: G'MIC (https://gmic.eu)
TITLE "kodak_elite_extracolor_100"
# LUT size
LUT_3D_SIZE 5
# Data domain
DOMAIN_MIN 0.0 0.0 0.0
DOMAIN_MAX 1.0 1.0 1.0
# LUT data points
0.038123622536659241 0.033295411616563797 0.028738493099808693
0.19873508810997009 0.023828139528632164 0.019849201664328575
0.41576609015464783 0.0035104041453450918 0.010087884962558746
0.64691007137298584 0.00010340073640691116 0.00012440400314517319
0.83763676881790161 0 0
0.14001013338565826 0.22892425954341888 0.089216060936450958
0.25273400545120239 0.21340514719486237 0.079903528094291687
0.4749944806098938 0.18113881349563599 0.051279403269290924
0.69895666837692261 0.11352178454399109 0.014977234415709972
0.84874582290649414 0.025443267077207565 0
0.18414382636547089 0.52296668291091919 0.12615953385829926
0.32987228035926819 0.50698232650756836 0.11694199591875076
0.5765763521194458 0.48823297023773193 0.094510786235332489
0.80394428968429565 0.43839231133460999 0.054174579679965973
0.94863247871398926 0.31791040301322937 0.0094921337440609932
0.30317249894142151 0.82308721542358398 0.036401279270648956
0.45272821187973022 0.82402008771896362 0.039714515209197998
0.69782406091690063 0.81700623035430908 0.029104733839631081
0.9096304178237915 0.80451363325119019 0.029151631519198418
1 0.74075585603713989 0.0093868924304842949
0.47793510556221008 1 0
0.61458265781402588 1 0
0.81332820653915405 1 0
0.98774862289428711 0.99865162372589111 0.00054589065257459879
1 0.99466627836227417 0
0.016684379428625107 0.038573261350393295 0.1810699850320816
0.16419681906700134 0.021884918212890625 0.16994880139827728
0.39290496706962585 0.01019631139934063 0.14278435707092285
0.62834733724594116 0.00017592485528439283 0.099190913140773773
0.8087010383605957 0 0.056746196001768112
0.10049644857645035 0.23099797964096069 0.22957620024681091
0.22019031643867493 0.21831287443637848 0.2182726263999939
0.45414257049560547 0.18581300973892212 0.19285844266414642
0.67924898862838745 0.10843826085329056 0.14114633202552795
0.82551419734954834 0.0047971690073609352 0.071678280830383301
0.10326113551855087 0.51720643043518066 0.26787516474723816
0.28346911072731018 0.51303577423095703 0.26059526205062866
0.55877727270126343 0.49669203162193298 0.23949843645095825
0.78309470415115356 0.44306543469429016 0.19520397484302521
0.93369126319885254 0.32416638731956482 0.13408873975276947
0.21567182242870331 0.82327723503112793 0.23925197124481201
0.39408215880393982 0.82061022520065308 0.22702325880527496
0.66399842500686646 0.81450515985488892 0.2014424055814743
0.88871866464614868 0.80177199840545654 0.17327764630317688
0.99956083297729492 0.74631994962692261 0.12673118710517883
0.47714069485664368 1 0.019567856565117836
0.59842973947525024 1 0.029533626511693001
0.80934649705886841 0.99985259771347046 0.0074003930203616619
0.97600394487380981 1 0.0067386552691459656
1 0.99966162443161011 0.0035572426859289408
0.0031148423440754414 0.04453582689166069 0.37135374546051025
0.11938126385211945 0.025639807805418968 0.36261633038520813
0.35753938555717468 0.014194054529070854 0.3373798131942749
0.59496229887008667 0.0013879813486710191 0.29999911785125732
0.77037602663040161 0 0.26730674505233765
0.034864313900470734 0.23823300004005432 0.44476383924484253
0.15982770919799805 0.22325074672698975 0.4315221905708313
0.41372928023338318 0.19338804483413696 0.4122442901134491
0.64655470848083496 0.11925053596496582 0.37267071008682251
0.79216313362121582 0.019307663664221764 0.30684643983840942
0.0068888198584318161 0.52584832906723022 0.52008676528930664
0.17619782686233521 0.51495003700256348 0.51214385032653809
0.49675154685974121 0.49984854459762573 0.49679663777351379
0.7428320050239563 0.44781675934791565 0.4668179452419281
0.89315050840377808 0.3250613808631897 0.40727251768112183
0.01843535527586937 0.80131906270980835 0.56652677059173584
0.24773010611534119 0.79891014099121094 0.55833762884140015
0.59491914510726929 0.7927858829498291 0.54276424646377563
0.83318322896957397 0.78534197807312012 0.5271727442741394
0.98568129539489746 0.72655481100082397 0.4585704505443573
0.27314350008964539 0.99929845333099365 0.43383005261421204
0.45287632942199707 0.99978172779083252 0.43820124864578247
0.71551322937011719 0.99953073263168335 0.41644895076751709
0.92279660701751709 0.99949198961257935 0.37441343069076538
0.99987506866455078 0.99235290288925171 0.2623041570186615
0.00019441492622718215 0.047777663916349411 0.58353835344314575
0.061411373317241669 0.034810367971658707 0.5799485445022583
0.30846056342124939 0.01367028895765543 0.55910110473632812
0.55374711751937866 4.6853459934936836e-05 0.53173989057540894
0.73297125101089478 0 0.49177294969558716
0.0033954845275729895 0.25725308060646057 0.66124188899993896
0.085977606475353241 0.24185815453529358 0.65473312139511108
0.34687069058418274 0.21081101894378662 0.63673859834671021
0.60869860649108887 0.14517685770988464 0.60371613502502441
0.76140481233596802 0.034557044506072998 0.55350470542907715
0 0.53976917266845703 0.7431761622428894
0.056290347129106522 0.53404170274734497 0.73844784498214722
0.40771329402923584 0.51340752840042114 0.7234809398651123
0.70642799139022827 0.46602419018745422 0.69899570941925049
0.86833584308624268 0.34848248958587646 0.65643608570098877
0 0.79634451866149902 0.8132089376449585
0.070062823593616486 0.79631263017654419 0.80514121055603027
0.49925047159194946 0.7885507345199585 0.78729546070098877
0.77427273988723755 0.77497696876525879 0.77333623170852661
0.95960485935211182 0.72462594509124756 0.74726325273513794
0.035329394042491913 0.99084436893463135 0.8069157600402832
0.19721649587154388 0.99341368675231934 0.79575729370117188
0.57688051462173462 0.99390941858291626 0.79162925481796265
0.84980690479278564 0.99314898252487183 0.77421724796295166
0.99983072280883789 0.98152458667755127 0.73245912790298462
0.0011304818326607347 0.08604864776134491 0.75293153524398804
0.066804535686969757 0.077450037002563477 0.74844330549240112
0.27687984704971313 0.047208704054355621 0.73115366697311401
0.53119909763336182 0.0016225179424509406 0.70332664251327515
0.69638681411743164 0 0.66431337594985962
0 0.30438345670700073 0.82882118225097656
0.024225421249866486 0.29201152920722961 0.82515376806259155
0.27244672179222107 0.26485368609428406 0.80896729230880737
0.57674515247344971 0.19195526838302612 0.78088217973709106
0.75096732378005981 0.050680693238973618 0.73968368768692017
0 0.57113981246948242 0.91113543510437012
0.0085123246535658836 0.57175171375274658 0.90642815828323364
0.26214101910591125 0.5486791729927063 0.89072203636169434
0.65157932043075562 0.51351571083068848 0.86925077438354492
0.84841251373291016 0.41876533627510071 0.83686816692352295
4.2006548028439283e-05 0.80491405725479126 0.9764975905418396
0.017589449882507324 0.80174517631530762 0.97306841611862183
0.33474001288414001 0.79920089244842529 0.96345043182373047
0.71314728260040283 0.79258674383163452 0.94515186548233032
0.92050886154174805 0.74459302425384521 0.92529946565628052
0.00014935662329662591 0.97763687372207642 0.99869918823242188
0.011160951107740402 0.97782433032989502 0.99804627895355225
0.26752433180809021 0.98245143890380859 0.99419444799423218
0.7495492696762085 0.98776042461395264 0.99098014831542969
0.98110866546630859 0.98133969306945801 0.97882223129272461
