films/kodak_portra_160.cube
# Created by: G'MIC (https://gmic.eu)
TITLE "kodak_portra_160"
# LUT size
LUT_3D_SIZE 5
# Data domain
DOMAIN_MIN 0.0 0.0 0.0
DOMAIN_MAX 1.0 1.0 1.0
# LUT data points
0.018651565536856651 0.026779415085911751 0.018518351018428802
0.24356858432292938 0.019507255405187607 0.02049071341753006
0.59711045026779175 0.0037936789449304342 0.0039122938178479671
0.85200709104537964 0.01163793820887804 1.9387638531043194e-05
0.99750882387161255 0.1590396910905838 0.00014935662329662591
0.00012960995081812143 0.23522099852561951 0.017452150583267212
0.22513318061828613 0.26211878657341003 0.0062744887545704842
0.64533030986785889 0.31844800710678101 0
0.86894911527633667 0.31780880689620972 0
0.99728143215179443 0.35643362998962402 0
0.01046314649283886 0.50979256629943848 0.0044515719637274742
0.21395590901374817 0.50139713287353516 0
0.52843302488327026 0.55305284261703491 0
0.82178640365600586 0.59904146194458008 0
0.99998706579208374 0.58868163824081421 0
0.26710408926010132 0.70482778549194336 0.083886057138442993
0.35146352648735046 0.69608479738235474 0.05260346457362175
0.5141603946685791 0.69973313808441162 0.038765717297792435
0.73020368814468384 0.74537760019302368 0.078193068504333496
0.9783170223236084 0.79609763622283936 0.065423689782619476
0.48317715525627136 0.89968395233154297 0.3575839102268219
0.54811495542526245 0.91870778799057007 0.40227940678596497
0.62671792507171631 0.90986675024032593 0.37719941139221191
0.77372831106185913 0.93185436725616455 0.41755622625350952
0.93902939558029175 0.94396960735321045 0.40658769011497498
0.001706919982098043 0.041773028671741486 0.26985394954681396
0.26545044779777527 0.035261325538158417 0.27997627854347229
0.63289463520050049 0.005610103253275156 0.28843280673027039
0.84937775135040283 0.012218340300023556 0.25704652070999146
0.99518215656280518 0.16524335741996765 0.25240829586982727
0 0.29689377546310425 0.27016359567642212
0.28662648797035217 0.30020016431808472 0.28368952870368958
0.635597825050354 0.29131314158439636 0.26842615008354187
0.84523844718933105 0.30416402220726013 0.2450895756483078
0.99762368202209473 0.35720190405845642 0.22778332233428955
0.13133043050765991 0.56773346662521362 0.29189431667327881
0.30390271544456482 0.5411144495010376 0.27639517188072205
0.5516057014465332 0.56848180294036865 0.27599295973777771
0.82714211940765381 0.59537625312805176 0.23700724542140961
0.99859708547592163 0.58198577165603638 0.19565725326538086
0.34966608881950378 0.72917681932449341 0.33142530918121338
0.39650866389274597 0.71193277835845947 0.30961409211158752
0.52414399385452271 0.70123732089996338 0.28159928321838379
0.73345530033111572 0.75178009271621704 0.33098870515823364
0.97804397344589233 0.79024845361709595 0.3290344774723053
0.50871258974075317 0.91275483369827271 0.46901583671569824
0.55102086067199707 0.9208676815032959 0.47795292735099792
0.62847316265106201 0.91689115762710571 0.46269053220748901
0.7755584716796875 0.93428254127502441 0.48362749814987183
0.94625216722488403 0.96411037445068359 0.52481758594512939
0.025607375428080559 0.10030572861433029 0.60633140802383423
0.326302170753479 0.11139237880706787 0.62135380506515503
0.6430554986000061 0.15151247382164001 0.62874174118041992
0.8691403865814209 0.29420247673988342 0.6197812557220459
0.99778467416763306 0.35830426216125488 0.58800709247589111
0.024868056178092957 0.33706963062286377 0.60388106107711792
0.34615978598594666 0.35489669442176819 0.61152273416519165
0.63392770290374756 0.40161779522895813 0.62115478515625
0.83759444952011108 0.44399526715278625 0.60956960916519165
0.99194931983947754 0.44423812627792358 0.58212661743164062
0.17658942937850952 0.62268376350402832 0.59222519397735596
0.39434775710105896 0.6160246729850769 0.59546899795532227
0.60572981834411621 0.60526013374328613 0.59511315822601318
0.80047881603240967 0.59314370155334473 0.57781141996383667
0.9857286810874939 0.58061432838439941 0.55484604835510254
0.44625487923622131 0.77924901247024536 0.58580130338668823
0.49788245558738708 0.76905786991119385 0.58574205636978149
0.57885551452636719 0.73380374908447266 0.54739713668823242
0.74505597352981567 0.75790756940841675 0.5654531717300415
0.98227733373641968 0.78751659393310547 0.57009583711624146
0.54956096410751343 0.93861216306686401 0.63140016794204712
0.5799669623374939 0.94070339202880859 0.6281667947769165
0.64327090978622437 0.931721031665802 0.60001212358474731
0.76548326015472412 0.92891496419906616 0.59398514032363892
0.94979476928710938 0.96610456705093384 0.63572829961776733
0.27604436874389648 0.24431133270263672 0.81504076719284058
0.44455379247665405 0.27299624681472778 0.81692910194396973
0.64673548936843872 0.35389283299446106 0.818928062915802
0.8353201150894165 0.43282914161682129 0.81857728958129883
0.99666476249694824 0.50574696063995361 0.81237125396728516
0.36123088002204895 0.43222984671592712 0.80429404973983765
0.47286275029182434 0.44968375563621521 0.80577343702316284
0.65070587396621704 0.4950554370880127 0.8091471791267395
0.82941806316375732 0.54730254411697388 0.8146355152130127
0.99297571182250977 0.59134435653686523 0.8132627010345459
0.35940486192703247 0.61301714181900024 0.78174096345901489
0.46345895528793335 0.61565035581588745 0.78162240982055664
0.64204221963882446 0.64428991079330444 0.79144620895385742
0.82003569602966309 0.67946910858154297 0.80684489011764526
0.98760980367660522 0.69679319858551025 0.80715101957321167
0.48318350315093994 0.81330746412277222 0.78428834676742554
0.5460544228553772 0.81189662218093872 0.78659498691558838
0.6539427638053894 0.80414104461669922 0.78788363933563232
0.80130434036254883 0.78921431303024292 0.78130263090133667
0.98691743612289429 0.78479897975921631 0.77360260486602783
0.62754368782043457 0.96941894292831421 0.7916414737701416
0.66259443759918213 0.96917235851287842 0.79206687211990356
0.71799993515014648 0.96529006958007812 0.79076111316680908
0.79368549585342407 0.94875943660736084 0.75995445251464844
0.96262586116790771 0.96579432487487793 0.78074944019317627
0.53210508823394775 0.50080358982086182 0.97869253158569336
0.58433884382247925 0.51936382055282593 0.97753626108169556
0.69667690992355347 0.55383145809173584 0.97351658344268799
0.83349794149398804 0.60249066352844238 0.97096896171569824
0.98638999462127686 0.62164092063903809 0.96227562427520752
0.54847419261932373 0.58222752809524536 0.97261625528335571
0.60588723421096802 0.59906995296478271 0.97367477416992188
0.70837485790252686 0.61544919013977051 0.97078150510787964
0.83797883987426758 0.66203886270523071 0.97355955839157104
0.98379051685333252 0.68210971355438232 0.96890115737915039
0.56301790475845337 0.69497585296630859 0.96899509429931641
0.61048072576522827 0.69951349496841431 0.96873712539672852
0.71437054872512817 0.71225535869598389 0.96896064281463623
0.84653645753860474 0.7436104416847229 0.97261327505111694
0.98410433530807495 0.76599013805389404 0.97224467992782593
0.53837496042251587 0.81881541013717651 0.96870744228363037
0.5862201452255249 0.81788372993469238 0.9697611927986145
0.69171541929244995 0.81901907920837402 0.96915876865386963
0.84146136045455933 0.83376622200012207 0.97277897596359253
0.990040123462677 0.87554597854614258 0.97894901037216187
0.65783905982971191 0.98408859968185425 0.96302282810211182
0.67558890581130981 0.98766207695007324 0.97286415100097656
0.75247454643249512 0.98741328716278076 0.97668635845184326
0.86869943141937256 0.98490911722183228 0.98026514053344727
0.99089151620864868 0.98551994562149048 0.97430521249771118
