films/kodak_t-max_400.cube
TITLE "data/luts/rawtherapee/HaldCLUT/Black-and-White/Kodak/Kodak T-Max 400.png"
LUT_3D_SIZE 8
DOMAIN_MIN 0 0 0
DOMAIN_MAX 1 1 1
0.000000 0.000000 0.000000
0.000000 0.000000 0.000000
0.000000 0.000000 0.000000
0.000000 0.000000 0.000000
0.000000 0.000000 0.000000
0.000000 0.000000 0.000000
0.000000 0.000000 0.000000
0.000000 0.000000 0.000000
0.048739 0.048739 0.048739
0.048739 0.048739 0.048739
0.052661 0.052661 0.052661
0.052661 0.052661 0.052661
0.052661 0.052661 0.052661
0.052661 0.052661 0.052661
0.048739 0.048739 0.048739
0.044818 0.044818 0.044818
0.167507 0.167507 0.167507
0.168067 0.168067 0.168067
0.171429 0.171429 0.171429
0.171429 0.171429 0.171429
0.171429 0.171429 0.171429
0.171429 0.171429 0.171429
0.167507 0.167507 0.167507
0.163585 0.163585 0.163585
0.335574 0.335574 0.335574
0.335574 0.335574 0.335574
0.335574 0.335574 0.335574
0.335574 0.335574 0.335574
0.335574 0.335574 0.335574
0.335574 0.335574 0.335574
0.335574 0.335574 0.335574
0.331653 0.331653 0.331653
0.499720 0.499720 0.499720
0.499720 0.499720 0.499720
0.503641 0.503641 0.503641
0.503641 0.503641 0.503641
0.503641 0.503641 0.503641
0.503641 0.503641 0.503641
0.503641 0.503641 0.503641
0.499720 0.499720 0.499720
0.652101 0.652101 0.652101
0.652101 0.652101 0.652101
0.655462 0.655462 0.655462
0.656022 0.656022 0.656022
0.656022 0.656022 0.656022
0.656022 0.656022 0.656022
0.656022 0.656022 0.656022
0.656022 0.656022 0.656022
0.792717 0.792717 0.792717
0.792717 0.792717 0.792717
0.792717 0.792717 0.792717
0.792717 0.792717 0.792717
0.794398 0.794398 0.794398
0.794398 0.794398 0.794398
0.796639 0.796639 0.796639
0.794398 0.794398 0.794398
0.925490 0.925490 0.925490
0.925490 0.925490 0.925490
0.925490 0.925490 0.925490
0.929412 0.929412 0.929412
0.929412 0.929412 0.929412
0.929412 0.929412 0.929412
0.929412 0.929412 0.929412
0.933333 0.933333 0.933333
0.000000 0.000000 0.000000
0.001681 0.001681 0.001681
0.003922 0.003922 0.003922
0.003922 0.003922 0.003922
0.003922 0.003922 0.003922
0.003922 0.003922 0.003922
0.003922 0.003922 0.003922
0.000000 0.000000 0.000000
0.078832 0.078832 0.078832
0.080112 0.080112 0.080112
0.080112 0.080112 0.080112
0.081793 0.081793 0.081793
0.081793 0.081793 0.081793
0.080112 0.080112 0.080112
0.077871 0.077871 0.077871
0.072269 0.072269 0.072269
0.196639 0.196639 0.196639
0.196959 0.196959 0.196959
0.198880 0.198880 0.198880
0.199120 0.199120 0.199120
0.200560 0.200560 0.200560
0.198880 0.198880 0.198880
0.196639 0.196639 0.196639
0.189116 0.189116 0.189116
0.352941 0.352941 0.352941
0.352941 0.352941 0.352941
0.355182 0.355182 0.355182
0.355182 0.355182 0.355182
0.355182 0.355182 0.355182
0.355182 0.355182 0.355182
0.355182 0.355182 0.355182
0.351261 0.351261 0.351261
0.513165 0.513165 0.513165
0.513806 0.513806 0.513806
0.515406 0.515406 0.515406
0.515406 0.515406 0.515406
0.515406 0.515406 0.515406
0.515886 0.515886 0.515886
0.515406 0.515406 0.515406
0.515406 0.515406 0.515406
0.659944 0.659944 0.659944
0.659944 0.659944 0.659944
0.661385 0.661385 0.661385
0.663545 0.663545 0.663545
0.663866 0.663866 0.663866
0.663866 0.663866 0.663866
0.663866 0.663866 0.663866
0.663866 0.663866 0.663866
0.796639 0.796639 0.796639
0.796639 0.796639 0.796639
0.796639 0.796639 0.796639
0.798319 0.798319 0.798319
0.799280 0.799280 0.799280
0.800560 0.800560 0.800560
0.800560 0.800560 0.800560
0.800560 0.800560 0.800560
0.929412 0.929412 0.929412
0.929412 0.929412 0.929412
0.929412 0.929412 0.929412
0.929412 0.929412 0.929412
0.931092 0.931092 0.931092
0.933333 0.933333 0.933333
0.933333 0.933333 0.933333
0.933333 0.933333 0.933333
0.007843 0.007843 0.007843
0.011204 0.011204 0.011204
0.011765 0.011765 0.011765
0.011765 0.011765 0.011765
0.011765 0.011765 0.011765
0.011765 0.011765 0.011765
0.011204 0.011204 0.011204
0.007843 0.007843 0.007843
0.111164 0.111164 0.111164
0.111485 0.111485 0.111485
0.112925 0.112925 0.112925
0.115086 0.115086 0.115086
0.115086 0.115086 0.115086
0.114846 0.114846 0.114846
0.111164 0.111164 0.111164
0.105082 0.105082 0.105082
0.234174 0.234174 0.234174
0.237535 0.237535 0.237535
0.237615 0.237615 0.237615
0.238575 0.238575 0.238575
0.238575 0.238575 0.238575
0.238575 0.238575 0.238575
0.237569 0.237569 0.237569
0.230252 0.230252 0.230252
0.382633 0.382633 0.382633
0.382633 0.382633 0.382633
0.385034 0.385034 0.385034
0.385994 0.385994 0.385994
0.386555 0.386555 0.386555
0.386555 0.386555 0.386555
0.386395 0.386395 0.386395
0.382633 0.382633 0.382633
0.535014 0.535014 0.535014
0.535014 0.535014 0.535014
0.535014 0.535014 0.535014
0.538375 0.538375 0.538375
0.538821 0.538821 0.538821
0.538936 0.538936 0.538936
0.538936 0.538936 0.538936
0.535974 0.535974 0.535974
0.675630 0.675630 0.675630
0.675630 0.675630 0.675630
0.675630 0.675630 0.675630
0.678511 0.678511 0.678511
0.679472 0.679472 0.679472
0.679552 0.679552 0.679552
0.679552 0.679552 0.679552
0.679472 0.679472 0.679472
0.806162 0.806162 0.806162
0.806986 0.806986 0.806986
0.808083 0.808083 0.808083
0.808403 0.808403 0.808403
0.808403 0.808403 0.808403
0.810084 0.810084 0.810084
0.810084 0.810084 0.810084
0.810084 0.810084 0.810084
0.933333 0.933333 0.933333
0.933333 0.933333 0.933333
0.936214 0.936214 0.936214
0.937255 0.937255 0.937255
0.937255 0.937255 0.937255
0.937255 0.937255 0.937255
0.937255 0.937255 0.937255
0.941176 0.941176 0.941176
0.027451 0.027451 0.027451
0.028571 0.028571 0.028571
0.028571 0.028571 0.028571
0.031373 0.031373 0.031373
0.031373 0.031373 0.031373
0.031373 0.031373 0.031373
0.031373 0.031373 0.031373
0.027451 0.027451 0.027451
0.155102 0.155102 0.155102
0.155742 0.155742 0.155742
0.159024 0.159024 0.159024
0.159664 0.159664 0.159664
0.160864 0.160864 0.160864
0.160864 0.160864 0.160864
0.159024 0.159024 0.159024
0.151821 0.151821 0.151821
0.282353 0.282353 0.282353
0.282753 0.282753 0.282753
0.286275 0.286275 0.286275
0.286675 0.286675 0.286675
0.289236 0.289236 0.289236
0.290196 0.290196 0.290196
0.289076 0.289076 0.289076
0.282353 0.282353 0.282353
0.419048 0.419048 0.419048
0.421048 0.421048 0.421048
0.421849 0.421849 0.421849
0.422969 0.422969 0.422969
0.425770 0.425770 0.425770
0.425770 0.425770 0.425770
0.425770 0.425770 0.425770
0.422969 0.422969 0.422969
0.563585 0.563585 0.563585
0.564386 0.564386 0.564386
0.566387 0.566387 0.566387
0.566707 0.566707 0.566707
0.567507 0.567507 0.567507
0.568593 0.568593 0.568593
0.570308 0.570308 0.570308
0.567507 0.567507 0.567507
0.696198 0.696198 0.696198
0.698599 0.698599 0.698599
0.698760 0.698760 0.698760
0.699160 0.699160 0.699160
0.700120 0.700120 0.700120
0.702521 0.702521 0.702521
0.702681 0.702681 0.702681
0.700120 0.700120 0.700120
0.820648 0.820648 0.820648
0.820648 0.820648 0.820648
0.821849 0.821849 0.821849
0.821849 0.821849 0.821849
0.822489 0.822489 0.822489
0.824090 0.824090 0.824090
0.824570 0.824570 0.824570
0.824570 0.824570 0.824570
0.941176 0.941176 0.941176
0.941176 0.941176 0.941176
0.941176 0.941176 0.941176
0.945098 0.945098 0.945098
0.945098 0.945098 0.945098
0.945098 0.945098 0.945098
0.945098 0.945098 0.945098
0.946218 0.946218 0.946218
0.065546 0.065546 0.065546
0.069468 0.069468 0.069468
0.070588 0.070588 0.070588
0.073389 0.073389 0.073389
0.077311 0.077311 0.077311
0.074510 0.074510 0.074510
0.073389 0.073389 0.073389
0.069468 0.069468 0.069468
0.216246 0.216246 0.216246
0.217927 0.217927 0.217927
0.220168 0.220168 0.220168
0.224090 0.224090 0.224090
0.225770 0.225770 0.225770
0.228011 0.228011 0.228011
0.225770 0.225770 0.225770
0.220168 0.220168 0.220168
0.340456 0.340456 0.340456
0.342857 0.342857 0.342857
0.344241 0.344241 0.344241
0.346939 0.346939 0.346939
0.350014 0.350014 0.350014
0.350700 0.350700 0.350700
0.350700 0.350700 0.350700
0.346939 0.346939 0.346939
0.466987 0.466987 0.466987
0.467330 0.467330 0.467330
0.468587 0.468587 0.468587
0.470908 0.470908 0.470908
0.472509 0.472509 0.472509
0.474830 0.474830 0.474830
0.474830 0.474830 0.474830
0.472509 0.472509 0.472509
0.598559 0.598559 0.598559
0.600880 0.600880 0.600880
0.600880 0.600880 0.600880
0.602481 0.602481 0.602481
0.604802 0.604802 0.604802
0.604802 0.604802 0.604802
0.606403 0.606403 0.606403
0.604802 0.604802 0.604802
0.722529 0.722529 0.722529
0.722529 0.722529 0.722529
0.722689 0.722689 0.722689
0.725090 0.725090 0.725090
0.726050 0.726050 0.726050
0.726451 0.726451 0.726451
0.726611 0.726611 0.726611
0.726451 0.726451 0.726451
0.837535 0.837535 0.837535
0.837535 0.837535 0.837535
0.837535 0.837535 0.837535
0.839136 0.839136 0.839136
0.839776 0.839776 0.839776
0.841045 0.841045 0.841045
0.841457 0.841457 0.841457
0.841457 0.841457 0.841457
0.949020 0.949020 0.949020
0.949020 0.949020 0.949020
0.951821 0.951821 0.951821
0.952941 0.952941 0.952941
0.952941 0.952941 0.952941
0.952941 0.952941 0.952941
0.952941 0.952941 0.952941
0.956863 0.956863 0.956863
0.133894 0.133894 0.133894
0.137815 0.137815 0.137815
0.141737 0.141737 0.141737
0.145658 0.145658 0.145658
0.149580 0.149580 0.149580
0.150140 0.150140 0.150140
0.153501 0.153501 0.153501
0.145658 0.145658 0.145658
0.296359 0.296359 0.296359
0.300280 0.300280 0.300280
0.302235 0.302235 0.302235
0.305974 0.305974 0.305974
0.308123 0.308123 0.308123
0.312045 0.312045 0.312045
0.312045 0.312045 0.312045
0.308123 0.308123 0.308123
0.406803 0.406803 0.406803
0.407763 0.407763 0.407763
0.410724 0.410724 0.410724
0.411765 0.411765 0.411765
0.415606 0.415606 0.415606
0.415686 0.415686 0.415686
0.418567 0.418567 0.418567
0.415686 0.415686 0.415686
0.519328 0.519328 0.519328
0.520288 0.520288 0.520288
0.522849 0.522849 0.522849
0.524210 0.524210 0.524210
0.526771 0.526771 0.526771
0.528131 0.528131 0.528131
0.528291 0.528291 0.528291
0.528131 0.528131 0.528131
0.641056 0.641056 0.641056
0.641056 0.641056 0.641056
0.641056 0.641056 0.641056
0.642417 0.642417 0.642417
0.644978 0.644978 0.644978
0.646339 0.646339 0.646339
0.648900 0.648900 0.648900
0.646499 0.646499 0.646499
0.750620 0.750620 0.750620
0.753501 0.753501 0.753501
0.753501 0.753501 0.753501
0.753581 0.753581 0.753581
0.754542 0.754542 0.754542
0.757423 0.757423 0.757423
0.757503 0.757503 0.757503
0.757503 0.757503 0.757503
0.857143 0.857143 0.857143
0.857143 0.857143 0.857143
0.857463 0.857463 0.857463
0.859624 0.859624 0.859624
0.860653 0.860653 0.860653
0.861064 0.861064 0.861064
0.861385 0.861385 0.861385
0.861385 0.861385 0.861385
0.960784 0.960784 0.960784
0.960784 0.960784 0.960784
0.960784 0.960784 0.960784
0.960784 0.960784 0.960784
0.960784 0.960784 0.960784
0.964706 0.964706 0.964706
0.964706 0.964706 0.964706
0.964706 0.964706 0.964706
0.233613 0.233613 0.233613
0.239776 0.239776 0.239776
0.245378 0.245378 0.245378
0.251541 0.251541 0.251541
0.255462 0.255462 0.255462
0.257143 0.257143 0.257143
0.259384 0.259384 0.259384
0.255462 0.255462 0.255462
0.380392 0.380392 0.380392
0.384314 0.384314 0.384314
0.388235 0.388235 0.388235
0.392157 0.392157 0.392157
0.396078 0.396078 0.396078
0.396078 0.396078 0.396078
0.400000 0.400000 0.400000
0.396078 0.396078 0.396078
0.476190 0.476190 0.476190
0.479552 0.479552 0.479552
0.480112 0.480112 0.480112
0.484034 0.484034 0.484034
0.487955 0.487955 0.487955
0.491317 0.491317 0.491317
0.491877 0.491877 0.491877
0.491877 0.491877 0.491877
0.579832 0.579832 0.579832
0.579832 0.579832 0.579832
0.582153 0.582153 0.582153
0.584234 0.584234 0.584234
0.587675 0.587675 0.587675
0.589996 0.589996 0.589996
0.591597 0.591597 0.591597
0.591597 0.591597 0.591597
0.686755 0.686755 0.686755
0.687395 0.687395 0.687395
0.688595 0.688595 0.688595
0.690676 0.690676 0.690676
0.692517 0.692517 0.692517
0.694598 0.694598 0.694598
0.695238 0.695238 0.695238
0.696439 0.696439 0.696439
0.785194 0.785194 0.785194
0.787115 0.787115 0.787115
0.787355 0.787355 0.787355
0.788796 0.788796 0.788796
0.791036 0.791036 0.791036
0.792717 0.792717 0.792717
0.793037 0.793037 0.793037
0.794958 0.794958 0.794958
0.880672 0.880672 0.880672
0.880672 0.880672 0.880672
0.881953 0.881953 0.881953
0.882913 0.882913 0.882913
0.884594 0.884594 0.884594
0.884594 0.884594 0.884594
0.886835 0.886835 0.886835
0.887795 0.887795 0.887795
0.972549 0.972549 0.972549
0.972549 0.972549 0.972549
0.972549 0.972549 0.972549
0.972549 0.972549 0.972549
0.972549 0.972549 0.972549
0.976471 0.976471 0.976471
0.976471 0.976471 0.976471
0.978711 0.978711 0.978711
0.352941 0.352941 0.352941
0.356863 0.356863 0.356863
0.360784 0.360784 0.360784
0.368627 0.368627 0.368627
0.372549 0.372549 0.372549
0.376471 0.376471 0.376471
0.380392 0.380392 0.380392
0.380392 0.380392 0.380392
0.472269 0.472269 0.472269
0.476190 0.476190 0.476190
0.480112 0.480112 0.480112
0.484034 0.484034 0.484034
0.487955 0.487955 0.487955
0.491877 0.491877 0.491877
0.495798 0.495798 0.495798
0.495798 0.495798 0.495798
0.556303 0.556303 0.556303
0.560224 0.560224 0.560224
0.563585 0.563585 0.563585
0.567507 0.567507 0.567507
0.570468 0.570468 0.570468
0.571989 0.571989 0.571989
0.575910 0.575910 0.575910
0.575910 0.575910 0.575910
0.648179 0.648179 0.648179
0.648179 0.648179 0.648179
0.652101 0.652101 0.652101
0.656022 0.656022 0.656022
0.657143 0.657143 0.657143
0.659944 0.659944 0.659944
0.663866 0.663866 0.663866
0.664986 0.664986 0.664986
0.740056 0.740056 0.740056
0.742857 0.742857 0.742857
0.743978 0.743978 0.743978
0.747099 0.747099 0.747099
0.747899 0.747899 0.747899
0.751821 0.751821 0.751821
0.755742 0.755742 0.755742
0.755742 0.755742 0.755742
0.828011 0.828011 0.828011
0.828011 0.828011 0.828011
0.831933 0.831933 0.831933
0.831933 0.831933 0.831933
0.835854 0.835854 0.835854
0.835854 0.835854 0.835854
0.839776 0.839776 0.839776
0.839776 0.839776 0.839776
0.912045 0.912045 0.912045
0.912045 0.912045 0.912045
0.912045 0.912045 0.912045
0.913725 0.913725 0.913725
0.915966 0.915966 0.915966
0.915966 0.915966 0.915966
0.919888 0.919888 0.919888
0.919888 0.919888 0.919888
0.988235 0.988235 0.988235
0.988235 0.988235 0.988235
0.988235 0.988235 0.988235
0.992157 0.992157 0.992157
0.992157 0.992157 0.992157
0.996078 0.996078 0.996078
0.996078 0.996078 0.996078
1.000000 1.000000 1.000000
