films/kodak_portra_160_vc.cube
# Created by: G'MIC (https://gmic.eu)
TITLE "kodak_portra_160_vc"
# LUT size
LUT_3D_SIZE 13
# Data domain
DOMAIN_MIN 0.0 0.0 0.0
DOMAIN_MAX 1.0 1.0 1.0
# LUT data points
0.018843153491616249 0.024042975157499313 0.029004011303186417
0.04607684537768364 0.030150201171636581 0.027855638414621353
0.10241983085870743 0.034831777215003967 0.030476963147521019
0.18730361759662628 0.042748618870973587 0.026964418590068817
0.29858759045600891 0.045822728425264359 0.021198974922299385
0.4276527464389801 0.039335917681455612 0.015154296532273293
0.55602598190307617 0.031727030873298645 0.0076954858377575874
0.67509323358535767 0.029218276962637901 0.0011477152584120631
0.7804151177406311 0.038949135690927505 0
0.86955195665359497 0.061077777296304703 0
0.94300329685211182 0.091154091060161591 0
0.99030327796936035 0.13196074962615967 0.00079209572868421674
1 0.18035835027694702 0.0045271781273186207
0.012626438401639462 0.055116377770900726 0.035955421626567841
0.043773353099822998 0.063177295029163361 0.03174140676856041
0.10689304023981094 0.074365340173244476 0.02772185392677784
0.19673351943492889 0.086024247109889984 0.021497957408428192
0.30855688452720642 0.091314248740673065 0.014402411878108978
0.43786883354187012 0.091423779726028442 0.0076581318862736225
0.56645572185516357 0.090813912451267242 0.0021939147263765335
0.68377035856246948 0.09280821681022644 9.011661313707009e-05
0.78510802984237671 0.10190813988447189 0
0.87188732624053955 0.1190774068236351 0
0.94169509410858154 0.14342272281646729 0
0.98772144317626953 0.17599804699420929 0
1 0.21694335341453552 0
0.0023795184679329395 0.12015953660011292 0.052396632730960846
0.023032154887914658 0.12239758670330048 0.04728945717215538
0.089141368865966797 0.1352362185716629 0.034722842276096344
0.19715642929077148 0.15175811946392059 0.018240835517644882
0.32163459062576294 0.16064126789569855 0.0073036192916333675
0.45324885845184326 0.16757521033287048 0.0020440644584596157
0.57929062843322754 0.17098444700241089 2.297794162586797e-05
0.69033455848693848 0.17276336252689362 0
0.78563088178634644 0.17862714827060699 0
0.86906290054321289 0.1908353865146637 0
0.93835544586181641 0.20937730371952057 0
0.98490715026855469 0.23349329829216003 0
1 0.26480704545974731 0
0 0.20606505870819092 0.075171947479248047
0.002064678817987442 0.2080133855342865 0.074047893285751343
0.04523874819278717 0.21701772511005402 0.063104547560214996
0.17383311688899994 0.23997762799263 0.033686798065900803
0.32783988118171692 0.26474630832672119 0.010831496678292751
0.46597588062286377 0.27044907212257385 0.00087954953778535128
0.58799517154693604 0.26404142379760742 0
0.69204467535018921 0.25881502032279968 0
0.7821052074432373 0.26007577776908875 0
0.86372697353363037 0.26700380444526672 0
0.93453371524810791 0.27950403094291687 0
0.98459053039550781 0.29661369323730469 0
1 0.32004627585411072 0
2.0225375919835642e-05 0.31533753871917725 0.10773346573114395
0 0.3190801739692688 0.10865163058042526
0.0096221622079610825 0.32360923290252686 0.10419271141290665
0.11988332122564316 0.33990669250488281 0.072482086718082428
0.29247060418128967 0.36384978890419006 0.029700843617320061
0.45233243703842163 0.37972494959831238 0.005051721353083849
0.58593744039535522 0.37950393557548523 4.0570426790509373e-05
0.6887478232383728 0.36414167284965515 0
0.77593338489532471 0.35242047905921936 0
0.85587394237518311 0.34741401672363281 0
0.92706596851348877 0.35059261322021484 0
0.98064815998077393 0.36037299036979675 0
1 0.37834650278091431 0
0.00035900040529668331 0.43075209856033325 0.15214474499225616
0 0.43177559971809387 0.15169955790042877
0.00091313378652557731 0.43250539898872375 0.15097342431545258
0.07617061585187912 0.43997958302497864 0.12841068208217621
0.2433292418718338 0.45381817221641541 0.081410124897956848
0.41024664044380188 0.47353735566139221 0.045845691114664078
0.55950069427490234 0.48696833848953247 0.012856591492891312
0.67388010025024414 0.47730115056037903 0.00029121848638169467
0.76445853710174561 0.46055960655212402 0
0.84503668546676636 0.4414670467376709 0
0.91795915365219116 0.43092387914657593 0
0.97764056921005249 0.42826759815216064 0
1 0.44049623608589172 0
0.00073083618190139532 0.52439415454864502 0.20426340401172638
0 0.52622395753860474 0.20137467980384827
0.0021865994203835726 0.52529168128967285 0.199750155210495
0.077411562204360962 0.52750253677368164 0.18670177459716797
0.21856999397277832 0.53581905364990234 0.16039508581161499
0.36453661322593689 0.54985493421554565 0.12865795195102692
0.50784260034561157 0.56388533115386963 0.078315377235412598
0.63588333129882812 0.56795626878738403 0.025635946542024612
0.74024152755737305 0.56099826097488403 0.0022074980661273003
0.82909196615219116 0.54480236768722534 0
0.90671771764755249 0.52578794956207275 0
0.9741286039352417 0.51056230068206787 0
1 0.51447349786758423 0
0.019055578857660294 0.60402345657348633 0.26199096441268921
0.0024283614475280046 0.60658276081085205 0.25763437151908875
0.012059679254889488 0.6056172251701355 0.2566491961479187
0.10671395808458328 0.60466659069061279 0.25233751535415649
0.2334827333688736 0.60887175798416138 0.24008439481258392
0.35084307193756104 0.61892831325531006 0.21659117937088013
0.4726199209690094 0.62906736135482788 0.16918230056762695
0.59328615665435791 0.63652729988098145 0.10430499911308289
0.70795786380767822 0.64057350158691406 0.031696304678916931
0.81117135286331177 0.63970410823822021 0.0029052435420453548
0.89625197649002075 0.62797814607620239 8.9757586465566419e-06
0.96598368883132935 0.61109465360641479 0
0.99972087144851685 0.60582429170608521 0
0.097911328077316284 0.67744773626327515 0.32653582096099854
0.068579249083995819 0.68009042739868164 0.32185649871826172
0.078247919678688049 0.67895984649658203 0.32240948081016541
0.17669063806533813 0.67562580108642578 0.32386624813079834
0.28552761673927307 0.67676496505737305 0.31806847453117371
0.37592783570289612 0.68329989910125732 0.29936060309410095
0.47059530019760132 0.69076681137084961 0.26404017210006714
0.57165437936782837 0.69810450077056885 0.21287479996681213
0.6764976978302002 0.70628494024276733 0.14955931901931763
0.78575253486633301 0.71649938821792603 0.079760894179344177
0.88221150636672974 0.71825218200683594 0.021703742444515228
0.95249933004379272 0.70639556646347046 0.007358970120549202
0.99754029512405396 0.69918513298034668 0.0014587701298296452
0.22683301568031311 0.74642294645309448 0.40057528018951416
0.21574681997299194 0.7488446831703186 0.39547324180603027
0.23033411800861359 0.74740183353424072 0.39807212352752686
0.28952845931053162 0.7444344162940979 0.40276023745536804
0.36312711238861084 0.74408900737762451 0.40177783370018005
0.42905530333518982 0.74696075916290283 0.38986498117446899
0.49795472621917725 0.75181221961975098 0.36711105704307556
0.5766264796257019 0.75737249851226807 0.33833396434783936
0.65918779373168945 0.76334571838378906 0.30630624294281006
0.75088256597518921 0.77248996496200562 0.2519989013671875
0.84374040365219116 0.77922642230987549 0.18015363812446594
0.92582970857620239 0.78072166442871094 0.11578909307718277
0.98957580327987671 0.78043234348297119 0.068464107811450958
0.37498971819877625 0.81140393018722534 0.48771435022354126
0.37854874134063721 0.81335645914077759 0.48384824395179749
0.39135754108428955 0.81198835372924805 0.48839947581291199
0.42260050773620605 0.80930626392364502 0.49507719278335571
0.46414092183113098 0.80843240022659302 0.49728500843048096
0.5068555474281311 0.80937337875366211 0.49207079410552979
0.55322122573852539 0.81229668855667114 0.47855672240257263
0.60998040437698364 0.81595098972320557 0.46075588464736938
0.67153006792068481 0.82056915760040283 0.43700185418128967
0.7402571439743042 0.82612353563308716 0.40753772854804993
0.81652933359146118 0.83254384994506836 0.36416140198707581
0.89766609668731689 0.84104073047637939 0.29767611622810364
0.97181916236877441 0.84787464141845703 0.24385435879230499
0.51414197683334351 0.87216281890869141 0.58785605430603027
0.52025264501571655 0.87299996614456177 0.58651566505432129
0.5319674015045166 0.87176942825317383 0.59099555015563965
0.55089074373245239 0.8698163628578186 0.59730017185211182
0.57336461544036865 0.8679814338684082 0.60004490613937378
0.60066789388656616 0.8683476448059082 0.60049360990524292
0.63170033693313599 0.87176036834716797 0.59535527229309082
0.66734296083450317 0.87408566474914551 0.58259767293930054
0.70958584547042847 0.87839871644973755 0.5677608847618103
0.75976812839508057 0.88370984792709351 0.54834222793579102
0.81799149513244629 0.88995647430419922 0.51802420616149902
0.88363850116729736 0.89866644144058228 0.47721365094184875
0.94930845499038696 0.90657168626785278 0.43818607926368713
0.63038688898086548 0.92757195234298706 0.68425112962722778
0.63477069139480591 0.92752134799957275 0.68320471048355103
0.64434397220611572 0.92626315355300903 0.68714529275894165
0.65740382671356201 0.92498761415481567 0.69284194707870483
0.67059248685836792 0.92475634813308716 0.69628387689590454
0.68979567289352417 0.92532050609588623 0.70181035995483398
0.71113574504852295 0.92725640535354614 0.70374864339828491
0.7309226393699646 0.92999207973480225 0.69518166780471802
0.75832158327102661 0.93477451801300049 0.68695920705795288
0.79334574937820435 0.93984001874923706 0.6736481785774231
0.83548521995544434 0.94521152973175049 0.65144389867782593
0.8830837607383728 0.95226746797561646 0.63038992881774902
0.93427371978759766 0.95856529474258423 0.6088874340057373
0.014502701349556446 0.028949514031410217 0.065239682793617249
0.04820353165268898 0.032449085265398026 0.064310289919376373
0.10480093955993652 0.029121654108166695 0.065322622656822205
0.18998618423938751 0.021609989926218987 0.064492091536521912
0.30550703406333923 0.020669929683208466 0.063257701694965363
0.43580156564712524 0.020626816898584366 0.068958207964897156
0.56429314613342285 0.012270983308553696 0.066606141626834869
0.68334841728210449 0.010838497430086136 0.05410989373922348
0.78669923543930054 0.027372816577553749 0.037982013076543808
0.8719601035118103 0.058859359472990036 0.031150205060839653
0.94201159477233887 0.092681467533111572 0.020043915137648582
0.98825609683990479 0.13790687918663025 0.029566192999482155
1 0.18964070081710815 0.044276010245084763
0.0073916567489504814 0.065131261944770813 0.075238846242427826
0.045907564461231232 0.069276608526706696 0.075494520366191864
0.11263683438301086 0.072946242988109589 0.072081513702869415
0.20225299894809723 0.073387429118156433 0.067787691950798035
0.31567832827568054 0.076024733483791351 0.067567996680736542
0.44677248597145081 0.078039385378360748 0.065705694258213043
0.57390344142913818 0.074224628508090973 0.054110642522573471
0.68992680311203003 0.078292697668075562 0.042584601789712906
0.78969812393188477 0.096358522772789001 0.034228544682264328
0.87386912107467651 0.11908822506666183 0.026759907603263855
0.94281399250030518 0.14462682604789734 0.018307061865925789
0.98707634210586548 0.17764446139335632 0.014836344867944717
0.99958622455596924 0.22175058722496033 0.014217511750757694
0.0014161652652546763 0.13191872835159302 0.097651630640029907
0.02991822175681591 0.131670743227005 0.096129335463047028
0.10444860905408859 0.13934668898582458 0.085769876837730408
0.20873536169528961 0.14897537231445312 0.071392133831977844
0.33201420307159424 0.15580882132053375 0.060652203857898712
0.46421584486961365 0.16190730035305023 0.050610695034265518
0.58688521385192871 0.16597774624824524 0.036444779485464096
0.69605040550231934 0.17013090848922729 0.028567325323820114
0.78832972049713135 0.17837393283843994 0.021426122635602951
0.86972874402999878 0.19202233850955963 0.01618538610637188
0.93850135803222656 0.21076102554798126 0.0097002219408750534
0.98334336280822754 0.23410980403423309 0.0078150881454348564
0.99959957599639893 0.26682767271995544 0.0099889570847153664
0 0.22147363424301147 0.12534676492214203
0.0068431631661951542 0.2202753871679306 0.12462001293897629
0.064023159444332123 0.22386056184768677 0.11736849695444107
0.18531915545463562 0.24427764117717743 0.095256432890892029
0.33491650223731995 0.26359331607818604 0.066135391592979431
0.47675350308418274 0.26791733503341675 0.040252387523651123
0.5930517315864563 0.26241335272789001 0.024762246757745743
0.69438415765762329 0.2582089900970459 0.017690276727080345
0.78288233280181885 0.26017844676971436 0.007598488125950098
0.86275511980056763 0.26711675524711609 0.0052736317738890648
0.93247020244598389 0.2796471118927002 0.0037957883905619383
0.9825015664100647 0.29628226161003113 0.003543913597241044
1 0.32169753313064575 0.0046573714353144169
4.1468003473710269e-05 0.33130314946174622 0.15621747076511383
0.00019499834161251783 0.33538594841957092 0.15686832368373871
0.027751369401812553 0.3349701464176178 0.15618166327476501
0.14460375905036926 0.34721526503562927 0.13773481547832489
0.30412286520004272 0.36864331364631653 0.097182631492614746
0.45941823720932007 0.38139784336090088 0.04928264394402504
0.58630406856536865 0.37568080425262451 0.012494076043367386
0.69185316562652588 0.36023074388504028 0.0055176080204546452
0.77811378240585327 0.3485674262046814 0.001605359255336225
0.85581332445144653 0.34307524561882019 0.001681219320744276
0.92641615867614746 0.34905490279197693 0.000429654581239447
0.9794202446937561 0.36087679862976074 0.0007839427562430501
0.9996039867401123 0.38118410110473633 0.00084885244723409414
9.8733344202628359e-06 0.43990898132324219 0.19588537514209747
0.00017245423805434257 0.44411638379096985 0.19631734490394592
0.016480015590786934 0.44218924641609192 0.19774231314659119
0.11588762700557709 0.44541206955909729 0.18456020951271057
0.26247847080230713 0.45804634690284729 0.15056397020816803
0.4128202497959137 0.47353717684745789 0.10309937596321106
0.56270146369934082 0.48486831784248352 0.03304436057806015
0.68522149324417114 0.47682487964630127 0.0032482522074133158
0.77305829524993896 0.45499643683433533 0.0037780012935400009
0.84909039735794067 0.43378600478172302 0.0033195195719599724
0.92038595676422119 0.42712697386741638 0.00014053045015316457
0.97798007726669312 0.42881637811660767 0
0.99991077184677124 0.44213473796844482 0
0.00055636238539591432 0.53191423416137695 0.24058395624160767
0.00019516290922183543 0.53449279069900513 0.23948964476585388
0.018732348456978798 0.5323064923286438 0.24103376269340515
0.11487460881471634 0.53125667572021484 0.23514707386493683
0.24377022683620453 0.53715556859970093 0.21502833068370819
0.37235602736473083 0.54786199331283569 0.1824905127286911
0.51241528987884521 0.56269842386245728 0.11781493574380875
0.65033727884292603 0.57237839698791504 0.042486228048801422
0.75182640552520752 0.5605350136756897 0.020917825400829315
0.83599770069122314 0.54228073358535767 0.0043801101855933666
0.9097864031791687 0.52345997095108032 0
0.97532522678375244 0.50869268178939819 0
1 0.51234281063079834 0
0.025625385344028473 0.61117637157440186 0.29045385122299194
0.02021433599293232 0.61332207918167114 0.28867459297180176
0.054234493523836136 0.61078935861587524 0.2905978262424469
0.14964668452739716 0.60763746500015259 0.28976967930793762
0.26230186223983765 0.6101345419883728 0.278664231300354
0.36649036407470703 0.61760574579238892 0.25503259897232056
0.47946196794509888 0.62832313776016235 0.21203736960887909
0.59889942407608032 0.63753038644790649 0.1548936665058136
0.71554684638977051 0.64324969053268433 0.08777908980846405
0.82109254598617554 0.64394998550415039 0.026934634894132614
0.89834177494049072 0.62905192375183105 0.003547728294506669
0.96522331237792969 0.60925108194351196 0.00021093031682539731
0.99948406219482422 0.60230338573455811 5.1835002523148432e-05
0.11170848459005356 0.68357151746749878 0.34931933879852295
0.10696668177843094 0.68516111373901367 0.34670060873031616
0.13922238349914551 0.68248540163040161 0.34869539737701416
0.221649169921875 0.67811769247055054 0.35123506188392639
0.31299680471420288 0.67776191234588623 0.3471260666847229
0.39120739698410034 0.68243920803070068 0.33041244745254517
0.47716987133026123 0.68978500366210938 0.30168959498405457
0.57430738210678101 0.69779229164123535 0.26229298114776611
0.68003636598587036 0.7068670392036438 0.20594035089015961
0.78955209255218506 0.71844226121902466 0.13223385810852051
0.87867164611816406 0.71733123064041138 0.072221897542476654
0.95050865411758423 0.70640993118286133 0.043086603283882141
0.99694395065307617 0.69738507270812988 0.027053788304328918
0.24292391538619995 0.75110232830047607 0.41869190335273743
0.24331319332122803 0.75238341093063354 0.41613239049911499
0.26868137717247009 0.74997061491012573 0.41783374547958374
0.32390010356903076 0.74617534875869751 0.42222630977630615
0.38626325130462646 0.74444484710693359 0.42422649264335632
0.44421002268791199 0.74637997150421143 0.41594445705413818
0.50688141584396362 0.75117218494415283 0.39706677198410034
0.58009135723114014 0.75728636980056763 0.37208259105682373
0.66228830814361572 0.76350510120391846 0.34181535243988037
0.75392502546310425 0.77307730913162231 0.28980281949043274
0.84502130746841431 0.7802886962890625 0.22542141377925873
0.92717945575714111 0.78220027685165405 0.17638172209262848
0.99005031585693359 0.78080397844314575 0.13789466023445129
0.38826704025268555 0.81463205814361572 0.50019794702529907
0.39365330338478088 0.81586092710494995 0.50047260522842407
0.41181984543800354 0.81358170509338379 0.5028577446937561
0.44433671236038208 0.81064945459365845 0.5081709623336792
0.48167234659194946 0.80866909027099609 0.5133209228515625
0.52029824256896973 0.80887472629547119 0.51158857345581055
0.56260734796524048 0.81104987859725952 0.50009721517562866
0.61363595724105835 0.81528514623641968 0.4821891188621521
0.6738893985748291 0.82041662931442261 0.46134403347969055
0.74386346340179443 0.82735162973403931 0.4308493435382843
0.82002240419387817 0.83428359031677246 0.38530740141868591
0.90101379156112671 0.84260135889053345 0.33316069841384888
0.97564029693603516 0.84966945648193359 0.28976589441299438
0.52115374803543091 0.87387204170227051 0.59581452608108521
0.5293266773223877 0.87531089782714844 0.59737777709960938
0.5424383282661438 0.87242364883422852 0.60117906332015991
0.56175893545150757 0.87174469232559204 0.60619193315505981
0.58436954021453857 0.86859899759292603 0.61107945442199707
0.60961765050888062 0.86799544095993042 0.61246293783187866
0.63680505752563477 0.87000507116317749 0.60690534114837646
0.66861093044281006 0.87254887819290161 0.59325206279754639
0.70921510457992554 0.87740105390548706 0.57931786775588989
0.75966036319732666 0.88344717025756836 0.56171274185180664
0.81820732355117798 0.89032065868377686 0.53269463777542114
0.88555139303207397 0.89978361129760742 0.49607998132705688
0.95326864719390869 0.90858477354049683 0.46016994118690491
0.63062971830368042 0.92758703231811523 0.68826723098754883
0.63989090919494629 0.92818629741668701 0.69129008054733276
0.64986526966094971 0.92764723300933838 0.69527405500411987
0.66243535280227661 0.92682802677154541 0.69950467348098755
0.67755770683288574 0.9258735179901123 0.70331823825836182
0.69477087259292603 0.92585784196853638 0.70769369602203369
0.71185404062271118 0.92654013633728027 0.70804089307785034
0.73080843687057495 0.92911988496780396 0.70125490427017212
0.75653451681137085 0.93338727951049805 0.69274073839187622
0.79108107089996338 0.93885958194732666 0.68103349208831787
0.83345681428909302 0.94536435604095459 0.66256171464920044
0.88272571563720703 0.95305895805358887 0.64114755392074585
0.93655276298522949 0.95953047275543213 0.61615657806396484
0.0086500579491257668 0.037487629801034927 0.14297524094581604
0.050040017813444138 0.039312161505222321 0.13844017684459686
0.10855086147785187 0.038030214607715607 0.13690927624702454
0.19381897151470184 0.022344686090946198 0.13327468931674957
0.30690422654151917 0.010235087014734745 0.12992794811725616
0.43753299117088318 0.0096720224246382713 0.13236105442047119
0.57107877731323242 0.0054058297537267208 0.13472779095172882
0.69057977199554443 0.0080583011731505394 0.14708335697650909
0.78716909885406494 0.030041428282856941 0.15098224580287933
0.8690531849861145 0.077619574964046478 0.14369438588619232
0.93873357772827148 0.13039582967758179 0.13570944964885712
0.98634940385818481 0.17361946403980255 0.1367373913526535
0.9998244047164917 0.2174505889415741 0.14261242747306824
0.0013635673094540834 0.082845352590084076 0.15075059235095978
0.038476519286632538 0.082836821675300598 0.1499667763710022
0.1121707409620285 0.082987107336521149 0.14715205132961273
0.20661631226539612 0.074406400322914124 0.14375385642051697
0.32257255911827087 0.066283524036407471 0.14646810293197632
0.45207008719444275 0.065138243138790131 0.14896529912948608
0.57964861392974854 0.061884276568889618 0.14494518935680389
0.69398617744445801 0.07479444146156311 0.14719483256340027
0.78901976346969604 0.10597145557403564 0.14822608232498169
0.86998456716537476 0.13750745356082916 0.14136984944343567
0.93997389078140259 0.16897419095039368 0.13271766901016235
0.98778009414672852 0.20236973464488983 0.12754343450069427
0.99935662746429443 0.24198794364929199 0.12702175974845886
5.5111155234044418e-05 0.1516864001750946 0.16642428934574127
0.020353863015770912 0.14901119470596313 0.16561152040958405
0.11175429075956345 0.14923112094402313 0.16318593919277191
0.21853744983673096 0.15185438096523285 0.15641896426677704
0.34330594539642334 0.15373486280441284 0.15260596573352814
0.47283989191055298 0.16079695522785187 0.15207935869693756
0.59274828433990479 0.16699220240116119 0.14740382134914398
0.69853252172470093 0.17763669788837433 0.14494559168815613
0.78856319189071655 0.18894638121128082 0.13717643916606903
0.86722630262374878 0.20711120963096619 0.1303793340921402
0.93538773059844971 0.22682525217533112 0.12179240584373474
0.98255038261413574 0.25168845057487488 0.11522796005010605
0.998768150806427 0.28229081630706787 0.12071499973535538
5.466236689244397e-05 0.23963002860546112 0.19003431499004364
0.013765791431069374 0.24020648002624512 0.19028547406196594
0.098591826856136322 0.24183656275272369 0.1887182742357254
0.21438947319984436 0.25379166007041931 0.1791747659444809
0.35364922881126404 0.26281404495239258 0.16158127784729004
0.48558342456817627 0.26445093750953674 0.14551828801631927
0.59836643934249878 0.26167717576026917 0.13342024385929108
0.69792729616165161 0.26447451114654541 0.12230876833200455
0.78473633527755737 0.26866424083709717 0.10940296202898026
0.86206710338592529 0.27792578935623169 0.10763699561357498
0.93201172351837158 0.29169455170631409 0.10189040005207062
0.98348593711853027 0.30794113874435425 0.10061132162809372
0.99974489212036133 0.33375895023345947 0.10080986469984055
0.004991448950022459 0.34737977385520935 0.22082789242267609
0.019497711211442947 0.35391849279403687 0.22441756725311279
0.081207692623138428 0.35415086150169373 0.22583498060703278
0.19838987290859222 0.35960197448730469 0.21721042692661285
0.33140704035758972 0.3734343945980072 0.18971504271030426
0.47215402126312256 0.38056877255439758 0.15305279195308685
0.59191101789474487 0.36683368682861328 0.11665643751621246
0.69503539800643921 0.3553977906703949 0.097228392958641052
0.77971625328063965 0.35180476307868958 0.079490989446640015
0.85565805435180664 0.35018044710159302 0.080480791628360748
0.92698138952255249 0.3575914204120636 0.073452487587928772
0.98316329717636108 0.37060829997062683 0.075282484292984009
0.9997631311416626 0.39173504710197449 0.075141578912734985
0.01331755705177784 0.45198076963424683 0.25703468918800354
0.035023350268602371 0.45803624391555786 0.26192256808280945
0.081536434590816498 0.45530039072036743 0.26271390914916992
0.1843106746673584 0.4540608823299408 0.25756686925888062
0.30225098133087158 0.46348482370376587 0.23626495897769928
0.4288952648639679 0.47699454426765442 0.19578176736831665
0.56729930639266968 0.47953993082046509 0.13399909436702728
0.68641144037246704 0.4678531289100647 0.092801682651042938
