films/kodak_elite_extracolor_100.cube
# Created by: G'MIC (https://gmic.eu)
TITLE "kodak_elite_extracolor_100"
# LUT size
LUT_3D_SIZE 13
# Data domain
DOMAIN_MIN 0.0 0.0 0.0
DOMAIN_MAX 1.0 1.0 1.0
# LUT data points
0.038123622536659241 0.033295411616563797 0.028738493099808693
0.090296365320682526 0.028825633227825165 0.026528706774115562
0.14007407426834106 0.027239331975579262 0.02340780571103096
0.19873508810997009 0.023828139528632164 0.019849201664328575
0.26600271463394165 0.017446001991629601 0.016441211104393005
0.33847397565841675 0.0093098506331443787 0.014023724943399429
0.41576609015464783 0.0035104041453450918 0.010087884962558746
0.49876540899276733 0.0029258278664201498 0.0044023999944329262
0.57859510183334351 0.0025025312788784504 0.00082965922774747014
0.64691007137298584 0.00010340073640691116 0.00012440400314517319
0.71186614036560059 0 0
0.77759814262390137 0 0
0.83763676881790161 0 0
0.074224673211574554 0.099503442645072937 0.046131778508424759
0.11101717501878738 0.094905123114585876 0.044461596757173538
0.15635919570922852 0.088725507259368896 0.041550461202859879
0.21354228258132935 0.082273580133914948 0.034920066595077515
0.28007772564888 0.072606571018695831 0.028902376070618629
0.35231634974479675 0.058074519038200378 0.025724358856678009
0.43047541379928589 0.044294662773609161 0.019849454984068871
0.51348185539245605 0.036886118352413177 0.010793917812407017
0.58994734287261963 0.026661667972803116 0.0045929253101348877
0.65228754281997681 0.0084342360496520996 0.0021671070717275143
0.71408730745315552 0.00024913714150898159 0.00078264123294502497
0.77727097272872925 0 2.1721334633184597e-05
0.83496218919754028 0 0
0.11325471103191376 0.15978339314460754 0.069081403315067291
0.13811033964157104 0.15711504220962524 0.066915340721607208
0.17595750093460083 0.15081721544265747 0.064349785447120667
0.2313016951084137 0.14395499229431152 0.057338729500770569
0.29785653948783875 0.13461799919605255 0.049249254167079926
0.37050756812095642 0.12113595008850098 0.04264107346534729
0.45158499479293823 0.10703494399785995 0.03362669050693512
0.53649002313613892 0.093614421784877777 0.022009575739502907
0.6123998761177063 0.075115859508514404 0.011517947539687157
0.67143386602401733 0.047390073537826538 0.0064619025215506554
0.72651582956314087 0.019572628661990166 0.0027555129490792751
0.78084874153137207 0.0019682191777974367 0.00068607705179601908
0.83563005924224854 0.00013399311865214258 0
0.14001013338565826 0.22892425954341888 0.089216060936450958
0.16181816160678864 0.22484712302684784 0.088640220463275909
0.19792467355728149 0.21959224343299866 0.085594981908798218
0.25273400545120239 0.21340514719486237 0.079903528094291687
0.31885227560997009 0.20543324947357178 0.071544155478477478
0.39174419641494751 0.19470635056495667 0.06215585395693779
0.4749944806098938 0.18113881349563599 0.051279403269290924
0.5623888373374939 0.16465164721012115 0.038625679910182953
0.6390414834022522 0.14301468431949615 0.025829285383224487
0.69895666837692261 0.11352178454399109 0.014977234415709972
0.75052559375762939 0.078543640673160553 0.0057899476960301399
0.79817080497741699 0.040941771119832993 0.0013983184471726418
0.84874582290649414 0.025443267077207565 0
0.15428963303565979 0.31243458390235901 0.10582505911588669
0.17802596092224121 0.30635479092597961 0.10646916180849075
0.21715804934501648 0.3005530834197998 0.10488131642341614
0.2753995954990387 0.29491272568702698 0.099151536822319031
0.34395158290863037 0.28805196285247803 0.091607473790645599
0.41957995295524597 0.28029561042785645 0.081816442310810089
0.50524222850799561 0.26818001270294189 0.070441119372844696
0.59329807758331299 0.25080549716949463 0.058358121663331985
0.66956639289855957 0.22944121062755585 0.044000722467899323
0.73121732473373413 0.20157665014266968 0.028305711224675179
0.78375834226608276 0.16617138683795929 0.013374432921409607
0.83114117383956909 0.12620559334754944 0.0035526501014828682
0.87696468830108643 0.099183037877082825 0.00046075560385361314
0.16796219348907471 0.41065731644630432 0.11857401579618454
0.19544515013694763 0.40453177690505981 0.11948258429765701
0.23899529874324799 0.39835271239280701 0.11784888058900833
0.30079132318496704 0.39269620180130005 0.11318305879831314
0.37300390005111694 0.38669517636299133 0.10776781290769577
0.45367252826690674 0.38150539994239807 0.098667904734611511
0.54185795783996582 0.37045025825500488 0.08674844354391098
0.62824422121047974 0.35475248098373413 0.07459501177072525
0.70357704162597656 0.33594515919685364 0.06011383980512619
0.76732075214385986 0.31076300144195557 0.042881056666374207
0.82171189785003662 0.27506986260414124 0.02573128417134285
0.87007838487625122 0.23144836723804474 0.011688277125358582
0.91233599185943604 0.19577962160110474 0.0034970301203429699
0.18414382636547089 0.52296668291091919 0.12615953385829926
0.21902355551719666 0.51755863428115845 0.12334629148244858
0.26742526888847351 0.51174867153167725 0.11965584754943848
0.32987228035926819 0.50698232650756836 0.11694199591875076
0.40293771028518677 0.5042380690574646 0.11511701345443726
0.48621839284896851 0.4993438720703125 0.10789844393730164
0.5765763521194458 0.48823297023773193 0.094510786235332489
0.66168612241744995 0.4752105176448822 0.082260802388191223
0.73752826452255249 0.46007007360458374 0.069632932543754578
0.80394428968429565 0.43839231133460999 0.054174579679965973
0.86189115047454834 0.40525761246681213 0.036950625479221344
0.90992122888565063 0.36054551601409912 0.021152151748538017
0.94863247871398926 0.31791040301322937 0.0094921337440609932
0.2091563493013382 0.63564705848693848 0.11974304914474487
0.24934573471546173 0.63039934635162354 0.11369393765926361
0.30028644204139709 0.62574905157089233 0.10826167464256287
0.36424896121025085 0.62349462509155273 0.10565230250358582
0.43796500563621521 0.62279617786407471 0.1045696809887886
0.52233386039733887 0.61858618259429932 0.098987892270088196
0.61214596033096313 0.60860288143157959 0.087339006364345551
0.6961672306060791 0.59868568181991577 0.07791861891746521
0.77167314291000366 0.58902543783187866 0.070290721952915192
0.84048002958297729 0.57437855005264282 0.058486968278884888
0.9021950364112854 0.54855871200561523 0.04235483705997467
0.94848346710205078 0.51029998064041138 0.027053577825427055
0.98064273595809937 0.46778056025505066 0.014988843351602554
0.2508389949798584 0.73414385318756104 0.085625685751438141
0.28971832990646362 0.73252600431442261 0.084281623363494873
0.34109655022621155 0.73102056980133057 0.080562293529510498
0.40572479367256165 0.72956734895706177 0.077361054718494415
0.48226186633110046 0.7281230092048645 0.073998548090457916
0.56739073991775513 0.7245061993598938 0.068637490272521973
0.65373432636260986 0.71863150596618652 0.062920890748500824
0.73339599370956421 0.71281892061233521 0.059353504329919815
0.8060612678527832 0.70813560485839844 0.056858286261558533
0.87640100717544556 0.69937050342559814 0.05002162978053093
0.9386327862739563 0.68298596143722534 0.036710508167743683
0.97992110252380371 0.65387445688247681 0.024475965648889542
0.99835216999053955 0.61443817615509033 0.015026062726974487
0.30317249894142151 0.82308721542358398 0.036401279270648956
0.33843058347702026 0.82633876800537109 0.042367164045572281
0.38764649629592896 0.82573479413986206 0.042664021253585815
0.45272821187973022 0.82402008771896362 0.039714515209197998
0.53039789199829102 0.82202440500259399 0.034537326544523239
0.61464875936508179 0.81921565532684326 0.029638491570949554
0.69782406091690063 0.81700623035430908 0.029104733839631081
0.77028185129165649 0.81400215625762939 0.030604088678956032
0.83919018507003784 0.81041008234024048 0.031437579542398453
0.9096304178237915 0.80451363325119019 0.029151631519198418
0.96904891729354858 0.79159671068191528 0.021137552335858345
0.99753093719482422 0.77150046825408936 0.013778372667729855
1 0.74075585603713989 0.0093868924304842949
0.35985931754112244 0.90516436100006104 0.0016548007261008024
0.39115500450134277 0.91223067045211792 0.0075950473546981812
0.43787267804145813 0.91270828247070312 0.010914821177721024
0.50315046310424805 0.90930783748626709 0.0065811309032142162
0.57934796810150146 0.90565448999404907 0.0031203476246446371
0.65959256887435913 0.90375834703445435 0.0015393574722111225
0.73641526699066162 0.90443307161331177 0.0023110781330615282
0.80291926860809326 0.90679812431335449 0.005083001684397459
0.8680039644241333 0.90480542182922363 0.010254728607833385
0.9356764554977417 0.8968849778175354 0.012182153761386871
0.987526535987854 0.88800466060638428 0.0078406538814306259
1 0.87468934059143066 0.004636682104319334
1 0.84861743450164795 0.0035259320866316557
0.41820523142814636 0.97487121820449829 0
0.44868403673171997 0.98375040292739868 4.7062891098903492e-05
0.49362313747406006 0.98498517274856567 0.00015266268746927381
0.55750566720962524 0.98043143749237061 0
0.62946128845214844 0.97667574882507324 0
0.70348548889160156 0.97482794523239136 0
0.7734336256980896 0.976093590259552 0
0.83709836006164551 0.97982829809188843 0
0.90027332305908203 0.97649425268173218 0.0013894473668187857
0.96030521392822266 0.9676099419593811 0.0045094508677721024
0.99413967132568359 0.97131264209747314 0.0016395269194617867
1 0.96491789817810059 0.00013049256813246757
1 0.93876653909683228 0
0.47793510556221008 1 0
0.51242101192474365 1 0
0.55719482898712158 1 0
0.61458265781402588 1 0
0.68025863170623779 1 0
0.74760496616363525 1 0
0.81332820653915405 1 0
0.87688875198364258 1 0
0.94152164459228516 0.99941849708557129 4.8229740059468895e-05
0.98774862289428711 0.99865162372589111 0.00054589065257459879
0.99952751398086548 1 0
1 0.99989032745361328 0
1 0.99466627836227417 0
0.032496944069862366 0.035311918705701828 0.078351341187953949
0.076845772564411163 0.030415074899792671 0.076691076159477234
0.12701873481273651 0.026504112407565117 0.072667740285396576
0.18591812252998352 0.021744178608059883 0.06599145382642746
0.25444462895393372 0.016343405470252037 0.059772476553916931
0.32965889573097229 0.010309855453670025 0.053491029888391495
0.41038951277732849 0.0064259250648319721 0.04500395804643631
0.49515461921691895 0.0059395884163677692 0.034021817147731781
0.57702726125717163 0.0056848861277103424 0.022411106154322624
0.64594131708145142 0.00068203796399757266 0.01509201992303133
0.70999521017074585 0 0.0091867931187152863
0.77409064769744873 0 0.0028665431309491396
0.83214491605758667 0 7.5037336500827223e-05
0.064947701990604401 0.09842391312122345 0.094426341354846954
0.099332921206951141 0.094636864960193634 0.09407883882522583
0.14457502961158752 0.087721221148967743 0.089681021869182587
0.20165036618709564 0.079702980816364288 0.081783682107925415
0.26902249455451965 0.070501111447811127 0.073907248675823212
0.3437839150428772 0.059103887528181076 0.066488422453403473
0.42448371648788452 0.048651855438947678 0.057049442082643509
0.50822991132736206 0.040437180548906326 0.04506906121969223
0.58575540781021118 0.029561644420027733 0.032895855605602264
0.65175127983093262 0.011341693811118603 0.023515200242400169
0.71345597505569458 0.0007118075736798346 0.014788130298256874
0.77453625202178955 0 0.0063778446055948734
0.83080852031707764 0 0.0017757939640432596
0.10371976345777512 0.15992197394371033 0.11212189495563507
0.12766242027282715 0.156516432762146 0.11084361374378204
0.16586938500404358 0.15023116767406464 0.10778409242630005
0.22131346166133881 0.14292252063751221 0.10091578215360641
0.28858467936515808 0.13362398743629456 0.092331558465957642
0.36278414726257324 0.12183282524347305 0.082718148827552795
0.44419950246810913 0.10844427347183228 0.07161877304315567
0.52814280986785889 0.093898847699165344 0.058431245386600494
0.60412061214447021 0.073923207819461823 0.044888515025377274
0.66774839162826538 0.047960720956325531 0.032345730811357498
0.72455203533172607 0.020895026624202728 0.020260680466890335
0.77957427501678467 0.0028886832296848297 0.010235431604087353
0.83233833312988281 0 0.0041424171067774296
0.13061195611953735 0.22779600322246552 0.12784358859062195
0.149305060505867 0.22522464394569397 0.12597119808197021
0.1864742785692215 0.22038772702217102 0.12403387576341629
0.24353355169296265 0.21392630040645599 0.11919072270393372
0.31124776601791382 0.2063041478395462 0.11092409491539001
0.38526263833045959 0.19649918377399445 0.1003016009926796
0.46844884753227234 0.18263338506221771 0.088286668062210083
0.55400377511978149 0.16390560567378998 0.074550852179527283
0.63051730394363403 0.14104379713535309 0.059411156922578812
0.69348293542861938 0.11203942447900772 0.042837135493755341
0.74731194972991943 0.079491063952445984 0.025085359811782837
0.79668271541595459 0.043267868459224701 0.012086905539035797
0.845234215259552 0.01931794174015522 0.0060794604942202568
0.14229202270507812 0.30880707502365112 0.14113412797451019
0.16436637938022614 0.30705046653747559 0.14020298421382904
0.20579463243484497 0.30258947610855103 0.1383080780506134
0.26635855436325073 0.29605048894882202 0.1341632604598999
0.33663049340248108 0.29060819745063782 0.12728318572044373
0.41369998455047607 0.28393051028251648 0.11739172786474228
0.49924340844154358 0.27111822366714478 0.10576858371496201
0.58607959747314453 0.25182029604911804 0.092657335102558136
0.66252642869949341 0.22896058857440948 0.076020963490009308
0.72594797611236572 0.20032081007957458 0.056842386722564697
0.77982383966445923 0.16552716493606567 0.035604886710643768
0.82745361328125 0.12314329296350479 0.019608920440077782
0.87227529287338257 0.089720346033573151 0.011907510459423065
0.15434479713439941 0.40380868315696716 0.15110373497009277
0.18214693665504456 0.40456721186637878 0.15086723864078522
0.22817128896713257 0.40063393115997314 0.1491275429725647
0.29191756248474121 0.39416989684104919 0.14534269273281097
0.36574184894561768 0.39040228724479675 0.14055934548377991
0.44804662466049194 0.38495561480522156 0.13228102028369904
0.53652065992355347 0.37341505289077759 0.12082381546497345
0.62228512763977051 0.35716530680656433 0.10805417597293854
0.69812500476837158 0.33670186996459961 0.092282526195049286
0.76263600587844849 0.31008449196815491 0.07260914146900177
0.81812858581542969 0.27402457594871521 0.051847063004970551
0.86657238006591797 0.229664146900177 0.034147448837757111
0.90915346145629883 0.1924816370010376 0.023238791152834892
0.16735827922821045 0.51696622371673584 0.15849223732948303
0.20238298177719116 0.51776289939880371 0.15550029277801514
0.25275671482086182 0.51422494649887085 0.15245214104652405
0.31827262043952942 0.50953847169876099 0.15042443573474884
0.39519917964935303 0.50666499137878418 0.14689324796199799
0.48210832476615906 0.50119978189468384 0.13928607106208801
0.57306694984436035 0.49074891209602356 0.12757733464241028
0.65836262702941895 0.47733387351036072 0.11536287516355515
0.7341044545173645 0.46077322959899902 0.10148341208696365
0.80040901899337769 0.43868365883827209 0.083938181400299072
0.85840582847595215 0.40550535917282104 0.064408458769321442
0.90814560651779175 0.36187753081321716 0.046514295041561127
0.94838941097259521 0.32130685448646545 0.033999230712652206
0.19057817757129669 0.62981027364730835 0.15268264710903168
0.22948756814002991 0.62982630729675293 0.14907436072826385
0.2820286750793457 0.62828594446182251 0.14411342144012451
0.34878167510032654 0.62724989652633667 0.14117990434169769
0.42823481559753418 0.62547093629837036 0.13728834688663483
0.5177912712097168 0.61976534128189087 0.12909689545631409
0.60914301872253418 0.61121118068695068 0.11895961314439774
0.69365286827087402 0.60083687305450439 0.10917279124259949
0.76940262317657471 0.5891839861869812 0.099008552730083466
0.83786910772323608 0.5735553503036499 0.085019715130329132
0.89797002077102661 0.54736334085464478 0.068067483603954315
0.94671189785003662 0.51064074039459229 0.051630716770887375
0.98177540302276611 0.46944078803062439 0.039787039160728455
0.23073023557662964 0.73085254430770874 0.12146347761154175
0.26886859536170959 0.7313917875289917 0.12102659791707993
0.32110577821731567 0.73190438747406006 0.11473345011472702
0.38854688405990601 0.7321513295173645 0.11102369427680969
0.46990957856178284 0.73118644952774048 0.10581415146589279
0.5597374439239502 0.72630411386489868 0.097201161086559296
0.64844733476638794 0.7205546498298645 0.091059938073158264
0.72946089506149292 0.71381682157516479 0.08637111634016037
0.80410027503967285 0.70667171478271484 0.080895744264125824
0.87451493740081787 0.69705104827880859 0.071305848658084869
0.93544602394104004 0.6797640323638916 0.057193052023649216
0.97814702987670898 0.65435302257537842 0.045230492949485779
0.99846470355987549 0.61956673860549927 0.038046263158321381
0.28618985414505005 0.82354319095611572 0.063424080610275269
0.32033047080039978 0.82446068525314331 0.067506767809391022
0.36938142776489258 0.82324051856994629 0.063577644526958466
0.43680748343467712 0.8245357871055603 0.064427398145198822
0.5184633731842041 0.8231397271156311 0.059783156961202621
0.60617196559906006 0.81953847408294678 0.050010234117507935
0.68982410430908203 0.81753253936767578 0.049553710967302322
0.76477104425430298 0.81383532285690308 0.050281748175621033
0.83640998601913452 0.8088718056678772 0.048633843660354614
0.90762406587600708 0.80356431007385254 0.044728942215442657
0.96713584661483765 0.79126930236816406 0.03412139043211937
0.99736428260803223 0.77431762218475342 0.027025679126381874
1 0.74848955869674683 0.026757767423987389
0.34976205229759216 0.90965396165847778 0.0084427176043391228
0.38003575801849365 0.9113919734954834 0.014453125186264515
0.42554712295532227 0.90874922275543213 0.013967117294669151
0.49103495478630066 0.90840363502502441 0.018707664683461189
0.56967300176620483 0.9065975546836853 0.01623241975903511
0.65284222364425659 0.90423494577407837 0.0096795922145247459
0.7305372953414917 0.90471786260604858 0.010548251681029797
0.79960364103317261 0.90604329109191895 0.013293681666254997
0.86722743511199951 0.90399831533432007 0.016015011817216873
0.9344017505645752 0.8982551097869873 0.018090521916747093
0.98567575216293335 0.89011335372924805 0.012611732818186283
1 0.87953227758407593 0.0092857657000422478
1 0.85911285877227783 0.011788970790803432
0.41467896103858948 0.9808582067489624 0
0.44604569673538208 0.98397725820541382 0
0.48988983035087585 0.98274660110473633 0.0001303280150750652
0.55099767446517944 0.98062509298324585 0.00023169424093794078
0.6238863468170166 0.97793054580688477 0.00015566956426482648
0.70013701915740967 0.97615349292755127 0
0.77203446626663208 0.9770398736000061 0
0.8377082347869873 0.98023289442062378 0
0.90170896053314209 0.97843414545059204 0.00015496645937673748
0.95967364311218262 0.97275930643081665 0.0010413225973024964
0.9943777322769165 0.97267109155654907 0.00054613000247627497
1 0.96959924697875977 0.00014579623530153185
1 0.952217698097229 0.00071774650132283568
0.47999206185340881 1 0
0.51478487253189087 1 0
0.55822008848190308 1 0
0.61385732889175415 1 0
0.67920291423797607 1 0
0.74832028150558472 1 0
0.81523466110229492 1 0
0.87861955165863037 1 0
0.93908399343490601 0.99998760223388672 0
0.98473632335662842 0.99994003772735596 0
0.99969077110290527 1 0
1 1 0
1 0.99884110689163208 0
0.026106173172593117 0.037831533700227737 0.1295090913772583
0.067359060049057007 0.031246455386281013 0.12746019661426544
0.11806809902191162 0.025921031832695007 0.12386795878410339
0.17601597309112549 0.021456340327858925 0.11664143204689026
0.24427393078804016 0.016640981659293175 0.10914468020200729
0.32073542475700378 0.011958851478993893 0.10072164982557297
0.40285685658454895 0.0090901097282767296 0.090013571083545685
0.48709291219711304 0.0071249417960643768 0.076902411878108978
0.56732213497161865 0.004517274908721447 0.063104994595050812
0.63876640796661377 0.0005210727103985846 0.050838366150856018
0.7039496898651123 0 0.037802737206220627
0.76633048057556152 0 0.023069838061928749
0.8234286904335022 0 0.011943338438868523
0.056048106402158737 0.1000153049826622 0.14444950222969055
0.089992702007293701 0.094002820551395416 0.14191675186157227
0.1349121630191803 0.087186522781848907 0.13843128085136414
0.19144541025161743 0.07945309579372406 0.13173779845237732
0.25897055864334106 0.070873692631721497 0.12390013784170151
0.33491760492324829 0.061368141323328018 0.11490947008132935
0.41692760586738586 0.052295982837677002 0.10338664054870605
0.50056260824203491 0.043160650879144669 0.089596569538116455
0.5786249041557312 0.030395956709980965 0.07476496696472168
0.64738339185714722 0.01351433526724577 0.06020292267203331
0.70976966619491577 0.0012618718901649117 0.044862035661935806
0.76843661069869995 0 0.029486937448382378
0.82282847166061401 0 0.01990877091884613
0.093810558319091797 0.16185411810874939 0.15953613817691803
0.11749352514743805 0.1580936461687088 0.15668639540672302
0.15556758642196655 0.15231993794441223 0.15363682806491852
0.21079431474208832 0.14432455599308014 0.14833603799343109
0.27859663963317871 0.13471029698848724 0.14062124490737915
0.35422208905220032 0.12371146678924561 0.13089214265346527
0.43655997514724731 0.11084205657243729 0.11892236769199371
0.51991528272628784 0.094980321824550629 0.10444851964712143
0.59642338752746582 0.074577778577804565 0.088522955775260925
0.66251510381698608 0.048604194074869156 0.071638308465480804
0.72068262100219727 0.020577913150191307 0.053050830960273743
0.77419531345367432 0.0020583209116011858 0.03557872399687767
0.82504945993423462 0 0.024755559861660004
0.11708954721689224 0.22970455884933472 0.17339766025543213
0.13553875684738159 0.22857208549976349 0.1701362133026123
0.17487102746963501 0.22396814823150635 0.16810886561870575
0.23288218677043915 0.21676619350910187 0.16393248736858368
0.3019804060459137 0.20894226431846619 0.1567910760641098
0.378244549036026 0.19927649199962616 0.14696891605854034
0.46175232529640198 0.18525694310665131 0.1351369321346283
0.54614090919494629 0.16579882800579071 0.12092391401529312
0.62247586250305176 0.14075329899787903 0.10388677567243576
0.68700224161148071 0.11020008474588394 0.084229156374931335
0.741840660572052 0.074374452233314514 0.061932835727930069
0.79040360450744629 0.034842949360609055 0.040840223431587219
0.83655673265457153 0.009320591576397419 0.027609134092926979
0.12249118834733963 0.31008067727088928 0.18600261211395264
0.14693114161491394 0.31033748388290405 0.18259064853191376
0.19331324100494385 0.30562171339988708 0.18075768649578094
0.25655606389045715 0.29884606599807739 0.17705008387565613
0.32816895842552185 0.29395967721939087 0.17150221765041351
0.40708270668983459 0.28772252798080444 0.16279758512973785
0.49310275912284851 0.27397400140762329 0.15174126625061035
0.57898926734924316 0.25400599837303162 0.13827709853649139
0.65516674518585205 0.22910812497138977 0.12151660025119781
0.71916109323501587 0.19838610291481018 0.099994376301765442
0.77307593822479248 0.15965031087398529 0.075789943337440491
0.81979084014892578 0.11350477486848831 0.053116384893655777
0.86313092708587646 0.076323658227920532 0.038840483874082565
0.12960545718669891 0.40518674254417419 0.19658960402011871
0.1633843332529068 0.40667495131492615 0.19398978352546692
0.21502231061458588 0.40248581767082214 0.19150859117507935
0.28225648403167725 0.39555114507675171 0.18776710331439972
0.35767647624015808 0.39336007833480835 0.18419560790061951
0.44118034839630127 0.38908424973487854 0.17740917205810547
0.5301700234413147 0.37770035862922668 0.16694203019142151
0.61591196060180664 0.35941806435585022 0.15397699177265167
0.69148111343383789 0.33731144666671753 0.13758280873298645
0.75557416677474976 0.31023320555686951 0.11716066300868988
0.81075608730316162 0.27282091975212097 0.093986004590988159
0.85933810472488403 0.22716431319713593 0.072513163089752197
0.90196138620376587 0.18852289021015167 0.058024358004331589
0.14089101552963257 0.51627832651138306 0.20430263876914978
0.17998875677585602 0.52048718929290771 0.20005024969577789
0.23502467572689056 0.51650631427764893 0.19822685420513153
