films/kodak_portra_160_nc.cube
# Created by: G'MIC (https://gmic.eu)
TITLE "kodak_portra_160_nc"
# LUT size
LUT_3D_SIZE 5
# Data domain
DOMAIN_MIN 0.0 0.0 0.0
DOMAIN_MAX 1.0 1.0 1.0
# LUT data points
0.023169424384832382 0.029044834896922112 0.030770216137170792
0.19837449491024017 0.053829748183488846 0.029533296823501587
0.51650995016098022 0.066832475364208221 0.0093882689252495766
0.79216057062149048 0.12194309383630753 0.0023447074927389622
0.99021488428115845 0.2244986891746521 0.017894893884658813
0 0.21988339722156525 0.077060297131538391
0.1781160831451416 0.27884063124656677 0.027154674753546715
0.58954787254333496 0.29010745882987976 0.0002071604976663366
0.82311731576919556 0.28932052850723267 0
0.9947655200958252 0.34360355138778687 0.0024300070945173502
0 0.50704872608184814 0.20446595549583435
0.022730853408575058 0.51871556043624878 0.19713893532752991
0.49782183766365051 0.58878016471862793 0.074884511530399323
0.84547579288482666 0.57789093255996704 0
0.9936785101890564 0.53575229644775391 0.0044087129645049572
0.08452664315700531 0.72529309988021851 0.39194181561470032
0.17316620051860809 0.72786837816238403 0.40070948004722595
0.41634497046470642 0.74789524078369141 0.37988573312759399
0.71724605560302734 0.78473067283630371 0.270833820104599
0.98410618305206299 0.79822331666946411 0.18711882829666138
0.58031159639358521 0.91390097141265869 0.69975322484970093
0.59450346231460571 0.91252982616424561 0.70021510124206543
0.65215450525283813 0.91811186075210571 0.71154266595840454
0.74229890108108521 0.93652600049972534 0.68341749906539917
0.90401273965835571 0.96298271417617798 0.63292914628982544
0.0073969974182546139 0.050044938921928406 0.22876012325286865
0.22644792497158051 0.061428427696228027 0.22820703685283661
0.53865504264831543 0.041274186223745346 0.21584229171276093
0.79331713914871216 0.13167616724967957 0.23140034079551697
0.98014622926712036 0.27083432674407959 0.25675863027572632
0.0016918855253607035 0.27143260836601257 0.26748260855674744
0.26515388488769531 0.29166522622108459 0.2828114926815033
0.57655501365661621 0.30006706714630127 0.26808285713195801
0.80623936653137207 0.32309755682945251 0.25577732920646667
0.98607385158538818 0.38354730606079102 0.26900157332420349
0.19461669027805328 0.54494172334671021 0.38748559355735779
0.24836306273937225 0.54497098922729492 0.3749178946018219
0.5439034104347229 0.59116262197494507 0.31791278719902039
0.83898270130157471 0.5712159276008606 0.26431751251220703
0.99252992868423462 0.54936736822128296 0.27440384030342102
0.29715690016746521 0.73744112253189087 0.50086838006973267
0.34039488434791565 0.73600190877914429 0.49336427450180054
0.47453901171684265 0.7434769868850708 0.48286658525466919
0.73631817102432251 0.78642541170120239 0.41684132814407349
0.98280549049377441 0.79400670528411865 0.37107428908348083
0.60933589935302734 0.91453266143798828 0.72599148750305176
0.6238400936126709 0.91683542728424072 0.72629791498184204
0.67308986186981201 0.91969156265258789 0.73472440242767334
0.75423514842987061 0.93538564443588257 0.72017055749893188
0.90894943475723267 0.96132844686508179 0.67732983827590942
0.014663262292742729 0.097269989550113678 0.55649477243423462
0.298635333776474 0.12147355824708939 0.56546705961227417
0.60502934455871582 0.17638953030109406 0.56344723701477051
0.81899076700210571 0.23155926167964935 0.51285529136657715
0.98931372165679932 0.29460248351097107 0.48368954658508301
0.00037128225085325539 0.31885936856269836 0.57080292701721191
0.32504278421401978 0.33767887949943542 0.58381503820419312
0.61556071043014526 0.37740376591682434 0.58784002065658569
0.81881088018417358 0.38474377989768982 0.5380893349647522
0.98270761966705322 0.4160124659538269 0.51247251033782959
0.20158177614212036 0.57331925630569458 0.58005321025848389
0.3853859007358551 0.58218765258789062 0.58930343389511108
0.60366439819335938 0.59547442197799683 0.60214877128601074
0.80585163831710815 0.57973694801330566 0.56863129138946533
0.97066938877105713 0.58022379875183105 0.54122769832611084
0.51949137449264526 0.75819122791290283 0.66372740268707275
0.55546373128890991 0.75659692287445068 0.66583621501922607
0.6059030294418335 0.7530636191368103 0.65295529365539551
0.76642733812332153 0.78691011667251587 0.62728017568588257
0.97927224636077881 0.78425782918930054 0.59559929370880127
0.69143503904342651 0.91739779710769653 0.79573231935501099
0.69867169857025146 0.91862833499908447 0.79040402173995972
0.71502125263214111 0.92032963037490845 0.78681474924087524
0.77322161197662354 0.93364697694778442 0.78192847967147827
0.91682606935501099 0.9616621732711792 0.75393164157867432
0.18577176332473755 0.22540213167667389 0.80371582508087158
0.40080440044403076 0.25228098034858704 0.7999730110168457
0.65473455190658569 0.33134794235229492 0.80284905433654785
0.84587013721466064 0.39457216858863831 0.79250508546829224
0.96989423036575317 0.46340465545654297 0.74997282028198242
0.25404417514801025 0.38656845688819885 0.80202639102935791
0.42362678050994873 0.40799626708030701 0.80307310819625854
0.6582719087600708 0.45972523093223572 0.80378443002700806
0.83471548557281494 0.51423186063766479 0.79457360506057739
0.95996195077896118 0.55251723527908325 0.76584649085998535
0.27266749739646912 0.58931982517242432 0.78577619791030884
0.39781129360198975 0.5948951244354248 0.78803718090057373
0.63525485992431641 0.62227761745452881 0.79860967397689819
0.81695675849914551 0.6611061692237854 0.8020627498626709
0.95098769664764404 0.67052739858627319 0.77918660640716553
0.48873472213745117 0.77171742916107178 0.78551179170608521
0.54347455501556396 0.77428382635116577 0.79035544395446777
0.66744339466094971 0.78021085262298584 0.79794973134994507
0.80387270450592041 0.78998696804046631 0.80482804775238037
0.95410394668579102 0.78549313545227051 0.78746527433395386
0.7204594612121582 0.92644029855728149 0.85843247175216675
0.73645997047424316 0.92793196439743042 0.8593863844871521
0.78758901357650757 0.93157297372817993 0.86926227807998657
0.82813948392868042 0.93755060434341431 0.86365067958831787
0.94352847337722778 0.96421819925308228 0.8502458930015564
0.53124183416366577 0.47122234106063843 0.95977354049682617
0.60093307495117188 0.48855340480804443 0.95497590303421021
0.73292118310928345 0.53501838445663452 0.95062756538391113
0.87606430053710938 0.61784583330154419 0.94805294275283813
0.98983144760131836 0.66225391626358032 0.94261735677719116
0.55508595705032349 0.55638957023620605 0.95525079965591431
0.61780393123626709 0.56432414054870605 0.95581382513046265
0.74496322870254517 0.60750949382781982 0.95000886917114258
0.87627959251403809 0.66399896144866943 0.9472353458404541
0.98408818244934082 0.69585669040679932 0.9409644603729248
0.54218310117721558 0.66989409923553467 0.95036441087722778
0.60609191656112671 0.67897993326187134 0.95013362169265747
0.72757905721664429 0.69792848825454712 0.95012253522872925
0.86825346946716309 0.74494004249572754 0.95085012912750244
0.97725987434387207 0.76623821258544922 0.94697421789169312
0.55323690176010132 0.80763155221939087 0.94776809215545654
0.58548349142074585 0.80512279272079468 0.94423246383666992
0.6827850341796875 0.80554616451263428 0.94896680116653442
0.83646881580352783 0.8243175745010376 0.95299321413040161
0.97298663854598999 0.86605089902877808 0.95599555969238281
0.71462500095367432 0.95359951257705688 0.95509350299835205
0.73080378770828247 0.95177870988845825 0.95482045412063599
0.78018760681152344 0.95489370822906494 0.95963388681411743
0.86512941122055054 0.95645326375961304 0.9636615514755249
0.97230273485183716 0.9657171368598938 0.97205126285552979
