films/kodak_t-max_400.cube
TITLE "data/luts/rawtherapee/HaldCLUT/Black-and-White/Kodak/Kodak T-Max 400.png"
LUT_3D_SIZE 4
DOMAIN_MIN 0 0 0
DOMAIN_MAX 1 1 1
0.000000 0.000000 0.000000
0.000000 0.000000 0.000000
0.000000 0.000000 0.000000
0.000000 0.000000 0.000000
0.220915 0.220915 0.220915
0.224837 0.224837 0.224837
0.224837 0.224837 0.224837
0.213072 0.213072 0.213072
0.602614 0.602614 0.602614
0.606536 0.606536 0.606536
0.606536 0.606536 0.606536
0.606536 0.606536 0.606536
0.925490 0.925490 0.925490
0.925490 0.925490 0.925490
0.929412 0.929412 0.929412
0.933333 0.933333 0.933333
0.011765 0.011765 0.011765
0.015686 0.015686 0.015686
0.015686 0.015686 0.015686
0.011765 0.011765 0.011765
0.298039 0.298039 0.298039
0.301961 0.301961 0.301961
0.303268 0.303268 0.303268
0.295425 0.295425 0.295425
0.637908 0.637908 0.637908
0.639070 0.639070 0.639070
0.641830 0.641830 0.641830
0.641394 0.641394 0.641394
0.937255 0.937255 0.937255
0.937255 0.937255 0.937255
0.941176 0.941176 0.941176
0.941176 0.941176 0.941176
0.107190 0.107190 0.107190
0.115033 0.115033 0.115033
0.124183 0.124183 0.124183
0.118954 0.118954 0.118954
0.422222 0.422222 0.422222
0.426144 0.426144 0.426144
0.431082 0.431082 0.431082
0.430065 0.430065 0.430065
0.703704 0.703704 0.703704
0.705447 0.705447 0.705447
0.709368 0.709368 0.709368
0.709368 0.709368 0.709368
0.956863 0.956863 0.956863
0.956863 0.956863 0.956863
0.960784 0.960784 0.960784
0.960784 0.960784 0.960784
0.352941 0.352941 0.352941
0.364706 0.364706 0.364706
0.376471 0.376471 0.376471
0.380392 0.380392 0.380392
0.586928 0.586928 0.586928
0.590850 0.590850 0.590850
0.601743 0.601743 0.601743
0.606536 0.606536 0.606536
0.801307 0.801307 0.801307
0.801307 0.801307 0.801307
0.809150 0.809150 0.809150
0.813072 0.813072 0.813072
0.988235 0.988235 0.988235
0.988235 0.988235 0.988235
0.992157 0.992157 0.992157
1.000000 1.000000 1.000000
