films/kodak_t-max_100.cube
# Created by: G'MIC (https://gmic.eu)
TITLE "kodak_t-max_100"
# LUT size
LUT_3D_SIZE 5
# Data domain
DOMAIN_MIN 0.0 0.0 0.0
DOMAIN_MAX 1.0 1.0 1.0
# LUT data points
0.021254191175103188 0.021254191175103188 0.021254191175103188
0.049084443598985672 0.049084443598985672 0.049084443598985672
0.08257787674665451 0.08257787674665451 0.08257787674665451
0.1658797413110733 0.1658797413110733 0.1658797413110733
0.27745610475540161 0.27745610475540161 0.27745610475540161
0.16607269644737244 0.16607269644737244 0.16607269644737244
0.18206647038459778 0.18206647038459778 0.18206647038459778
0.21619218587875366 0.21619218587875366 0.21619218587875366
0.28368818759918213 0.28368818759918213 0.28368818759918213
0.38495418429374695 0.38495418429374695 0.38495418429374695
0.35188800096511841 0.35188800096511841 0.35188800096511841
0.36838552355766296 0.36838552355766296 0.36838552355766296
0.39545813202857971 0.39545813202857971 0.39545813202857971
0.44972109794616699 0.44972109794616699 0.44972109794616699
0.53310716152191162 0.53310716152191162 0.53310716152191162
0.59555566310882568 0.59555566310882568 0.59555566310882568
0.59318315982818604 0.59318315982818604 0.59318315982818604
0.60661596059799194 0.60661596059799194 0.60661596059799194
0.64809024333953857 0.64809024333953857 0.64809024333953857
0.70936334133148193 0.70936334133148193 0.70936334133148193
0.83154922723770142 0.83154922723770142 0.83154922723770142
0.80752354860305786 0.80752354860305786 0.80752354860305786
0.80711936950683594 0.80711936950683594 0.80711936950683594
0.83753246068954468 0.83753246068954468 0.83753246068954468
0.88905268907546997 0.88905268907546997 0.88905268907546997
0.065017208456993103 0.065017208456993103 0.065017208456993103
0.099659189581871033 0.099659189581871033 0.099659189581871033
0.13925103843212128 0.13925103843212128 0.13925103843212128
0.2053232342004776 0.2053232342004776 0.2053232342004776
0.30794474482536316 0.30794474482536316 0.30794474482536316
0.20373310148715973 0.20373310148715973 0.20373310148715973
0.22616323828697205 0.22616323828697205 0.22616323828697205
0.26209375262260437 0.26209375262260437 0.26209375262260437
0.3218931257724762 0.3218931257724762 0.3218931257724762
0.41410696506500244 0.41410696506500244 0.41410696506500244
0.39184397459030151 0.39184397459030151 0.39184397459030151
0.40231519937515259 0.40231519937515259 0.40231519937515259
0.42983686923980713 0.42983686923980713 0.42983686923980713
0.4803929328918457 0.4803929328918457 0.4803929328918457
0.55537450313568115 0.55537450313568115 0.55537450313568115
0.61406344175338745 0.61406344175338745 0.61406344175338745
0.61463731527328491 0.61463731527328491 0.61463731527328491
0.62883734703063965 0.62883734703063965 0.62883734703063965
0.66486924886703491 0.66486924886703491 0.66486924886703491
0.71961992979049683 0.71961992979049683 0.71961992979049683
0.82492595911026001 0.82492595911026001 0.82492595911026001
0.81970667839050293 0.81970667839050293 0.81970667839050293
0.82319790124893188 0.82319790124893188 0.82319790124893188
0.84740734100341797 0.84740734100341797 0.84740734100341797
0.88641911745071411 0.88641911745071411 0.88641911745071411
0.12212911993265152 0.12212911993265152 0.12212911993265152
0.1615321934223175 0.1615321934223175 0.1615321934223175
0.20767378807067871 0.20767378807067871 0.20767378807067871
0.26893153786659241 0.26893153786659241 0.26893153786659241
0.37014037370681763 0.37014037370681763 0.37014037370681763
0.27007672190666199 0.27007672190666199 0.27007672190666199
0.29124704003334045 0.29124704003334045 0.29124704003334045
0.32932546734809875 0.32932546734809875 0.32932546734809875
0.38731586933135986 0.38731586933135986 0.38731586933135986
0.47161698341369629 0.47161698341369629 0.47161698341369629
0.45284625887870789 0.45284625887870789 0.45284625887870789
0.46161043643951416 0.46161043643951416 0.46161043643951416
0.48694762587547302 0.48694762587547302 0.48694762587547302
0.53293442726135254 0.53293442726135254 0.53293442726135254
0.59898847341537476 0.59898847341537476 0.59898847341537476
0.65294152498245239 0.65294152498245239 0.65294152498245239
0.65569376945495605 0.65569376945495605 0.65569376945495605
0.66911154985427856 0.66911154985427856 0.66911154985427856
0.69745606184005737 0.69745606184005737 0.69745606184005737
0.74290937185287476 0.74290937185287476 0.74290937185287476
0.8432081937789917 0.8432081937789917 0.8432081937789917
0.84375250339508057 0.84375250339508057 0.84375250339508057
0.84894818067550659 0.84894818067550659 0.84894818067550659
0.86704170703887939 0.86704170703887939 0.86704170703887939
0.89939385652542114 0.89939385652542114 0.89939385652542114
0.2320941686630249 0.2320941686630249 0.2320941686630249
0.25756359100341797 0.25756359100341797 0.25756359100341797
0.30502897500991821 0.30502897500991821 0.30502897500991821
0.3731893002986908 0.3731893002986908 0.3731893002986908
0.46409618854522705 0.46409618854522705 0.46409618854522705
0.36334922909736633 0.36334922909736633 0.36334922909736633
0.3808688223361969 0.3808688223361969 0.3808688223361969
0.41968610882759094 0.41968610882759094 0.41968610882759094
0.47826957702636719 0.47826957702636719 0.47826957702636719
0.55468833446502686 0.55468833446502686 0.55468833446502686
0.53072220087051392 0.53072220087051392 0.53072220087051392
0.54013192653656006 0.54013192653656006 0.54013192653656006
0.56526076793670654 0.56526076793670654 0.56526076793670654
0.60770118236541748 0.60770118236541748 0.60770118236541748
0.66631186008453369 0.66631186008453369 0.66631186008453369
0.71346700191497803 0.71346700191497803 0.71346700191497803
0.71643030643463135 0.71643030643463135 0.71643030643463135
0.72813183069229126 0.72813183069229126 0.72813183069229126
0.75391584634780884 0.75391584634780884 0.75391584634780884
0.79534375667572021 0.79534375667572021 0.79534375667572021
0.88799673318862915 0.88799673318862915 0.88799673318862915
0.88687342405319214 0.88687342405319214 0.88687342405319214
0.89050155878067017 0.89050155878067017 0.89050155878067017
0.90601915121078491 0.90601915121078491 0.90601915121078491
0.93506157398223877 0.93506157398223877 0.93506157398223877
0.35275545716285706 0.35275545716285706 0.35275545716285706
0.37405025959014893 0.37405025959014893 0.37405025959014893
0.42052236199378967 0.42052236199378967 0.42052236199378967
0.48850882053375244 0.48850882053375244 0.48850882053375244
0.57354307174682617 0.57354307174682617 0.57354307174682617
0.47021114826202393 0.47021114826202393 0.47021114826202393
0.48679426312446594 0.48679426312446594 0.48679426312446594
0.52429145574569702 0.52429145574569702 0.52429145574569702
0.580344557762146 0.580344557762146 0.580344557762146
0.64782261848449707 0.64782261848449707 0.64782261848449707
0.618510901927948 0.618510901927948 0.618510901927948
0.628853440284729 0.628853440284729 0.628853440284729
0.65342468023300171 0.65342468023300171 0.65342468023300171
0.69339382648468018 0.69339382648468018 0.69339382648468018
0.7449762225151062 0.7449762225151062 0.7449762225151062
0.78382891416549683 0.78382891416549683 0.78382891416549683
0.78614252805709839 0.78614252805709839 0.78614252805709839
0.79740840196609497 0.79740840196609497 0.79740840196609497
0.8226548433303833 0.8226548433303833 0.8226548433303833
0.86048358678817749 0.86048358678817749 0.86048358678817749
0.94786155223846436 0.94786155223846436 0.94786155223846436
0.93970036506652832 0.93970036506652832 0.93970036506652832
0.94146972894668579 0.94146972894668579 0.94146972894668579
0.9568670392036438 0.9568670392036438 0.9568670392036438
0.98412543535232544 0.98412543535232544 0.98412543535232544
