films/kodak_tri-x_400.cube
# Created by: G'MIC (https://gmic.eu)
TITLE "kodak_tri-x_400"
# LUT size
LUT_3D_SIZE 13
# Data domain
DOMAIN_MIN 0.0 0.0 0.0
DOMAIN_MAX 1.0 1.0 1.0
# LUT data points
0.075034990906715393 0.075034990906715393 0.075034990906715393
0.088527947664260864 0.088527947664260864 0.088527947664260864
0.099266171455383301 0.099266171455383301 0.099266171455383301
0.11298596113920212 0.11298596113920212 0.11298596113920212
0.14197951555252075 0.14197951555252075 0.14197951555252075
0.17386500537395477 0.17386500537395477 0.17386500537395477
0.19870172441005707 0.19870172441005707 0.19870172441005707
0.23245096206665039 0.23245096206665039 0.23245096206665039
0.27823951840400696 0.27823951840400696 0.27823951840400696
0.31899192929267883 0.31899192929267883 0.31899192929267883
0.3692944347858429 0.3692944347858429 0.3692944347858429
0.43027973175048828 0.43027973175048828 0.43027973175048828
0.48586204648017883 0.48586204648017883 0.48586204648017883
0.10590489953756332 0.10590489953756332 0.10590489953756332
0.11690118908882141 0.11690118908882141 0.11690118908882141
0.13248807191848755 0.13248807191848755 0.13248807191848755
0.15097786486148834 0.15097786486148834 0.15097786486148834
0.16990220546722412 0.16990220546722412 0.16990220546722412
0.1977982223033905 0.1977982223033905 0.1977982223033905
0.23678150773048401 0.23678150773048401 0.23678150773048401
0.27584689855575562 0.27584689855575562 0.27584689855575562
0.31411507725715637 0.31411507725715637 0.31411507725715637
0.35192129015922546 0.35192129015922546 0.35192129015922546
0.40148130059242249 0.40148130059242249 0.40148130059242249
0.46444457769393921 0.46444457769393921 0.46444457769393921
0.52064043283462524 0.52064043283462524 0.52064043283462524
0.13992123305797577 0.13992123305797577 0.13992123305797577
0.15335865318775177 0.15335865318775177 0.15335865318775177
0.17399200797080994 0.17399200797080994 0.17399200797080994
0.19536721706390381 0.19536721706390381 0.19536721706390381
0.21719442307949066 0.21719442307949066 0.21719442307949066
0.24519132077693939 0.24519132077693939 0.24519132077693939
0.28404378890991211 0.28404378890991211 0.28404378890991211
0.32310503721237183 0.32310503721237183 0.32310503721237183
0.3570798933506012 0.3570798933506012 0.3570798933506012
0.38904544711112976 0.38904544711112976 0.38904544711112976
0.43997624516487122 0.43997624516487122 0.43997624516487122
0.50750255584716797 0.50750255584716797 0.50750255584716797
0.56242722272872925 0.56242722272872925 0.56242722272872925
0.20308610796928406 0.20308610796928406 0.20308610796928406
0.20465658605098724 0.20465658605098724 0.20465658605098724
0.21339334547519684 0.21339334547519684 0.21339334547519684
0.24449717998504639 0.24449717998504639 0.24449717998504639
0.28699305653572083 0.28699305653572083 0.28699305653572083
0.32002565264701843 0.32002565264701843 0.32002565264701843
0.3514556884765625 0.3514556884765625 0.3514556884765625
0.38533481955528259 0.38533481955528259 0.38533481955528259
0.41901710629463196 0.41901710629463196 0.41901710629463196
0.45312973856925964 0.45312973856925964 0.45312973856925964
0.50182878971099854 0.50182878971099854 0.50182878971099854
0.56250041723251343 0.56250041723251343 0.56250041723251343
0.60822480916976929 0.60822480916976929 0.60822480916976929
0.27455881237983704 0.27455881237983704 0.27455881237983704
0.27041199803352356 0.27041199803352356 0.27041199803352356
0.26295068860054016 0.26295068860054016 0.26295068860054016
0.29481706023216248 0.29481706023216248 0.29481706023216248
0.3461725115776062 0.3461725115776062 0.3461725115776062
0.38809603452682495 0.38809603452682495 0.38809603452682495
0.42266461253166199 0.42266461253166199 0.42266461253166199
0.45556613802909851 0.45556613802909851 0.45556613802909851
0.48953953385353088 0.48953953385353088 0.48953953385353088
0.52613985538482666 0.52613985538482666 0.52613985538482666
0.57419931888580322 0.57419931888580322 0.57419931888580322
0.62535232305526733 0.62535232305526733 0.62535232305526733
0.66323775053024292 0.66323775053024292 0.66323775053024292
0.34086409211158752 0.34086409211158752 0.34086409211158752
0.33500885963439941 0.33500885963439941 0.33500885963439941
0.3281002938747406 0.3281002938747406 0.3281002938747406
0.3480885922908783 0.3480885922908783 0.3480885922908783
0.3940984308719635 0.3940984308719635 0.3940984308719635
0.43992310762405396 0.43992310762405396 0.43992310762405396
0.48393788933753967 0.48393788933753967 0.48393788933753967
0.52199220657348633 0.52199220657348633 0.52199220657348633
0.55731320381164551 0.55731320381164551 0.55731320381164551
0.59274500608444214 0.59274500608444214 0.59274500608444214
0.63699162006378174 0.63699162006378174 0.63699162006378174
0.68335717916488647 0.68335717916488647 0.68335717916488647
0.7200089693069458 0.7200089693069458 0.7200089693069458
0.40447208285331726 0.40447208285331726 0.40447208285331726
0.40044382214546204 0.40044382214546204 0.40044382214546204
0.39372619986534119 0.39372619986534119 0.39372619986534119
0.40221211314201355 0.40221211314201355 0.40221211314201355
0.44088953733444214 0.44088953733444214 0.44088953733444214
0.48608332872390747 0.48608332872390747 0.48608332872390747
0.53428769111633301 0.53428769111633301 0.53428769111633301
0.57952612638473511 0.57952612638473511 0.57952612638473511
0.61941790580749512 0.61941790580749512 0.61941790580749512
0.65749192237854004 0.65749192237854004 0.65749192237854004
0.69940745830535889 0.69940745830535889 0.69940745830535889
0.74241542816162109 0.74241542816162109 0.74241542816162109
0.77448242902755737 0.77448242902755737 0.77448242902755737
0.48247602581977844 0.48247602581977844 0.48247602581977844
0.4805397093296051 0.4805397093296051 0.4805397093296051
0.471334308385849 0.471334308385849 0.471334308385849
0.46345597505569458 0.46345597505569458 0.46345597505569458
0.48971349000930786 0.48971349000930786 0.48971349000930786
0.53194785118103027 0.53194785118103027 0.53194785118103027
0.5789797306060791 0.5789797306060791 0.5789797306060791
0.62828505039215088 0.62828505039215088 0.62828505039215088
0.67712396383285522 0.67712396383285522 0.67712396383285522
0.72273546457290649 0.72273546457290649 0.72273546457290649
0.75767415761947632 0.75767415761947632 0.75767415761947632
0.79215496778488159 0.79215496778488159 0.79215496778488159
0.82059115171432495 0.82059115171432495 0.82059115171432495
0.58015292882919312 0.58015292882919312 0.58015292882919312
0.57554805278778076 0.57554805278778076 0.57554805278778076
0.56260067224502563 0.56260067224502563 0.56260067224502563
0.55006331205368042 0.55006331205368042 0.55006331205368042
0.55768513679504395 0.55768513679504395 0.55768513679504395
0.5839543342590332 0.5839543342590332 0.5839543342590332
0.62446564435958862 0.62446564435958862 0.62446564435958862
0.67394250631332397 0.67394250631332397 0.67394250631332397
0.72376447916030884 0.72376447916030884 0.72376447916030884
0.76591795682907104 0.76591795682907104 0.76591795682907104
0.79931175708770752 0.79931175708770752 0.79931175708770752
0.83474135398864746 0.83474135398864746 0.83474135398864746
0.86615651845932007 0.86615651845932007 0.86615651845932007
0.6710665225982666 0.6710665225982666 0.6710665225982666
0.66584748029708862 0.66584748029708862 0.66584748029708862
0.65385162830352783 0.65385162830352783 0.65385162830352783
0.64164823293685913 0.64164823293685913 0.64164823293685913
0.63611292839050293 0.63611292839050293 0.63611292839050293
0.65108376741409302 0.65108376741409302 0.65108376741409302
0.68182545900344849 0.68182545900344849 0.68182545900344849
0.7220841646194458 0.7220841646194458 0.7220841646194458
0.76406830549240112 0.76406830549240112 0.76406830549240112
0.7989240288734436 0.7989240288734436 0.7989240288734436
0.8325238823890686 0.8325238823890686 0.8325238823890686
0.86836189031600952 0.86836189031600952 0.86836189031600952
0.89950114488601685 0.89950114488601685 0.89950114488601685
0.754874587059021 0.754874587059021 0.754874587059021
0.74705827236175537 0.74705827236175537 0.74705827236175537
0.74084752798080444 0.74084752798080444 0.74084752798080444
0.73080629110336304 0.73080629110336304 0.73080629110336304
0.72123312950134277 0.72123312950134277 0.72123312950134277
0.72986942529678345 0.72986942529678345 0.72986942529678345
0.75499552488327026 0.75499552488327026 0.75499552488327026
0.78009974956512451 0.78009974956512451 0.78009974956512451
0.80882585048675537 0.80882585048675537 0.80882585048675537
0.83934789896011353 0.83934789896011353 0.83934789896011353
0.86630445718765259 0.86630445718765259 0.86630445718765259
0.89871394634246826 0.89871394634246826 0.89871394634246826
0.9303741455078125 0.9303741455078125 0.9303741455078125
0.84080904722213745 0.84080904722213745 0.84080904722213745
0.82988905906677246 0.82988905906677246 0.82988905906677246
0.8271024227142334 0.8271024227142334 0.8271024227142334
0.82503581047058105 0.82503581047058105 0.82503581047058105
0.81850725412368774 0.81850725412368774 0.81850725412368774
0.82371872663497925 0.82371872663497925 0.82371872663497925
0.83761876821517944 0.83761876821517944 0.83761876821517944
0.8488013744354248 0.8488013744354248 0.8488013744354248
0.86932504177093506 0.86932504177093506 0.86932504177093506
0.89233678579330444 0.89233678579330444 0.89233678579330444
0.90160101652145386 0.90160101652145386 0.90160101652145386
0.92416101694107056 0.92416101694107056 0.92416101694107056
0.94370186328887939 0.94370186328887939 0.94370186328887939
0.90825891494750977 0.90825891494750977 0.90825891494750977
0.89999818801879883 0.89999818801879883 0.89999818801879883
0.89739066362380981 0.89739066362380981 0.89739066362380981
0.90224260091781616 0.90224260091781616 0.90224260091781616
0.90114277601242065 0.90114277601242065 0.90114277601242065
0.90028303861618042 0.90028303861618042 0.90028303861618042
0.90099203586578369 0.90099203586578369 0.90099203586578369
0.90804272890090942 0.90804272890090942 0.90804272890090942
0.92631757259368896 0.92631757259368896 0.92631757259368896
0.93862354755401611 0.93862354755401611 0.93862354755401611
0.93553835153579712 0.93553835153579712 0.93553835153579712
0.93768936395645142 0.93768936395645142 0.93768936395645142
0.94673460721969604 0.94673460721969604 0.94673460721969604
0.094493016600608826 0.094493016600608826 0.094493016600608826
0.1059868335723877 0.1059868335723877 0.1059868335723877
0.12034507840871811 0.12034507840871811 0.12034507840871811
0.13949745893478394 0.13949745893478394 0.13949745893478394
0.16166086494922638 0.16166086494922638 0.16166086494922638
0.18336823582649231 0.18336823582649231 0.18336823582649231
0.21134641766548157 0.21134641766548157 0.21134641766548157
0.24861463904380798 0.24861463904380798 0.24861463904380798
0.28968149423599243 0.28968149423599243 0.28968149423599243
0.3273988664150238 0.3273988664150238 0.3273988664150238
0.37710019946098328 0.37710019946098328 0.37710019946098328
0.43944799900054932 0.43944799900054932 0.43944799900054932
0.49181583523750305 0.49181583523750305 0.49181583523750305
0.12661230564117432 0.12661230564117432 0.12661230564117432
0.13305903971195221 0.13305903971195221 0.13305903971195221
0.14080366492271423 0.14080366492271423 0.14080366492271423
0.15452432632446289 0.15452432632446289 0.15452432632446289
0.17960774898529053 0.17960774898529053 0.17960774898529053
0.20198820531368256 0.20198820531368256 0.20198820531368256
0.23583541810512543 0.23583541810512543 0.23583541810512543
0.28112202882766724 0.28112202882766724 0.28112202882766724
0.3225129246711731 0.3225129246711731 0.3225129246711731
0.35796394944190979 0.35796394944190979 0.35796394944190979
0.40688982605934143 0.40688982605934143 0.40688982605934143
0.47067254781723022 0.47067254781723022 0.47067254781723022
0.52290916442871094 0.52290916442871094 0.52290916442871094
0.17219255864620209 0.17219255864620209 0.17219255864620209
0.17494642734527588 0.17494642734527588 0.17494642734527588
0.18201938271522522 0.18201938271522522 0.18201938271522522
0.20200210809707642 0.20200210809707642 0.20200210809707642
0.23289616405963898 0.23289616405963898 0.23289616405963898
0.26045358180999756 0.26045358180999756 0.26045358180999756
0.29101502895355225 0.29101502895355225 0.29101502895355225
0.32647931575775146 0.32647931575775146 0.32647931575775146
0.36131459474563599 0.36131459474563599 0.36131459474563599
0.40098169445991516 0.40098169445991516 0.40098169445991516
0.45102977752685547 0.45102977752685547 0.45102977752685547
0.51185828447341919 0.51185828447341919 0.51185828447341919
0.56000107526779175 0.56000107526779175 0.56000107526779175
0.23359651863574982 0.23359651863574982 0.23359651863574982
0.23037567734718323 0.23037567734718323 0.23037567734718323
0.23169218003749847 0.23169218003749847 0.23169218003749847
0.25769957900047302 0.25769957900047302 0.25769957900047302
0.29583677649497986 0.29583677649497986 0.29583677649497986
0.32685205340385437 0.32685205340385437 0.32685205340385437
0.35694676637649536 0.35694676637649536 0.35694676637649536
0.38826647400856018 0.38826647400856018 0.38826647400856018
0.42195051908493042 0.42195051908493042 0.42195051908493042
0.46138006448745728 0.46138006448745728 0.46138006448745728
0.50828158855438232 0.50828158855438232 0.50828158855438232
0.56455332040786743 0.56455332040786743 0.56455332040786743
0.60479617118835449 0.60479617118835449 0.60479617118835449
0.30125200748443604 0.30125200748443604 0.30125200748443604
0.29573336243629456 0.29573336243629456 0.29573336243629456
0.28779998421669006 0.28779998421669006 0.28779998421669006
0.30814644694328308 0.30814644694328308 0.30814644694328308
0.3500855565071106 0.3500855565071106 0.3500855565071106
0.39153805375099182 0.39153805375099182 0.39153805375099182
0.42580676078796387 0.42580676078796387 0.42580676078796387
0.45829486846923828 0.45829486846923828 0.45829486846923828
0.49274078011512756 0.49274078011512756 0.49274078011512756
0.5316154956817627 0.5316154956817627 0.5316154956817627
0.57550859451293945 0.57550859451293945 0.57550859451293945
0.62299644947052002 0.62299644947052002 0.62299644947052002
0.65953010320663452 0.65953010320663452 0.65953010320663452
0.36784800887107849 0.36784800887107849 0.36784800887107849
0.35829648375511169 0.35829648375511169 0.35829648375511169
0.34519565105438232 0.34519565105438232 0.34519565105438232
0.35653561353683472 0.35653561353683472 0.35653561353683472
0.39840555191040039 0.39840555191040039 0.39840555191040039
0.44445854425430298 0.44445854425430298 0.44445854425430298
0.48920372128486633 0.48920372128486633 0.48920372128486633
0.52766424417495728 0.52766424417495728 0.52766424417495728
0.56346333026885986 0.56346333026885986 0.56346333026885986
0.59787178039550781 0.59787178039550781 0.59787178039550781
0.63733065128326416 0.63733065128326416 0.63733065128326416
0.68118512630462646 0.68118512630462646 0.68118512630462646
0.71637344360351562 0.71637344360351562 0.71637344360351562
0.43734058737754822 0.43734058737754822 0.43734058737754822
0.4240117073059082 0.4240117073059082 0.4240117073059082
0.40947020053863525 0.40947020053863525 0.40947020053863525
0.40925133228302002 0.40925133228302002 0.40925133228302002
0.4450182318687439 0.4450182318687439 0.4450182318687439
0.49098247289657593 0.49098247289657593 0.49098247289657593
0.54010570049285889 0.54010570049285889 0.54010570049285889
0.5877532958984375 0.5877532958984375 0.5877532958984375
0.62731289863586426 0.62731289863586426 0.62731289863586426
0.66147428750991821 0.66147428750991821 0.66147428750991821
0.69962698221206665 0.69962698221206665 0.69962698221206665
0.73970383405685425 0.73970383405685425 0.73970383405685425
0.77039438486099243 0.77039438486099243 0.77039438486099243
0.51653307676315308 0.51653307676315308 0.51653307676315308
0.50756138563156128 0.50756138563156128 0.50756138563156128
0.49463513493537903 0.49463513493537903 0.49463513493537903
0.48325175046920776 0.48325175046920776 0.48325175046920776
0.49931752681732178 0.49931752681732178 0.49931752681732178
0.53603935241699219 0.53603935241699219 0.53603935241699219
0.58364593982696533 0.58364593982696533 0.58364593982696533
0.63384890556335449 0.63384890556335449 0.63384890556335449
0.68190461397171021 0.68190461397171021 0.68190461397171021
0.72341257333755493 0.72341257333755493 0.72341257333755493
0.75649917125701904 0.75649917125701904 0.75649917125701904
0.78935754299163818 0.78935754299163818 0.78935754299163818
0.81688600778579712 0.81688600778579712 0.81688600778579712
0.60507071018218994 0.60507071018218994 0.60507071018218994
0.6001279354095459 0.6001279354095459 0.6001279354095459
0.58546465635299683 0.58546465635299683 0.58546465635299683
0.57186388969421387 0.57186388969421387 0.57186388969421387
0.57580435276031494 0.57580435276031494 0.57580435276031494
0.58875662088394165 0.58875662088394165 0.58875662088394165
0.62735050916671753 0.62735050916671753 0.62735050916671753
0.67728269100189209 0.67728269100189209 0.67728269100189209
0.72676956653594971 0.72676956653594971 0.72676956653594971
0.76921772956848145 0.76921772956848145 0.76921772956848145
0.80147945880889893 0.80147945880889893 0.80147945880889893
0.834209144115448 0.834209144115448 0.834209144115448
0.86107760667800903 0.86107760667800903 0.86107760667800903
0.69074803590774536 0.69074803590774536 0.69074803590774536
0.68470597267150879 0.68470597267150879 0.68470597267150879
0.67122960090637207 0.67122960090637207 0.67122960090637207
0.65843063592910767 0.65843063592910767 0.65843063592910767
0.65216529369354248 0.65216529369354248 0.65216529369354248
0.65976226329803467 0.65976226329803467 0.65976226329803467
0.68505644798278809 0.68505644798278809 0.68505644798278809
0.725757896900177 0.725757896900177 0.725757896900177
0.76953017711639404 0.76953017711639404 0.76953017711639404
0.80550026893615723 0.80550026893615723 0.80550026893615723
0.83655786514282227 0.83655786514282227 0.83655786514282227
0.87032079696655273 0.87032079696655273 0.87032079696655273
0.89730328321456909 0.89730328321456909 0.89730328321456909
0.76642012596130371 0.76642012596130371 0.76642012596130371
0.75891917943954468 0.75891917943954468 0.75891917943954468
0.75147795677185059 0.75147795677185059 0.75147795677185059
0.74228906631469727 0.74228906631469727 0.74228906631469727
0.7342408299446106 0.7342408299446106 0.7342408299446106
0.737457275390625 0.737457275390625 0.737457275390625
0.75687664747238159 0.75687664747238159 0.75687664747238159
0.78589600324630737 0.78589600324630737 0.78589600324630737
0.81368404626846313 0.81368404626846313 0.81368404626846313
0.84261161088943481 0.84261161088943481 0.84261161088943481
0.87078201770782471 0.87078201770782471 0.87078201770782471
0.90393859148025513 0.90393859148025513 0.90393859148025513
0.93036293983459473 0.93036293983459473 0.93036293983459473
0.84529858827590942 0.84529858827590942 0.84529858827590942
0.83722448348999023 0.83722448348999023 0.83722448348999023
0.83442658185958862 0.83442658185958862 0.83442658185958862
0.83204042911529541 0.83204042911529541 0.83204042911529541
0.82626599073410034 0.82626599073410034 0.82626599073410034
0.8265032172203064 0.8265032172203064 0.8265032172203064
0.83515405654907227 0.83515405654907227 0.83515405654907227
0.85371458530426025 0.85371458530426025 0.85371458530426025
0.87253814935684204 0.87253814935684204 0.87253814935684204
0.89180248975753784 0.89180248975753784 0.89180248975753784
0.90811991691589355 0.90811991691589355 0.90811991691589355
0.93251895904541016 0.93251895904541016 0.93251895904541016
0.95035254955291748 0.95035254955291748 0.95035254955291748
0.9020003080368042 0.9020003080368042 0.9020003080368042
0.89975428581237793 0.89975428581237793 0.89975428581237793
0.90189439058303833 0.90189439058303833 0.90189439058303833
0.90605062246322632 0.90605062246322632 0.90605062246322632
0.90019255876541138 0.90019255876541138 0.90019255876541138
0.89739835262298584 0.89739835262298584 0.89739835262298584
0.90231442451477051 0.90231442451477051 0.90231442451477051
0.9116065502166748 0.9116065502166748 0.9116065502166748
0.92596352100372314 0.92596352100372314 0.92596352100372314
0.93767893314361572 0.93767893314361572 0.93767893314361572
0.94431954622268677 0.94431954622268677 0.94431954622268677
0.95158618688583374 0.95158618688583374 0.95158618688583374
0.96014386415481567 0.96014386415481567 0.96014386415481567
0.11265856027603149 0.11265856027603149 0.11265856027603149
0.12771765887737274 0.12771765887737274 0.12771765887737274
0.1474204808473587 0.1474204808473587 0.1474204808473587
0.16949363052845001 0.16949363052845001 0.16949363052845001
0.19607448577880859 0.19607448577880859 0.19607448577880859
0.22355793416500092 0.22355793416500092 0.22355793416500092
0.24675928056240082 0.24675928056240082 0.24675928056240082
0.27054455876350403 0.27054455876350403 0.27054455876350403
0.29855963587760925 0.29855963587760925 0.29855963587760925
0.33334577083587646 0.33334577083587646 0.33334577083587646
0.38157913088798523 0.38157913088798523 0.38157913088798523
0.44297343492507935 0.44297343492507935 0.44297343492507935
0.49416375160217285 0.49416375160217285 0.49416375160217285
0.15132597088813782 0.15132597088813782 0.15132597088813782
0.15547233819961548 0.15547233819961548 0.15547233819961548
0.1619390994310379 0.1619390994310379 0.1619390994310379
0.17814025282859802 0.17814025282859802 0.17814025282859802
0.21293726563453674 0.21293726563453674 0.21293726563453674
0.2328941822052002 0.2328941822052002 0.2328941822052002
0.25472065806388855 0.25472065806388855 0.25472065806388855
0.29243773221969604 0.29243773221969604 0.29243773221969604
0.32734563946723938 0.32734563946723938 0.32734563946723938
0.36106592416763306 0.36106592416763306 0.36106592416763306
0.41007578372955322 0.41007578372955322 0.41007578372955322
0.47299203276634216 0.47299203276634216 0.47299203276634216
0.52147537469863892 0.52147537469863892 0.52147537469863892
0.20260748267173767 0.20260748267173767 0.20260748267173767
0.20243316888809204 0.20243316888809204 0.20243316888809204
0.20273840427398682 0.20273840427398682 0.20273840427398682
0.21719168126583099 0.21719168126583099 0.21719168126583099
0.25020405650138855 0.25020405650138855 0.25020405650138855
0.27389729022979736 0.27389729022979736 0.27389729022979736
0.2940085232257843 0.2940085232257843 0.2940085232257843
0.32787171006202698 0.32787171006202698 0.32787171006202698
0.36436006426811218 0.36436006426811218 0.36436006426811218
0.41097620129585266 0.41097620129585266 0.41097620129585266
0.46052432060241699 0.46052432060241699 0.46052432060241699
0.5150713324546814 0.5150713324546814 0.5150713324546814
0.5551721453666687 0.5551721453666687 0.5551721453666687
0.26538738608360291 0.26538738608360291 0.26538738608360291
0.26001462340354919 0.26001462340354919 0.26001462340354919
0.2513853907585144 0.2513853907585144 0.2513853907585144
0.2657870352268219 0.2657870352268219 0.2657870352268219
0.30368685722351074 0.30368685722351074 0.30368685722351074
0.33153340220451355 0.33153340220451355 0.33153340220451355
0.3573632538318634 0.3573632538318634 0.3573632538318634
0.38849583268165588 0.38849583268165588 0.38849583268165588
0.42384436726570129 0.42384436726570129 0.42384436726570129
0.46796503663063049 0.46796503663063049 0.46796503663063049
0.5145716667175293 0.5145716667175293 0.5145716667175293
0.56478357315063477 0.56478357315063477 0.56478357315063477
0.60207521915435791 0.60207521915435791 0.60207521915435791
0.33140510320663452 0.33140510320663452 0.33140510320663452
0.32372841238975525 0.32372841238975525 0.32372841238975525
0.31121915578842163 0.31121915578842163 0.31121915578842163
0.31719481945037842 0.31719481945037842 0.31719481945037842
0.35909488797187805 0.35909488797187805 0.35909488797187805
0.39877280592918396 0.39877280592918396 0.39877280592918396
0.4300936758518219 0.4300936758518219 0.4300936758518219
0.46036660671234131 0.46036660671234131 0.46036660671234131
0.49621117115020752 0.49621117115020752 0.49621117115020752
