films/kodak_kodachrome_64.cube
# Created by: G'MIC (https://gmic.eu)
TITLE "kodak_kodachrome_64"
# LUT size
LUT_3D_SIZE 5
# Data domain
DOMAIN_MIN 0.0 0.0 0.0
DOMAIN_MAX 1.0 1.0 1.0
# LUT data points
0.031349003314971924 0.022377314046025276 0.016713235527276993
0.21680210530757904 0.029081815853714943 0.011562137864530087
0.56437200307846069 0.068733096122741699 0.00521087646484375
0.80061352252960205 0.092519097030162811 4.7392004489665851e-05
0.986794114112854 0.12340293079614639 0.0013253454817458987
0.10794717818498611 0.24984061717987061 0.11855453997850418
0.30235391855239868 0.26355078816413879 0.11256978660821915
0.62518042325973511 0.28206256031990051 0.097945734858512878
0.8462216854095459 0.27316224575042725 0.072252117097377777
0.99491864442825317 0.24298825860023499 0.045995868742465973
0.23569996654987335 0.57075101137161255 0.28409895300865173
0.44844493269920349 0.58727860450744629 0.27114900946617126
0.68759089708328247 0.60768550634384155 0.26403138041496277
0.90554124116897583 0.62275898456573486 0.23354329168796539
0.99997305870056152 0.61196202039718628 0.19713173806667328
0.44782218337059021 0.77512133121490479 0.46717318892478943
0.5521119236946106 0.78402221202850342 0.47531938552856445
0.72063666582107544 0.80321866273880005 0.46710115671157837
0.91054624319076538 0.81931799650192261 0.45389720797538757
1 0.82754814624786377 0.41962149739265442
0.58051472902297974 0.94920521974563599 0.61729902029037476
0.65587025880813599 0.96071630716323853 0.62894493341445923
0.77624398469924927 0.97970789670944214 0.63469928503036499
0.9383012056350708 0.99100023508071899 0.63669335842132568
1 0.99610936641693115 0.60043931007385254
0.0029446021653711796 0.0063291662372648716 0.12746345996856689
0.17666016519069672 0.015766682103276253 0.12714314460754395
0.52069628238677979 0.038562402129173279 0.11243738234043121
0.75945395231246948 0.058418992906808853 0.10037951171398163
0.95016252994537354 0.078665956854820251 0.088011287152767181
0.05497455969452858 0.2236374169588089 0.26611858606338501
0.25657546520233154 0.2412247359752655 0.26494649052619934
0.56617414951324463 0.25654706358909607 0.25426539778709412
0.78372609615325928 0.23809778690338135 0.22704699635505676
0.94904345273971558 0.19434811174869537 0.18510925769805908
0.15125057101249695 0.53694480657577515 0.43756121397018433
0.37973728775978088 0.55275857448577881 0.43717986345291138
0.62221914529800415 0.5743788480758667 0.43134933710098267
0.83484077453613281 0.58526343107223511 0.41324427723884583
0.99062758684158325 0.57099992036819458 0.38069355487823486
0.42222756147384644 0.76083886623382568 0.57082349061965942
0.51668447256088257 0.76664793491363525 0.57079410552978516
0.68110936880111694 0.78190207481384277 0.56135457754135132
0.8718300461769104 0.79913502931594849 0.55299359560012817
1 0.81036025285720825 0.53738570213317871
0.57695871591567993 0.9561048150062561 0.70325332880020142
0.63392150402069092 0.95732218027114868 0.69781816005706787
0.75329577922821045 0.97246980667114258 0.69915789365768433
0.9146919846534729 0.98765504360198975 0.69701313972473145
1 0.99434620141983032 0.67993330955505371
0 0 0.33569526672363281
0.10216651111841202 0.00067388499155640602 0.33711057901382446
0.4300825297832489 0.0066462047398090363 0.33244070410728455
0.65588891506195068 0.005903191864490509 0.32327726483345032
0.83946913480758667 0.016590477898716927 0.29684662818908691
0.023023806512355804 0.18966175615787506 0.45618239045143127
0.19822946190834045 0.20116820931434631 0.45265123248100281
0.48931324481964111 0.22128075361251831 0.44574514031410217
0.70212042331695557 0.20024298131465912 0.42954769730567932
0.85949957370758057 0.14391928911209106 0.39553725719451904
0.12989956140518188 0.5112801194190979 0.5779348611831665
0.33634844422340393 0.5270698070526123 0.5778382420539856
0.5655023455619812 0.54566961526870728 0.57567834854125977
0.77414596080780029 0.55533701181411743 0.56754487752914429
0.94098144769668579 0.52845841646194458 0.54462069272994995
0.37550514936447144 0.73746252059936523 0.68221843242645264
0.46981224417686462 0.74272865056991577 0.68136745691299438
0.63500988483428955 0.75972563028335571 0.67960166931152344
0.82274585962295532 0.77659755945205688 0.67312514781951904
0.9872012734413147 0.7835809588432312 0.66268277168273926
0.53633975982666016 0.9322361946105957 0.78809791803359985
0.59936380386352539 0.94348174333572388 0.79003238677978516
0.71808582544326782 0.96037620306015015 0.79018950462341309
0.87718296051025391 0.97802090644836426 0.78720498085021973
0.99978405237197876 0.98637157678604126 0.77571111917495728
0 0 0.47723037004470825
0.090357325971126556 0 0.486715167760849
0.37703841924667358 0.0049630408175289631 0.48003935813903809
0.59153711795806885 0.00010340073640691116 0.4766438901424408
0.76165920495986938 0 0.45993742346763611
0.013413074426352978 0.16684474050998688 0.59298074245452881
0.17043189704418182 0.19014576077461243 0.58660948276519775
0.45091444253921509 0.19990335404872894 0.58388561010360718
0.64488565921783447 0.1642528772354126 0.56718325614929199
0.7952609658241272 0.10232358425855637 0.53742587566375732
0.11862767487764359 0.4949403703212738 0.70243501663208008
0.30367356538772583 0.50635987520217896 0.70012784004211426
0.52739799022674561 0.52484512329101562 0.70271939039230347
0.72644340991973877 0.53357553482055664 0.6976202130317688
0.89262872934341431 0.50785094499588013 0.67773342132568359
0.33766353130340576 0.71893084049224854 0.79557740688323975
0.4349675178527832 0.72538846731185913 0.79310303926467896
0.59793514013290405 0.73956787586212158 0.79070132970809937
0.77765935659408569 0.75227952003479004 0.78912639617919922
0.95440673828125 0.75776958465576172 0.78100669384002686
0.50044131278991699 0.91655451059341431 0.88886803388595581
0.56303101778030396 0.93095266819000244 0.89301693439483643
0.68109011650085449 0.94688290357589722 0.89156609773635864
0.84060347080230713 0.96287846565246582 0.89035826921463013
0.99859172105789185 0.97849506139755249 0.88430875539779663
0.00035900040529668331 0.00060928944731131196 0.57231777906417847
0.076462104916572571 0 0.58046239614486694
0.34110525250434875 0 0.57193100452423096
0.55266821384429932 0 0.57138669490814209
0.72641915082931519 0.001253973226994276 0.55439233779907227
0.012927290983498096 0.16205532848834991 0.67238587141036987
0.17462259531021118 0.18134783208370209 0.67082023620605469
0.42225527763366699 0.17866036295890808 0.66764283180236816
0.61271297931671143 0.14907687902450562 0.65657228231430054
0.76429450511932373 0.095974504947662354 0.62818831205368042
0.14503452181816101 0.47838088870048523 0.78817892074584961
0.29362586140632629 0.49542710185050964 0.78404718637466431
0.50111246109008789 0.50832784175872803 0.78670585155487061
0.69613003730773926 0.51420581340789795 0.78232663869857788
0.85770487785339355 0.49789762496948242 0.76441609859466553
0.3261931836605072 0.70216101408004761 0.87314563989639282
0.41667288541793823 0.7119147777557373 0.87440544366836548
0.57179325819015503 0.72103601694107056 0.87407898902893066
0.74815058708190918 0.7345091700553894 0.87242400646209717
0.92191618680953979 0.73932820558547974 0.86621266603469849
0.49843871593475342 0.91908705234527588 0.97109675407409668
0.54928046464920044 0.91934388875961304 0.9751284122467041
0.66009485721588135 0.93047064542770386 0.97222357988357544
0.81011086702346802 0.9494590163230896 0.97788172960281372
0.97460734844207764 0.9517446756362915 0.97061264514923096
