films/kodak_elite_extracolor_100.cube
# Created by: G'MIC (https://gmic.eu)
TITLE "kodak_elite_extracolor_100"
# LUT size
LUT_3D_SIZE 7
# Data domain
DOMAIN_MIN 0.0 0.0 0.0
DOMAIN_MAX 1.0 1.0 1.0
# LUT data points
0.038123622536659241 0.033295411616563797 0.028738493099808693
0.14007407426834106 0.027239331975579262 0.02340780571103096
0.26600271463394165 0.017446001991629601 0.016441211104393005
0.41576609015464783 0.0035104041453450918 0.010087884962558746
0.57859510183334351 0.0025025312788784504 0.00082965922774747014
0.71186614036560059 0 0
0.83763676881790161 0 0
0.11325471103191376 0.15978339314460754 0.069081403315067291
0.17595750093460083 0.15081721544265747 0.064349785447120667
0.29785653948783875 0.13461799919605255 0.049249254167079926
0.45158499479293823 0.10703494399785995 0.03362669050693512
0.6123998761177063 0.075115859508514404 0.011517947539687157
0.72651582956314087 0.019572628661990166 0.0027555129490792751
0.83563005924224854 0.00013399311865214258 0
0.15428963303565979 0.31243458390235901 0.10582505911588669
0.21715804934501648 0.3005530834197998 0.10488131642341614
0.34395158290863037 0.28805196285247803 0.091607473790645599
0.50524222850799561 0.26818001270294189 0.070441119372844696
0.66956639289855957 0.22944121062755585 0.044000722467899323
0.78375834226608276 0.16617138683795929 0.013374432921409607
0.87696468830108643 0.099183037877082825 0.00046075560385361314
0.18414382636547089 0.52296668291091919 0.12615953385829926
0.26742526888847351 0.51174867153167725 0.11965584754943848
0.40293771028518677 0.5042380690574646 0.11511701345443726
0.5765763521194458 0.48823297023773193 0.094510786235332489
0.73752826452255249 0.46007007360458374 0.069632932543754578
0.86189115047454834 0.40525761246681213 0.036950625479221344
0.94863247871398926 0.31791040301322937 0.0094921337440609932
0.2508389949798584 0.73414385318756104 0.085625685751438141
0.34109655022621155 0.73102056980133057 0.080562293529510498
0.48226186633110046 0.7281230092048645 0.073998548090457916
0.65373432636260986 0.71863150596618652 0.062920890748500824
0.8060612678527832 0.70813560485839844 0.056858286261558533
0.9386327862739563 0.68298596143722534 0.036710508167743683
0.99835216999053955 0.61443817615509033 0.015026062726974487
0.35985931754112244 0.90516436100006104 0.0016548007261008024
0.43787267804145813 0.91270828247070312 0.010914821177721024
0.57934796810150146 0.90565448999404907 0.0031203476246446371
0.73641526699066162 0.90443307161331177 0.0023110781330615282
0.8680039644241333 0.90480542182922363 0.010254728607833385
0.987526535987854 0.88800466060638428 0.0078406538814306259
1 0.84861743450164795 0.0035259320866316557
0.47793510556221008 1 0
0.55719482898712158 1 0
0.68025863170623779 1 0
0.81332820653915405 1 0
0.94152164459228516 0.99941849708557129 4.8229740059468895e-05
0.99952751398086548 1 0
1 0.99466627836227417 0
0.026106173172593117 0.037831533700227737 0.1295090913772583
0.11806809902191162 0.025921031832695007 0.12386795878410339
0.24427393078804016 0.016640981659293175 0.10914468020200729
0.40285685658454895 0.0090901097282767296 0.090013571083545685
0.56732213497161865 0.004517274908721447 0.063104994595050812
0.7039496898651123 0 0.037802737206220627
0.8234286904335022 0 0.011943338438868523
0.093810558319091797 0.16185411810874939 0.15953613817691803
0.15556758642196655 0.15231993794441223 0.15363682806491852
0.27859663963317871 0.13471029698848724 0.14062124490737915
0.43655997514724731 0.11084205657243729 0.11892236769199371
0.59642338752746582 0.074577778577804565 0.088522955775260925
0.72068262100219727 0.020577913150191307 0.053050830960273743
0.82504945993423462 0 0.024755559861660004
0.12249118834733963 0.31008067727088928 0.18600261211395264
0.19331324100494385 0.30562171339988708 0.18075768649578094
0.32816895842552185 0.29395967721939087 0.17150221765041351
0.49310275912284851 0.27397400140762329 0.15174126625061035
0.65516674518585205 0.22910812497138977 0.12151660025119781
0.77307593822479248 0.15965031087398529 0.075789943337440491
0.86313092708587646 0.076323658227920532 0.038840483874082565
0.14089101552963257 0.51627832651138306 0.20430263876914978
0.23502467572689056 0.51650631427764893 0.19822685420513153
0.38562789559364319 0.50906646251678467 0.19279488921165466
0.56756603717803955 0.49524939060211182 0.17459513247013092
0.7279321551322937 0.46202296018600464 0.14807988703250885
0.85004806518554688 0.40768209099769592 0.10840340703725815
0.94423365592956543 0.32182186841964722 0.07303745299577713
0.20158746838569641 0.72817152738571167 0.18380743265151978
0.29725292325019836 0.73095715045928955 0.1753995269536972
0.45479312539100647 0.73173433542251587 0.16412451863288879
0.64035618305206299 0.72223448753356934 0.14523179829120636
0.79784208536148071 0.70678615570068359 0.13078728318214417
0.92660027742385864 0.6770702600479126 0.10151473432779312
0.99760502576828003 0.61610919237136841 0.077687203884124756
0.32794016599655151 0.91359531879425049 0.066479086875915527
0.40793433785438538 0.90691107511520386 0.068811498582363129
0.55547761917114258 0.90649676322937012 0.07155318558216095
0.72071486711502075 0.90383756160736084 0.056220591068267822
0.86077916622161865 0.90701955556869507 0.054265730082988739
0.98061525821685791 0.88895207643508911 0.042165927588939667
1 0.86369174718856812 0.036564398556947708
0.48100149631500244 1 0
0.55607026815414429 1 0.00029440486105158925
0.67538774013519287 1 0.00018490062211640179
0.81380927562713623 1 0
0.93115866184234619 1 0
0.9992411732673645 1 0
1 0.99992531538009644 0
0.010313206352293491 0.040252864360809326 0.23816093802452087
0.09185008704662323 0.028075588867068291 0.23152361810207367
0.22032164037227631 0.018492022529244423 0.22273051738739014
0.38210904598236084 0.012154403142631054 0.20191290974617004
0.54627823829650879 0.0039395499043166637 0.17196792364120483
0.68122363090515137 0 0.14370714128017426
0.79336327314376831 0 0.1183626651763916
0.074467182159423828 0.16288967430591583 0.27481737732887268
0.13229051232337952 0.15260632336139679 0.26704549789428711
0.25259032845497131 0.13672858476638794 0.25781261920928955
0.4163874089717865 0.11339110136032104 0.2403390109539032
0.57893538475036621 0.076006993651390076 0.20939435064792633
0.70101159811019897 0.014227280393242836 0.17309050261974335
0.80161839723587036 0 0.12889140844345093
0.067942552268505096 0.31200125813484192 0.31216698884963989
0.15238441526889801 0.30694293975830078 0.30509188771247864
0.297006756067276 0.29613226652145386 0.29701724648475647
0.47633376717567444 0.27579009532928467 0.280315101146698
0.64065849781036377 0.23438559472560883 0.25020414590835571
0.7549242377281189 0.16006077826023102 0.20931783318519592
0.84284847974777222 0.080245748162269592 0.1627267450094223
0.061869379132986069 0.52094477415084839 0.34461447596549988
0.17196458578109741 0.516926109790802 0.34029990434646606
0.34601810574531555 0.51118606328964233 0.33439368009567261
0.54347318410873413 0.49636897444725037 0.31887620687484741
0.70785266160964966 0.46631225943565369 0.29452976584434509
0.82914716005325317 0.41351300477981567 0.258077472448349
0.91992366313934326 0.32864123582839966 0.21589121222496033
0.10694237798452377 0.72691220045089722 0.36320632696151733
0.22525012493133545 0.72585022449493408 0.35786640644073486
0.4112359881401062 0.72026520967483521 0.35099875926971436
0.60926270484924316 0.71548008918762207 0.33229517936706543
0.7716670036315918 0.70234930515289307 0.31317755579948425
0.90136069059371948 0.67488396167755127 0.27797034382820129
0.98126304149627686 0.61379766464233398 0.23546336591243744
0.23424926400184631 0.90478122234344482 0.32930859923362732
0.34370368719100952 0.90024226903915405 0.31447324156761169
0.50829517841339111 0.90005773305892944 0.30061817169189453
0.68384850025177002 0.8968505859375 0.28209963440895081
0.83145797252655029 0.89737462997436523 0.27040567994117737
0.96363097429275513 0.88228076696395874 0.22601437568664551
0.99998563528060913 0.85399001836776733 0.18092413246631622
0.46083506941795349 0.99919474124908447 0.10039158165454865
0.52780067920684814 0.99905037879943848 0.099447496235370636
0.6432076096534729 1 0.11809705942869186
0.79666048288345337 0.99884212017059326 0.075014404952526093
0.91258859634399414 1 0.092989541590213776
0.99960881471633911 0.99931007623672485 0.041528213769197464
1 0.9976310133934021 0.035510372370481491
0.0031148423440754414 0.04453582689166069 0.37135374546051025
0.06620209664106369 0.031506914645433426 0.36533939838409424
0.18788884580135345 0.020785238593816757 0.3575136661529541
0.35753938555717468 0.014194054529070854 0.3373798131942749
0.52716034650802612 0.007681229617446661 0.30896416306495667
0.65657657384872437 0 0.28967824578285217
0.77037602663040161 0 0.26730674505233765
0.028882702812552452 0.16896289587020874 0.41604149341583252
0.094831012189388275 0.157014399766922 0.4090212881565094
0.21742112934589386 0.1423327773809433 0.39915081858634949
0.38996848464012146 0.12005067616701126 0.38523530960083008
0.55656731128692627 0.083730079233646393 0.36136218905448914
0.6787535548210144 0.030910521745681763 0.32742059230804443
0.77787202596664429 0.00016584209515713155 0.28612741827964783
0.027211058884859085 0.31932422518730164 0.47267377376556396
0.097687453031539917 0.31298452615737915 0.46406316757202148
0.24945111572742462 0.30142077803611755 0.45505303144454956
0.44068476557731628 0.28165888786315918 0.44172662496566772
0.61153072118759155 0.23890562355518341 0.41956612467765808
0.73090368509292603 0.16579616069793701 0.38302916288375854
0.81917333602905273 0.080559886991977692 0.34064143896102905
0.0068888198584318161 0.52584832906723022 0.52008676528930664
0.092293024063110352 0.51822042465209961 0.51532590389251709
0.27956825494766235 0.51202058792114258 0.50848275423049927
0.49675154685974121 0.49984854459762573 0.49679663777351379
0.67315256595611572 0.47083842754364014 0.48015603423118591
0.80266743898391724 0.41507357358932495 0.44964355230331421
0.89315050840377808 0.3250613808631897 0.40727251768112183
0.0061275707557797432 0.71767759323120117 0.55754262208938599
0.10929787158966064 0.7147943377494812 0.55523222684860229
0.32787415385246277 0.71166354417800903 0.54668879508972168
0.55912917852401733 0.70618301630020142 0.53485822677612305
0.73120129108428955 0.69661968946456909 0.5247228741645813
0.87125509977340698 0.67247003316879272 0.50128918886184692
0.96166366338729858 0.60721641778945923 0.45255997776985168
0.068172559142112732 0.88384199142456055 0.55892002582550049
0.20656892657279968 0.88607883453369141 0.55656403303146362
0.4193616509437561 0.88543999195098877 0.55109477043151855
0.63034200668334961 0.87996745109558105 0.53676372766494751
0.78439521789550781 0.87917971611022949 0.52860164642333984
0.92682468891143799 0.86848312616348267 0.50338184833526611
0.99687319993972778 0.8355901837348938 0.44042861461639404
0.27314350008964539 0.99929845333099365 0.43383005261421204
0.37902519106864929 0.99957185983657837 0.43343737721443176
0.54289966821670532 0.99967509508132935 0.43506753444671631
0.71551322937011719 0.99953073263168335 0.41644895076751709
0.85389351844787598 0.9999396800994873 0.4025326669216156
0.97579705715179443 0.99863892793655396 0.3466593325138092
0.99987506866455078 0.99235290288925171 0.2623041570186615
0.0015067006461322308 0.04110964760184288 0.51673775911331177
0.035901792347431183 0.033256620168685913 0.51354080438613892
0.14297701418399811 0.023498145863413811 0.50530070066452026
0.32487845420837402 0.011490721255540848 0.48921951651573181
0.50072616338729858 0.0010917513864114881 0.47319683432579041
0.62495517730712891 3.7698184314649552e-05 0.44884020090103149
0.7514270544052124 0 0.42412319779396057
0.008129538968205452 0.17456519603729248 0.56553685665130615
0.05937710776925087 0.16386350989341736 0.56254786252975464
0.17148058116436005 0.14849135279655457 0.55282062292098999
0.35218852758407593 0.12513931095600128 0.53980165719985962
0.52814090251922607 0.089601688086986542 0.52102327346801758
0.65306371450424194 0.045511029660701752 0.49030828475952148
0.75635230541229248 0.0033747204579412937 0.45539098978042603
0.009012782946228981 0.32979142665863037 0.62554001808166504
0.064856812357902527 0.32487252354621887 0.62263000011444092
0.19307903945446014 0.31180295348167419 0.61191642284393311
0.39353147149085999 0.29149404168128967 0.59916716814041138
0.57927572727203369 0.25088974833488464 0.58032375574111938
0.70779502391815186 0.18034355342388153 0.54808473587036133
0.80044376850128174 0.0938912034034729 0.51150935888290405
0 0.52907812595367432 0.6778564453125
0.02522747591137886 0.52948188781738281 0.67551755905151367
0.19340701401233673 0.51839113235473633 0.66991740465164185
0.43881207704544067 0.5037044882774353 0.65826177597045898
0.64188116788864136 0.47497361898422241 0.64300656318664551
0.77928644418716431 0.42527040839195251 0.61862456798553467
0.87477606534957886 0.33603230118751526 0.58232098817825317
0 0.71538865566253662 0.72422218322753906
0.016295129433274269 0.71421509981155396 0.72388744354248047
0.21656149625778198 0.71048879623413086 0.71437716484069824
0.49358019232749939 0.70241987705230713 0.70215177536010742
0.69148361682891846 0.68977612257003784 0.69302290678024292
0.83788406848907471 0.66898536682128906 0.67737728357315063
0.94335919618606567 0.60897731781005859 0.64516943693161011
0.00028070187545381486 0.87459617853164673 0.75139790773391724
0.064489640295505524 0.87559998035430908 0.74782329797744751
0.28401961922645569 0.87378740310668945 0.74188691377639771
0.56385356187820435 0.86991983652114868 0.73008280992507935
0.74130374193191528 0.86632740497589111 0.72233343124389648
0.88901865482330322 0.8539271354675293 0.70713722705841064
0.98955231904983521 0.82358372211456299 0.68229013681411743
0.08244449645280838 0.99456518888473511 0.70480495691299438
0.19530801475048065 0.99604684114456177 0.69917136430740356
0.39527994394302368 0.99604684114456177 0.69772863388061523
0.62392622232437134 0.99636304378509521 0.69071096181869507
0.79260653257369995 0.99689346551895142 0.68220287561416626
0.94927322864532471 0.99254488945007324 0.65410757064819336
1 0.985950767993927 0.62164205312728882
0 0.059296116232872009 0.64476978778839111
0.024648837745189667 0.050625462085008621 0.64382731914520264
0.12331198900938034 0.039641540497541428 0.63597732782363892
0.2947307825088501 0.020694298669695854 0.62203359603881836
0.47191232442855835 0.0029281466268002987 0.60528105497360229
0.60720503330230713 0 0.58125108480453491
0.71766859292984009 0 0.55338168144226074
0 0.19604296982288361 0.69454717636108398
0.019784934818744659 0.18605251610279083 0.69349044561386108
0.12402508407831192 0.16933511197566986 0.68511730432510376
0.3079090416431427 0.1463388204574585 0.67279577255249023
0.49919819831848145 0.10782467573881149 0.65465772151947021
0.63628721237182617 0.050926610827445984 0.62725281715393066
0.73229002952575684 0.0013376123970374465 0.59485340118408203
0.00010052849393105134 0.35025954246520996 0.74922400712966919
0.013871181756258011 0.34852331876754761 0.74753296375274658
0.12401941418647766 0.33249109983444214 0.73767507076263428
0.34134820103645325 0.31525823473930359 0.72654014825820923
0.55214422941207886 0.28130042552947998 0.70813876390457153
0.69311261177062988 0.21068358421325684 0.68249046802520752
0.78639501333236694 0.10880614817142487 0.65069842338562012
0 0.5505443811416626 0.80334579944610596
0.0015397164970636368 0.54684126377105713 0.8023979663848877
0.10671079903841019 0.53896236419677734 0.79361593723297119
0.37319031357765198 0.52467620372772217 0.78319084644317627
0.61356234550476074 0.50004619359970093 0.76801037788391113
0.76254940032958984 0.45161440968513489 0.75095111131668091
0.86362498998641968 0.3669966459274292 0.72266405820846558
0 0.72024381160736084 0.85376405715942383
0.0010606354335322976 0.7190287709236145 0.85034400224685669
0.12721377611160278 0.71825450658798218 0.84261304140090942
0.42071661353111267 0.71063709259033203 0.8318023681640625
0.65673184394836426 0.69966548681259155 0.81949591636657715
0.8125070333480835 0.67778033018112183 0.80858397483825684
0.92637878656387329 0.6280677318572998 0.78920853137969971
0 0.87000191211700439 0.89227080345153809
0.0040639988146722317 0.87121105194091797 0.88182538747787476
0.14500553905963898 0.87018388509750366 0.87907803058624268
0.47614267468452454 0.86697679758071899 0.87260907888412476
0.69798260927200317 0.86542218923568726 0.8618195652961731
0.85613948106765747 0.85350430011749268 0.85256707668304443
0.97051185369491577 0.82592225074768066 0.83621615171432495
0.013474483042955399 0.986774742603302 0.89376461505889893
0.062731951475143433 0.98879539966583252 0.88541692495346069
0.2360587865114212 0.98971426486968994 0.88036495447158813
0.5191340446472168 0.99066460132598877 0.87758839130401611
0.73702728748321533 0.99150985479354858 0.86942583322525024
0.89818906784057617 0.99023538827896118 0.85680156946182251
0.99808734655380249 0.98063284158706665 0.82835507392883301
0.0011304818326607347 0.08604864776134491 0.75293153524398804
0.029642665758728981 0.081872172653675079 0.75163626670837402
0.12254124134778976 0.07036464661359787 0.74384528398513794
0.27687984704971313 0.047208704054355621 0.73115366697311401
0.45496645569801331 0.011625207960605621 0.71408295631408691
0.59230458736419678 0 0.69119590520858765
0.69638681411743164 0 0.66431337594985962
0 0.22687992453575134 0.80275624990463257
0.0013529908610507846 0.22209249436855316 0.80292963981628418
0.095744036138057709 0.20720803737640381 0.79528331756591797
0.26677736639976501 0.18522180616855621 0.78297519683837891
0.47049415111541748 0.13745346665382385 0.7653200626373291
0.62399184703826904 0.06976008415222168 0.74155122041702271
0.72721481323242188 0.0020369435660541058 0.71239924430847168
0 0.38809183239936829 0.85573351383209229
0 0.38299894332885742 0.85502541065216064
0.078640878200531006 0.37249276041984558 0.84750509262084961
0.28163012862205505 0.35195186734199524 0.83564269542694092
0.51258128881454468 0.31397771835327148 0.81839489936828613
0.67828917503356934 0.25767731666564941 0.7984163761138916
0.78099334239959717 0.15901607275009155 0.770160973072052
0 0.57113981246948242 0.91113543510437012
0 0.57269769906997681 0.90982723236083984
0.049548011273145676 0.5648922324180603 0.90206313133239746
0.26214101910591125 0.5486791729927063 0.89072203636169434
0.55277490615844727 0.52591550350189209 0.87607270479202271
0.73212802410125732 0.49151700735092163 0.86153173446655273
0.84841251373291016 0.41876533627510071 0.83686816692352295
0.00017035989731084555 0.73131942749023438 0.95731937885284424
3.8296569982776418e-05 0.73013633489608765 0.95544081926345825
0.06575533002614975 0.72877877950668335 0.95058780908584595
0.31107088923454285 0.72393357753753662 0.94115537405014038
0.59593409299850464 0.71638602018356323 0.92864280939102173
0.77686226367950439 0.70011097192764282 0.91706758737564087
0.90141403675079346 0.65143805742263794 0.89870506525039673
0 0.87468856573104858 0.99164873361587524
5.6846467487048358e-05 0.87049347162246704 0.98944580554962158
0.06782473623752594 0.8674004077911377 0.98832148313522339
0.3315432071685791 0.8694496750831604 0.98241448402404785
0.63256633281707764 0.87267744541168213 0.97090065479278564
0.81511843204498291 0.86355710029602051 0.95912587642669678
0.94177776575088501 0.83259230852127075 0.9496198296546936
0.00014935662329662591 0.97763687372207642 0.99869918823242188
0.00083663041004911065 0.97713541984558105 0.99906867742538452
0.045197371393442154 0.97972673177719116 0.99582886695861816
0.26752433180809021 0.98245143890380859 0.99419444799423218
0.64695626497268677 0.98646271228790283 0.99323773384094238
0.84171175956726074 0.987720787525177 0.98949354887008667
0.98110866546630859 0.98133969306945801 0.97882223129272461
