films/kodak_kodachrome_64_generic.cube
# Created by: G'MIC (https://gmic.eu)
TITLE "kodak_kodachrome_64_generic"
# LUT size
LUT_3D_SIZE 5
# Data domain
DOMAIN_MIN 0.0 0.0 0.0
DOMAIN_MAX 1.0 1.0 1.0
# LUT data points
0.017421513795852661 0.014741276390850544 0.015702759847044945
0.20492169260978699 0.016864536330103874 0.01717161200940609
0.55018895864486694 0.026117900386452675 0.019621875137090683
0.89721018075942993 0.037590339779853821 0.025178872048854828
1 0.052412655204534531 0.046251334249973297
0.051293004304170609 0.18630078434944153 0.035332415252923965
0.1975911408662796 0.19250643253326416 0.037727326154708862
0.54913061857223511 0.21245408058166504 0.044925719499588013
0.88688123226165771 0.22797788679599762 0.051232088357210159
1 0.23010680079460144 0.058613736182451248
0.0011411779560148716 0.50943326950073242 0.075558379292488098
0.13772688806056976 0.51176470518112183 0.069644659757614136
0.51684927940368652 0.51645588874816895 0.07258160412311554
0.85767161846160889 0.52920383214950562 0.079961024224758148
1 0.53203308582305908 0.085862480103969574
0.0040233838371932507 0.78769057989120483 0.048618748784065247
0.070202216506004333 0.79412919282913208 0.05132148414850235
0.47828620672225952 0.79236304759979248 0.042222671210765839
0.81000220775604248 0.80790448188781738 0.059822771698236465
0.99458539485931396 0.8122560977935791 0.056964904069900513
0.069956429302692413 0.95637065172195435 0.060737922787666321
0.23283219337463379 0.96965736150741577 0.026956940069794655
0.54298394918441772 0.97833824157714844 0.029788985848426819
0.79080688953399658 0.98517972230911255 0.037825100123882294
0.97891032695770264 0.97999238967895508 0.054145842790603638
0.019204054027795792 0.012832955457270145 0.18208561837673187
0.20042257010936737 0.018076054751873016 0.17954912781715393
0.55076354742050171 0.018858591094613075 0.19323845207691193
0.9004252552986145 0.025617307052016258 0.19763638079166412
1 0.038174469023942947 0.21286967396736145
0.058923490345478058 0.18466062843799591 0.19609035551548004
0.20186528563499451 0.18846085667610168 0.20096887648105621
0.55045431852340698 0.20064261555671692 0.21013101935386658
0.89031690359115601 0.21482892334461212 0.21492834389209747
1 0.22601442039012909 0.21667447686195374
0 0.50291788578033447 0.22814314067363739
0.11555681377649307 0.50860244035720825 0.22165539860725403
0.52952724695205688 0.51654386520385742 0.23368777334690094
0.85506302118301392 0.52917838096618652 0.23683971166610718
1 0.53399932384490967 0.24225658178329468
0 0.78346717357635498 0.23438669741153717
0.068670205771923065 0.78868937492370605 0.23501491546630859
0.49833422899246216 0.79439949989318848 0.2396782785654068
0.81036752462387085 0.80148017406463623 0.25098654627799988
0.9921194314956665 0.80844259262084961 0.25355368852615356
0.015507148578763008 0.9638136625289917 0.28829994797706604
0.20931458473205566 0.97488421201705933 0.27046376466751099
0.54707759618759155 0.97978347539901733 0.27538979053497314
0.79398393630981445 0.98657429218292236 0.28820532560348511
0.99160248041152954 0.98424601554870605 0.29485437273979187
0.019272105768322945 0.011090222746133804 0.48509940505027771
0.19922997057437897 0.012647022493183613 0.48512920737266541
0.54922318458557129 0.01333122979849577 0.48305788636207581
0.88453322649002075 0.016674011945724487 0.48633614182472229
1 0.039098359644412994 0.48597198724746704
0.042621344327926636 0.18593385815620422 0.50209009647369385
0.19910620152950287 0.18289031088352203 0.50271129608154297
0.55034804344177246 0.20029753446578979 0.50569415092468262
0.88646572828292847 0.2098865807056427 0.51370614767074585
1 0.23127135634422302 0.51533883810043335
0 0.49678322672843933 0.52221858501434326
0.12801116704940796 0.50283747911453247 0.52615642547607422
0.53218233585357666 0.50936901569366455 0.53104418516159058
0.86041796207427979 0.52019661664962769 0.53480225801467896
0.99868351221084595 0.52619558572769165 0.53696632385253906
0 0.78383350372314453 0.55070453882217407
0.095646023750305176 0.78493368625640869 0.55443811416625977
0.51094299554824829 0.79176896810531616 0.55592435598373413
0.81398636102676392 0.79534584283828735 0.55881685018539429
0.99439865350723267 0.80509012937545776 0.56258654594421387
0.030071422457695007 0.96724671125411987 0.56879961490631104
0.22015871107578278 0.97618269920349121 0.57301837205886841
0.5548102855682373 0.97664207220077515 0.57809287309646606
0.79608386754989624 0.98406457901000977 0.58026361465454102
0.99190229177474976 0.98289948701858521 0.5795053243637085
0.055744905024766922 0.0027313083410263062 0.72371435165405273
0.22266724705696106 0.0037019168958067894 0.73488980531692505
0.54822129011154175 0.0054616290144622326 0.73918610811233521
0.90067064762115479 0.015255303122103214 0.75639861822128296
1 0.040079094469547272 0.74302220344543457
0.062591463327407837 0.16811808943748474 0.75772565603256226
0.21490937471389771 0.1805126965045929 0.7598271369934082
0.55301469564437866 0.18974894285202026 0.76258343458175659
0.88940870761871338 0.20615468919277191 0.77234745025634766
1 0.22834067046642303 0.77193087339401245
0.0003531661641318351 0.49114158749580383 0.78242295980453491
0.11000608652830124 0.4967002272605896 0.78608608245849609
0.53563964366912842 0.50357586145401001 0.78604447841644287
0.86008471250534058 0.51377922296524048 0.7936825156211853
1 0.51834267377853394 0.79443478584289551
0 0.77593702077865601 0.8027578592300415
0.10087496042251587 0.77622532844543457 0.80444061756134033
0.51558756828308105 0.7846563458442688 0.80954515933990479
0.81433296203613281 0.79030495882034302 0.81164109706878662
0.99609684944152832 0.79612129926681519 0.81529182195663452
0.0084452163428068161 0.96791309118270874 0.81380742788314819
0.21860228478908539 0.97484070062637329 0.81349855661392212
0.56216609477996826 0.97677803039550781 0.82089859247207642
0.79360795021057129 0.9822700023651123 0.82669883966445923
0.99219304323196411 0.98121601343154907 0.82172286510467529
0.085548907518386841 0.0059748031198978424 0.8899683952331543
0.22528555989265442 0.013028298504650593 0.91076618432998657
0.54351478815078735 0.012575995177030563 0.9151189923286438
0.90191805362701416 0.020784026011824608 0.92195075750350952
1 0.04354095458984375 0.91137009859085083
0.058810587972402573 0.17064912617206573 0.92284476757049561
0.22018419206142426 0.19550763070583344 0.93206417560577393
0.5503048300743103 0.18345515429973602 0.92820167541503906
0.88580328226089478 0.1996198445558548 0.93925857543945312
0.99962085485458374 0.20588293671607971 0.94958698749542236
0.001411004108376801 0.4873010516166687 0.95299410820007324
0.11918454617261887 0.49341580271720886 0.95200896263122559
0.53646284341812134 0.50027555227279663 0.95405620336532593
0.85803413391113281 0.50766086578369141 0.96361029148101807
1 0.51330971717834473 0.96071231365203857
0 0.77155208587646484 0.97400397062301636
0.10777039080858231 0.77377808094024658 0.97428327798843384
0.5185006856918335 0.78004276752471924 0.97695356607437134
0.81600499153137207 0.78648000955581665 0.98310226202011108
0.99709832668304443 0.7890162467956543 0.979114830493927
0.019497830420732498 0.95601195096969604 0.97953402996063232
0.25107720494270325 0.97308409214019775 0.98874020576477051
0.56281149387359619 0.97652029991149902 0.9913794994354248
0.7926749587059021 0.98221468925476074 0.99343383312225342
0.99542254209518433 0.98331654071807861 0.99697715044021606
