films/kodak_t-max_3200.cube
# Created by: G'MIC (https://gmic.eu)
TITLE "kodak_t-max_3200"
# LUT size
LUT_3D_SIZE 7
# Data domain
DOMAIN_MIN 0.0 0.0 0.0
DOMAIN_MAX 1.0 1.0 1.0
# LUT data points
0.031207410618662834 0.031207410618662834 0.031207410618662834
0.016694551333785057 0.016694551333785057 0.016694551333785057
0.025698957964777946 0.025698957964777946 0.025698957964777946
0.044591553509235382 0.044591553509235382 0.044591553509235382
0.07117520272731781 0.07117520272731781 0.07117520272731781
0.12608908116817474 0.12608908116817474 0.12608908116817474
0.2220490574836731 0.2220490574836731 0.2220490574836731
0.12599414587020874 0.12599414587020874 0.12599414587020874
0.1141977533698082 0.1141977533698082 0.1141977533698082
0.12159439921379089 0.12159439921379089 0.12159439921379089
0.14362648129463196 0.14362648129463196 0.14362648129463196
0.17833578586578369 0.17833578586578369 0.17833578586578369
0.24380429089069366 0.24380429089069366 0.24380429089069366
0.33569043874740601 0.33569043874740601 0.33569043874740601
0.25831085443496704 0.25831085443496704 0.25831085443496704
0.24649646878242493 0.24649646878242493 0.24649646878242493
0.25359663367271423 0.25359663367271423 0.25359663367271423
0.27933236956596375 0.27933236956596375 0.27933236956596375
0.31723508238792419 0.31723508238792419 0.31723508238792419
0.38023290038108826 0.38023290038108826 0.38023290038108826
0.45475870370864868 0.45475870370864868 0.45475870370864868
0.42413690686225891 0.42413690686225891 0.42413690686225891
0.42470216751098633 0.42470216751098633 0.42470216751098633
0.43558284640312195 0.43558284640312195 0.43558284640312195
0.453084796667099 0.453084796667099 0.453084796667099
0.48436447978019714 0.48436447978019714 0.48436447978019714
0.5286257266998291 0.5286257266998291 0.5286257266998291
0.57780730724334717 0.57780730724334717 0.57780730724334717
0.61300152540206909 0.61300152540206909 0.61300152540206909
0.6096961498260498 0.6096961498260498 0.6096961498260498
0.61519426107406616 0.61519426107406616 0.61519426107406616
0.62358927726745605 0.62358927726745605 0.62358927726745605
0.6427655816078186 0.6427655816078186 0.6427655816078186
0.66739284992218018 0.66739284992218018 0.66739284992218018
0.69569528102874756 0.69569528102874756 0.69569528102874756
0.76179403066635132 0.76179403066635132 0.76179403066635132
0.76432418823242188 0.76432418823242188 0.76432418823242188
0.76298040151596069 0.76298040151596069 0.76298040151596069
0.76540958881378174 0.76540958881378174 0.76540958881378174
0.77380090951919556 0.77380090951919556 0.77380090951919556
0.78707504272460938 0.78707504272460938 0.78707504272460938
0.80428028106689453 0.80428028106689453 0.80428028106689453
0.87486052513122559 0.87486052513122559 0.87486052513122559
0.88950401544570923 0.88950401544570923 0.88950401544570923
0.88835793733596802 0.88835793733596802 0.88835793733596802
0.88459360599517822 0.88459360599517822 0.88459360599517822
0.88568192720413208 0.88568192720413208 0.88568192720413208
0.89249718189239502 0.89249718189239502 0.89249718189239502
0.90325778722763062 0.90325778722763062 0.90325778722763062
0.027279363945126534 0.027279363945126534 0.027279363945126534
0.023606438189744949 0.023606438189744949 0.023606438189744949
0.040024206042289734 0.040024206042289734 0.040024206042289734
0.063458792865276337 0.063458792865276337 0.063458792865276337
0.09964357316493988 0.09964357316493988 0.09964357316493988
0.16070596873760223 0.16070596873760223 0.16070596873760223
0.26287287473678589 0.26287287473678589 0.26287287473678589
0.12165575474500656 0.12165575474500656 0.12165575474500656
0.12003737688064575 0.12003737688064575 0.12003737688064575
0.13728331029415131 0.13728331029415131 0.13728331029415131
0.16759981215000153 0.16759981215000153 0.16759981215000153
0.21079334616661072 0.21079334616661072 0.21079334616661072
0.28018733859062195 0.28018733859062195 0.28018733859062195
0.37273293733596802 0.37273293733596802 0.37273293733596802
0.26732310652732849 0.26732310652732849 0.26732310652732849
0.26140666007995605 0.26140666007995605 0.26140666007995605
0.27612936496734619 0.27612936496734619 0.27612936496734619
0.31087127327919006 0.31087127327919006 0.31087127327919006
0.35530903935432434 0.35530903935432434 0.35530903935432434
0.41789868474006653 0.41789868474006653 0.41789868474006653
0.49027886986732483 0.49027886986732483 0.49027886986732483
0.44745513796806335 0.44745513796806335 0.44745513796806335
0.44883745908737183 0.44883745908737183 0.44883745908737183
0.46635594964027405 0.46635594964027405 0.46635594964027405
0.48796108365058899 0.48796108365058899 0.48796108365058899
0.52018779516220093 0.52018779516220093 0.52018779516220093
0.56373119354248047 0.56373119354248047 0.56373119354248047
0.61127293109893799 0.61127293109893799 0.61127293109893799
0.62810778617858887 0.62810778617858887 0.62810778617858887
0.63287150859832764 0.63287150859832764 0.63287150859832764
0.6434820294380188 0.6434820294380188 0.6434820294380188
0.65414214134216309 0.65414214134216309 0.65414214134216309
0.67316174507141113 0.67316174507141113 0.67316174507141113
0.69465667009353638 0.69465667009353638 0.69465667009353638
0.72131198644638062 0.72131198644638062 0.72131198644638062
0.77685010433197021 0.77685010433197021 0.77685010433197021
0.78334152698516846 0.78334152698516846 0.78334152698516846
0.78395098447799683 0.78395098447799683 0.78395098447799683
0.78863680362701416 0.78863680362701416 0.78863680362701416
0.79668855667114258 0.79668855667114258 0.79668855667114258
0.80783355236053467 0.80783355236053467 0.80783355236053467
0.82486981153488159 0.82486981153488159 0.82486981153488159
0.89212477207183838 0.89212477207183838 0.89212477207183838
0.90546190738677979 0.90546190738677979 0.90546190738677979
0.90740025043487549 0.90740025043487549 0.90740025043487549
0.90495455265045166 0.90495455265045166 0.90495455265045166
0.90632444620132446 0.90632444620132446 0.90632444620132446
0.91293656826019287 0.91293656826019287 0.91293656826019287
0.92545163631439209 0.92545163631439209 0.92545163631439209
0.046426586806774139 0.046426586806774139 0.046426586806774139
0.049472808837890625 0.049472808837890625 0.049472808837890625
0.068104386329650879 0.068104386329650879 0.068104386329650879
0.095425009727478027 0.095425009727478027 0.095425009727478027
0.13446833193302155 0.13446833193302155 0.13446833193302155
0.19836972653865814 0.19836972653865814 0.19836972653865814
0.29918336868286133 0.29918336868286133 0.29918336868286133
0.14982028305530548 0.14982028305530548 0.14982028305530548
0.15295515954494476 0.15295515954494476 0.15295515954494476
0.17339114844799042 0.17339114844799042 0.17339114844799042
0.20628197491168976 0.20628197491168976 0.20628197491168976
0.25271511077880859 0.25271511077880859 0.25271511077880859
0.32354286313056946 0.32354286313056946 0.32354286313056946
0.41434156894683838 0.41434156894683838 0.41434156894683838
0.30250969529151917 0.30250969529151917 0.30250969529151917
0.3036389946937561 0.3036389946937561 0.3036389946937561
0.32137423753738403 0.32137423753738403 0.32137423753738403
0.35423740744590759 0.35423740744590759 0.35423740744590759
0.39831092953681946 0.39831092953681946 0.39831092953681946
0.45881059765815735 0.45881059765815735 0.45881059765815735
0.52765148878097534 0.52765148878097534 0.52765148878097534
0.48370549082756042 0.48370549082756042 0.48370549082756042
0.48506137728691101 0.48506137728691101 0.48506137728691101
0.49941471219062805 0.49941471219062805 0.49941471219062805
0.52351033687591553 0.52351033687591553 0.52351033687591553
0.55242472887039185 0.55242472887039185 0.55242472887039185
0.59244036674499512 0.59244036674499512 0.59244036674499512
0.63913732767105103 0.63913732767105103 0.63913732767105103
0.65505039691925049 0.65505039691925049 0.65505039691925049
0.65700656175613403 0.65700656175613403 0.65700656175613403
0.66470015048980713 0.66470015048980713 0.66470015048980713
0.67801451683044434 0.67801451683044434 0.67801451683044434
0.69021844863891602 0.69021844863891602 0.69021844863891602
0.71037250757217407 0.71037250757217407 0.71037250757217407
0.73940712213516235 0.73940712213516235 0.73940712213516235
0.79147213697433472 0.79147213697433472 0.79147213697433472
0.79733246564865112 0.79733246564865112 0.79733246564865112
0.79970306158065796 0.79970306158065796 0.79970306158065796
0.80308020114898682 0.80308020114898682 0.80308020114898682
0.80850124359130859 0.80850124359130859 0.80850124359130859
0.81837409734725952 0.81837409734725952 0.81837409734725952
0.83679378032684326 0.83679378032684326 0.83679378032684326
0.90175575017929077 0.90175575017929077 0.90175575017929077
0.910724937915802 0.910724937915802 0.910724937915802
0.91343998908996582 0.91343998908996582 0.91343998908996582
0.9150007963180542 0.9150007963180542 0.9150007963180542
0.91838669776916504 0.91838669776916504 0.91838669776916504
0.9247780442237854 0.9247780442237854 0.9247780442237854
0.93547624349594116 0.93547624349594116 0.93547624349594116
0.085073955357074738 0.085073955357074738 0.085073955357074738
0.088452190160751343 0.088452190160751343 0.088452190160751343
0.10790742188692093 0.10790742188692093 0.10790742188692093
0.13861632347106934 0.13861632347106934 0.13861632347106934
0.18162238597869873 0.18162238597869873 0.18162238597869873
0.25051030516624451 0.25051030516624451 0.25051030516624451
0.34630668163299561 0.34630668163299561 0.34630668163299561
0.20099973678588867 0.20099973678588867 0.20099973678588867
0.20457078516483307 0.20457078516483307 0.20457078516483307
0.22579304873943329 0.22579304873943329 0.22579304873943329
0.25942322611808777 0.25942322611808777 0.25942322611808777
0.30572831630706787 0.30572831630706787 0.30572831630706787
0.37538802623748779 0.37538802623748779 0.37538802623748779
0.46287375688552856 0.46287375688552856 0.46287375688552856
0.35439527034759521 0.35439527034759521 0.35439527034759521
0.35855549573898315 0.35855549573898315 0.35855549573898315
0.37738317251205444 0.37738317251205444 0.37738317251205444
0.40914472937583923 0.40914472937583923 0.40914472937583923
0.44913306832313538 0.44913306832313538 0.44913306832313538
0.50384742021560669 0.50384742021560669 0.50384742021560669
0.56807678937911987 0.56807678937911987 0.56807678937911987
0.52544474601745605 0.52544474601745605 0.52544474601745605
0.52820545434951782 0.52820545434951782 0.52820545434951782
0.54119968414306641 0.54119968414306641 0.54119968414306641
0.56332695484161377 0.56332695484161377 0.56332695484161377
0.58891886472702026 0.58891886472702026 0.58891886472702026
0.6239238977432251 0.6239238977432251 0.6239238977432251
0.66661077737808228 0.66661077737808228 0.66661077737808228
0.6836848258972168 0.6836848258972168 0.6836848258972168
0.68369495868682861 0.68369495868682861 0.68369495868682861
0.68865561485290527 0.68865561485290527 0.68865561485290527
0.69808459281921387 0.69808459281921387 0.69808459281921387
0.70976489782333374 0.70976489782333374 0.70976489782333374
0.73021155595779419 0.73021155595779419 0.73021155595779419
0.7584911584854126 0.7584911584854126 0.7584911584854126
0.8073914647102356 0.8073914647102356 0.8073914647102356
0.81214654445648193 0.81214654445648193 0.81214654445648193
0.81334453821182251 0.81334453821182251 0.81334453821182251
0.81500959396362305 0.81500959396362305 0.81500959396362305
0.82024222612380981 0.82024222612380981 0.82024222612380981
0.83230572938919067 0.83230572938919067 0.83230572938919067
0.85031932592391968 0.85031932592391968 0.85031932592391968
0.91142314672470093 0.91142314672470093 0.91142314672470093
0.91874152421951294 0.91874152421951294 0.91874152421951294
0.92104572057723999 0.92104572057723999 0.92104572057723999
0.92316412925720215 0.92316412925720215 0.92316412925720215
0.92687296867370605 0.92687296867370605 0.92687296867370605
0.93334907293319702 0.93334907293319702 0.93334907293319702
0.94395160675048828 0.94395160675048828 0.94395160675048828
0.13364066183567047 0.13364066183567047 0.13364066183567047
0.14588010311126709 0.14588010311126709 0.14588010311126709
0.17126566171646118 0.17126566171646118 0.17126566171646118
0.20478051900863647 0.20478051900863647 0.20478051900863647
0.24901510775089264 0.24901510775089264 0.24901510775089264
0.31893393397331238 0.31893393397331238 0.31893393397331238
0.42830604314804077 0.42830604314804077 0.42830604314804077
0.26353773474693298 0.26353773474693298 0.26353773474693298
0.27550005912780762 0.27550005912780762 0.27550005912780762
0.30323207378387451 0.30323207378387451 0.30323207378387451
0.33607956767082214 0.33607956767082214 0.33607956767082214
0.37843897938728333 0.37843897938728333 0.37843897938728333
0.44205528497695923 0.44205528497695923 0.44205528497695923
0.52487319707870483 0.52487319707870483 0.52487319707870483
0.41436097025871277 0.41436097025871277 0.41436097025871277
0.42723515629768372 0.42723515629768372 0.42723515629768372
0.45211726427078247 0.45211726427078247 0.45211726427078247
0.48138326406478882 0.48138326406478882 0.48138326406478882
0.51430290937423706 0.51430290937423706 0.51430290937423706
0.55895185470581055 0.55895185470581055 0.55895185470581055
0.6146622896194458 0.6146622896194458 0.6146622896194458
0.56691527366638184 0.56691527366638184 0.56691527366638184
0.57727354764938354 0.57727354764938354 0.57727354764938354
0.59365177154541016 0.59365177154541016 0.59365177154541016
0.61530566215515137 0.61530566215515137 0.61530566215515137
0.6354372501373291 0.6354372501373291 0.6354372501373291
0.66313165426254272 0.66313165426254272 0.66313165426254272
0.70015823841094971 0.70015823841094971 0.70015823841094971
0.70589220523834229 0.70589220523834229 0.70589220523834229
0.71288532018661499 0.71288532018661499 0.71288532018661499
0.71967452764511108 0.71967452764511108 0.71967452764511108
0.72813981771469116 0.72813981771469116 0.72813981771469116
0.73968207836151123 0.73968207836151123 0.73968207836151123
0.75778448581695557 0.75778448581695557 0.75778448581695557
0.7830767035484314 0.7830767035484314 0.7830767035484314
0.82363474369049072 0.82363474369049072 0.82363474369049072
0.82962697744369507 0.82962697744369507 0.82962697744369507
0.83080095052719116 0.83080095052719116 0.83080095052719116
0.83193594217300415 0.83193594217300415 0.83193594217300415
0.8400338888168335 0.8400338888168335 0.8400338888168335
0.85094857215881348 0.85094857215881348 0.85094857215881348
0.8669198751449585 0.8669198751449585 0.8669198751449585
0.92356353998184204 0.92356353998184204 0.92356353998184204
0.93055003881454468 0.93055003881454468 0.93055003881454468
0.93183320760726929 0.93183320760726929 0.93183320760726929
0.93392497301101685 0.93392497301101685 0.93392497301101685
0.93851011991500854 0.93851011991500854 0.93851011991500854
0.94439136981964111 0.94439136981964111 0.94439136981964111
0.95362728834152222 0.95362728834152222 0.95362728834152222
0.21743795275688171 0.21743795275688171 0.21743795275688171
0.24268336594104767 0.24268336594104767 0.24268336594104767
0.27403920888900757 0.27403920888900757 0.27403920888900757
0.3003256618976593 0.3003256618976593 0.3003256618976593
0.34181058406829834 0.34181058406829834 0.34181058406829834
0.40804368257522583 0.40804368257522583 0.40804368257522583
0.5018191933631897 0.5018191933631897 0.5018191933631897
0.3487217128276825 0.3487217128276825 0.3487217128276825
0.37120237946510315 0.37120237946510315 0.37120237946510315
0.40516456961631775 0.40516456961631775 0.40516456961631775
0.43511295318603516 0.43511295318603516 0.43511295318603516
0.47146546840667725 0.47146546840667725 0.47146546840667725
0.52403342723846436 0.52403342723846436 0.52403342723846436
0.59095501899719238 0.59095501899719238 0.59095501899719238
0.48541122674942017 0.48541122674942017 0.48541122674942017
0.50693273544311523 0.50693273544311523 0.50693273544311523
0.53683525323867798 0.53683525323867798 0.53683525323867798
0.56189262866973877 0.56189262866973877 0.56189262866973877
0.588142991065979 0.588142991065979 0.588142991065979
0.62254887819290161 0.62254887819290161 0.62254887819290161
0.66584908962249756 0.66584908962249756 0.66584908962249756
0.61680334806442261 0.61680334806442261 0.61680334806442261
0.63341313600540161 0.63341313600540161 0.63341313600540161
0.65314102172851562 0.65314102172851562 0.65314102172851562
0.67106467485427856 0.67106467485427856 0.67106467485427856
0.68742138147354126 0.68742138147354126 0.68742138147354126
0.70875155925750732 0.70875155925750732 0.70875155925750732
0.73843598365783691 0.73843598365783691 0.73843598365783691
0.73685562610626221 0.73685562610626221 0.73685562610626221
0.74843770265579224 0.74843770265579224 0.74843770265579224
0.75830388069152832 0.75830388069152832 0.75830388069152832
0.76704686880111694 0.76704686880111694 0.76704686880111694
0.77702212333679199 0.77702212333679199 0.77702212333679199
0.79135668277740479 0.79135668277740479 0.79135668277740479
0.81265556812286377 0.81265556812286377 0.81265556812286377
0.84414970874786377 0.84414970874786377 0.84414970874786377
0.85206681489944458 0.85206681489944458 0.85206681489944458
0.85518378019332886 0.85518378019332886 0.85518378019332886
0.85792833566665649 0.85792833566665649 0.85792833566665649
0.86506211757659912 0.86506211757659912 0.86506211757659912
0.87418925762176514 0.87418925762176514 0.87418925762176514
0.88765966892242432 0.88765966892242432 0.88765966892242432
0.93891650438308716 0.93891650438308716 0.93891650438308716
0.94545441865921021 0.94545441865921021 0.94545441865921021
0.94621425867080688 0.94621425867080688 0.94621425867080688
0.94771778583526611 0.94771778583526611 0.94771778583526611
0.95261722803115845 0.95261722803115845 0.95261722803115845
0.95847350358963013 0.95847350358963013 0.95847350358963013
0.96667253971099854 0.96667253971099854 0.96667253971099854
0.34827381372451782 0.34827381372451782 0.34827381372451782
0.36707094311714172 0.36707094311714172 0.36707094311714172
0.39885881543159485 0.39885881543159485 0.39885881543159485
0.4189574122428894 0.4189574122428894 0.4189574122428894
0.4649747908115387 0.4649747908115387 0.4649747908115387
0.51951879262924194 0.51951879262924194 0.51951879262924194
0.58019047975540161 0.58019047975540161 0.58019047975540161
0.45195600390434265 0.45195600390434265 0.45195600390434265
0.47970890998840332 0.47970890998840332 0.47970890998840332
0.51860338449478149 0.51860338449478149 0.51860338449478149
0.54770219326019287 0.54770219326019287 0.54770219326019287
0.57915717363357544 0.57915717363357544 0.57915717363357544
0.61456859111785889 0.61456859111785889 0.61456859111785889
0.65946221351623535 0.65946221351623535 0.65946221351623535
0.56311297416687012 0.56311297416687012 0.56311297416687012
0.58872061967849731 0.58872061967849731 0.58872061967849731
0.61888360977172852 0.61888360977172852 0.61888360977172852
0.64344120025634766 0.64344120025634766 0.64344120025634766
0.66492718458175659 0.66492718458175659 0.66492718458175659
0.68843603134155273 0.68843603134155273 0.68843603134155273
0.71637487411499023 0.71637487411499023 0.71637487411499023
0.67179363965988159 0.67179363965988159 0.67179363965988159
0.69210100173950195 0.69210100173950195 0.69210100173950195
0.71309763193130493 0.71309763193130493 0.71309763193130493
0.72905176877975464 0.72905176877975464 0.72905176877975464
0.74216932058334351 0.74216932058334351 0.74216932058334351
0.75638276338577271 0.75638276338577271 0.75638276338577271
0.77969038486480713 0.77969038486480713 0.77969038486480713
0.77421873807907104 0.77421873807907104 0.77421873807907104
0.78828573226928711 0.78828573226928711 0.78828573226928711
0.8004794716835022 0.8004794716835022 0.8004794716835022
0.80981510877609253 0.80981510877609253 0.80981510877609253
0.81827020645141602 0.81827020645141602 0.81827020645141602
0.82876253128051758 0.82876253128051758 0.82876253128051758
0.84719735383987427 0.84719735383987427 0.84719735383987427
0.86871719360351562 0.86871719360351562 0.86871719360351562
0.87826544046401978 0.87826544046401978 0.87826544046401978
0.88402688503265381 0.88402688503265381 0.88402688503265381
0.88869911432266235 0.88869911432266235 0.88869911432266235
0.8951684832572937 0.8951684832572937 0.8951684832572937
0.90359944105148315 0.90359944105148315 0.90359944105148315
0.91653096675872803 0.91653096675872803 0.91653096675872803
0.95510786771774292 0.95510786771774292 0.95510786771774292
0.9619707465171814 0.9619707465171814 0.9619707465171814
0.96421569585800171 0.96421569585800171 0.96421569585800171
0.966480553150177 0.966480553150177 0.966480553150177
0.9723932147026062 0.9723932147026062 0.9723932147026062
0.97938293218612671 0.97938293218612671 0.97938293218612671
0.98799401521682739 0.98799401521682739 0.98799401521682739
