films/kodak_portra_800.cube
# Created by: G'MIC (https://gmic.eu)
TITLE "kodak_portra_800"
# LUT size
LUT_3D_SIZE 13
# Data domain
DOMAIN_MIN 0.0 0.0 0.0
DOMAIN_MAX 1.0 1.0 1.0
# LUT data points
0.042835012078285217 0.049381360411643982 0.048555828630924225
0.087356448173522949 0.049720302224159241 0.042994242161512375
0.15422257781028748 0.050222449004650116 0.041264627128839493
0.24549908936023712 0.047100141644477844 0.037752639502286911
0.36519151926040649 0.02877412736415863 0.032323978841304779
0.50235897302627563 0.0060463100671768188 0.025938265025615692
0.63939106464385986 0 0.020074328407645226
0.7626042366027832 0 0.014083009213209152
0.86762815713882446 0 0.0065880869515240192
0.94788211584091187 0.0059920665808022022 0.00016479492478538305
0.99315357208251953 0.048631586134433746 0
1 0.10129667073488235 0
1 0.14943772554397583 0
0.026675475761294365 0.092204540967941284 0.050709385424852371
0.071654900908470154 0.098820030689239502 0.044089581817388535
0.14621718227863312 0.10579126328229904 0.038813751190900803
0.24159011244773865 0.10707279294729233 0.032707992941141129
0.36096200346946716 0.096934616565704346 0.02471548318862915
0.50189840793609619 0.070203863084316254 0.014636230655014515
0.64435195922851562 0.045931663364171982 0.0094195948913693428
0.76972979307174683 0.048251491039991379 0.0069818682968616486
0.87571501731872559 0.050050187855958939 0.0038339053280651569
0.95555645227432251 0.076506689190864563 4.5237822632770985e-05
0.99668437242507935 0.1301073282957077 0
1 0.17724870145320892 0
1 0.21883347630500793 0
0.0050247940234839916 0.14528277516365051 0.060618352144956589
0.039082005620002747 0.15058609843254089 0.055020648986101151
0.11892066150903702 0.16606248915195465 0.041265718638896942
0.23050817847251892 0.18008004128932953 0.026510037481784821
0.35696503520011902 0.18648618459701538 0.018567059189081192
0.50105816125869751 0.18396970629692078 0.0071463193744421005
0.6438215970993042 0.17957852780818939 0.00099690759088844061
0.76837265491485596 0.18713337182998657 0.00043364879093132913
0.87192541360855103 0.19448296725749969 1.8190870832768269e-05
0.95177024602890015 0.21187789738178253 0
0.99657183885574341 0.24400152266025543 0
1 0.27248382568359375 0
1 0.30079212784767151 0
5.4931639169808477e-05 0.21784719824790955 0.069161854684352875
0.0065213968046009541 0.21619538962841034 0.067279934883117676
0.066746637225151062 0.22990229725837708 0.053149715065956116
0.19295622408390045 0.25509300827980042 0.029683774337172508
0.34182515740394592 0.27891427278518677 0.015666572377085686
0.49579697847366333 0.29563736915588379 0.0072515001520514488
0.63719958066940308 0.30378925800323486 0.0025753993541002274
0.75807422399520874 0.31419742107391357 0.00017143698642030358
0.85920953750610352 0.32483601570129395 0
0.94042032957077026 0.33641603589057922 0
0.99288588762283325 0.35256746411323547 0
1 0.36877638101577759 0
1 0.38654768466949463 0
0 0.30267664790153503 0.071545965969562531
7.8986677181092091e-06 0.29851749539375305 0.068531997501850128
0.022990327328443527 0.30562296509742737 0.058596473187208176
0.13928470015525818 0.32977277040481567 0.033108506351709366
0.30392301082611084 0.36374661326408386 0.011351058259606361
0.47073835134506226 0.39660674333572388 0.0040207807905972004
0.61639684438705444 0.41389188170433044 0.0005201451713219285
0.73917245864868164 0.42346653342247009 5.0264247875020374e-06
0.8392825722694397 0.43188309669494629 3.6561254091793671e-05
0.92291349172592163 0.43987426161766052 0.00036755730980075896
0.98569118976593018 0.44827982783317566 9.8987657111138105e-05
1 0.45886406302452087 0
1 0.47094380855560303 0
0 0.39171972870826721 0.070337496697902679
0 0.38707455992698669 0.063237778842449188
0.0057031819596886635 0.38916337490081787 0.052941117435693741
0.091519206762313843 0.40486824512481689 0.028210792690515518
0.24735191464424133 0.43348395824432373 0.0052709989249706268
0.41241908073425293 0.46910333633422852 0.0015678855124861002
0.57380205392837524 0.50343245267868042 0
0.71175080537796021 0.52651524543762207 0
0.81430357694625854 0.53168267011642456 0.00021119958546478301
0.90260672569274902 0.53650087118148804 0.00026195749524049461
0.97174084186553955 0.5410037636756897 9.7237380032311194e-06
0.99974989891052246 0.54636460542678833 0
1 0.5536123514175415 0
0 0.4800267219543457 0.069094911217689514
0 0.47505912184715271 0.059960667043924332
0.00037261363468132913 0.47333055734634399 0.050247836858034134
0.042665921151638031 0.48067969083786011 0.03225066140294075
0.17825987935066223 0.50019192695617676 0.010934029705822468
0.34570211172103882 0.53047019243240356 0.0015087053179740906
0.51599955558776855 0.57017874717712402 0
0.66357934474945068 0.60237032175064087 0
0.77983337640762329 0.61803793907165527 0
0.87905925512313843 0.62819164991378784 0
0.95544856786727905 0.63097906112670898 0
0.99759912490844727 0.63144731521606445 0
1 0.63393133878707886 0
0 0.56555807590484619 0.073368474841117859
0 0.56107479333877563 0.062954768538475037
0 0.55742591619491577 0.055426564067602158
0.010060733184218407 0.55888700485229492 0.043475896120071411
0.12055780738592148 0.57070982456207275 0.020157832652330399
0.2936241626739502 0.59399378299713135 0.0011448131408542395
0.45806559920310974 0.62494033575057983 0
0.60373920202255249 0.65734440088272095 0
0.73550224304199219 0.68741261959075928 0
0.85075557231903076 0.7097785472869873 6.5732470829971135e-05
0.93678528070449829 0.71366590261459351 0
0.99278563261032104 0.7118229866027832 0
1 0.71109527349472046 0
0 0.65045309066772461 0.086157344281673431
0 0.64682507514953613 0.075282350182533264
0 0.64256554841995239 0.068644776940345764
0.0021431117784231901 0.64071750640869141 0.057916752994060516
0.088423334062099457 0.6458246111869812 0.035663019865751266
0.25096783041954041 0.65987157821655273 0.0090043609961867332
0.40885573625564575 0.68201857805252075 0.00038692998350597918
0.55426037311553955 0.7127869725227356 0
0.69026279449462891 0.74587357044219971 0
0.8113824725151062 0.77227640151977539 0
0.90813720226287842 0.78223103284835815 0
0.98114240169525146 0.78418922424316406 0
1 0.78220587968826294 0
0 0.73465967178344727 0.11498134583234787
0 0.73259621858596802 0.10701539367437363
0 0.72886043787002563 0.100335992872715
0.0025023964699357748 0.72563892602920532 0.089486561715602875
0.086796507239341736 0.725544273853302 0.071264602243900299
0.23351989686489105 0.73239803314208984 0.039288956671953201
0.38147276639938354 0.74747234582901001 0.0092338109388947487
0.52081584930419922 0.77123081684112549 0.00060210883384570479
0.6491052508354187 0.79787898063659668 0
0.76563423871994019 0.82081794738769531 0
0.86884909868240356 0.83537536859512329 0
0.95473462343215942 0.84293001890182495 0
0.99832671880722046 0.84287989139556885 0
0.00045402377145364881 0.81746524572372437 0.17329560220241547
0.0018278383649885654 0.8168938159942627 0.1752990186214447
0.005123138427734375 0.81410253047943115 0.17046459019184113
0.030824817717075348 0.81041961908340454 0.15921252965927124
0.13601133227348328 0.80785107612609863 0.14744362235069275
0.26484322547912598 0.80964583158493042 0.11951727420091629
0.39195525646209717 0.81835716962814331 0.086392678320407867
0.51254028081893921 0.83434450626373291 0.059289537370204926
0.62335270643234253 0.85152250528335571 0.017292411997914314
0.72834348678588867 0.86837899684906006 0.0014175265096127987
0.82982838153839111 0.88217282295227051 5.9868307289434597e-05
0.91833221912384033 0.89065092802047729 0
0.98506945371627808 0.89315503835678101 0
0.088494032621383667 0.89605110883712769 0.28896656632423401
0.10547548532485962 0.89619737863540649 0.29366150498390198
0.12923423945903778 0.89448702335357666 0.29440438747406006
0.17043162882328033 0.89067012071609497 0.2862759530544281
0.24811051785945892 0.88778829574584961 0.27668139338493347
0.3456825315952301 0.88777613639831543 0.26679730415344238
0.44523069262504578 0.89240294694900513 0.2543087899684906
0.53779089450836182 0.90131843090057373 0.22928491234779358
0.62565034627914429 0.91064971685409546 0.17333757877349854
0.71429622173309326 0.92050731182098389 0.12083166092634201
0.80424416065216064 0.92998242378234863 0.072597190737724304
0.88889986276626587 0.9362034797668457 0.018538292497396469
0.96301722526550293 0.93895930051803589 0.0044969297014176846
0.27364915609359741 0.96638834476470947 0.43784621357917786
0.28772234916687012 0.96697217226028442 0.4359535276889801
0.31928589940071106 0.96602845191955566 0.4412257969379425
0.34735345840454102 0.96248221397399902 0.43528178334236145
0.3875063955783844 0.95889592170715332 0.42771902680397034
0.45138511061668396 0.95869237184524536 0.43297016620635986
0.52269196510314941 0.96156048774719238 0.43881651759147644
0.58793455362319946 0.96547675132751465 0.42678245902061462
0.65450155735015869 0.97026222944259644 0.40197309851646423
0.72540396451950073 0.97463995218276978 0.367818683385849
0.79830765724182129 0.97925639152526855 0.33027464151382446
0.87216216325759888 0.9821895956993103 0.24829158186912537
0.94523894786834717 0.98276656866073608 0.14689292013645172
0.036274436861276627 0.046782009303569794 0.097640782594680786
0.088880650699138641 0.045347012579441071 0.099964112043380737
0.16088379919528961 0.044992364943027496 0.10091935843229294
0.25492775440216064 0.03806120902299881 0.099177144467830658
0.37288954854011536 0.020987372845411301 0.093781791627407074
0.50860017538070679 0.0041067535057663918 0.084937244653701782
0.6461910605430603 0 0.073609597980976105
0.76994508504867554 0 0.063368670642375946
0.87468045949935913 0 0.049878273159265518
0.9565812349319458 0.0022454655263572931 0.02416788786649704
0.99835371971130371 0.030968431383371353 0.0085899652913212776
1 0.081042975187301636 0.0040133758448064327
1 0.13594871759414673 0.0002076691307593137
0.02423025481402874 0.095723576843738556 0.099761977791786194
0.076795630156993866 0.098806224763393402 0.099684789776802063
0.1513296514749527 0.10199510306119919 0.098108507692813873
0.24767260253429413 0.099258646368980408 0.09473031759262085
0.36806049942970276 0.085604347288608551 0.088230147957801819
0.50778824090957642 0.057481594383716583 0.077571213245391846
0.64835655689239502 0.033800970762968063 0.066215634346008301
0.77366006374359131 0.033916488289833069 0.052532404661178589
0.87685567140579224 0.036397326737642288 0.038965500891208649
0.95704430341720581 0.062244832515716553 0.019214600324630737
0.99779772758483887 0.11154116690158844 0.0075522330589592457
1 0.15875318646430969 0.0019090690184384584
1 0.20535530149936676 1.9746669295273023e-06
0.015050177462399006 0.15422512590885162 0.10579840093851089
0.060787800699472427 0.15965889394283295 0.10619615763425827
0.13084687292575836 0.16849017143249512 0.098752476274967194
0.23615096509456635 0.17599165439605713 0.090277604758739471
0.36592844128608704 0.1791204959154129 0.082148805260658264
0.50809109210968018 0.17239333689212799 0.066156677901744843
0.64763259887695312 0.16493648290634155 0.047642756253480911
0.76931142807006836 0.17223641276359558 0.029906492680311203
0.87082421779632568 0.18204312026500702 0.014186589978635311
0.95120829343795776 0.20068028569221497 0.0084145786240696907
0.99605518579483032 0.23149813711643219 0.0032787697855383158
1 0.26016277074813843 0.00025621301028877497
1 0.29060938954353333 0
0.0052754869684576988 0.22848376631736755 0.11451344192028046
0.031920518726110458 0.22975321114063263 0.11499767005443573
0.090416803956031799 0.23877568542957306 0.10672613233327866
0.20395082235336304 0.25723540782928467 0.089519903063774109
0.35491153597831726 0.2799447774887085 0.071323961019515991
0.50398874282836914 0.29290065169334412 0.055390391498804092
0.64051163196563721 0.2976895272731781 0.040306121110916138
0.75890135765075684 0.30590850114822388 0.021179109811782837
0.85743391513824463 0.31605836749076843 0.0048175137490034103
0.93874269723892212 0.32819554209709167 0.0036885878071188927
0.99090850353240967 0.34450501203536987 0.0010166392894461751
1 0.36095526814460754 0
1 0.37914428114891052 0
0.00025045356596820056 0.31508925557136536 0.11881516128778458
0.003832140238955617 0.31192499399185181 0.11764373630285263
0.030257057398557663 0.31462198495864868 0.11437027901411057
0.14279164373874664 0.33320730924606323 0.091403529047966003
0.31186115741729736 0.36545088887214661 0.061884276568889618
0.47672447562217712 0.3945389986038208 0.03632030263543129
0.62040269374847412 0.41088178753852844 0.01773172989487648
0.73968756198883057 0.41828840970993042 0.0056073358282446861
0.83697986602783203 0.42497164011001587 0.0034267499577254057
0.92008411884307861 0.43392184376716614 0.0013367297360673547
0.98083770275115967 0.44365707039833069 8.5898005636408925e-05
0.99994486570358276 0.45362895727157593 0
1 0.46554440259933472 0
0 0.40359088778495789 0.1221601590514183
0 0.39863687753677368 0.11684368550777435
0.0023954652715474367 0.39621329307556152 0.11114446818828583
0.081473343074321747 0.40628182888031006 0.088475063443183899
0.24276572465896606 0.43231114745140076 0.05830320343375206
0.4170382022857666 0.46962183713912964 0.03321470320224762
0.5784304141998291 0.50231534242630005 0.0083514945581555367
0.71054315567016602 0.52146095037460327 0.0001150243406300433
0.81200993061065674 0.52677232027053833 0.00045540006249211729
0.89887547492980957 0.53200948238372803 4.4759115553461015e-05
0.96676063537597656 0.53670221567153931 0
0.99862313270568848 0.54145354032516479 0
1 0.54900437593460083 0
0 0.48963117599487305 0.12250419706106186
0 0.48426389694213867 0.11559783667325974
0 0.47929033637046814 0.10931035876274109
0.027030136436223984 0.48139810562133789 0.094083972275257111
0.16399173438549042 0.49906763434410095 0.065651670098304749
0.34664180874824524 0.53231167793273926 0.034621577709913254
0.5200309157371521 0.57030218839645386 0.010350126773118973
0.66450345516204834 0.59978711605072021 0.00027589985984377563
0.78049451112747192 0.61644893884658813 0
0.87720984220504761 0.6248289942741394 0
0.95250552892684937 0.62596744298934937 0
0.9961540699005127 0.62552720308303833 0
1 0.62954747676849365 0
0 0.57379484176635742 0.12155519425868988
0 0.56834620237350464 0.11578762531280518
0 0.5619627833366394 0.11346214264631271
0.0013636420480906963 0.55826115608215332 0.10705745965242386
0.095710709691047668 0.56808972358703613 0.077712610363960266
0.28918847441673279 0.59367913007736206 0.033158663660287857
0.45986422896385193 0.62558966875076294 0.015218443237245083
0.60435456037521362 0.65637922286987305 0.0034894158598035574
0.73579651117324829 0.68592709302902222 0
0.84918308258056641 0.70548480749130249 0
0.93577533960342407 0.70900380611419678 0
0.9921562671661377 0.70660179853439331 0
1 0.70733678340911865 0
0 0.65696603059768677 0.12836351990699768
0 0.65254062414169312 0.12272021919488907
0 0.64589357376098633 0.12116748839616776
0 0.64042878150939941 0.11558592319488525
0.068729758262634277 0.64336860179901123 0.092242896556854248
0.2423713356256485 0.6588318943977356 0.050408996641635895
0.40666353702545166 0.68250858783721924 0.023846255615353584
0.55307859182357788 0.71156424283981323 0.0049119838513433933
0.68916678428649902 0.74339467287063599 0
0.80980968475341797 0.76876950263977051 0
0.90814995765686035 0.77991980314254761 0
0.97989070415496826 0.78149658441543579 0
1 0.78035467863082886 0
0 0.73946183919906616 0.15245062112808228
0 0.73651492595672607 0.14791436493396759
0 0.73111402988433838 0.14607463777065277
0.0011954662622883916 0.72557514905929565 0.13987235724925995
0.074052475392818451 0.72396969795227051 0.12363454699516296
0.22315488755702972 0.73109501600265503 0.09010855108499527
0.37626546621322632 0.74682712554931641 0.051423557102680206
0.51777094602584839 0.76861351728439331 0.014083742164075375
0.64752030372619629 0.79479146003723145 0.0010839424794539809
0.76481330394744873 0.81888151168823242 8.8860006144386716e-06
0.86886274814605713 0.83465182781219482 0
0.95428746938705444 0.8417198657989502 0
0.99863088130950928 0.84244674444198608 0
0.00036333868047222495 0.82017701864242554 0.20766623318195343
0.00066734763095155358 0.81897580623626709 0.20794804394245148
0.0046465853229165077 0.8153652548789978 0.20734098553657532
0.034546840935945511 0.81056308746337891 0.20022529363632202
0.13064289093017578 0.80763053894042969 0.18658575415611267
0.25682815909385681 0.80981928110122681 0.1636115163564682
0.38662797212600708 0.81840544939041138 0.1341235488653183
0.50867003202438354 0.83230912685394287 0.09521745890378952
0.62138867378234863 0.84954690933227539 0.050342261791229248
0.72720557451248169 0.86638599634170532 0.015990179032087326
0.82841700315475464 0.88067126274108887 0.001363163348287344
0.92035210132598877 0.89110201597213745 2.7316224077367224e-05
0.98811298608779907 0.89541834592819214 0
0.081380181014537811 0.89685297012329102 0.31222575902938843
0.093799963593482971 0.89718329906463623 0.31509196758270264
0.11734360456466675 0.89499175548553467 0.31586775183677673
0.1646868884563446 0.89106029272079468 0.30930599570274353
0.24223369359970093 0.88797587156295776 0.29938942193984985
0.33878543972969055 0.88800644874572754 0.29102382063865662
0.43859657645225525 0.89209342002868652 0.28024926781654358
0.5327642560005188 0.89996397495269775 0.25674408674240112
0.6236690878868103 0.90956079959869385 0.21379876136779785
0.71306896209716797 0.91935443878173828 0.16328538954257965
0.80226808786392212 0.92850756645202637 0.10923143476247787
0.8908545970916748 0.93668836355209351 0.048929356038570404
0.96823161840438843 0.94068831205368042 0.004964776337146759
0.26119193434715271 0.96554261445999146 0.44661650061607361
0.27777081727981567 0.96743083000183105 0.44845831394195557
0.30003732442855835 0.96621417999267578 0.45009902119636536
0.33295047283172607 0.9631115198135376 0.44630083441734314
0.38189727067947388 0.96029543876647949 0.4420439600944519
0.44639194011688232 0.95912444591522217 0.44421151280403137
0.51557248830795288 0.96091765165328979 0.44608640670776367
0.58335214853286743 0.96457678079605103 0.43729749321937561
0.65240877866744995 0.96968775987625122 0.41688260436058044
0.72459632158279419 0.97494184970855713 0.39087119698524475
0.79816204309463501 0.97963422536849976 0.35464835166931152
0.87356913089752197 0.98237919807434082 0.27665457129478455
0.94845080375671387 0.98359990119934082 0.14942581951618195
0.022600062191486359 0.049415543675422668 0.16957555711269379
0.083264216780662537 0.04667256772518158 0.17313043773174286
0.16590367257595062 0.043000299483537674 0.17689266800880432
0.26450499892234802 0.0302761010825634 0.17758809030056
0.38094040751457214 0.011533056385815144 0.17422966659069061
0.51483875513076782 0.0011016397038474679 0.16647900640964508
0.65203571319580078 0 0.15400364995002747
0.77403491735458374 0 0.14640574157238007
0.87608122825622559 0 0.13696211576461792
0.95532512664794922 4.2814368498511612e-05 0.11714004725217819
0.99593156576156616 0.0072422400116920471 0.1061754897236824
1 0.050776775926351547 0.092347055673599243
1 0.12022212892770767 0.064111150801181793
0.013758446089923382 0.10145634412765503 0.16559280455112457
0.074273847043514252 0.10158298164606094 0.16899579763412476
0.15730136632919312 0.10067226737737656 0.17238862812519073
0.25751212239265442 0.09142322838306427 0.17245273292064667
0.3766171932220459 0.069802753627300262 0.17030373215675354
0.51374733448028564 0.037110842764377594 0.16579210758209229
0.65281873941421509 0.013830850832164288 0.1579391211271286
0.77462434768676758 0.012915652245283127 0.14590947329998016
0.87534689903259277 0.011802044697105885 0.13773088157176971
0.95413827896118164 0.026926018297672272 0.12231886386871338
0.99658238887786865 0.078641362488269806 0.10430437326431274
1 0.1323716938495636 0.081900909543037415
1 0.18841250240802765 0.057389620691537857
0.011503690853714943 0.16337993741035461 0.16507181525230408
0.062935084104537964 0.16761402785778046 0.1707010418176651
0.14275693893432617 0.17079325020313263 0.17079637944698334
0.24809984862804413 0.17254436016082764 0.1686561107635498
0.37605097889900208 0.16942903399467468 0.16629894077777863
0.51497334241867065 0.15168112516403198 0.16122911870479584
0.65288686752319336 0.13220183551311493 0.14964601397514343
0.77067536115646362 0.13641412556171417 0.13135819137096405
0.86864060163497925 0.14921581745147705 0.11785809695720673
0.94992834329605103 0.1706615686416626 0.10935583710670471
0.99604654312133789 0.21035642921924591 0.091971918940544128
1 0.24597835540771484 0.063379012048244476
1 0.27990776300430298 0.043937593698501587
0.0093414159491658211 0.24170947074890137 0.17437183856964111
0.051844727247953415 0.24440225958824158 0.17809616029262543
0.12599837779998779 0.24985966086387634 0.17715801298618317
0.22813017666339874 0.26096722483634949 0.16855031251907349
0.36919254064559937 0.27847900986671448 0.15736380219459534
0.51121097803115845 0.28257223963737488 0.1514425128698349
0.64563333988189697 0.28520458936691284 0.14086626470088959
0.76045691967010498 0.28876703977584839 0.12173508107662201
0.85608053207397461 0.30224427580833435 0.09614688903093338
0.93805372714996338 0.3160260021686554 0.090465635061264038
0.99146807193756104 0.33497673273086548 0.069740608334541321
1 0.35221165418624878 0.043181609362363815
1 0.37116366624832153 0.039498720318078995
0.0033065944444388151 0.33163034915924072 0.18342055380344391
0.024485224857926369 0.33081799745559692 0.1838628351688385
0.079709969460964203 0.33176440000534058 0.18455849587917328
0.18009620904922485 0.34184923768043518 0.17100414633750916
0.33096194267272949 0.36729821562767029 0.14892640709877014
0.48934793472290039 0.392783522605896 0.12459859251976013
0.62798255681991577 0.40735581517219543 0.10861499607563019
0.74222820997238159 0.41240262985229492 0.093071579933166504
0.83804702758789062 0.418966144323349 0.08120853453874588
0.92029672861099243 0.42776787281036377 0.070315882563591003
0.98235136270523071 0.43780657649040222 0.054209407418966293
0.999886155128479 0.44729530811309814 0.033775657415390015
1 0.45941367745399475 0.021146707236766815
8.9757586465566419e-06 0.42067176103591919 0.19437995553016663
0.0007769266958348453 0.41815453767776489 0.18804912269115448
0.016160344704985619 0.41449049115180969 0.18359178304672241
0.1123621016740799 0.4156036376953125 0.17113499343395233
0.2622222900390625 0.43568837642669678 0.14944465458393097
0.43361788988113403 0.47359171509742737 0.11742861568927765
0.59095370769500732 0.50460577011108398 0.079791061580181122
0.71756112575531006 0.52083772420883179 0.048943012952804565
0.81563830375671387 0.52531605958938599 0.053786318749189377
0.89823955297470093 0.52845758199691772 0.043518800288438797
0.96588218212127686 0.53227674961090088 0.038980953395366669
0.99693167209625244 0.53682106733322144 0.029787790030241013
1 0.54477012157440186 0.014638474211096764
0 0.5053902268409729 0.19634576141834259
0 0.50175732374191284 0.19099783897399902
0.0021144193597137928 0.49575051665306091 0.18642608821392059
0.054549332708120346 0.49265819787979126 0.17562179267406464
0.18773269653320312 0.50501096248626709 0.15244230628013611
0.35974395275115967 0.53617960214614868 0.12012912333011627
0.53013640642166138 0.57369792461395264 0.077122226357460022
0.67716306447982788 0.60585373640060425 0.028754634782671928
0.78792500495910645 0.61966794729232788 0.022818397730588913
0.87639749050140381 0.62292218208312988 0.024486782029271126
0.94873189926147461 0.62152576446533203 0.025119047611951828
0.99246311187744141 0.62146091461181641 0.02710692398250103
1 0.6260141134262085 0.014498811215162277
0 0.58688569068908691 0.18888655304908752
0 0.58286339044570923 0.18984717130661011
0.00035184971056878567 0.57591980695724487 0.19017170369625092
0.017137445509433746 0.57032120227813721 0.18300618231296539
0.1226842850446701 0.5753360390663147 0.16033710539340973
0.2926611602306366 0.59615224599838257 0.12705257534980774
0.46309736371040344 0.62690669298171997 0.096311323344707489
0.61530780792236328 0.66224461793899536 0.049133554100990295
