films/kodak_tri-x_400.cube
# Created by: G'MIC (https://gmic.eu)
TITLE "kodak_tri-x_400"
# LUT size
LUT_3D_SIZE 5
# Data domain
DOMAIN_MIN 0.0 0.0 0.0
DOMAIN_MAX 1.0 1.0 1.0
# LUT data points
0.075034990906715393 0.075034990906715393 0.075034990906715393
0.11298596113920212 0.11298596113920212 0.11298596113920212
0.19870172441005707 0.19870172441005707 0.19870172441005707
0.31899192929267883 0.31899192929267883 0.31899192929267883
0.48586204648017883 0.48586204648017883 0.48586204648017883
0.20308610796928406 0.20308610796928406 0.20308610796928406
0.24449717998504639 0.24449717998504639 0.24449717998504639
0.3514556884765625 0.3514556884765625 0.3514556884765625
0.45312973856925964 0.45312973856925964 0.45312973856925964
0.60822480916976929 0.60822480916976929 0.60822480916976929
0.40447208285331726 0.40447208285331726 0.40447208285331726
0.40221211314201355 0.40221211314201355 0.40221211314201355
0.53428769111633301 0.53428769111633301 0.53428769111633301
0.65749192237854004 0.65749192237854004 0.65749192237854004
0.77448242902755737 0.77448242902755737 0.77448242902755737
0.6710665225982666 0.6710665225982666 0.6710665225982666
0.64164823293685913 0.64164823293685913 0.64164823293685913
0.68182545900344849 0.68182545900344849 0.68182545900344849
0.7989240288734436 0.7989240288734436 0.7989240288734436
0.89950114488601685 0.89950114488601685 0.89950114488601685
0.90825891494750977 0.90825891494750977 0.90825891494750977
0.90224260091781616 0.90224260091781616 0.90224260091781616
0.90099203586578369 0.90099203586578369 0.90099203586578369
0.93862354755401611 0.93862354755401611 0.93862354755401611
0.94673460721969604 0.94673460721969604 0.94673460721969604
0.13885585963726044 0.13885585963726044 0.13885585963726044
0.20235970616340637 0.20235970616340637 0.20235970616340637
0.31928271055221558 0.31928271055221558 0.31928271055221558
0.3753320574760437 0.3753320574760437 0.3753320574760437
0.47874587774276733 0.47874587774276733 0.47874587774276733
0.28215223550796509 0.28215223550796509 0.28215223550796509
0.29217219352722168 0.29217219352722168 0.29217219352722168
0.37102979421615601 0.37102979421615601 0.37102979421615601
0.46916967630386353 0.46916967630386353 0.46916967630386353
0.59991472959518433 0.59991472959518433 0.59991472959518433
0.51094084978103638 0.51094084978103638 0.51094084978103638
0.46400687098503113 0.46400687098503113 0.46400687098503113
0.55797749757766724 0.55797749757766724 0.55797749757766724
0.66498947143554688 0.66498947143554688 0.66498947143554688
0.76613849401473999 0.76613849401473999 0.76613849401473999
0.72930598258972168 0.72930598258972168 0.72930598258972168
0.68818151950836182 0.68818151950836182 0.68818151950836182
0.70638161897659302 0.70638161897659302 0.70638161897659302
0.81372982263565063 0.81372982263565063 0.81372982263565063
0.90029186010360718 0.90029186010360718 0.90029186010360718
0.90692412853240967 0.90692412853240967 0.90692412853240967
0.91442275047302246 0.91442275047302246 0.91442275047302246
0.90736252069473267 0.90736252069473267 0.90736252069473267
0.94173967838287354 0.94173967838287354 0.94173967838287354
0.97088885307312012 0.97088885307312012 0.97088885307312012
0.27220085263252258 0.27220085263252258 0.27220085263252258
0.33322441577911377 0.33322441577911377 0.33322441577911377
0.4342101514339447 0.4342101514339447 0.4342101514339447
0.59131509065628052 0.59131509065628052 0.59131509065628052
0.69752246141433716 0.69752246141433716 0.69752246141433716
0.34001296758651733 0.34001296758651733 0.34001296758651733
0.4164125919342041 0.4164125919342041 0.4164125919342041
0.50177794694900513 0.50177794694900513 0.50177794694900513
0.62895280122756958 0.62895280122756958 0.62895280122756958
0.69690746068954468 0.69690746068954468 0.69690746068954468
0.57639938592910767 0.57639938592910767 0.57639938592910767
0.57970726490020752 0.57970726490020752 0.57970726490020752
0.60598862171173096 0.60598862171173096 0.60598862171173096
0.67577791213989258 0.67577791213989258 0.67577791213989258
0.74526536464691162 0.74526536464691162 0.74526536464691162
0.79822146892547607 0.79822146892547607 0.79822146892547607
0.78777498006820679 0.78777498006820679 0.78777498006820679
0.76939195394515991 0.76939195394515991 0.76939195394515991
0.8332744836807251 0.8332744836807251 0.8332744836807251
0.90215915441513062 0.90215915441513062 0.90215915441513062
0.9460141658782959 0.9460141658782959 0.9460141658782959
0.94136691093444824 0.94136691093444824 0.94136691093444824
0.93078672885894775 0.93078672885894775 0.93078672885894775
0.9438977837562561 0.9438977837562561 0.9438977837562561
0.976981520652771 0.976981520652771 0.976981520652771
0.48721593618392944 0.48721593618392944 0.48721593618392944
0.5346139669418335 0.5346139669418335 0.5346139669418335
0.63485217094421387 0.63485217094421387 0.63485217094421387
0.70099139213562012 0.70099139213562012 0.70099139213562012
0.8135945200920105 0.8135945200920105 0.8135945200920105
0.54691547155380249 0.54691547155380249 0.54691547155380249
0.59020566940307617 0.59020566940307617 0.59020566940307617
0.66315150260925293 0.66315150260925293 0.66315150260925293
0.74272412061691284 0.74272412061691284 0.74272412061691284
0.84294253587722778 0.84294253587722778 0.84294253587722778
0.60219615697860718 0.60219615697860718 0.60219615697860718
0.63941311836242676 0.63941311836242676 0.63941311836242676
0.71605366468429565 0.71605366468429565 0.71605366468429565
0.7926599383354187 0.7926599383354187 0.7926599383354187
0.87592881917953491 0.87592881917953491 0.87592881917953491
0.84039390087127686 0.84039390087127686 0.84039390087127686
0.84160512685775757 0.84160512685775757 0.84160512685775757
0.84500181674957275 0.84500181674957275 0.84500181674957275
0.86038482189178467 0.86038482189178467 0.86038482189178467
0.9105764627456665 0.9105764627456665 0.9105764627456665
0.96338844299316406 0.96338844299316406 0.96338844299316406
0.96851372718811035 0.96851372718811035 0.96851372718811035
0.95890283584594727 0.95890283584594727 0.95890283584594727
0.96469569206237793 0.96469569206237793 0.96469569206237793
0.98225188255310059 0.98225188255310059 0.98225188255310059
0.77869433164596558 0.77869433164596558 0.77869433164596558
0.80288136005401611 0.80288136005401611 0.80288136005401611
0.85107547044754028 0.85107547044754028 0.85107547044754028
0.89620482921600342 0.89620482921600342 0.89620482921600342
0.92624622583389282 0.92624622583389282 0.92624622583389282
0.80442875623703003 0.80442875623703003 0.80442875623703003
0.82961577177047729 0.82961577177047729 0.82961577177047729
0.8609546422958374 0.8609546422958374 0.8609546422958374
0.90002250671386719 0.90002250671386719 0.90002250671386719
0.92061734199523926 0.92061734199523926 0.92061734199523926
0.82330030202865601 0.82330030202865601 0.82330030202865601
0.83826231956481934 0.83826231956481934 0.83826231956481934
0.87374240159988403 0.87374240159988403 0.87374240159988403
0.91875892877578735 0.91875892877578735 0.91875892877578735
0.95097154378890991 0.95097154378890991 0.95097154378890991
0.87298721075057983 0.87298721075057983 0.87298721075057983
0.86283594369888306 0.86283594369888306 0.86283594369888306
0.88353687524795532 0.88353687524795532 0.88353687524795532
0.93133318424224854 0.93133318424224854 0.93133318424224854
0.96751731634140015 0.96751731634140015 0.96751731634140015
0.96132874488830566 0.96132874488830566 0.96132874488830566
0.97116208076477051 0.97116208076477051 0.97116208076477051
0.97187811136245728 0.97187811136245728 0.97187811136245728
0.97900193929672241 0.97900193929672241 0.97900193929672241
0.97724539041519165 0.97724539041519165 0.97724539041519165
