films/kodak_e-100_gx_ektachrome_100.cube
# Created by: G'MIC (https://gmic.eu)
TITLE "kodak_e-100_gx_ektachrome_100"
# LUT size
LUT_3D_SIZE 13
# Data domain
DOMAIN_MIN 0.0 0.0 0.0
DOMAIN_MAX 1.0 1.0 1.0
# LUT data points
0.027640115469694138 0.028534892946481705 0.026623399928212166
0.072257101535797119 0.022924549877643585 0.02312813512980938
0.12970873713493347 0.020057423040270805 0.020076466724276543
0.1944568008184433 0.017545422539114952 0.016040757298469543
0.26465550065040588 0.014188430272042751 0.011127067729830742
0.3378293514251709 0.0099419988691806793 0.0061919419094920158
0.41200560331344604 0.0048875696957111359 0.0027317123021930456
0.4858148992061615 0.00059735169634222984 0.0010937111219391227
0.55924063920974731 0 0.00034879797021858394
0.6331360936164856 0 4.7392004489665851e-05
0.70687657594680786 0 0
0.77800071239471436 2.9754639399470761e-05 0
0.84107178449630737 0.0052296207286417484 0.00046810074127279222
0.065632790327072144 0.093887984752655029 0.051297176629304886
0.10122594237327576 0.086629860103130341 0.046463731676340103
0.15412718057632446 0.081507407128810883 0.04327087476849556
0.21638652682304382 0.07593352347612381 0.038573876023292542
0.28488391637802124 0.067817553877830505 0.031953968107700348
0.35655030608177185 0.057239919900894165 0.024210821837186813
0.42891392111778259 0.04329286515712738 0.017129667103290558
0.50040775537490845 0.024760840460658073 0.011669847182929516
0.5706636905670166 0.0057766931131482124 0.007129250094294548
0.64141029119491577 0.00016603656695224345 0.0039300359785556793
0.71239238977432251 5.9898226027144119e-05 0.0015423344448208809
0.7799951434135437 0.00063904409762471914 0.00042580996523611248
0.83989822864532471 0.0047698826529085636 0.00073839077958837152
0.11285480856895447 0.16677047312259674 0.079130582511425018
0.13999395072460175 0.16101865470409393 0.074861802160739899
0.18506161868572235 0.15578125417232513 0.071435622870922089
0.24367184937000275 0.14792467653751373 0.066405817866325378
0.31009343266487122 0.13630224764347076 0.059154108166694641
0.38011464476585388 0.12105141580104828 0.050737883895635605
0.45044165849685669 0.10293667018413544 0.043692316859960556
0.51966732740402222 0.079783104360103607 0.036645777523517609
0.58709394931793213 0.050529211759567261 0.028893310576677322
0.65400028228759766 0.027663331478834152 0.020872347056865692
0.72034788131713867 0.016941159963607788 0.013124428689479828
0.78263163566589355 0.010640177875757217 0.006740958895534277
0.83993148803710938 0.0087175853550434113 0.0053183012641966343
0.15224876999855042 0.24902552366256714 0.11116491258144379
0.17645937204360962 0.24484162032604218 0.10724831372499466
0.21767953038215637 0.23999032378196716 0.10377848148345947
0.27438449859619141 0.23217658698558807 0.098304107785224915
0.33956092596054077 0.21945969760417938 0.090889319777488708
0.40773406624794006 0.20306707918643951 0.083111993968486786
0.47644445300102234 0.18476378917694092 0.076149076223373413
0.54449993371963501 0.16043369472026825 0.068555958569049835
0.61049336194992065 0.12993988394737244 0.05956287682056427
0.67427420616149902 0.098043210804462433 0.049214679747819901
0.73515886068344116 0.067754410207271576 0.037131588906049728
0.79180920124053955 0.040367573499679565 0.025599267333745956
0.84500938653945923 0.023421164602041245 0.020266169682145119
0.18948100507259369 0.3378976583480835 0.14604078233242035
0.21179033815860748 0.33462622761726379 0.14258250594139099
0.25022238492965698 0.33062905073165894 0.14026680588722229
0.30710786581039429 0.32367503643035889 0.13382978737354279
0.37188524007797241 0.31291690468788147 0.12637786567211151
0.43834447860717773 0.29887735843658447 0.11976049095392227
0.50614649057388306 0.28243684768676758 0.11308623850345612
0.57353460788726807 0.26064997911453247 0.10533393174409866
0.6388583779335022 0.23147481679916382 0.095458164811134338
0.7006990909576416 0.19460627436637878 0.083546563982963562
0.75776416063308716 0.14844639599323273 0.069048531353473663
0.80921089649200439 0.096408799290657043 0.053417325019836426
0.85751384496688843 0.057954870164394379 0.044715985655784607
0.23449103534221649 0.4280705451965332 0.18111558258533478
0.25510919094085693 0.42601442337036133 0.17907185852527618
0.28999948501586914 0.42314398288726807 0.17766487598419189
0.3437536358833313 0.417866051197052 0.17162227630615234
0.40590468049049377 0.40975561738014221 0.16455207765102386
0.47077691555023193 0.39910781383514404 0.1587165892124176
0.5377081036567688 0.38633415102958679 0.15248781442642212
0.60459846258163452 0.36940386891365051 0.14448840916156769
0.66977912187576294 0.34547892212867737 0.13440245389938354
0.73177695274353027 0.31221121549606323 0.12378429621458054
0.7874944806098938 0.2614867091178894 0.10860326141119003
0.83590906858444214 0.19368703663349152 0.089874923229217529
0.87955361604690552 0.13400687277317047 0.076964057981967926
0.28924119472503662 0.51683306694030762 0.21777856349945068
0.30858114361763 0.51584362983703613 0.21620254218578339
0.3406880795955658 0.51386433839797974 0.2147660106420517
0.38709309697151184 0.51041966676712036 0.21069160103797913
0.44308954477310181 0.50513595342636108 0.20510353147983551
0.50495100021362305 0.49699839949607849 0.19933369755744934
0.57012492418289185 0.4871576726436615 0.19315795600414276
0.63556700944900513 0.47491371631622314 0.18476727604866028
0.70025742053985596 0.45852220058441162 0.17477287352085114
0.76323747634887695 0.43614104390144348 0.16620911657810211
0.82056534290313721 0.3956972062587738 0.15353810787200928
0.87001639604568481 0.3369133472442627 0.13590054214000702
0.91400432586669922 0.2819274365901947 0.12355286628007889
0.34719491004943848 0.60283154249191284 0.25903016328811646
0.36522665619850159 0.60306799411773682 0.25676992535591125
0.3947296142578125 0.60160619020462036 0.25530678033828735
0.43574577569961548 0.59922260046005249 0.25246444344520569
0.48570334911346436 0.59567219018936157 0.24793262779712677
0.54306161403656006 0.58940714597702026 0.24286101758480072
0.60433530807495117 0.58156424760818481 0.23661378026008606
0.66645199060440063 0.57298654317855835 0.22861216962337494
0.72879248857498169 0.562389075756073 0.21872983872890472
0.79119217395782471 0.54773622751235962 0.21018593013286591
0.85102415084838867 0.52371257543563843 0.20048020780086517
0.90507787466049194 0.48518466949462891 0.1864064484834671
0.94977456331253052 0.44300273060798645 0.1757662296295166
0.4073144793510437 0.68554943799972534 0.30483373999595642
0.42346659302711487 0.68690180778503418 0.3019472062587738
0.45116707682609558 0.68564939498901367 0.30018633604049683
0.48876067996025085 0.6833035945892334 0.29796800017356873
0.534210205078125 0.6800990104675293 0.29462873935699463
0.58570557832717896 0.67544043064117432 0.29016003012657166
0.64114171266555786 0.66977483034133911 0.28422790765762329
0.69767433404922485 0.66427391767501831 0.27736824750900269
0.75596737861633301 0.65757238864898682 0.2696954607963562
0.81662112474441528 0.64761227369308472 0.26132577657699585
0.8772284984588623 0.63091260194778442 0.25149652361869812
0.9338148832321167 0.60360419750213623 0.2395966500043869
0.97789096832275391 0.56960141658782959 0.23128889501094818
0.47393357753753662 0.76462733745574951 0.3531515896320343
0.48713445663452148 0.76664364337921143 0.350454181432724
0.51265954971313477 0.76487797498703003 0.34847530722618103
0.54618662595748901 0.76276481151580811 0.34688201546669006
0.58611929416656494 0.76006031036376953 0.34481284022331238
0.63107818365097046 0.75686246156692505 0.34125688672065735
0.67940622568130493 0.75320947170257568 0.33604058623313904
0.72958862781524658 0.74987751245498657 0.33038386702537537
0.78253567218780518 0.7456551194190979 0.32438072562217712
0.83972692489624023 0.73827052116394043 0.31663772463798523
0.89749830961227417 0.72515952587127686 0.30728834867477417
0.95239150524139404 0.70435422658920288 0.29725933074951172
0.99241411685943604 0.67713958024978638 0.29080924391746521
0.55009520053863525 0.83896136283874512 0.40400061011314392
0.56177538633346558 0.84068155288696289 0.4013773500919342
0.58110487461090088 0.83956313133239746 0.39962095022201538
0.60826337337493896 0.8375009298324585 0.39873597025871277
0.64145314693450928 0.83577090501785278 0.39800319075584412
0.6793440580368042 0.83378243446350098 0.39517858624458313
0.72054260969161987 0.83197945356369019 0.39029359817504883
0.76449179649353027 0.82962465286254883 0.38486945629119873
0.81184309720993042 0.82712143659591675 0.37951138615608215
0.86472511291503906 0.82161355018615723 0.37293824553489685
0.91715532541275024 0.81259256601333618 0.36557304859161377
0.96273839473724365 0.79850953817367554 0.35876184701919556
0.99527847766876221 0.77791798114776611 0.35375341773033142
0.6289675235748291 0.90842407941818237 0.45789322257041931
0.63818454742431641 0.90990656614303589 0.45438739657402039
0.65152835845947266 0.90873295068740845 0.45215046405792236
0.67186218500137329 0.90717178583145142 0.45172101259231567
0.69852346181869507 0.90643692016601562 0.45230016112327576
0.73020821809768677 0.90557324886322021 0.45102411508560181
0.76505255699157715 0.90444868803024292 0.4453214704990387
0.80368006229400635 0.90322160720825195 0.43835476040840149
0.8466981053352356 0.90126186609268188 0.43259713053703308
0.8931962251663208 0.89819633960723877 0.42755287885665894
0.93803322315216064 0.89317893981933594 0.42310675978660583
0.97346317768096924 0.88587659597396851 0.419759601354599
0.99692344665527344 0.87202215194702148 0.41629955172538757
0.70105129480361938 0.97151565551757812 0.51000040769577026
0.70790475606918335 0.97213238477706909 0.5055510401725769
0.71764612197875977 0.97170472145080566 0.50284254550933838
0.7335858941078186 0.97095602750778198 0.50272005796432495
0.75496143102645874 0.9710349440574646 0.50400048494338989
0.7813991904258728 0.97109687328338623 0.50441223382949829
0.81105214357376099 0.97054660320281982 0.49759411811828613
0.84470480680465698 0.96981662511825562 0.4892977774143219
0.88228291273117065 0.96879017353057861 0.48315644264221191
0.92288446426391602 0.96709096431732178 0.47900038957595825
0.96124505996704102 0.964927077293396 0.47655197978019714
0.98766410350799561 0.96272218227386475 0.47544017434120178
0.99903273582458496 0.95519548654556274 0.47364285588264465
0.026143047958612442 0.031380806118249893 0.074931323528289795
0.065818682312965393 0.02282695472240448 0.069381237030029297
0.11963312327861786 0.018550828099250793 0.065201811492443085
0.18281054496765137 0.01627025194466114 0.059713296592235565
0.25390693545341492 0.013784894719719887 0.052589897066354752
0.32930055260658264 0.011138422414660454 0.043434653431177139
0.40573585033416748 0.0077254949137568474 0.033805727958679199
0.48101213574409485 0.0020374222658574581 0.02735583670437336
0.55568504333496094 1.5797335436218418e-05 0.022467130795121193
0.63093107938766479 0 0.016737800091505051
0.70629942417144775 0 0.0094381291419267654
0.7787129282951355 0 0.0034289639443159103
0.84225326776504517 0.0024186826776713133 0.0043158885091543198
0.059297643601894379 0.097354471683502197 0.098123587667942047
0.094426713883876801 0.087713576853275299 0.09321487694978714
0.14492261409759521 0.08075607568025589 0.089609540998935699
0.20610961318016052 0.075118288397789001 0.084379367530345917
0.27557539939880371 0.067500367760658264 0.07741883397102356
0.34891039133071899 0.058679632842540741 0.068119511008262634
0.42295950651168823 0.047227043658494949 0.05850842222571373
0.49583527445793152 0.02938028983771801 0.050450839102268219
0.56743508577346802 0.0099165076389908791 0.042940687388181686
0.63885682821273804 0.00096640491392463446 0.034635208547115326
0.70983231067657471 0 0.024480812251567841
0.77808666229248047 0 0.014875359833240509
0.83911377191543579 0.0005785624380223453 0.013041956350207329
0.10222221910953522 0.16990265250205994 0.1250847727060318
0.12978723645210266 0.16316854953765869 0.12043772637844086
0.17501372098922729 0.15694224834442139 0.11726796627044678
0.23425610363483429 0.14925634860992432 0.11250987648963928
0.30176553130149841 0.1379147469997406 0.10566294193267822
0.37295570969581604 0.12363727390766144 0.096796698868274689
0.44455441832542419 0.10639925301074982 0.087802901864051819
0.51501631736755371 0.08273584395647049 0.078878529369831085
0.58357399702072144 0.054151915013790131 0.069393143057823181
0.65036493539810181 0.027964228764176369 0.059191729873418808
0.71541386842727661 0.010873069055378437 0.046620506793260574
0.77815598249435425 0.0038378247991204262 0.032693646848201752
0.83604371547698975 0.002798925619572401 0.025580268353223801
0.13614317774772644 0.25187456607818604 0.1550663560628891
0.1628212034702301 0.2472163587808609 0.15108345448970795
0.20675678551197052 0.24250403046607971 0.14802232384681702
0.26577788591384888 0.23499585688114166 0.14301587641239166
0.33230772614479065 0.22279685735702515 0.13642774522304535
0.4010576605796814 0.2067338228225708 0.12867599725723267
0.47078931331634521 0.18712782859802246 0.12035053968429565
0.53964221477508545 0.16174869239330292 0.11138886213302612
0.60630267858505249 0.12971183657646179 0.10114754736423492
0.66954642534255981 0.094029523432254791 0.0890473872423172
0.7293694019317627 0.058987651020288467 0.074414029717445374
0.78593438863754272 0.030647203326225281 0.058368295431137085
0.83952242136001587 0.014425210654735565 0.049019563943147659
0.16787949204444885 0.34097033739089966 0.18708854913711548
0.19612930715084076 0.33753806352615356 0.18404392898082733
0.24108888208866119 0.33357357978820801 0.18160003423690796
0.30101647973060608 0.3272821307182312 0.17602059245109558
0.36662429571151733 0.31683611869812012 0.16957609355449677
0.43253400921821594 0.30218437314033508 0.16330835223197937
0.50075650215148926 0.28476095199584961 0.15594753623008728
0.56897342205047607 0.2621304988861084 0.14692795276641846
0.63473296165466309 0.23159503936767578 0.13624332845211029
0.6963125467300415 0.19130951166152954 0.12373796105384827
0.75284123420715332 0.14258144795894623 0.10826936364173889
0.80407148599624634 0.09025101363658905 0.091515548527240753
0.85264796018600464 0.051655981689691544 0.081361047923564911
0.21558786928653717 0.43128848075866699 0.21965627372264862
0.24095280468463898 0.4290594756603241 0.21796998381614685
0.28182843327522278 0.42592975497245789 0.21671546995639801
0.33785006403923035 0.42113825678825378 0.21207523345947266
0.40062254667282104 0.41314196586608887 0.20652545988559723
0.46510154008865356 0.40211436152458191 0.20073096454143524
0.53244554996490479 0.38894182443618774 0.19386506080627441
0.60029888153076172 0.37191331386566162 0.18453776836395264
0.66606193780899048 0.34728440642356873 0.17364904284477234
0.7277146577835083 0.31080615520477295 0.16240361332893372
0.78370761871337891 0.26044052839279175 0.14814768731594086
0.83281475305557251 0.19648388028144836 0.13156002759933472
0.87713485956192017 0.14151345193386078 0.12020790576934814
0.2753661572933197 0.52046698331832886 0.25282299518585205
0.29615485668182373 0.51909142732620239 0.25321990251541138
0.33091694116592407 0.51677429676055908 0.25316664576530457
0.37943476438522339 0.51321715116500854 0.25047042965888977
0.43681100010871887 0.50759637355804443 0.24587772786617279
0.49925494194030762 0.49982893466949463 0.24037258327007294
0.56491333246231079 0.49025681614875793 0.23339289426803589
0.63127380609512329 0.47825765609741211 0.22400182485580444
0.69622629880905151 0.46091338992118835 0.21253097057342529
0.75897479057312012 0.43526548147201538 0.20269219577312469
0.81757074594497681 0.39742401242256165 0.19220505654811859
0.86868822574615479 0.34393617510795593 0.17777527868747711
0.91148525476455688 0.28763541579246521 0.16656097769737244
0.33562940359115601 0.60623550415039062 0.29295888543128967
0.35424435138702393 0.60598874092102051 0.29237040877342224
0.3845275342464447 0.60430890321731567 0.29238104820251465
0.42700791358947754 0.60175210237503052 0.29065102338790894
0.47872292995452881 0.59773707389831543 0.28714421391487122
0.53710919618606567 0.59178191423416138 0.28212794661521912
0.59910750389099121 0.58440321683883667 0.27542984485626221
0.66194266080856323 0.57614564895629883 0.26665684580802917
0.72468066215515137 0.56502145528793335 0.2560766339302063
0.78726458549499512 0.54898250102996826 0.24733547866344452
0.84819495677947998 0.52539646625518799 0.23913808166980743
0.90200477838516235 0.48827394843101501 0.22652798891067505
0.94535177946090698 0.44222369790077209 0.21642081439495087
0.39837855100631714 0.6883963942527771 0.33696404099464417
0.41519686579704285 0.68931025266647339 0.33507266640663147
0.44210323691368103 0.68757021427154541 0.33446905016899109
0.47960814833641052 0.68560665845870972 0.33355399966239929
0.52601569890975952 0.68231499195098877 0.33111727237701416
0.57886004447937012 0.67771178483963013 0.3267805278301239
0.63563233613967896 0.67196822166442871 0.32058531045913696
0.69340610504150391 0.66703128814697266 0.31396055221557617
0.75244683027267456 0.66051524877548218 0.30642080307006836
0.81341886520385742 0.65018612146377563 0.29859378933906555
0.87425827980041504 0.6329764723777771 0.28920158743858337
0.9292415976524353 0.60696864128112793 0.27754297852516174
0.9719889760017395 0.57176512479782104 0.26850783824920654
0.46784442663192749 0.76737809181213379 0.38184386491775513
0.48164039850234985 0.76885318756103516 0.38020336627960205
0.50443547964096069 0.76633483171463013 0.3794398307800293
0.53685712814331055 0.76492428779602051 0.37935736775398254
0.57763946056365967 0.76209509372711182 0.37834641337394714
0.62371575832366943 0.75958359241485596 0.3749992847442627
0.67346155643463135 0.75591558218002319 0.36978524923324585
0.72537493705749512 0.75288873910903931 0.36424908041954041
0.78007400035858154 0.74883502721786499 0.35884422063827515
0.8383413553237915 0.74133330583572388 0.35188794136047363
0.89681750535964966 0.72838157415390015 0.34302517771720886
0.9501185417175293 0.708110511302948 0.33270269632339478
0.9899553656578064 0.68066716194152832 0.32562139630317688
0.54401600360870361 0.84117788076400757 0.42933762073516846
0.55525976419448853 0.84240484237670898 0.4284844696521759
0.57287073135375977 0.84089607000350952 0.42824286222457886
0.59905993938446045 0.83948558568954468 0.42875310778617859
0.6329912543296814 0.83803713321685791 0.4287351667881012
0.67171764373779297 0.83690279722213745 0.42604526877403259
0.71407026052474976 0.83472931385040283 0.4207330048084259
0.75994521379470825 0.83369243144989014 0.41560688614845276
0.81037008762359619 0.8304058313369751 0.41131496429443359
0.86468046903610229 0.82490378618240356 0.40594315528869629
0.91847997903823853 0.81573957204818726 0.39912450313568115
0.96510994434356689 0.80114161968231201 0.39179763197898865
0.99681073427200317 0.78016406297683716 0.38633617758750916
0.62088727951049805 0.91026890277862549 0.48217377066612244
0.63072186708450317 0.9120640754699707 0.48064771294593811
0.64406710863113403 0.91090971231460571 0.48028466105461121
0.6641850471496582 0.90990203619003296 0.48061859607696533
0.69120758771896362 0.90896999835968018 0.48080682754516602
0.72285133600234985 0.90863233804702759 0.47881349921226501
0.75848972797393799 0.90800058841705322 0.47293937206268311
0.79878765344619751 0.90697407722473145 0.46709686517715454
0.8445550799369812 0.90520882606506348 0.46303281188011169
0.89382046461105347 0.90155458450317383 0.45922866463661194
0.94172078371047974 0.89568626880645752 0.45490986108779907
0.98016798496246338 0.88706040382385254 0.45083844661712646
0.99953323602676392 0.87214291095733643 0.4465356171131134
0.69127297401428223 0.97223347425460815 0.53440403938293457
0.70080626010894775 0.97479236125946045 0.53224015235900879
0.71182584762573242 0.97471028566360474 0.53098315000534058
0.72763240337371826 0.97428303956985474 0.53140503168106079
0.74911737442016602 0.97436141967773438 0.53201425075531006
0.77538466453552246 0.97461825609207153 0.52997845411300659
0.80571931600570679 0.97456598281860352 0.52431076765060425
0.84092634916305542 0.97415000200271606 0.51807886362075806
0.88087296485900879 0.97300249338150024 0.51347810029983521
0.92398369312286377 0.97098749876022339 0.51024073362350464
0.9665493369102478 0.96748930215835571 0.50782114267349243
0.99537265300750732 0.96272903680801392 0.50528454780578613
1 0.95235717296600342 0.50173181295394897
0.028467994183301926 0.0360526442527771 0.12957786023616791
0.062190409749746323 0.027349898591637611 0.12231998890638351
0.10985695570707321 0.021631607785820961 0.11664014309644699
0.17204588651657104 0.01789226196706295 0.11163116246461868
0.24492810666561127 0.014512215740978718 0.10517498850822449
0.32165941596031189 0.01328913401812315 0.094781823456287384
0.39945432543754578 0.012494480237364769 0.082685597240924835
0.47575855255126953 0.005644824355840683 0.075550109148025513
0.55121678113937378 0.00050297158304601908 0.070223115384578705
0.62705051898956299 0 0.06129353865981102
0.7034183144569397 0 0.04719206690788269
0.77785998582839966 0.00013224284339230508 0.030590342357754707
0.84156197309494019 0.0019079919438809156 0.026494164019823074
0.060287684202194214 0.10118773579597473 0.15302625298500061
0.091492176055908203 0.092016421258449554 0.14738389849662781
0.13725627958774567 0.084676630795001984 0.14325255155563354
0.19711750745773315 0.077481530606746674 0.13874045014381409
0.26771119236946106 0.068377852439880371 0.13272048532962799
0.34210413694381714 0.061007510870695114 0.12264934182167053
0.41700342297554016 0.052487272769212723 0.1110016331076622
0.49074465036392212 0.036747518926858902 0.10147926211357117
0.56306415796279907 0.017020955681800842 0.09308306872844696
0.63447564840316772 0.0029614018276333809 0.082561329007148743
0.70537000894546509 0 0.067855611443519592
0.77446663379669189 0 0.051639944314956665
0.83641558885574341 0 0.045021969825029373
0.098852373659610748 0.17391814291477203 0.17944718897342682
0.12389654666185379 0.16758814454078674 0.17487472295761108
0.16710831224918365 0.16126880049705505 0.17182129621505737
0.22543394565582275 0.15324504673480988 0.16805310547351837
0.29405629634857178 0.14089730381965637 0.16203132271766663
0.36613821983337402 0.12747479975223541 0.15281003713607788
0.43859431147575378 0.11140024662017822 0.14200146496295929
0.51002556085586548 0.088379278779029846 0.13174158334732056
0.57922124862670898 0.059471145272254944 0.12160582840442657
0.6451537013053894 0.029856886714696884 0.11011148989200592
0.70881730318069458 0.0068473517894744873 0.095232032239437103
0.77211439609527588 0.00076660455670207739 0.076904535293579102
0.83137357234954834 0.0002651588583830744 0.065913014113903046
0.12346426397562027 0.25637289881706238 0.20837037265300751
0.15163539350032806 0.25178366899490356 0.20459973812103271
0.19741597771644592 0.24695484340190887 0.20207162201404572
0.25670889019966125 0.24011187255382538 0.19821996986865997
0.3238905668258667 0.22743543982505798 0.19215410947799683
0.39392170310020447 0.21133247017860413 0.18398332595825195
0.46467578411102295 0.19172078371047974 0.17460897564888
0.53465986251831055 0.16553391516208649 0.16459763050079346
0.60155618190765381 0.13160470128059387 0.15380600094795227
0.66389387845993042 0.09316379576921463 0.14144736528396606
0.72245556116104126 0.053621269762516022 0.12611629068851471
0.77937799692153931 0.024245452135801315 0.10752785205841064
0.83396363258361816 0.0076886196620762348 0.095418341457843781
0.14709100127220154 0.3450513482093811 0.23865355551242828
0.18137381970882416 0.3412768542766571 0.23597940802574158
0.23096437752246857 0.33712401986122131 0.23384998738765717
0.29149350523948669 0.33102205395698547 0.22979603707790375
0.35743257403373718 0.32059839367866516 0.22401334345340729
0.42522332072257996 0.30628678202629089 0.21735583245754242
0.49452051520347595 0.28848415613174438 0.20914329588413239
0.56377625465393066 0.26549771428108215 0.19941769540309906
0.62999093532562256 0.23373995721340179 0.18867163360118866
