films/kodak_portra_400_nc.cube
# Created by: G'MIC (https://gmic.eu)
TITLE "kodak_portra_400_nc"
# LUT size
LUT_3D_SIZE 13
# Data domain
DOMAIN_MIN 0.0 0.0 0.0
DOMAIN_MAX 1.0 1.0 1.0
# LUT data points
0.038760211318731308 0.048111680895090103 0.049444608390331268
0.059432189911603928 0.05310884490609169 0.050576034933328629
0.10976222902536392 0.056898362934589386 0.051998049020767212
0.1867782324552536 0.060820888727903366 0.048502035439014435
0.28401473164558411 0.066354446113109589 0.044114910066127777
0.40316569805145264 0.064952343702316284 0.037031583487987518
0.53031665086746216 0.057307641953229904 0.02833130769431591
0.64684027433395386 0.053997863084077835 0.020905887708067894
0.73634356260299683 0.066965125501155853 0.016872810199856758
0.80651867389678955 0.091649241745471954 0.012628966942429543
0.87194746732711792 0.12170733511447906 0.0071114483289420605
0.93379199504852295 0.15811105072498322 0.010866217315196991
0.98783904314041138 0.19729682803153992 0.025353524833917618
0.036282796412706375 0.070308342576026917 0.055242978036403656
0.064541757106781006 0.079502016305923462 0.052228711545467377
0.12537027895450592 0.092190548777580261 0.048505537211894989
0.20829929411411285 0.10215431451797485 0.042725671082735062
0.31605443358421326 0.11145059764385223 0.034763921052217484
0.439300537109375 0.11788810044527054 0.022522645071148872
0.56142729520797729 0.11714408546686172 0.012504921294748783
0.66698938608169556 0.11800865083932877 0.009816502220928669
0.74938839673995972 0.12660299241542816 0.0095404079183936119
0.81597459316253662 0.14212547242641449 0.010794097557663918
0.87777101993560791 0.16398696601390839 0.010635361075401306
0.9387633204460144 0.19466468691825867 0.012304029427468777
0.98995018005371094 0.22887028753757477 0.025945506989955902
0.027405159547924995 0.12883350253105164 0.069144591689109802
0.05862649530172348 0.13537107408046722 0.063727132976055145
0.12412729859352112 0.15233157575130463 0.052643224596977234
0.22301577031612396 0.17108523845672607 0.03666522353887558
0.35326424241065979 0.18643909692764282 0.020090244710445404
0.48848062753677368 0.19474953413009644 0.0083485022187232971
0.60493725538253784 0.19787010550498962 0.0021428724285215139
0.6967395544052124 0.19857840240001678 0.0021349438466131687
0.7678225040435791 0.20271565020084381 0.0015516692074015737
0.83025377988815308 0.2105461061000824 0.0024333279579877853
0.88846451044082642 0.22553110122680664 0.0025087993126362562
0.9446755051612854 0.24687293171882629 0.0069841123186051846
0.99171698093414307 0.27404224872589111 0.022376401349902153
0.0097380392253398895 0.21193310618400574 0.090909518301486969
0.043021872639656067 0.21533462405204773 0.090805381536483765
0.11418644338846207 0.23060530424118042 0.077448330819606781
0.22284220159053802 0.25989896059036255 0.0465862937271595
0.37067395448684692 0.29351496696472168 0.013428691774606705
0.51854622364044189 0.30715349316596985 0.0039948108606040478
0.63970685005187988 0.30323252081871033 0.0030326992273330688
0.72488158941268921 0.29583460092544556 0.00056632544146850705
0.78909814357757568 0.29080277681350708 0
0.84795862436294556 0.29087996482849121 0
0.90197879076004028 0.29866638779640198 5.7444854064669926e-06
0.95193123817443848 0.31160607933998108 0.0014399359934031963
0.99360024929046631 0.33096477389335632 0.012019168585538864
0.00033864041324704885 0.3221796452999115 0.12612481415271759
0.032578546553850174 0.32359158992767334 0.12797801196575165
0.11497744172811508 0.33286330103874207 0.11688156425952911
0.22620397806167603 0.36026570200920105 0.085118278861045837
0.3655068576335907 0.39839506149291992 0.044080786406993866
0.51165717840194702 0.42505881190299988 0.016744351014494896
0.63787919282913208 0.42364069819450378 0.0028912413399666548
0.73123335838317871 0.4084223210811615 3.5723518521990627e-05
0.80224615335464478 0.39037695527076721 0
0.86252391338348389 0.37975752353668213 0
0.91357618570327759 0.37864288687705994 0
0.95956683158874512 0.38363784551620483 1.3104607205605134e-05
0.99564999341964722 0.39571377635002136 0.0025232352782040834
0.0047638388350605965 0.4451594352722168 0.17208649218082428
0.051085826009511948 0.44121858477592468 0.1726214736700058
0.13728302717208862 0.44038933515548706 0.16882878541946411
0.23591279983520508 0.45493593811988831 0.14563725888729095
0.34897562861442566 0.48167556524276733 0.1077190488576889
0.47725954651832581 0.50905734300613403 0.064517319202423096
0.60412192344665527 0.5240057110786438 0.01770222932100296
0.70780175924301147 0.51528096199035645 8.0108642578125e-05
0.79198020696640015 0.49639061093330383 0
0.86216253042221069 0.47869393229484558 0
0.91917109489440918 0.46485602855682373 0
0.96617728471755981 0.45986208319664001 0
0.9978330135345459 0.46432620286941528 0.00061531813116744161
0.061454862356185913 0.54328912496566772 0.2240108847618103
0.1092788428068161 0.53882074356079102 0.22482921183109283
0.18270380795001984 0.53340518474578857 0.22553451359272003
0.25961565971374512 0.53735041618347168 0.21254462003707886
0.34164124727249146 0.55091577768325806 0.18499590456485748
0.44137579202651978 0.56964033842086792 0.14284548163414001
0.55197638273239136 0.58674269914627075 0.076195724308490753
0.65939199924468994 0.59336447715759277 0.010287041775882244
0.75887918472290039 0.59313231706619263 8.9757581008598208e-05
0.8438228964805603 0.58353585004806519 0
0.91150248050689697 0.56298589706420898 0
0.96545416116714478 0.54498672485351562 0
0.99858182668685913 0.53792309761047363 0.00073355878703296185
0.1649574339389801 0.61697226762771606 0.28405377268791199
0.19892244040966034 0.61532330513000488 0.28447932004928589
0.25094178318977356 0.6109391450881958 0.28603312373161316
0.30615177750587463 0.61035782098770142 0.28080001473426819
0.36405658721923828 0.61583602428436279 0.26613205671310425
0.43408465385437012 0.62676602602005005 0.2380559891462326
0.51689112186431885 0.63896727561950684 0.18316672742366791
0.61296814680099487 0.65167820453643799 0.097832687199115753
0.71654015779495239 0.66874098777770996 0.03934294730424881
0.81184262037277222 0.67534512281417847 0.0096227759495377541
0.89013540744781494 0.66107290983200073 0.00019776586850639433
0.95312672853469849 0.6378558874130249 0.00018916410044766963
0.99572581052780151 0.62106674909591675 0.014565831050276756
0.2744598388671875 0.68088006973266602 0.35493731498718262
0.29841479659080505 0.68049043416976929 0.35470688343048096
0.33376100659370422 0.67768198251724243 0.35531437397003174
0.37147939205169678 0.67621308565139771 0.35412716865539551
0.41186344623565674 0.67847496271133423 0.34713295102119446
0.46075251698493958 0.68525147438049316 0.3316325843334198
0.51883429288864136 0.69441545009613037 0.30149397253990173
0.59211260080337524 0.70568805932998657 0.24805578589439392
0.67837774753570557 0.7208285927772522 0.18176351487636566
0.76929241418838501 0.73297035694122314 0.11089556664228439
0.85912477970123291 0.73657053709030151 0.034497413784265518
0.93005955219268799 0.72208517789840698 0.034495677798986435
0.98498672246932983 0.70744937658309937 0.077133849263191223
0.38186061382293701 0.73962157964706421 0.43473586440086365
0.39862185716629028 0.74021315574645996 0.43376544117927551
0.42112049460411072 0.73850440979003906 0.43461117148399353
0.44598820805549622 0.7366105318069458 0.43413498997688293
0.47455090284347534 0.73773550987243652 0.4308202862739563
0.5098423957824707 0.74239659309387207 0.42290636897087097
0.55075538158416748 0.74904102087020874 0.40674486756324768
0.60117918252944946 0.75661808252334595 0.37706106901168823
0.66250574588775635 0.76499760150909424 0.3370184600353241
0.73400253057479858 0.77423423528671265 0.28105595707893372
0.81923013925552368 0.7848929762840271 0.19933764636516571
0.89830911159515381 0.78572112321853638 0.17374026775360107
0.96710401773452759 0.78248751163482666 0.19044949114322662
0.48922249674797058 0.79652106761932373 0.52351832389831543
0.49971109628677368 0.79715162515640259 0.52163243293762207
0.511913001537323 0.79554802179336548 0.52127623558044434
0.52743875980377197 0.79426372051239014 0.52046841382980347
0.54776561260223389 0.79439264535903931 0.51945745944976807
0.57455885410308838 0.7971336841583252 0.51729506254196167
0.60476046800613403 0.80175131559371948 0.50803714990615845
0.63818448781967163 0.80757534503936768 0.48944982886314392
0.6788439154624939 0.81331390142440796 0.46749687194824219
0.7301018238067627 0.81984317302703857 0.4340064525604248
0.79486238956451416 0.82692384719848633 0.38862428069114685
0.87062031030654907 0.83626240491867065 0.35183382034301758
0.94729429483413696 0.84555387496948242 0.33418548107147217
0.59565383195877075 0.85197311639785767 0.61863499879837036
0.59897279739379883 0.85149079561233521 0.61403638124465942
0.60301202535629272 0.84977668523788452 0.61050015687942505
0.61204463243484497 0.84804075956344604 0.60995614528656006
0.62815779447555542 0.84778207540512085 0.61278986930847168
0.6510346531867981 0.84980267286300659 0.61715161800384521
0.67479199171066284 0.85337865352630615 0.61483430862426758
0.69569748640060425 0.85815620422363281 0.60174715518951416
0.72119885683059692 0.86364489793777466 0.58591318130493164
0.75499618053436279 0.86933577060699463 0.56498700380325317
0.80157512426376343 0.87573766708374023 0.53996580839157104
0.86099010705947876 0.88612043857574463 0.51415705680847168
0.92732000350952148 0.89765733480453491 0.4942089319229126
0.68964874744415283 0.90344315767288208 0.70754313468933105
0.68734598159790039 0.9022718071937561 0.7000691294670105
0.68645936250686646 0.8999330997467041 0.69530695676803589
0.6920166015625 0.89852017164230347 0.69580560922622681
0.70546668767929077 0.89859861135482788 0.70187050104141235
0.72611230611801147 0.90013247728347778 0.71180599927902222
0.74613916873931885 0.90361297130584717 0.71586257219314575
0.75846552848815918 0.9078788161277771 0.70506525039672852
0.77398020029067993 0.91309469938278198 0.69143402576446533
0.7964748740196228 0.91886287927627563 0.67700183391571045
0.82798200845718384 0.9255947470664978 0.66165810823440552
0.87020409107208252 0.93520766496658325 0.64941263198852539
0.92049247026443481 0.94560766220092773 0.63877946138381958
0.03803151473402977 0.050412677228450775 0.072488762438297272
0.065054722130298615 0.05288289487361908 0.078142054378986359
0.1168387159705162 0.051852807402610779 0.082323886454105377
0.1918017715215683 0.047556620091199875 0.081456787884235382
0.29113420844078064 0.040787432342767715 0.080620318651199341
0.40419390797615051 0.04018261656165123 0.086032405495643616
0.52743297815322876 0.035928629338741302 0.087615802884101868
0.63876062631607056 0.040025673806667328 0.085119135677814484
0.72584187984466553 0.059189260005950928 0.083262935280799866
0.79810142517089844 0.08958657830953598 0.077073313295841217
0.86524176597595215 0.12364744395017624 0.068824470043182373
0.92818146944046021 0.15968422591686249 0.076072588562965393
0.98397314548492432 0.1952863484621048 0.094183735549449921
0.03161824494600296 0.080391064286231995 0.085807546973228455
0.067155264317989349 0.083998627960681915 0.087763018906116486
0.13043628633022308 0.088913410902023315 0.085963815450668335
0.21439434587955475 0.093664340674877167 0.084152936935424805
0.318299800157547 0.099222637712955475 0.081151194870471954
0.43300655484199524 0.10424704104661942 0.080082505941390991
0.55478465557098389 0.098544999957084656 0.074417173862457275
0.65991669893264771 0.10492372512817383 0.0737571120262146
0.7402530312538147 0.12059945613145828 0.073292210698127747
0.80822992324829102 0.14145983755588531 0.071005865931510925
0.87258082628250122 0.16618366539478302 0.068766921758651733
0.93425673246383667 0.1940847635269165 0.076357163488864899
0.98788762092590332 0.22553952038288116 0.094418466091156006
0.026065407320857048 0.14258071780204773 0.1063186377286911
0.066770665347576141 0.1451336145401001 0.10578069090843201
0.13132628798484802 0.15504845976829529 0.098481334745883942
0.23148743808269501 0.16959838569164276 0.085369572043418884
0.36070990562438965 0.17934224009513855 0.071511179208755493
0.48830419778823853 0.18441185355186462 0.063603311777114868
0.59901028871536255 0.18518020212650299 0.057794205844402313
0.68884831666946411 0.18982322514057159 0.056832887232303619
0.75849074125289917 0.19803579151630402 0.05148812010884285
0.8226701021194458 0.20854923129081726 0.053602840751409531
0.88319015502929688 0.2240033745765686 0.053560547530651093
0.94094455242156982 0.2430296391248703 0.067746073007583618
0.99004274606704712 0.2699790894985199 0.09250950813293457
0.0097253238782286644 0.23062212765216827 0.13562944531440735
0.054234955459833145 0.23386989533901215 0.13536232709884644
0.12823741137981415 0.24158522486686707 0.12600032985210419
0.23339171707630157 0.26638889312744141 0.099473066627979279
0.38305220007896423 0.29324561357498169 0.065519772469997406
0.52516341209411621 0.30105674266815186 0.053396083414554596
0.63552284240722656 0.29542452096939087 0.051166698336601257
0.71769559383392334 0.28789332509040833 0.042408574372529984
0.78064638376235962 0.28404748439788818 0.030321830883622169
0.84056299924850464 0.28649225831031799 0.032720230519771576
0.89580279588699341 0.29490980505943298 0.038951214402914047
0.94798630475997925 0.30721458792686462 0.051493745297193527
0.99199604988098145 0.32669463753700256 0.078769400715827942
0.0030476588290184736 0.34642025828361511 0.1735251396894455
0.046203508973121643 0.34799456596374512 0.17347978055477142
0.13316610455513 0.34887906908988953 0.16619390249252319
0.23637674748897552 0.36777606606483459 0.13982847332954407
0.37189245223999023 0.40053796768188477 0.096905983984470367
0.51675176620483398 0.41984415054321289 0.064216986298561096
0.63925302028656006 0.41668808460235596 0.040836874395608902
0.73036116361618042 0.40105137228965759 0.027767779305577278
0.79913473129272461 0.38530883193016052 0.020110305398702621
0.85717886686325073 0.37732201814651489 0.015615904703736305
0.90844011306762695 0.37641918659210205 0.022479217499494553
0.9553297758102417 0.38076087832450867 0.033289290964603424
0.99349528551101685 0.39270669221878052 0.05942516028881073
0.033132858574390411 0.45799511671066284 0.21564117074012756
0.080138221383094788 0.45820754766464233 0.2162526547908783
0.15934817492961884 0.45475867390632629 0.21429885923862457
0.24819526076316833 0.46180316805839539 0.19759103655815125
0.35257983207702637 0.48170697689056396 0.16308042407035828
0.4781385064125061 0.50585544109344482 0.11277800798416138
0.60592204332351685 0.52080190181732178 0.049623556435108185
0.71190792322158813 0.51552766561508179 0.014958071522414684
0.7956663966178894 0.49662792682647705 0.0097001465037465096
0.86309623718261719 0.47671711444854736 0.010738193057477474
0.91761702299118042 0.46164184808731079 0.01144753210246563
0.96306991577148438 0.45686191320419312 0.02217121422290802
0.99649637937545776 0.46180659532546997 0.042550135403871536
0.10116364806890488 0.54891276359558105 0.2606511116027832
0.14533400535583496 0.54954373836517334 0.26402366161346436
0.20944906771183014 0.54438644647598267 0.26690912246704102
0.27796775102615356 0.54359233379364014 0.25914660096168518
0.35350093245506287 0.55236387252807617 0.23564916849136353
0.44578102231025696 0.5682411789894104 0.19402346014976501
0.55248284339904785 0.58463025093078613 0.12948152422904968
0.66528898477554321 0.59928327798843384 0.052767600864171982
0.76643610000610352 0.59883493185043335 0.010612981393933296
0.84736615419387817 0.58249837160110474 0.0069401757791638374
0.91027534008026123 0.56018352508544922 0.0086244773119688034
0.96207380294799805 0.54362481832504272 0.011824858374893665
0.9969293475151062 0.53568160533905029 0.021855073049664497
0.19737394154071808 0.62242120504379272 0.31696471571922302
0.23209121823310852 0.62284678220748901 0.31969520449638367
0.27896681427955627 0.6182861328125 0.32325372099876404
0.32752320170402527 0.61480438709259033 0.32105302810668945
0.37985590100288391 0.61717051267623901 0.30853176116943359
0.44404953718185425 0.62644517421722412 0.28190553188323975
0.52288293838500977 0.63912975788116455 0.23734384775161743
0.61735528707504272 0.65459990501403809 0.16936381161212921
0.72212237119674683 0.67295747995376587 0.074557632207870483
0.81391561031341553 0.67399978637695312 0.033587660640478134
0.88588070869445801 0.65843027830123901 0.028336662799119949
0.94798070192337036 0.63932240009307861 0.02025248296558857
0.99329090118408203 0.62028235197067261 0.034919634461402893
0.30028128623962402 0.68611574172973633 0.38203436136245728
0.32435339689254761 0.68634593486785889 0.38287192583084106
0.3573823869228363 0.68287366628646851 0.38549408316612244
0.39025598764419556 0.67905199527740479 0.38595125079154968
0.42601907253265381 0.67893320322036743 0.38010570406913757
0.47084006667137146 0.68588447570800781 0.36341920495033264
0.52664691209793091 0.6958615779876709 0.33501479029655457
0.59524613618850708 0.70600390434265137 0.29034897685050964
0.68015968799591064 0.72026610374450684 0.22215104103088379
0.76833230257034302 0.72891157865524292 0.1650911271572113
0.85317790508270264 0.73082888126373291 0.11221558600664139
0.9265933632850647 0.72125935554504395 0.095256522297859192
0.9850420355796814 0.70782393217086792 0.12040100246667862
0.40000730752944946 0.74364286661148071 0.45220810174942017
0.41692575812339783 0.74447673559188843 0.4544253945350647
0.43751364946365356 0.74194258451461792 0.45724594593048096
0.45930305123329163 0.73926109075546265 0.45757704973220825
0.48412284255027771 0.73857206106185913 0.45377722382545471
0.51622587442398071 0.74261355400085449 0.44462993741035461
0.55563688278198242 0.74949938058853149 0.42789915204048157
0.60335820913314819 0.75631523132324219 0.40039756894111633
0.66456717252731323 0.7648155689239502 0.36328551173210144
0.73807805776596069 0.77370703220367432 0.31462791562080383
0.8201524019241333 0.78330564498901367 0.25330740213394165
0.90094512701034546 0.78656846284866333 0.22064810991287231
0.97187966108322144 0.78525739908218384 0.226202592253685
0.50064784288406372 0.7987593412399292 0.53362917900085449
0.51159632205963135 0.79956114292144775 0.5357021689414978
0.52324426174163818 0.79825377464294434 0.53749793767929077
0.53631782531738281 0.79567539691925049 0.53683698177337646
0.55318689346313477 0.79451942443847656 0.53371846675872803
0.57811278104782104 0.79676824808120728 0.53149360418319702
0.60726368427276611 0.80111002922058105 0.52259677648544312
0.63910859823226929 0.80688035488128662 0.5034942626953125
0.68160927295684814 0.81330245733261108 0.48350030183792114
0.73559582233428955 0.82077181339263916 0.45126444101333618
0.80070585012435913 0.82907009124755859 0.40721273422241211
0.87604302167892456 0.83870089054107666 0.36787489056587219
0.95377296209335327 0.84930974245071411 0.34817332029342651
0.60299956798553467 0.85334146022796631 0.62580084800720215
0.60736483335494995 0.85351324081420898 0.62401497364044189
0.61124259233474731 0.85141336917877197 0.62264764308929443
0.61875933408737183 0.84964090585708618 0.62227034568786621
0.63263511657714844 0.84822690486907959 0.6233399510383606
0.65414047241210938 0.84894812107086182 0.62647414207458496
0.6769636869430542 0.85204356908798218 0.62401682138442993
0.69809114933013916 0.85755491256713867 0.61289280652999878
0.72543573379516602 0.8642316460609436 0.59953987598419189
0.76059651374816895 0.87023389339447021 0.57905441522598267
0.80463200807571411 0.87608641386032104 0.55025416612625122
0.86093318462371826 0.88481217622756958 0.52006423473358154
0.92837429046630859 0.89734971523284912 0.497780442237854
0.69326269626617432 0.90351146459579468 0.71219253540039062
0.69361311197280884 0.90323543548583984 0.70851868391036987
0.69310212135314941 0.90180504322052002 0.70541977882385254
0.69802188873291016 0.89963233470916748 0.70601403713226318
0.71017003059387207 0.89914214611053467 0.71086758375167847
0.72900873422622681 0.89956933259963989 0.71807169914245605
0.74777388572692871 0.90227699279785156 0.7207794189453125
0.76190012693405151 0.9078066349029541 0.71504497528076172
0.77998030185699463 0.91459208726882935 0.70584195852279663
0.80214774608612061 0.92040210962295532 0.69180864095687866
0.82936310768127441 0.92574107646942139 0.67264986038208008
0.86879450082778931 0.93374615907669067 0.65406590700149536
0.92035269737243652 0.94392728805541992 0.63700294494628906
0.026529828086495399 0.05141613632440567 0.13689199090003967
0.072937309741973877 0.052510697394609451 0.14122502505779266
0.12968747317790985 0.05064060166478157 0.14377515017986298
0.20327621698379517 0.042901910841464996 0.14191070199012756
0.30385199189186096 0.026059020310640335 0.14346238970756531
0.41818630695343018 0.017348241060972214 0.15233267843723297
0.54242855310440063 0.011621078476309776 0.15509624779224396
0.64605903625488281 0.019135089591145515 0.15625162422657013
0.72162759304046631 0.04074980691075325 0.16331875324249268
0.79078686237335205 0.083686605095863342 0.16285182535648346
0.85566085577011108 0.12950685620307922 0.16058723628520966
0.91733372211456299 0.17500244081020355 0.16799743473529816
0.97646415233612061 0.20775283873081207 0.17973008751869202
0.013023196719586849 0.091454721987247467 0.14967009425163269
0.061473052948713303 0.092348761856555939 0.15589629113674164
0.13550639152526855 0.092944309115409851 0.15647029876708984
0.22136399149894714 0.092999808490276337 0.15377731621265411
0.32588058710098267 0.088821634650230408 0.15413010120391846
0.4403536319732666 0.076754011213779449 0.15863309800624847
0.56212693452835083 0.059863954782485962 0.15663936734199524
0.66065007448196411 0.080705337226390839 0.15997834503650665
0.73410338163375854 0.10623922944068909 0.16149796545505524
0.79895079135894775 0.14059783518314362 0.16108934581279755
0.86310386657714844 0.17351756989955902 0.16178946197032928
0.92477470636367798 0.20612251758575439 0.16886574029922485
0.98178905248641968 0.23616276681423187 0.18139800429344177
0.0099929356947541237 0.15817426145076752 0.16736285388469696
0.058498650789260864 0.16044095158576965 0.17336241900920868
0.1409965455532074 0.16308556497097015 0.17337715625762939
0.24329665303230286 0.17131657898426056 0.16770558059215546
0.3697705864906311 0.17220345139503479 0.16368627548217773
0.48992189764976501 0.16826334595680237 0.16305144131183624
0.59332293272018433 0.16757993400096893 0.16252699494361877
0.67989212274551392 0.18423052132129669 0.16276757419109344
0.74912536144256592 0.19788569211959839 0.15871576964855194
0.81250166893005371 0.21309763193130493 0.15877227485179901
0.87458467483520508 0.22707264125347137 0.15976163744926453
0.93357330560684204 0.24721473455429077 0.16659945249557495
0.98570364713668823 0.27791020274162292 0.18182970583438873
0.013348553329706192 0.24892762303352356 0.19687213003635406
0.06661561131477356 0.25376564264297485 0.20221923291683197
0.15636441111564636 0.25804972648620605 0.20236924290657043
0.25731852650642395 0.27520030736923218 0.19082234799861908
0.40044292807579041 0.28907415270805359 0.17149189114570618
0.53086167573928833 0.29209116101264954 0.16336871683597565
0.63089507818222046 0.28551635146141052 0.15995533764362335
0.70785766839981079 0.28239038586616516 0.15529154241085052
0.77066415548324585 0.28155940771102905 0.14893926680088043
0.83109056949615479 0.28578591346740723 0.14836657047271729
0.88719040155410767 0.29475262761116028 0.15323655307292938
0.94173294305801392 0.30743452906608582 0.15825295448303223
0.98927038908004761 0.33004343509674072 0.1768522709608078
0.034755364060401917 0.3678128719329834 0.23987367749214172
0.089667350053787231 0.37141245603561401 0.24178686738014221
0.1814885288476944 0.37149259448051453 0.24221205711364746
0.26725894212722778 0.38020718097686768 0.22966049611568451
0.38736790418624878 0.40488997101783752 0.19763259589672089
0.52905893325805664 0.41953751444816589 0.16488450765609741
0.64455288648605347 0.40604645013809204 0.14437691867351532
0.72762501239776611 0.38923341035842896 0.13838101923465729
