films/kodak_kodachrome_200.cube
# Created by: G'MIC (https://gmic.eu)
TITLE "kodak_kodachrome_200"
# LUT size
LUT_3D_SIZE 13
# Data domain
DOMAIN_MIN 0.0 0.0 0.0
DOMAIN_MAX 1.0 1.0 1.0
# LUT data points
0.022304356098175049 0.016766522079706192 0.018288077786564827
0.063328027725219727 0.014884978532791138 0.018536197021603584
0.12015294283628464 0.016689898446202278 0.019799325615167618
0.20550565421581268 0.016652500256896019 0.019813522696495056
0.3068205714225769 0.017074361443519592 0.020609043538570404
0.41132819652557373 0.017690068110823631 0.022009516134858131
0.51190102100372314 0.017424609512090683 0.02367878332734108
0.60503923892974854 0.016660831868648529 0.025045253336429596
0.68762248754501343 0.015470931306481361 0.025026718154549599
0.75498843193054199 0.013787512667477131 0.022488657385110855
0.81223392486572266 0.014562973752617836 0.018211185932159424
0.86440259218215942 0.020412953570485115 0.015672212466597557
0.91181772947311401 0.032059598714113235 0.016655087471008301
0.044091768562793732 0.068445958197116852 0.041269145905971527
0.078293383121490479 0.067678369581699371 0.042251601815223694
0.13880850374698639 0.066705800592899323 0.0438968725502491
0.2248246967792511 0.066911809146404266 0.045763712376356125
0.32571801543235779 0.070601187646389008 0.048841483891010284
0.42914387583732605 0.071992583572864532 0.051548842340707779
0.52770078182220459 0.071014374494552612 0.053239665925502777
0.61747521162033081 0.069890625774860382 0.053646612912416458
0.69598895311355591 0.067395485937595367 0.052349600940942764
0.76298147439956665 0.063477218151092529 0.048585675656795502
0.82156205177307129 0.062652856111526489 0.043583124876022339
0.87464559078216553 0.069207422435283661 0.039363667368888855
0.9225085973739624 0.081091322004795074 0.03908659890294075
0.066992349922657013 0.14399239420890808 0.072889037430286407
0.099358655512332916 0.1436648964881897 0.073694713413715363
0.16091719269752502 0.14152683317661285 0.076344899833202362
0.24824690818786621 0.14090548455715179 0.080116763710975647
0.34882351756095886 0.14408007264137268 0.084299333393573761
0.44944489002227783 0.14502236247062683 0.086915589869022369
0.54374301433563232 0.14181773364543915 0.088341869413852692
0.62811928987503052 0.14029231667518616 0.087151996791362762
0.70248121023178101 0.13756854832172394 0.084013901650905609
0.76865482330322266 0.1300550252199173 0.079215064644813538
0.82823461294174194 0.12567181885242462 0.072858713567256927
0.88221573829650879 0.13147681951522827 0.066577255725860596
0.93061649799346924 0.14234206080436707 0.065097525715827942
0.075517661869525909 0.24336689710617065 0.11511491984128952
0.11530593037605286 0.24091535806655884 0.11561663448810577
0.18171116709709167 0.23989513516426086 0.1192169189453125
0.2710212767124176 0.23934479057788849 0.1233241930603981
0.37072059512138367 0.2399151474237442 0.12663225829601288
0.4661196768283844 0.24103708565235138 0.12781377136707306
0.55572628974914551 0.23770195245742798 0.12748478353023529
0.63593024015426636 0.23435001075267792 0.12514622509479523
0.70753699541091919 0.22967462241649628 0.12024375796318054
0.77271902561187744 0.22002483904361725 0.11322835087776184
0.83282262086868286 0.21201819181442261 0.10487428307533264
0.88754522800445557 0.21312969923019409 0.097026318311691284
0.93679654598236084 0.21841278672218323 0.094150647521018982
0.065487280488014221 0.35029447078704834 0.16503141820430756
0.126068115234375 0.3471071720123291 0.16580383479595184
0.20333956182003021 0.34503090381622314 0.16906343400478363
0.2939738929271698 0.34499219059944153 0.17229776084423065
0.38867026567459106 0.34734749794006348 0.17436234652996063
0.48016878962516785 0.35031217336654663 0.17436195909976959
0.56496715545654297 0.34725531935691833 0.17280314862728119
0.64220154285430908 0.34243977069854736 0.16893897950649261
0.71173983812332153 0.33739534020423889 0.16206559538841248
0.77536571025848389 0.330465167760849 0.15197624266147614
0.83530879020690918 0.32251113653182983 0.14041970670223236
0.89070188999176025 0.31587028503417969 0.13042980432510376
0.94033080339431763 0.31241557002067566 0.12547029554843903
0.095477037131786346 0.45112961530685425 0.2227972149848938
0.15935304760932922 0.44867813587188721 0.22313788533210754
0.23794394731521606 0.44625765085220337 0.22496238350868225
0.32363182306289673 0.44614779949188232 0.22615383565425873
0.41122424602508545 0.4484466016292572 0.22784470021724701
0.49588114023208618 0.45089218020439148 0.22786834836006165
0.57535344362258911 0.44995817542076111 0.22517648339271545
0.64932405948638916 0.44803470373153687 0.21996781229972839
0.71647042036056519 0.44475513696670532 0.21124367415904999
0.77864295244216919 0.44097203016281128 0.19903846085071564
0.83747339248657227 0.43571591377258301 0.18425570428371429
0.89250785112380981 0.42793777585029602 0.16887706518173218
0.94161450862884521 0.42287933826446533 0.16000106930732727
0.17511865496635437 0.54080480337142944 0.28676217794418335
0.22497743368148804 0.53911685943603516 0.28574433922767639
0.29027768969535828 0.53689473867416382 0.28535887598991394
0.363474041223526 0.53621739149093628 0.28488978743553162
0.43957999348640442 0.5370635986328125 0.28618019819259644
0.51465463638305664 0.53803831338882446 0.28629055619239807
0.58767455816268921 0.53873199224472046 0.2835974395275116
0.65697604417800903 0.53960365056991577 0.27738448977470398
0.72123545408248901 0.53820264339447021 0.26783949136734009
0.78205674886703491 0.53541594743728638 0.25439459085464478
0.84054112434387207 0.53233987092971802 0.23663605749607086
0.89475315809249878 0.52762246131896973 0.21716627478599548
0.94379842281341553 0.52383047342300415 0.2043159008026123
0.26964515447616577 0.61760175228118896 0.35157206654548645
0.30433067679405212 0.61647516489028931 0.35050946474075317
0.35181328654289246 0.6146201491355896 0.34978252649307251
0.40925818681716919 0.61348938941955566 0.34893733263015747
0.47223362326622009 0.61332780122756958 0.34890428185462952
0.53685539960861206 0.61355262994766235 0.34842014312744141
0.6013723611831665 0.61394685506820679 0.34558674693107605
0.66428321599960327 0.61423701047897339 0.33963054418563843
0.72503364086151123 0.61325764656066895 0.33006644248962402
0.78384983539581299 0.6113353967666626 0.31597983837127686
0.84272325038909912 0.60896509885787964 0.29681670665740967
0.89870232343673706 0.60605740547180176 0.27639931440353394
0.94820594787597656 0.60148626565933228 0.26291808485984802
0.34848567843437195 0.68044048547744751 0.41143271327018738
0.37692883610725403 0.68167167901992798 0.41301119327545166
0.41178372502326965 0.68123966455459595 0.41445159912109375
0.45557680726051331 0.68049299716949463 0.41485729813575745
0.50625449419021606 0.68000608682632446 0.41381219029426575
0.56095242500305176 0.67988497018814087 0.41190060973167419
0.61694055795669556 0.67971193790435791 0.40881699323654175
0.67302107810974121 0.67881113290786743 0.40391358733177185
0.72929471731185913 0.67756694555282593 0.39547231793403625
0.78693902492523193 0.67619788646697998 0.38223224878311157
0.84543949365615845 0.67437899112701416 0.36311697959899902
0.9023851752281189 0.67206430435180664 0.34260207414627075
0.9518858790397644 0.66785424947738647 0.32829040288925171
0.4122677743434906 0.73682785034179688 0.4667847752571106
0.43722829222679138 0.74007552862167358 0.47177782654762268
0.46440467238426208 0.74121302366256714 0.47671717405319214
0.49824678897857666 0.74123924970626831 0.47863966226577759
0.5398869514465332 0.74151301383972168 0.47650080919265747
0.58607679605484009 0.74120998382568359 0.47372931241989136
0.63452070951461792 0.74049282073974609 0.47105702757835388
0.68428254127502441 0.73981183767318726 0.46804893016815186
0.73569023609161377 0.73776471614837646 0.46248242259025574
0.7904161810874939 0.73737436532974243 0.45099332928657532
0.84934282302856445 0.73645991086959839 0.433187335729599
0.90779602527618408 0.73433488607406616 0.41314780712127686
0.95632505416870117 0.73093551397323608 0.39776712656021118
0.46339637041091919 0.79145222902297974 0.51786786317825317
0.48664173483848572 0.79587823152542114 0.52510708570480347
0.51001900434494019 0.79784095287322998 0.53221589326858521
0.53825068473815918 0.7989577054977417 0.53580498695373535
0.57332468032836914 0.80000889301300049 0.53383588790893555
0.61256939172744751 0.80063509941101074 0.53149718046188354
0.65464937686920166 0.80107200145721436 0.53017234802246094
0.69909852743148804 0.80078202486038208 0.53006237745285034
0.74651050567626953 0.80117368698120117 0.52818173170089722
0.79922449588775635 0.80172580480575562 0.52025938034057617
0.85851514339447021 0.80099678039550781 0.50444966554641724
0.91968166828155518 0.79788792133331299 0.48498588800430298
0.96970993280410767 0.79354888200759888 0.46831855177879333
0.50564062595367432 0.84510815143585205 0.56424850225448608
0.52832686901092529 0.85052382946014404 0.57214927673339844
0.55082356929779053 0.8540688157081604 0.5792270302772522
0.57615303993225098 0.85624152421951294 0.58335274457931519
0.606281578540802 0.85797286033630371 0.58423197269439697
0.64023399353027344 0.85913151502609253 0.58428478240966797
0.67734372615814209 0.86054128408432007 0.58510369062423706
0.7172808051109314 0.8633611798286438 0.58828675746917725
0.76070797443389893 0.86760115623474121 0.5911632776260376
0.8108561635017395 0.87039965391159058 0.58862864971160889
0.86974930763244629 0.868338942527771 0.573955237865448
0.93046301603317261 0.86286485195159912 0.55411463975906372
0.9817468523979187 0.85615146160125732 0.53571903705596924
0.54240494966506958 0.897194504737854 0.60647058486938477
0.56503891944885254 0.90362513065338135 0.61425685882568359
0.58721959590911865 0.90843874216079712 0.62126690149307251
0.61110633611679077 0.91183775663375854 0.62611961364746094
0.63825374841690063 0.91449648141860962 0.62922805547714233
0.66856676340103149 0.91657811403274536 0.63166356086730957
0.70196056365966797 0.91988992691040039 0.63515180349349976
0.73822230100631714 0.92450791597366333 0.64088600873947144
0.77823197841644287 0.93149518966674805 0.64854335784912109
0.82432454824447632 0.93662279844284058 0.65039116144180298
0.88087201118469238 0.93303465843200684 0.63534343242645264
0.93884932994842529 0.92536592483520508 0.61508721113204956
0.98815000057220459 0.91661059856414795 0.59580308198928833
0.018661094829440117 0.015802480280399323 0.043357968330383301
0.057055916637182236 0.014209927059710026 0.044099859893321991
0.11686589568853378 0.014950876124203205 0.044558834284543991
0.20225803554058075 0.015374890528619289 0.04551079124212265
0.30431604385375977 0.015951657667756081 0.047143720090389252
0.41121155023574829 0.017012922093272209 0.048243146389722824
0.51357311010360718 0.016573183238506317 0.049188397824764252
0.60621809959411621 0.014684580266475677 0.049493242055177689
0.68668597936630249 0.011434757150709629 0.048633605241775513
0.75503802299499512 0.0087232552468776703 0.044729270040988922
0.81461113691329956 0.0083054183050990105 0.038946293294429779
0.86976140737533569 0.01242593489587307 0.034441735595464706
0.91894733905792236 0.022809466347098351 0.034396480768918991
0.039632294327020645 0.069225773215293884 0.07083873450756073
0.073409512639045715 0.068043485283851624 0.072669103741645813
0.13467347621917725 0.066363751888275146 0.073608234524726868
0.22123464941978455 0.067169740796089172 0.075341470539569855
0.32327768206596375 0.07003726065158844 0.078201621770858765
0.42854610085487366 0.070805296301841736 0.079898074269294739
0.52859795093536377 0.070394597947597504 0.080700799822807312
0.61821198463439941 0.068188577890396118 0.080310866236686707
0.6961672306060791 0.063637256622314453 0.078068092465400696
0.76338905096054077 0.057653672993183136 0.072845309972763062
0.82372844219207764 0.055246360599994659 0.065436869859695435
0.87928158044815063 0.060376770794391632 0.058998465538024902
0.9290088415145874 0.071889229118824005 0.05747903510928154
0.067403025925159454 0.14443273842334747 0.10581072419881821
0.097218774259090424 0.14388673007488251 0.10661172121763229
0.15678659081459045 0.14228937029838562 0.10861149430274963
0.24428375065326691 0.14289522171020508 0.11257472634315491
0.34642159938812256 0.14431044459342957 0.11602833867073059
0.44806757569313049 0.14488467574119568 0.11733612418174744
0.5429999828338623 0.14408332109451294 0.11713060736656189
0.62797081470489502 0.14131224155426025 0.11604988574981689
0.70296204090118408 0.136827751994133 0.11182349920272827
0.76947081089019775 0.12919977307319641 0.10493502020835876
0.83075863122940063 0.12396042793989182 0.095920532941818237
0.88664805889129639 0.1267804354429245 0.087797783315181732
0.93663507699966431 0.13577559590339661 0.08526185154914856
0.085162445902824402 0.2423814982175827 0.14941452443599701
0.11336113512516022 0.24144023656845093 0.14984177052974701
0.17521776258945465 0.24102911353111267 0.15342678129673004
0.26594400405883789 0.24154262244701385 0.15740005671977997
0.36816912889480591 0.24154844880104065 0.16003413498401642
0.46530237793922424 0.24229639768600464 0.15982982516288757
0.55516695976257324 0.24052293598651886 0.15829184651374817
0.63567835092544556 0.23695535957813263 0.15583802759647369
0.70768702030181885 0.23167282342910767 0.15004140138626099
0.77345162630081177 0.22363698482513428 0.14042648673057556
0.83480513095855713 0.21638604998588562 0.12937863171100616
0.89165663719177246 0.21445935964584351 0.1199372261762619
0.94167470932006836 0.21778064966201782 0.11650346964597702
0.075090251863002777 0.35010638833045959 0.20012369751930237
0.11951342970132828 0.34949424862861633 0.2011137455701828
0.19305141270160675 0.34862616658210754 0.20449307560920715
0.28722161054611206 0.34883669018745422 0.20757193863391876
0.38689187169075012 0.35033074021339417 0.20896999537944794
0.47980818152427673 0.3513123095035553 0.20802412927150726
0.56494003534317017 0.34957012534141541 0.20504218339920044
0.6418413519859314 0.34538424015045166 0.20189017057418823
0.71119385957717896 0.34071695804595947 0.19412219524383545
0.77508729696273804 0.33486932516098022 0.18108296394348145
0.83710664510726929 0.32681161165237427 0.16753999888896942
0.8941349983215332 0.31953209638595581 0.15612398087978363
0.94399803876876831 0.3170219361782074 0.15105503797531128
0.088772870600223541 0.45388105511665344 0.25693324208259583
0.14715883135795593 0.45273301005363464 0.25749915838241577
0.22555302083492279 0.45109522342681885 0.26044052839279175
0.31596136093139648 0.45142039656639099 0.26152905821800232
0.40763330459594727 0.45280399918556213 0.26304873824119568
0.49437692761421204 0.45382919907569885 0.26268184185028076
0.57452124357223511 0.45228350162506104 0.26048386096954346
0.64776813983917236 0.45004498958587646 0.25547376275062561
0.71495085954666138 0.4467923641204834 0.24593126773834229
0.77783477306365967 0.44312354922294617 0.23154765367507935
0.83789199590682983 0.43713882565498352 0.2146465927362442
0.89434218406677246 0.43018043041229248 0.19827532768249512
0.94350790977478027 0.42516124248504639 0.18863144516944885
0.15665300190448761 0.54324877262115479 0.31776469945907593
0.21038587391376495 0.54328107833862305 0.31886011362075806
0.27871072292327881 0.54204529523849487 0.31917637586593628
0.35602423548698425 0.54211616516113281 0.31888109445571899
0.43516853451728821 0.54192113876342773 0.3207295835018158
0.51244378089904785 0.54152017831802368 0.32210871577262878
0.58553236722946167 0.54082435369491577 0.31960314512252808
0.65437334775924683 0.54022455215454102 0.31395962834358215
0.71889388561248779 0.53904163837432861 0.30399689078330994
0.78046709299087524 0.53592604398727417 0.28977662324905396
0.84112703800201416 0.53261524438858032 0.27106687426567078
0.89620852470397949 0.5285453200340271 0.24916291236877441
0.94443124532699585 0.52395665645599365 0.23441155254840851
0.25250303745269775 0.61824113130569458 0.38099217414855957
0.29237186908721924 0.61997705698013306 0.38168922066688538
0.34345176815986633 0.61943787336349487 0.38171857595443726
0.40347230434417725 0.61910450458526611 0.38120514154434204
0.46792411804199219 0.61813461780548096 0.38169309496879578
0.53366416692733765 0.61706149578094482 0.3816581666469574
0.59854519367218018 0.61623227596282959 0.37996789813041687
0.66153687238693237 0.61584973335266113 0.37454396486282349
0.72241759300231934 0.61426103115081787 0.36529219150543213
0.78282302618026733 0.61238551139831543 0.35113003849983215
0.84296804666519165 0.60983538627624512 0.33151480555534363
0.90140759944915771 0.60671913623809814 0.30841651558876038
0.95134305953979492 0.60194855928421021 0.29277318716049194
0.34289842844009399 0.68167048692703247 0.44018149375915527
0.37206625938415527 0.6854245662689209 0.44248706102371216
0.40764486789703369 0.6859925389289856 0.44411757588386536
0.45198658108711243 0.68550258874893188 0.44424062967300415
0.50303786993026733 0.68456375598907471 0.44395610690116882
0.55778342485427856 0.68301230669021606 0.44244754314422607
0.61403024196624756 0.68164491653442383 0.43984600901603699
0.67024171352386475 0.68038636445999146 0.43533870577812195
0.72658032178878784 0.67854535579681396 0.42744266986846924
0.78391677141189575 0.67729943990707397 0.41447544097900391
0.84512007236480713 0.67469483613967896 0.39523959159851074
0.90553712844848633 0.67192202806472778 0.37195846438407898
0.95534121990203857 0.66803872585296631 0.35610204935073853
0.41712215542793274 0.73945415019989014 0.49463927745819092
0.43869245052337646 0.74443948268890381 0.49944391846656799
0.46463966369628906 0.74639880657196045 0.50314950942993164
0.49771764874458313 0.7463068962097168 0.50429844856262207
0.5380902886390686 0.74490487575531006 0.50324523448944092
0.58350950479507446 0.74417471885681152 0.50062835216522217
0.63172590732574463 0.74166607856750488 0.49818819761276245
0.68159061670303345 0.7403799295425415 0.49484220147132874
0.73312211036682129 0.73960971832275391 0.48934647440910339
0.78778696060180664 0.73760694265365601 0.47870752215385437
0.8473278284072876 0.73588079214096069 0.4616248607635498
0.90726423263549805 0.73342299461364746 0.44046619534492493
0.95332819223403931 0.73138594627380371 0.42500853538513184
0.46995541453361511 0.79617750644683838 0.54483789205551147
0.49118244647979736 0.80163359642028809 0.5513187050819397
0.5126451849937439 0.80429542064666748 0.55677419900894165
0.5393715500831604 0.8044816255569458 0.55899667739868164
0.57248991727828979 0.80393475294113159 0.55797779560089111
0.61045843362808228 0.80225485563278198 0.55563998222351074
0.65218496322631836 0.80204594135284424 0.55334091186523438
0.69678890705108643 0.80086773633956909 0.5515790581703186
0.74447852373123169 0.80098336935043335 0.54985076189041138
0.79733455181121826 0.80169641971588135 0.54298979043960571
0.85677903890609741 0.80033773183822632 0.52912646532058716
0.91701722145080566 0.79742163419723511 0.51064133644104004
0.96364164352416992 0.79485923051834106 0.4951326847076416
0.51175743341445923 0.8517765998840332 0.59073632955551147
0.53315567970275879 0.85785382986068726 0.59772133827209473
0.55357271432876587 0.86157810688018799 0.60380810499191284
0.57751554250717163 0.86261272430419922 0.60707134008407593
0.60566741228103638 0.86290580034255981 0.60733211040496826
0.63871902227401733 0.86183851957321167 0.60632765293121338
0.67544025182723999 0.86141437292098999 0.60551625490188599
0.71567773818969727 0.86235231161117554 0.605796217918396
0.76003211736679077 0.86584585905075073 0.6076958179473877
0.81079894304275513 0.86921113729476929 0.60579651594161987
0.8691820502281189 0.86900418996810913 0.59511655569076538
0.93009060621261597 0.86506253480911255 0.57875770330429077
0.98070180416107178 0.85957103967666626 0.56252008676528931
0.54822885990142822 0.90548431873321533 0.63244473934173584
0.56973761320114136 0.91246646642684937 0.63982510566711426
0.59027916193008423 0.91741019487380981 0.6461140513420105
0.61255526542663574 0.91975235939025879 0.65025824308395386
0.63815116882324219 0.92056691646575928 0.65233582258224487
0.66763925552368164 0.92128437757492065 0.65312403440475464
0.70076745748519897 0.92212045192718506 0.65451604127883911
0.73764663934707642 0.92506265640258789 0.65734589099884033
0.77877384424209595 0.93046295642852783 0.66210359334945679
0.82651400566101074 0.93551748991012573 0.66313117742538452
0.88213849067687988 0.93553853034973145 0.65443688631057739
0.94091051816940308 0.93080252408981323 0.63914960622787476
0.99048483371734619 0.92263132333755493 0.62215834856033325
0.016812598332762718 0.016592107713222504 0.075316213071346283
0.05317852646112442 0.015289037488400936 0.077754214406013489
0.11200130730867386 0.017144177109003067 0.077097825706005096
0.19847992062568665 0.016889026388525963 0.079627186059951782
0.30205056071281433 0.017220381647348404 0.082390755414962769
0.41111791133880615 0.018548613414168358 0.082654155790805817
0.51492059230804443 0.01875673234462738 0.082307018339633942
0.60622847080230713 0.015654545277357101 0.082172244787216187
0.68500572443008423 0.010984862223267555 0.079794354736804962
0.753528892993927 0.006517358124256134 0.074647016823291779
0.81561070680618286 0.0049417084082961082 0.066193163394927979
0.87412166595458984 0.0082424990832805634 0.058042503893375397
0.92514771223068237 0.01673584058880806 0.056190058588981628
0.03766205906867981 0.067532740533351898 0.10904442518949509
0.070932783186435699 0.067158341407775879 0.11058025062084198
0.13017864525318146 0.068323768675327301 0.11135104298591614
0.21725502610206604 0.069838367402553558 0.11390065401792526
0.3202272355556488 0.070735335350036621 0.11666715890169144
0.42695525288581848 0.072858445346355438 0.11770553886890411
0.52778565883636475 0.072017893195152283 0.11707543581724167
0.61697220802307129 0.068850450217723846 0.11594422161579132
0.694102942943573 0.06258787214756012 0.11265458911657333
0.76119190454483032 0.053897649049758911 0.10585971921682358
0.82308506965637207 0.049029778689146042 0.095412805676460266
0.88257420063018799 0.053536150604486465 0.084963642060756683
0.93428981304168701 0.063895642757415771 0.08178836852312088
0.063437655568122864 0.14266057312488556 0.1480446457862854
0.095314100384712219 0.14303816854953766 0.14805184304714203
0.15248763561248779 0.14218814671039581 0.15029817819595337
0.24040749669075012 0.14343078434467316 0.15413707494735718
0.34206712245941162 0.14480435848236084 0.15734970569610596
0.44463264942169189 0.1448613703250885 0.15812686085700989
0.54045873880386353 0.14384649693965912 0.1570182740688324
0.62571585178375244 0.14164866507053375 0.15502281486988068
0.70067667961120605 0.13618136942386627 0.14992314577102661
0.76812732219696045 0.12776172161102295 0.14082859456539154
0.83096820116043091 0.12144485116004944 0.1283474862575531
0.88969594240188599 0.12148771435022354 0.11667101830244064
0.94099920988082886 0.12870848178863525 0.11254538595676422
0.074270687997341156 0.24163161218166351 0.19477422535419464
0.10718753188848495 0.24272611737251282 0.19533777236938477
0.16950459778308868 0.24159558117389679 0.19774697721004486
0.26170215010643005 0.24133694171905518 0.20080216228961945
0.36404424905776978 0.24289076030254364 0.20314064621925354
0.46228283643722534 0.24185439944267273 0.20279981195926666
0.55247718095779419 0.23903878033161163 0.20076066255569458
0.6331106424331665 0.23665885627269745 0.19799371063709259
0.70560747385025024 0.23202390968799591 0.19137771427631378
0.77259671688079834 0.22404232621192932 0.17980746924877167
0.83613795042037964 0.21630512177944183 0.16569787263870239
0.89493638277053833 0.21245808899402618 0.1528894305229187
0.94554942846298218 0.21449495851993561 0.14860907196998596
0.06881897896528244 0.34954690933227539 0.24633242189884186
0.10369177162647247 0.3521806001663208 0.24746052920818329
0.17998030781745911 0.35110136866569519 0.25028446316719055
0.2812386155128479 0.35142320394515991 0.25290438532829285
0.38391029834747314 0.35357564687728882 0.2542567253112793
