films/kodak_portra_160.cube
# Created by: G'MIC (https://gmic.eu)
TITLE "kodak_portra_160"
# LUT size
LUT_3D_SIZE 13
# Data domain
DOMAIN_MIN 0.0 0.0 0.0
DOMAIN_MAX 1.0 1.0 1.0
# LUT data points
0.018651565536856651 0.026779415085911751 0.018518351018428802
0.060542702674865723 0.026881678029894829 0.016519345343112946
0.13490419089794159 0.028772376477718353 0.019216125831007957
0.24356858432292938 0.019507255405187607 0.02049071341753006
0.3643740713596344 0.0070013608783483505 0.018776103854179382
0.48397582769393921 0.0012087204959243536 0.012217951938509941
0.59711045026779175 0.0037936789449304342 0.0039122938178479671
0.69872200489044189 0.0075408187694847584 0.00041898840572685003
0.78213727474212646 0.0039028092287480831 0.00019854377023875713
0.85200709104537964 0.01163793820887804 1.9387638531043194e-05
0.9143829345703125 0.051507867872714996 0
0.96586942672729492 0.10488728433847427 0
0.99750882387161255 0.1590396910905838 0.00014935662329662591
0.014383293688297272 0.067365460097789764 0.021807277575135231
0.05765247717499733 0.072898954153060913 0.019312227144837379
0.14040800929069519 0.085895776748657227 0.013804851099848747
0.25338733196258545 0.087243221700191498 0.011957340873777866
0.38105595111846924 0.075340598821640015 0.009206150658428669
0.50320553779602051 0.058464214205741882 0.0043876199051737785
0.61647087335586548 0.062501020729541779 0.0016578375361859798
0.71235507726669312 0.068308033049106598 0.00081069051520898938
0.79115700721740723 0.061508044600486755 0.00043855555122718215
0.85949301719665527 0.076089508831501007 4.3622185330605134e-05
0.92234218120574951 0.12208760529756546 0
0.97557252645492554 0.17043833434581757 0
0.99968010187149048 0.21525619924068451 3.2671759981894866e-05
0.004049637820571661 0.14130847156047821 0.020925544202327728
0.04228648915886879 0.14297807216644287 0.017001073807477951
0.12678389251232147 0.16051663458347321 0.01022039633244276
0.2479470819234848 0.17662690579891205 0.0061348262242972851
0.3891703188419342 0.18632103502750397 0.0014166588662192225
0.52467107772827148 0.18555539846420288 1.1129940503451508e-05
0.64095842838287354 0.18622002005577087 2.1541820842685411e-06
0.72894763946533203 0.18911150097846985 1.6515396055183373e-05
0.80074143409729004 0.18924069404602051 0
0.8649410605430603 0.19748644530773163 0
0.92354673147201538 0.22139270603656769 0
0.97154784202575684 0.25102496147155762 0
0.99791532754898071 0.28142890334129333 0
0.00012960995081812143 0.23522099852561951 0.017452150583267212
0.027615372091531754 0.23090270161628723 0.013731175102293491
0.108953557908535 0.24142205715179443 0.010843568481504917
0.22513318061828613 0.26211878657341003 0.0062744887545704842
0.36785486340522766 0.29109951853752136 0.0002910539333242923
0.51841878890991211 0.31203877925872803 0
0.64533030986785889 0.31844800710678101 0
0.73620498180389404 0.31889307498931885 0
0.80733084678649902 0.31803026795387268 0
0.86894911527633667 0.31780880689620972 0
0.92367470264434814 0.3247160017490387 0
0.96908855438232422 0.33817657828330994 0
0.99728143215179443 0.35643362998962402 0
0.00015869140042923391 0.33708083629608154 0.011907540261745453
0.025460755452513695 0.33051630854606628 0.0088482126593589783
0.099361181259155273 0.33163541555404663 0.0058820834383368492
0.20465965569019318 0.34531542658805847 0.0027779224328696728
0.3325907289981842 0.3743990957736969 8.5868086898699403e-05
0.47561478614807129 0.40555137395858765 0
0.61060768365859985 0.42432507872581482 0
0.7190966010093689 0.43066993355751038 0
0.79971128702163696 0.42773908376693726 0
0.86489391326904297 0.42376405000686646 0
0.92349123954772949 0.42183417081832886 0
0.97243177890777588 0.42561435699462891 0
0.99931067228317261 0.43490689992904663 0
0.00051721313502639532 0.43096253275871277 0.0055576101876795292
0.026200149208307266 0.42502567172050476 0.0034592421725392342
0.10011960566043854 0.42114198207855225 0.00066163303563371301
0.2023305743932724 0.42697221040725708 3.5723518521990627e-05
0.31642675399780273 0.4442715048789978 0
0.4366946816444397 0.46943995356559753 0
0.56518101692199707 0.50113183259963989 0
0.67968755960464478 0.52009350061416626 0
0.77121216058731079 0.52084708213806152 0
0.84877049922943115 0.51750439405441284 0
0.91820895671844482 0.51250016689300537 0
0.97697466611862183 0.50938564538955688 0
1 0.5125012993812561 0
0.01046314649283886 0.50979256629943848 0.0044515719637274742
0.03566315770149231 0.50734806060791016 0.0024518629070371389
0.11608977615833282 0.50197529792785645 4.3083641685370822e-06
0.21395590901374817 0.50139713287353516 0
0.31465071439743042 0.50935465097427368 0
0.41880595684051514 0.52704590559005737 0
0.52843302488327026 0.55305284261703491 0
0.63366872072219849 0.57516831159591675 3.3389820600859821e-05
0.73238879442214966 0.59195256233215332 8.6167283370741643e-06
0.82178640365600586 0.59904146194458008 0
0.90244895219802856 0.59538471698760986 0
0.97252082824707031 0.58946764469146729 0
0.99998706579208374 0.58868163824081421 0
0.065867647528648376 0.5791327953338623 0.0028377159032970667
0.087277129292488098 0.57820302248001099 0.0037120296619832516
0.16234858334064484 0.5726323127746582 0.00015166039520408958
0.24494422972202301 0.56869757175445557 0
0.32768276333808899 0.57097101211547852 0
0.41612383723258972 0.58163738250732422 0
0.50756442546844482 0.59778612852096558 0.00031442081672139466
0.59915876388549805 0.61709874868392944 0.0033941681031137705
0.69530278444290161 0.6451142430305481 0.0042289583943784237
0.78866040706634521 0.66421294212341309 0.0010549358557909727
0.87496381998062134 0.66860151290893555 8.9757586465566419e-06
0.95157539844512939 0.66654103994369507 0
0.9977344274520874 0.66449010372161865 0
0.1646154522895813 0.64231377840042114 0.01472848653793335
0.18553121387958527 0.64096605777740479 0.018649367615580559
0.23479212820529938 0.63646417856216431 0.0081927133724093437
0.29335573315620422 0.63183540105819702 0.0040709702298045158
0.3561454713344574 0.63108932971954346 0.0043363086879253387
0.42682784795761108 0.63565564155578613 0.0035985461436212063
0.50417309999465942 0.64703214168548584 0.0052902968600392342
0.58386248350143433 0.66299223899841309 0.010338831692934036
0.6673852801322937 0.68405663967132568 0.010524989105761051
0.75504964590072632 0.70842713117599487 0.015255737118422985
0.84361058473587036 0.72784483432769775 0.01505412720143795
0.92660808563232422 0.73443841934204102 0.0084633324295282364
0.99016600847244263 0.73438167572021484 0.0013824014458805323
0.26710408926010132 0.70482778549194336 0.083886057138442993
0.28411266207695007 0.7043302059173584 0.081283628940582275
0.31382036209106445 0.701091468334198 0.062811009585857391
0.35146352648735046 0.69608479738235474 0.05260346457362175
0.39594054222106934 0.69137215614318848 0.049436874687671661
0.45001441240310669 0.69176304340362549 0.04088924452662468
0.5141603946685791 0.69973313808441162 0.038765717297792435
0.58315759897232056 0.71205395460128784 0.051208764314651489
0.65409237146377563 0.72592407464981079 0.057636439800262451
0.73020368814468384 0.74537760019302368 0.078193068504333496
0.81602805852890015 0.77087575197219849 0.09772936999797821
0.90375161170959473 0.79010230302810669 0.094360917806625366
0.9783170223236084 0.79609763622283936 0.065423689782619476
0.35573375225067139 0.76960086822509766 0.17488603293895721
0.37060120701789856 0.77257460355758667 0.17523202300071716
0.39106634259223938 0.77204501628875732 0.1678423285484314
0.41579678654670715 0.76634949445724487 0.15720547735691071
0.44505888223648071 0.75818556547164917 0.14543551206588745
0.48384490609169006 0.75355154275894165 0.13415665924549103
0.53825539350509644 0.7605631947517395 0.13481542468070984
0.59921777248382568 0.77229529619216919 0.14953088760375977
0.66122609376907349 0.7830778956413269 0.16603153944015503
0.72558361291885376 0.79390072822570801 0.1856766939163208
0.80218076705932617 0.81454557180404663 0.20623880624771118
0.884296715259552 0.83709084987640381 0.2218007892370224
0.95815539360046387 0.85070502758026123 0.22947248816490173
0.42504233121871948 0.83595490455627441 0.26907044649124146
0.44470950961112976 0.84378719329833984 0.28260767459869385
0.46550759673118591 0.84854251146316528 0.29234129190444946
0.48378860950469971 0.84312194585800171 0.28375068306922913
0.50313067436218262 0.83294206857681274 0.26508724689483643
0.53205561637878418 0.82684868574142456 0.25356817245483398
0.57778221368789673 0.83289033174514771 0.2580256462097168
0.63193053007125854 0.8444322943687439 0.27599433064460754
0.68789702653884888 0.85413527488708496 0.29579740762710571
0.74511158466339111 0.86125940084457397 0.30556640028953552
0.80870711803436279 0.8714749813079834 0.31194019317626953
0.87591451406478882 0.88422238826751709 0.32260453701019287
0.93952316045761108 0.89309132099151611 0.33081123232841492
0.48317715525627136 0.89968395233154297 0.3575839102268219
0.5072064995765686 0.9116407036781311 0.38291680812835693
0.5316656231880188 0.92151135206222534 0.40826836228370667
0.54811495542526245 0.91870778799057007 0.40227940678596497
0.56372547149658203 0.90925586223602295 0.38062182068824768
0.58852499723434448 0.9051133394241333 0.37058913707733154
0.62671792507171631 0.90986675024032593 0.37719941139221191
0.67332965135574341 0.91989374160766602 0.3975939154624939
0.72373354434967041 0.92955809831619263 0.42003348469734192
0.77372831106185913 0.93185436725616455 0.41755622625350952
0.82648676633834839 0.93385684490203857 0.40815111994743347
0.88248515129089355 0.9389151930809021 0.40589889883995056
0.93902939558029175 0.94396960735321045 0.40658769011497498
0.015538833104074001 0.030323851853609085 0.063474409282207489
0.062413908541202545 0.029345612972974777 0.0634932741522789
0.14138703048229218 0.027491595596075058 0.069079183042049408
0.24656017124652863 0.013605275191366673 0.074863448739051819
0.36506295204162598 0.0017593533266335726 0.073944717645645142
0.48569610714912415 0.00014774098235648125 0.064743056893348694
0.59956628084182739 0.0005765578243881464 0.051258176565170288
0.70282953977584839 0.0012986426008865237 0.039006147533655167
0.78458517789840698 0.0010083067463710904 0.036209631711244583
0.85243135690689087 0.0068838233128190041 0.02683563157916069
0.91484665870666504 0.035693958401679993 0.016927966848015785
0.96514236927032471 0.092266187071800232 0.018716221675276756
0.99711412191390991 0.15622337162494659 0.019982118159532547
0.010182922706007957 0.07992718368768692 0.068683773279190063
0.062150739133358002 0.08001977950334549 0.067051291465759277
0.14875805377960205 0.084608666598796844 0.066055998206138611
0.25597184896469116 0.076082713901996613 0.064686991274356842
0.37627455592155457 0.055355533957481384 0.057170793414115906
0.49919977784156799 0.04604855552315712 0.047407574951648712
0.61310422420501709 0.039662141352891922 0.042534187436103821
0.70971882343292236 0.038756635040044785 0.038152746856212616
0.7880975604057312 0.04618612676858902 0.030496560037136078
0.85548394918441772 0.073597058653831482 0.018577665090560913
0.91891837120056152 0.11412664502859116 0.01511745061725378
0.97179961204528809 0.16145859658718109 0.015225443989038467
0.99909001588821411 0.21042914688587189 0.015839265659451485
0.0030932857189327478 0.15892183780670166 0.070611722767353058
0.051314648240804672 0.15678387880325317 0.068558819591999054
0.14206399023532867 0.1661735475063324 0.065273746848106384
0.25728064775466919 0.17253920435905457 0.055815678089857101
0.39263838529586792 0.17573048174381256 0.035825662314891815
0.52453362941741943 0.17477533221244812 0.02444763109087944
0.63456863164901733 0.16652585566043854 0.018576888367533684
0.72253930568695068 0.16456560790538788 0.018936336040496826
0.79421675205230713 0.17729856073856354 0.010192557238042355
0.8592756986618042 0.19579602777957916 0.0065443748608231544
0.9200671911239624 0.21904513239860535 0.0053402921184897423
0.97023016214370728 0.24690605700016022 0.0040848078206181526
0.99751549959182739 0.27784359455108643 0.0028575223404914141
0.00066779641201719642 0.25457271933555603 0.069268740713596344
0.038879934698343277 0.24966540932655334 0.067566201090812683
0.12738791108131409 0.25398954749107361 0.064533114433288574
0.24066711962223053 0.27081656455993652 0.052427899092435837
0.38153347373008728 0.29453909397125244 0.025323815643787384
0.52823543548583984 0.3081367015838623 0.01258265133947134
0.64568400382995605 0.31037414073944092 0.0093790842220187187
0.73451966047286987 0.30817648768424988 0.012295936234295368
0.80412393808364868 0.31195494532585144 0.0052455081604421139
0.86553966999053955 0.31479689478874207 0.0022002574987709522
0.92179208993911743 0.32297173142433167 0.0015539730666205287
0.96866148710250854 0.33605280518531799 0.001081623719073832
0.99697309732437134 0.35425934195518494 0.00072206981712952256
4.2904124711640179e-05 0.35535132884979248 0.059698008000850677
0.030260765925049782 0.34796103835105896 0.061020482331514359
0.11532749980688095 0.34480327367782593 0.057003363966941833
0.22167225182056427 0.35636702179908752 0.047279372811317444
0.34290608763694763 0.37973225116729736 0.028803372755646706
0.48691171407699585 0.40937069058418274 0.010601986199617386
0.62055712938308716 0.42541095614433289 0.0078046610578894615
0.72433030605316162 0.42650133371353149 0.0095947859808802605
0.80211615562438965 0.42399784922599792 0.0018153919372707605
0.86511421203613281 0.420562744140625 3.9657890738453716e-05
0.92249506711959839 0.420003741979599 0
0.97068572044372559 0.42435270547866821 0
0.99844735860824585 0.43376943469047546 8.556889952160418e-06
0.0020824058447033167 0.44523739814758301 0.047769598662853241
0.032117895781993866 0.43933069705963135 0.05189044401049614
0.11652389168739319 0.43325069546699524 0.041245926171541214
0.21915733814239502 0.43579664826393127 0.033582169562578201
0.3297608494758606 0.45087346434593201 0.025921108201146126
0.44929200410842896 0.4765675961971283 0.02069467306137085
0.57447594404220581 0.50351542234420776 0.014337786473333836
0.68625593185424805 0.51991230249404907 0.0042916839011013508
0.77655541896820068 0.52054512500762939 3.9987004129216075e-05
0.85137194395065308 0.51609688997268677 0
0.9186292290687561 0.51141840219497681 0
0.97451323270797729 0.50891721248626709 0
0.99983322620391846 0.51174265146255493 8.3429673395585269e-05
0.030998274683952332 0.52081429958343506 0.053877692669630051
0.066294938325881958 0.51793885231018066 0.049460824579000473
0.14283543825149536 0.51212614774703979 0.031122589483857155
0.23084133863449097 0.50804656744003296 0.027580365538597107
0.32499358057975769 0.51343166828155518 0.024954194203019142
0.42776691913604736 0.5311998724937439 0.017678624019026756
0.53573989868164062 0.55836504697799683 0.015674665570259094
0.63980978727340698 0.5840531587600708 0.013268713839352131
0.7358100414276123 0.59473228454589844 0.0099348779767751694
0.82327431440353394 0.59773385524749756 0.0020052890758961439
0.90319502353668213 0.5950888991355896 0
0.96961867809295654 0.58982861042022705 0
0.99981886148452759 0.58832710981369019 0
0.098566703498363495 0.58729094266891479 0.059326816350221634
0.13072112202644348 0.58543330430984497 0.058500282466411591
0.19291366636753082 0.58010315895080566 0.042332354933023453
0.26049134135246277 0.57364559173583984 0.035325668752193451
0.33404290676116943 0.5734143853187561 0.033948216587305069
0.42089369893074036 0.58393651247024536 0.029346555471420288
0.51249092817306519 0.60333609580993652 0.035942692309617996
0.60294890403747559 0.62498301267623901 0.049377515912055969
0.69407171010971069 0.6441766619682312 0.051039721816778183
0.78608691692352295 0.65996909141540527 0.029138242825865746
0.87413197755813599 0.66690301895141602 0.0076664495281875134
0.9498295783996582 0.66574996709823608 0.00078653072705492377
0.99642109870910645 0.66311192512512207 0
0.19155426323413849 0.6491086483001709 0.079580076038837433
0.21462222933769226 0.64659184217453003 0.08575865626335144
0.25636184215545654 0.6414867639541626 0.073216080665588379
0.30416062474250793 0.63487714529037476 0.063490293920040131
0.35953846573829651 0.63161903619766235 0.061142280697822571
0.42952144145965576 0.63701367378234863 0.060517523437738419
0.5069737434387207 0.65014564990997314 0.068853504955768585
0.58437663316726685 0.66583257913589478 0.078809238970279694
0.66497588157653809 0.68429642915725708 0.083681859076023102
0.75203597545623779 0.7060171365737915 0.080824986100196838
0.84139794111251831 0.72419381141662598 0.070881232619285583
0.92403799295425415 0.73271399736404419 0.048615116626024246
0.98764938116073608 0.73300462961196899 0.025121800601482391
0.28352224826812744 0.71019375324249268 0.1431698352098465
0.30030587315559387 0.70810389518737793 0.14718765020370483
0.32478201389312744 0.70387780666351318 0.13517545163631439
0.35716500878334045 0.69766592979431152 0.12117557972669601
0.39782422780990601 0.69155561923980713 0.11177169531583786
0.45049658417701721 0.69161534309387207 0.10558547824621201
0.51448738574981689 0.70034998655319214 0.1098802462220192
0.58237892389297485 0.71296244859695435 0.11938434839248657
0.65324270725250244 0.72773367166519165 0.12862591445446014
0.73033148050308228 0.74742335081100464 0.14492656290531158
0.81474012136459351 0.77053064107894897 0.16511121392250061
0.89975380897521973 0.78862398862838745 0.167951300740242
0.9731823205947876 0.79433315992355347 0.13974232971668243
0.36428076028823853 0.77387142181396484 0.22230041027069092
0.37846046686172485 0.77495908737182617 0.22598853707313538
0.39620780944824219 0.77316743135452271 0.22094018757343292
0.41833159327507019 0.76695072650909424 0.20835432410240173
0.44615077972412109 0.75876504182815552 0.19360421597957611
0.48489871621131897 0.75504869222640991 0.1832103431224823
0.53782814741134644 0.76133453845977783 0.18623560667037964
0.59798544645309448 0.77211874723434448 0.1983342170715332
0.66051024198532104 0.78322392702102661 0.21113011240959167
0.72734850645065308 0.79641097784042358 0.22880968451499939
0.80153614282608032 0.81539428234100342 0.25265076756477356
0.8799174427986145 0.83409678936004639 0.26665163040161133
0.95207417011260986 0.84471684694290161 0.26199430227279663
0.43206360936164856 0.83932030200958252 0.30530431866645813
0.44898772239685059 0.84514927864074707 0.31696346402168274
0.46606191992759705 0.84722447395324707 0.32298800349235535
0.48325672745704651 0.84222018718719482 0.31480759382247925
0.50346916913986206 0.83428537845611572 0.29942998290061951
0.5340886116027832 0.83033686876296997 0.28970342874526978
0.57863157987594604 0.83588039875030518 0.2945440411567688
0.63086521625518799 0.84496474266052246 0.30729791522026062
0.68625557422637939 0.85212564468383789 0.31757909059524536
0.74375593662261963 0.8590351939201355 0.32506600022315979
0.80673593282699585 0.87048369646072388 0.33730459213256836
0.87304389476776123 0.88277614116668701 0.34792891144752502
0.93668210506439209 0.89178681373596191 0.35484355688095093
0.48955646157264709 0.90352869033813477 0.38731768727302551
0.50959700345993042 0.91277390718460083 0.40611541271209717
0.52886664867401123 0.91880142688751221 0.42076635360717773
0.54522192478179932 0.91700226068496704 0.41817015409469604
0.56360411643981934 0.91143369674682617 0.40562179684638977
0.58960747718811035 0.90959638357162476 0.39937701821327209
0.62818890810012817 0.91474080085754395 0.40651252865791321
0.67408931255340576 0.92259478569030762 0.41995453834533691
0.72202533483505249 0.92726337909698486 0.42776632308959961
0.77174437046051025 0.92983722686767578 0.42749166488647461
0.82492947578430176 0.93446248769760132 0.42677941918373108
0.88070708513259888 0.94095885753631592 0.42986002564430237
0.93796229362487793 0.94789332151412964 0.43538817763328552
0.007373390719294548 0.035624738782644272 0.14941377937793732
0.057497810572385788 0.036339014768600464 0.1504187285900116
0.1453099250793457 0.034851342439651489 0.156259685754776
0.25361424684524536 0.02038147859275341 0.16459304094314575
0.37528669834136963 0.0040677390061318874 0.16789758205413818
0.49997538328170776 0.0010779437143355608 0.16392171382904053
0.61105573177337646 7.0549460360780358e-05 0.15501199662685394
0.70717698335647583 0 0.14790700376033783
0.78292524814605713 1.6874426364665851e-05 0.14278519153594971
0.8472980260848999 0.002324078232049942 0.13143739104270935
0.90963411331176758 0.023148166015744209 0.12356860935688019
0.96181541681289673 0.081838421523571014 0.12064938992261887
0.99608546495437622 0.15811572968959808 0.11518865823745728
0.0046489043161273003 0.090646781027317047 0.15459805727005005
0.06003367155790329 0.091772176325321198 0.15442700684070587
0.15271921455860138 0.093996472656726837 0.15706567466259003
0.26024726033210754 0.086540266871452332 0.16021539270877838
0.38156235218048096 0.05855286493897438 0.15948638319969177
0.50590497255325317 0.044185128062963486 0.15586237609386444
0.61474430561065674 0.021818527951836586 0.15166440606117249
0.70736348628997803 0.016500525176525116 0.14474166929721832
0.7831186056137085 0.023699069395661354 0.13611452281475067
0.84761756658554077 0.055576086044311523 0.12437651306390762
0.91189026832580566 0.10541809350252151 0.1210179328918457
0.96857959032058716 0.15682213008403778 0.11708536744117737
0.99845242500305176 0.21014408767223358 0.11103171855211258
0.00068933825241401792 0.17437411844730377 0.15668973326683044
0.048665799200534821 0.17286214232444763 0.15719471871852875
0.15342539548873901 0.17524665594100952 0.15862752497196198
0.269115149974823 0.17720085382461548 0.15693160891532898
0.40057188272476196 0.17159301042556763 0.14968410134315491
0.52473306655883789 0.16530866920948029 0.14391545951366425
0.62777042388916016 0.14499616622924805 0.13116388022899628
0.71307182312011719 0.13722676038742065 0.12243655323982239
0.78587973117828369 0.15095138549804688 0.11151972413063049
0.85058414936065674 0.18131357431411743 0.10731536149978638
0.91303783655166626 0.2147999107837677 0.10537854582071304
0.96893149614334106 0.24462832510471344 0.10084980726242065
0.99745661020278931 0.27708685398101807 0.092453852295875549
0.00033443674328736961 0.27831396460533142 0.1557251513004303
0.039792139083147049 0.27295076847076416 0.15749303996562958
0.14558914303779602 0.27159956097602844 0.1582954078912735
0.26103630661964417 0.28276419639587402 0.15682812035083771
0.39850327372550964 0.29587358236312866 0.14449122548103333
0.53501683473587036 0.29905951023101807 0.12601396441459656
0.64428025484085083 0.29216894507408142 0.11420877277851105
0.7254643440246582 0.28779757022857666 0.10946031659841537
0.79464399814605713 0.29428309202194214 0.096290379762649536
0.85672956705093384 0.30546185374259949 0.089090324938297272
0.91579705476760864 0.31907927989959717 0.089172884821891785
0.96785783767700195 0.33393442630767822 0.08718649297952652
0.99668294191360474 0.35336229205131531 0.073027819395065308
0.0015855078818276525 0.38442805409431458 0.15107794106006622
0.042665921151638031 0.37572988867759705 0.15594911575317383
0.14431636035442352 0.36685654520988464 0.1549593061208725
0.25047779083251953 0.37409752607345581 0.15305905044078827
0.36518442630767822 0.39328488707542419 0.14622679352760315
0.50462418794631958 0.41407999396324158 0.11999305337667465
0.63041114807128906 0.4193560779094696 0.10774432867765427
0.72233766317367554 0.41613999009132385 0.098521210253238678
0.79654645919799805 0.4149869978427887 0.076124079525470734
0.85908359289169312 0.41346326470375061 0.059425894170999527
0.91728359460830688 0.41573521494865417 0.052189022302627563
0.96703547239303589 0.42177370190620422 0.053039193153381348
0.99661999940872192 0.43261584639549255 0.05343322828412056
0.013676108792424202 0.47036716341972351 0.1521734893321991
0.053288314491510391 0.4639163613319397 0.15815073251724243
0.15096133947372437 0.45495191216468811 0.14956577122211456
0.24571104347705841 0.45121729373931885 0.1454579085111618
0.3447374701499939 0.46120369434356689 0.1407342255115509
0.46129965782165527 0.48298859596252441 0.13518640398979187
