films/kodak_portra_160.cube
# Created by: G'MIC (https://gmic.eu)
TITLE "kodak_portra_160"
# LUT size
LUT_3D_SIZE 7
# Data domain
DOMAIN_MIN 0.0 0.0 0.0
DOMAIN_MAX 1.0 1.0 1.0
# LUT data points
0.018651565536856651 0.026779415085911751 0.018518351018428802
0.13490419089794159 0.028772376477718353 0.019216125831007957
0.3643740713596344 0.0070013608783483505 0.018776103854179382
0.59711045026779175 0.0037936789449304342 0.0039122938178479671
0.78213727474212646 0.0039028092287480831 0.00019854377023875713
0.9143829345703125 0.051507867872714996 0
0.99750882387161255 0.1590396910905838 0.00014935662329662591
0.004049637820571661 0.14130847156047821 0.020925544202327728
0.12678389251232147 0.16051663458347321 0.01022039633244276
0.3891703188419342 0.18632103502750397 0.0014166588662192225
0.64095842838287354 0.18622002005577087 2.1541820842685411e-06
0.80074143409729004 0.18924069404602051 0
0.92354673147201538 0.22139270603656769 0
0.99791532754898071 0.28142890334129333 0
0.00015869140042923391 0.33708083629608154 0.011907540261745453
0.099361181259155273 0.33163541555404663 0.0058820834383368492
0.3325907289981842 0.3743990957736969 8.5868086898699403e-05
0.61060768365859985 0.42432507872581482 0
0.79971128702163696 0.42773908376693726 0
0.92349123954772949 0.42183417081832886 0
0.99931067228317261 0.43490689992904663 0
0.01046314649283886 0.50979256629943848 0.0044515719637274742
0.11608977615833282 0.50197529792785645 4.3083641685370822e-06
0.31465071439743042 0.50935465097427368 0
0.52843302488327026 0.55305284261703491 0
0.73238879442214966 0.59195256233215332 8.6167283370741643e-06
0.90244895219802856 0.59538471698760986 0
0.99998706579208374 0.58868163824081421 0
0.1646154522895813 0.64231377840042114 0.01472848653793335
0.23479212820529938 0.63646417856216431 0.0081927133724093437
0.3561454713344574 0.63108932971954346 0.0043363086879253387
0.50417309999465942 0.64703214168548584 0.0052902968600392342
0.6673852801322937 0.68405663967132568 0.010524989105761051
0.84361058473587036 0.72784483432769775 0.01505412720143795
0.99016600847244263 0.73438167572021484 0.0013824014458805323
0.35573375225067139 0.76960086822509766 0.17488603293895721
0.39106634259223938 0.77204501628875732 0.1678423285484314
0.44505888223648071 0.75818556547164917 0.14543551206588745
0.53825539350509644 0.7605631947517395 0.13481542468070984
0.66122609376907349 0.7830778956413269 0.16603153944015503
0.80218076705932617 0.81454557180404663 0.20623880624771118
0.95815539360046387 0.85070502758026123 0.22947248816490173
0.48317715525627136 0.89968395233154297 0.3575839102268219
0.5316656231880188 0.92151135206222534 0.40826836228370667
0.56372547149658203 0.90925586223602295 0.38062182068824768
0.62671792507171631 0.90986675024032593 0.37719941139221191
0.72373354434967041 0.92955809831619263 0.42003348469734192
0.82648676633834839 0.93385684490203857 0.40815111994743347
0.93902939558029175 0.94396960735321045 0.40658769011497498
0.007373390719294548 0.035624738782644272 0.14941377937793732
0.1453099250793457 0.034851342439651489 0.156259685754776
0.37528669834136963 0.0040677390061318874 0.16789758205413818
0.61105573177337646 7.0549460360780358e-05 0.15501199662685394
0.78292524814605713 1.6874426364665851e-05 0.14278519153594971
0.90963411331176758 0.023148166015744209 0.12356860935688019
0.99608546495437622 0.15811572968959808 0.11518865823745728
0.00068933825241401792 0.17437411844730377 0.15668973326683044
0.15342539548873901 0.17524665594100952 0.15862752497196198
0.40057188272476196 0.17159301042556763 0.14968410134315491
0.62777042388916016 0.14499616622924805 0.13116388022899628
0.78587973117828369 0.15095138549804688 0.11151972413063049
0.91303783655166626 0.2147999107837677 0.10537854582071304
0.99745661020278931 0.27708685398101807 0.092453852295875549
0.0015855078818276525 0.38442805409431458 0.15107794106006622
0.14431636035442352 0.36685654520988464 0.1549593061208725
0.36518442630767822 0.39328488707542419 0.14622679352760315
0.63041114807128906 0.4193560779094696 0.10774432867765427
0.79654645919799805 0.4149869978427887 0.076124079525470734
0.91728359460830688 0.41573521494865417 0.052189022302627563
0.99661999940872192 0.43261584639549255 0.05343322828412056
0.072038926184177399 0.53934121131896973 0.16384781897068024
0.18605524301528931 0.52887296676635742 0.15055476129055023
0.33842217922210693 0.5193827748298645 0.13707955181598663
0.54046744108200073 0.56189519166946411 0.13118954002857208
0.73985916376113892 0.59649789333343506 0.10655991733074188
0.90538591146469116 0.59280353784561157 0.037509799003601074
0.99959611892700195 0.58507704734802246 0.036322187632322311
0.23567900061607361 0.65946125984191895 0.19360190629959106
0.28595313429832458 0.65020012855529785 0.18543258309364319
0.37084951996803284 0.63538038730621338 0.16374142467975616
0.51233154535293579 0.65296965837478638 0.1687832772731781
0.66651719808578491 0.68688291311264038 0.19546191394329071
0.84085488319396973 0.72153300046920776 0.17061227560043335
0.98812627792358398 0.72972333431243896 0.099736757576465607
0.38040226697921753 0.77897697687149048 0.28704380989074707
0.40595752000808716 0.77625566720962524 0.28662467002868652
0.45177736878395081 0.76019918918609619 0.25625801086425781
0.53889024257659912 0.76057738065719604 0.24740980565547943
0.66199332475662231 0.78384155035018921 0.27287358045578003
0.80116385221481323 0.81441038846969604 0.31247687339782715
0.95317322015762329 0.84471064805984497 0.32418879866600037
0.49734744429588318 0.90691840648651123 0.42286732792854309
0.52959847450256348 0.9184112548828125 0.44343698024749756
0.56445783376693726 0.91329139471054077 0.43359112739562988
0.63032352924346924 0.91819250583648682 0.43660548329353333
0.722301185131073 0.92668014764785767 0.44560715556144714
0.82627171277999878 0.93685257434844971 0.45502656698226929
0.94241416454315186 0.95730793476104736 0.47967991232872009
0.006092325784265995 0.051375012844800949 0.39823010563850403
0.1602720320224762 0.055914577096700668 0.39932721853256226
0.40431308746337891 0.023310776799917221 0.41218045353889465
0.64441710710525513 0.029333166778087616 0.41959154605865479
0.80363529920578003 0.080612972378730774 0.40167272090911865
0.91239917278289795 0.1180606335401535 0.38265541195869446
0.99514538049697876 0.18835464119911194 0.36882391571998596
6.1035157159494702e-06 0.19961817562580109 0.39326360821723938
0.15923638641834259 0.20942328870296478 0.40564915537834167
0.42527332901954651 0.22068719565868378 0.41703367233276367
0.64270728826522827 0.23083804547786713 0.42030513286590576
0.78688007593154907 0.2315346747636795 0.39802533388137817
0.89609384536743164 0.25659275054931641 0.38131228089332581
0.99556297063827515 0.30486151576042175 0.37056529521942139
0.0010382708860561252 0.42556175589561462 0.39449092745780945
0.18213969469070435 0.42798367142677307 0.40421661734580994
0.42060026526451111 0.42098069190979004 0.40771952271461487
0.62435013055801392 0.42127841711044312 0.40020477771759033
0.76935040950775146 0.41588294506072998 0.38505911827087402
0.89419734477996826 0.42130351066589355 0.37833958864212036
0.99407809972763062 0.43770205974578857 0.36180081963539124
0.16368313133716583 0.59703749418258667 0.4066673219203949
0.29110944271087646 0.58888238668441772 0.40585723519325256
0.41269603371620178 0.55588012933731079 0.3926251232624054
0.57153570652008057 0.58083939552307129 0.39911255240440369
0.74405747652053833 0.59534502029418945 0.39298933744430542
0.897632896900177 0.58967012166976929 0.3711819052696228
0.99658733606338501 0.583504319190979 0.35063037276268005
0.33961206674575806 0.69413340091705322 0.41631349921226501
0.3724362850189209 0.68664991855621338 0.40749308466911316
0.43700692057609558 0.66170138120651245 0.38584020733833313
0.52995860576629639 0.65730851888656616 0.37160274386405945
0.67995482683181763 0.69683527946472168 0.40092372894287109
0.84810006618499756 0.7269822359085083 0.40658131241798401
0.99503904581069946 0.72520184516906738 0.37059468030929565
0.43218591809272766 0.79702246189117432 0.44744560122489929
0.44935747981071472 0.79532808065414429 0.44150516390800476
0.48852142691612244 0.77780497074127197 0.41525137424468994
0.54899835586547852 0.76375657320022583 0.38434895873069763
0.66025257110595703 0.78408098220825195 0.40917658805847168
0.80352997779846191 0.81667494773864746 0.44562065601348877
0.95939743518829346 0.84697610139846802 0.46222215890884399
0.52298593521118164 0.92024648189544678 0.52319425344467163
0.54772686958312988 0.93053358793258667 0.52861118316650391
0.57850784063339233 0.92443239688873291 0.51634222269058228
0.62795615196228027 0.91708779335021973 0.49562293291091919
0.72134226560592651 0.92948848009109497 0.51206439733505249
0.82776767015457153 0.94040441513061523 0.52889448404312134
0.94803225994110107 0.96419179439544678 0.55822241306304932
0.025607375428080559 0.10030572861433029 0.60633140802383423
0.20732773840427399 0.10585964471101761 0.6149781346321106
0.4415605366230011 0.1183147057890892 0.62599062919616699
0.6430554986000061 0.15151247382164001 0.62874174118041992
0.80408239364624023 0.24350437521934509 0.62537413835525513
0.92290157079696655 0.33111280202865601 0.61067599058151245
0.99778467416763306 0.35830426216125488 0.58800709247589111
0.030885403975844383 0.24886047840118408 0.60784035921096802
0.21712672710418701 0.25469279289245605 0.61510545015335083
0.45166993141174316 0.28223374485969543 0.62325477600097656
0.64077937602996826 0.3110077977180481 0.62775564193725586
0.7916674017906189 0.35749772191047668 0.6210821270942688
0.9057157039642334 0.39871335029602051 0.60716241598129272
0.99311774969100952 0.4130399227142334 0.58914130926132202
0.014639043249189854 0.43041163682937622 0.59706640243530273
0.22695803642272949 0.43599846959114075 0.59998840093612671
0.45062366127967834 0.455659419298172 0.60672646760940552
0.62452799081802368 0.47985845804214478 0.6124081015586853
0.76461672782897949 0.4988228976726532 0.61165881156921387
0.88058513402938843 0.49520501494407654 0.59310805797576904
0.98943448066711426 0.48210033774375916 0.57629275321960449
0.17658942937850952 0.62268376350402832 0.59222519397735596
0.3220876157283783 0.61751693487167358 0.59323751926422119
0.46749988198280334 0.60989820957183838 0.59567499160766602
0.60572981834411621 0.60526013374328613 0.59511315822601318
0.74009281396865845 0.60176920890808105 0.58807373046875
0.86528319120407104 0.58783161640167236 0.56834930181503296
0.9857286810874939 0.58061432838439941 0.55484604835510254
0.40702182054519653 0.73661202192306519 0.5826488733291626
0.43670248985290527 0.73061656951904297 0.58652186393737793
0.51224470138549805 0.71552038192749023 0.58333432674407959
0.58109092712402344 0.68915808200836182 0.56088578701019287
0.69815635681152344 0.70677822828292847 0.56981545686721802
0.85556590557098389 0.72535401582717896 0.57456564903259277
0.98903971910476685 0.71708017587661743 0.55618023872375488
0.48114466667175293 0.82459068298339844 0.59401774406433105
0.49467161297798157 0.82329303026199341 0.58926618099212646
0.5435294508934021 0.80910366773605347 0.58246290683746338
0.5853874683380127 0.78807884454727173 0.54587417840957642
0.66068321466445923 0.7830045223236084 0.53642266988754272
0.80899667739868164 0.81564629077911377 0.57046651840209961
0.96761786937713623 0.84726190567016602 0.58563923835754395
0.54956096410751343 0.93861216306686401 0.63140016794204712
0.56949704885482788 0.94136512279510498 0.63235783576965332
0.59747815132141113 0.93915450572967529 0.62207424640655518
0.64327090978622437 0.931721031665802 0.60001212358474731
0.71539103984832764 0.92664098739624023 0.5901108980178833
0.82474923133850098 0.93672090768814087 0.60249578952789307
0.94979476928710938 0.96610456705093384 0.63572829961776733
0.15414513647556305 0.18202030658721924 0.75595271587371826
0.31250572204589844 0.19592516124248505 0.75858080387115479
0.48457804322242737 0.22977626323699951 0.76068079471588135
0.64238870143890381 0.29957243800163269 0.76468807458877563
0.78102165460586548 0.35077255964279175 0.76259291172027588
0.90774482488632202 0.40459761023521423 0.75771206617355347
0.99840569496154785 0.49193701148033142 0.75238430500030518
0.24074293673038483 0.31484505534172058 0.75184470415115356
0.34643959999084473 0.32522881031036377 0.75370115041732788
0.49758145213127136 0.34838205575942993 0.75494015216827393
0.64099782705307007 0.40143638849258423 0.7591593861579895
0.7743263840675354 0.43531075119972229 0.75849652290344238
0.89985460042953491 0.47558999061584473 0.75746762752532959
0.99370366334915161 0.54486119747161865 0.75429177284240723
0.27767854928970337 0.46490553021430969 0.7340625524520874
0.37134063243865967 0.4757215678691864 0.73538720607757568
0.50276726484298706 0.49646696448326111 0.73968625068664551
0.63810771703720093 0.52919453382492065 0.74782341718673706
0.76455539464950562 0.55312693119049072 0.75312799215316772
0.88893282413482666 0.58108490705490112 0.75445568561553955
0.99239933490753174 0.60586690902709961 0.75085890293121338
0.29614555835723877 0.60711818933486938 0.7217094898223877
0.37836220860481262 0.61084723472595215 0.72234427928924561
0.49450039863586426 0.60944247245788574 0.72262299060821533
0.62478744983673096 0.62841087579727173 0.73136454820632935
0.75391054153442383 0.65372377634048462 0.74273943901062012
0.87508326768875122 0.66518658399581909 0.74554890394210815
0.98568755388259888 0.65411800146102905 0.73026400804519653
0.41449818015098572 0.75303190946578979 0.72547101974487305
0.46668031811714172 0.7511858344078064 0.725425124168396
0.54393869638442993 0.74788939952850342 0.72633367776870728
0.62987101078033447 0.73604452610015869 0.72265082597732544
0.73571407794952393 0.73254317045211792 0.72158432006835938
0.86194103956222534 0.73235440254211426 0.71922796964645386
0.98529052734375 0.71497327089309692 0.70237743854522705
0.53641211986541748 0.86175751686096191 0.72359657287597656
0.55477720499038696 0.85906124114990234 0.7235267162322998
0.60254365205764771 0.85226696729660034 0.72447806596755981
0.65885543823242188 0.83613395690917969 0.71871286630630493
0.70561933517456055 0.80419152975082397 0.68406534194946289
0.82984429597854614 0.82964998483657837 0.7010648250579834
0.98051345348358154 0.84657245874404907 0.7097737193107605
0.58898192644119263 0.96272093057632446 0.73419195413589478
0.59798514842987061 0.96007770299911499 0.73227548599243164
0.63530755043029785 0.95744228363037109 0.73103415966033936
0.67858791351318359 0.95208907127380371 0.72513687610626221
0.73520505428314209 0.93881219625473022 0.70157027244567871
0.82395678758621216 0.94201904535293579 0.69736450910568237
0.95394277572631836 0.96003264188766479 0.72730165719985962
0.38318982720375061 0.31987705826759338 0.87160390615463257
0.44408509135246277 0.33462437987327576 0.87306094169616699
0.54407936334609985 0.36571890115737915 0.87140530347824097
0.65729159116744995 0.41147080063819885 0.87078005075454712
0.76901090145111084 0.47834262251853943 0.87349998950958252
0.88910460472106934 0.50794321298599243 0.87246012687683105
0.99411517381668091 0.52974075078964233 0.86659753322601318
0.41172835230827332 0.41253715753555298 0.86707103252410889
0.46255335211753845 0.42473927140235901 0.86867785453796387
0.55543136596679688 0.4459022581577301 0.8668067455291748
0.66156446933746338 0.48024871945381165 0.86610394716262817
0.7704588770866394 0.53359717130661011 0.87034124135971069
0.88635492324829102 0.55617368221282959 0.87066662311553955
0.99295079708099365 0.57419866323471069 0.87061870098114014
0.440378338098526 0.5344347357749939 0.85572797060012817
0.48551285266876221 0.54140758514404297 0.8569633960723877
0.56551176309585571 0.55414164066314697 0.85753738880157471
0.66852372884750366 0.57970046997070312 0.86101526021957397
0.77309668064117432 0.61545610427856445 0.86681181192398071
0.88438588380813599 0.63110911846160889 0.86691427230834961
0.9900020956993103 0.64204102754592896 0.86862218379974365
0.42857265472412109 0.63360029458999634 0.84468185901641846
0.46882510185241699 0.63017934560775757 0.84317421913146973
0.5494682788848877 0.63753080368041992 0.8432462215423584
0.66111153364181519 0.66064280271530151 0.84993976354598999
0.77076876163482666 0.68751579523086548 0.86003029346466064
0.88166600465774536 0.70753008127212524 0.86556887626647949
0.98674952983856201 0.71414399147033691 0.86763471364974976
0.44648584723472595 0.74987691640853882 0.84183168411254883
0.48046639561653137 0.7476227879524231 0.84175372123718262
0.54625445604324341 0.74308866262435913 0.83871221542358398
0.64013063907623291 0.73876363039016724 0.84036707878112793
0.75971478223800659 0.75475728511810303 0.84776854515075684
0.88167339563369751 0.78129476308822632 0.86317092180252075
0.98666119575500488 0.79006487131118774 0.86655884981155396
0.53426790237426758 0.87357068061828613 0.84727334976196289
0.55613934993743896 0.87302345037460327 0.84794086217880249
0.6193118691444397 0.8719063401222229 0.84973084926605225
0.69079446792602539 0.86631506681442261 0.85069620609283447
0.76688641309738159 0.85138309001922607 0.84277307987213135
0.86603176593780518 0.85024231672286987 0.84480398893356323
0.98747855424880981 0.85256278514862061 0.84376347064971924
0.65817773342132568 0.97513610124588013 0.84777015447616577
0.66955769062042236 0.97721070051193237 0.85206228494644165
0.71441775560379028 0.9761117696762085 0.85330760478973389
0.7569575309753418 0.97530335187911987 0.85525065660476685
0.8028150200843811 0.96866053342819214 0.84893119335174561
0.86682265996932983 0.95643085241317749 0.8325270414352417
0.96957814693450928 0.96979600191116333 0.83796119689941406
0.53210508823394775 0.50080358982086182 0.97869253158569336
0.56031084060668945 0.50970089435577393 0.97880864143371582
0.61747938394546509 0.52667343616485596 0.97600394487380981
0.69667690992355347 0.55383145809173584 0.97351658344268799
0.785483717918396 0.57947194576263428 0.97114688158035278
0.88437366485595703 0.62175184488296509 0.97036385536193848
0.98638999462127686 0.62164092063903809 0.96227562427520752
0.53833204507827759 0.54488778114318848 0.97495496273040771
0.57258135080337524 0.55889236927032471 0.97638297080993652
0.62831050157546997 0.57053571939468384 0.97440642118453979
0.70223808288574219 0.58637464046478271 0.97117573022842407
0.78833603858947754 0.61832237243652344 0.97207111120223999
0.88414591550827026 0.65332883596420288 0.9720529317855835
0.98552638292312622 0.6570243239402771 0.96859008073806763
0.56086570024490356 0.6220695972442627 0.97116756439208984
0.59094130992889404 0.63138651847839355 0.97236484289169312
0.64210200309753418 0.63723164796829224 0.97136610746383667
0.71412414312362671 0.64892733097076416 0.97072082757949829
0.79664993286132812 0.67130762338638306 0.97275608777999878
0.88574576377868652 0.70320254564285278 0.97239595651626587
0.98326730728149414 0.70806419849395752 0.96970623731613159
0.56301790475845337 0.69497585296630859 0.96899509429931641
0.59077578783035278 0.69871807098388672 0.96898430585861206
0.63735795021057129 0.70150160789489746 0.96845418214797974
0.71437054872512817 0.71225535869598389 0.96896064281463623
0.8005213737487793 0.72917097806930542 0.97082018852233887
0.89168083667755127 0.75743371248245239 0.97410434484481812
0.98410433530807495 0.76599013805389404 0.97224467992782593
0.53512638807296753 0.76571083068847656 0.96899509429931641
0.56313014030456543 0.76908785104751587 0.9681544303894043
0.61069965362548828 0.76627123355865479 0.96746909618377686
0.69856351613998413 0.77572023868560791 0.96763980388641357
0.79710292816162109 0.79136776924133301 0.97033584117889404
0.89798593521118164 0.81723958253860474 0.97603058815002441
0.98935794830322266 0.83480733633041382 0.97614353895187378
0.56081777811050415 0.87842828035354614 0.96649801731109619
0.58743304014205933 0.87756657600402832 0.97213399410247803
0.62653857469558716 0.87552714347839355 0.97239804267883301
0.69579571485519409 0.87231707572937012 0.97195601463317871
0.7792353630065918 0.86408418416976929 0.97146809101104736
0.88975811004638672 0.88024002313613892 0.97777390480041504
0.99099534749984741 0.91183662414550781 0.98181968927383423
0.65783905982971191 0.98408859968185425 0.96302282810211182
0.65733641386032104 0.98758041858673096 0.96966058015823364
0.6997571587562561 0.98760020732879639 0.97361642122268677
0.75247454643249512 0.98741328716278076 0.97668635845184326
0.83255785703659058 0.98462593555450439 0.97856032848358154
0.90919631719589233 0.98512452840805054 0.98221683502197266
0.99089151620864868 0.98551994562149048 0.97430521249771118
