films/kodak_t-max_100.cube
# Created by: G'MIC (https://gmic.eu)
TITLE "kodak_t-max_100"
# LUT size
LUT_3D_SIZE 7
# Data domain
DOMAIN_MIN 0.0 0.0 0.0
DOMAIN_MAX 1.0 1.0 1.0
# LUT data points
0.021254191175103188 0.021254191175103188 0.021254191175103188
0.037456691265106201 0.037456691265106201 0.037456691265106201
0.060293685644865036 0.060293685644865036 0.060293685644865036
0.08257787674665451 0.08257787674665451 0.08257787674665451
0.13190850615501404 0.13190850615501404 0.13190850615501404
0.20204305648803711 0.20204305648803711 0.20204305648803711
0.27745610475540161 0.27745610475540161 0.27745610475540161
0.11276119202375412 0.11276119202375412 0.11276119202375412
0.12137796729803085 0.12137796729803085 0.12137796729803085
0.14197549223899841 0.14197549223899841 0.14197549223899841
0.16679699718952179 0.16679699718952179 0.16679699718952179
0.20933130383491516 0.20933130383491516 0.20933130383491516
0.27255100011825562 0.27255100011825562 0.27255100011825562
0.34449365735054016 0.34449365735054016 0.34449365735054016
0.22335720062255859 0.22335720062255859 0.22335720062255859
0.23030334711074829 0.23030334711074829 0.23030334711074829
0.24798628687858582 0.24798628687858582 0.24798628687858582
0.27042552828788757 0.27042552828788757 0.27042552828788757
0.30539986491203308 0.30539986491203308 0.30539986491203308
0.36410728096961975 0.36410728096961975 0.36410728096961975
0.43009847402572632 0.43009847402572632 0.43009847402572632
0.35188800096511841 0.35188800096511841 0.35188800096511841
0.36157119274139404 0.36157119274139404 0.36157119274139404
0.37608194351196289 0.37608194351196289 0.37608194351196289
0.39545813202857971 0.39545813202857971 0.39545813202857971
0.42665556073188782 0.42665556073188782 0.42665556073188782
0.47620391845703125 0.47620391845703125 0.47620391845703125
0.53310716152191162 0.53310716152191162 0.53310716152191162
0.51242756843566895 0.51242756843566895 0.51242756843566895
0.51343673467636108 0.51343673467636108 0.51343673467636108
0.52039414644241333 0.52039414644241333 0.52039414644241333
0.53548163175582886 0.53548163175582886 0.53548163175582886
0.56250673532485962 0.56250673532485962 0.56250673532485962
0.60254454612731934 0.60254454612731934 0.60254454612731934
0.6488039493560791 0.6488039493560791 0.6488039493560791
0.67841732501983643 0.67841732501983643 0.67841732501983643
0.67110222578048706 0.67110222578048706 0.67110222578048706
0.6680569052696228 0.6680569052696228 0.6680569052696228
0.6763572096824646 0.6763572096824646 0.6763572096824646
0.69809979200363159 0.69809979200363159 0.69809979200363159
0.73226428031921387 0.73226428031921387 0.73226428031921387
0.77088123559951782 0.77088123559951782 0.77088123559951782
0.83154922723770142 0.83154922723770142 0.83154922723770142
0.81390327215194702 0.81390327215194702 0.81390327215194702
0.80408167839050293 0.80408167839050293 0.80408167839050293
0.80711936950683594 0.80711936950683594 0.80711936950683594
0.82414615154266357 0.82414615154266357 0.82414615154266357
0.85378909111022949 0.85378909111022949 0.85378909111022949
0.88905268907546997 0.88905268907546997 0.88905268907546997
0.047593031078577042 0.047593031078577042 0.047593031078577042
0.064023904502391815 0.064023904502391815 0.064023904502391815
0.093214608728885651 0.093214608728885651 0.093214608728885651
0.11735996603965759 0.11735996603965759 0.11735996603965759
0.15878826379776001 0.15878826379776001 0.15878826379776001
0.22132579982280731 0.22132579982280731 0.22132579982280731
0.29407414793968201 0.29407414793968201 0.29407414793968201
0.13364191353321075 0.13364191353321075 0.13364191353321075
0.14701823890209198 0.14701823890209198 0.14701823890209198
0.17260020971298218 0.17260020971298218 0.17260020971298218
0.19611312448978424 0.19611312448978424 0.19611312448978424
0.233997642993927 0.233997642993927 0.233997642993927
0.29192668199539185 0.29192668199539185 0.29192668199539185
0.36080607771873474 0.36080607771873474 0.36080607771873474
0.2439153641462326 0.2439153641462326 0.2439153641462326
0.25239983201026917 0.25239983201026917 0.25239983201026917
0.27156993746757507 0.27156993746757507 0.27156993746757507
0.29500788450241089 0.29500788450241089 0.29500788450241089
0.33019402623176575 0.33019402623176575 0.33019402623176575
0.38282763957977295 0.38282763957977295 0.38282763957977295
0.44554027915000916 0.44554027915000916 0.44554027915000916
0.37531223893165588 0.37531223893165588 0.37531223893165588
0.3809266984462738 0.3809266984462738 0.3809266984462738
0.39510604739189148 0.39510604739189148 0.39510604739189148
0.41524404287338257 0.41524404287338257 0.41524404287338257
0.44619277119636536 0.44619277119636536 0.44619277119636536
0.49166056513786316 0.49166056513786316 0.49166056513786316
0.54565191268920898 0.54565191268920898 0.54565191268920898
0.52719277143478394 0.52719277143478394 0.52719277143478394
0.52823632955551147 0.52823632955551147 0.52823632955551147
0.53546768426895142 0.53546768426895142 0.53546768426895142
0.55033344030380249 0.55033344030380249 0.55033344030380249
0.57590758800506592 0.57590758800506592 0.57590758800506592
0.61309826374053955 0.61309826374053955 0.61309826374053955
0.65723556280136108 0.65723556280136108 0.65723556280136108
0.68358689546585083 0.68358689546585083 0.68358689546585083
0.6799500584602356 0.6799500584602356 0.6799500584602356
0.67963749170303345 0.67963749170303345 0.67963749170303345
0.68803459405899048 0.68803459405899048 0.68803459405899048
0.70788872241973877 0.70788872241973877 0.70788872241973877
0.7384992241859436 0.7384992241859436 0.7384992241859436
0.77484309673309326 0.77484309673309326 0.77484309673309326
0.82549959421157837 0.82549959421157837 0.82549959421157837
0.81896758079528809 0.81896758079528809 0.81896758079528809
0.81351661682128906 0.81351661682128906 0.81351661682128906
0.81741297245025635 0.81741297245025635 0.81741297245025635
0.83244389295578003 0.83244389295578003 0.83244389295578003
0.85747671127319336 0.85747671127319336 0.85747671127319336
0.88634854555130005 0.88634854555130005 0.88634854555130005
0.082353971898555756 0.082353971898555756 0.082353971898555756
0.10220780968666077 0.10220780968666077 0.10220780968666077
0.13537676632404327 0.13537676632404327 0.13537676632404327
0.16082635521888733 0.16082635521888733 0.16082635521888733
0.19802933931350708 0.19802933931350708 0.19802933931350708
0.25543010234832764 0.25543010234832764 0.25543010234832764
0.32515013217926025 0.32515013217926025 0.32515013217926025
0.16980728507041931 0.16980728507041931 0.16980728507041931
0.18554781377315521 0.18554781377315521 0.18554781377315521
0.21368418633937836 0.21368418633937836 0.21368418633937836
0.23771046102046967 0.23771046102046967 0.23771046102046967
0.27286830544471741 0.27286830544471741 0.27286830544471741
0.32602593302726746 0.32602593302726746 0.32602593302726746
0.39130830764770508 0.39130830764770508 0.39130830764770508
0.28110232949256897 0.28110232949256897 0.28110232949256897
0.28977996110916138 0.28977996110916138 0.28977996110916138
0.30879268050193787 0.30879268050193787 0.30879268050193787
0.33272531628608704 0.33272531628608704 0.33272531628608704
0.36669915914535522 0.36669915914535522 0.36669915914535522
0.41473209857940674 0.41473209857940674 0.41473209857940674
0.47292110323905945 0.47292110323905945 0.47292110323905945
0.41042676568031311 0.41042676568031311 0.41042676568031311
0.4143022894859314 0.4143022894859314 0.4143022894859314
0.42703336477279663 0.42703336477279663 0.42703336477279663
0.44665992259979248 0.44665992259979248 0.44665992259979248
0.47655031085014343 0.47655031085014343 0.47655031085014343
0.51752984523773193 0.51752984523773193 0.51752984523773193
0.56732630729675293 0.56732630729675293 0.56732630729675293
0.5520012378692627 0.5520012378692627 0.5520012378692627
0.55317264795303345 0.55317264795303345 0.55317264795303345
0.56032389402389526 0.56032389402389526 0.56032389402389526
0.57445579767227173 0.57445579767227173 0.57445579767227173
0.59764653444290161 0.59764653444290161 0.59764653444290161
0.63058578968048096 0.63058578968048096 0.63058578968048096
0.67111623287200928 0.67111623287200928 0.67111623287200928
0.69541704654693604 0.69541704654693604 0.69541704654693604
0.69484251737594604 0.69484251737594604 0.69484251737594604
0.69690525531768799 0.69690525531768799 0.69690525531768799
0.70545560121536255 0.70545560121536255 0.70545560121536255
0.72260719537734985 0.72260719537734985 0.72260719537734985
0.74811971187591553 0.74811971187591553 0.74811971187591553
0.7805449366569519 0.7805449366569519 0.7805449366569519
0.82764023542404175 0.82764023542404175 0.82764023542404175
0.82641351222991943 0.82641351222991943 0.82641351222991943
0.82558596134185791 0.82558596134185791 0.82558596134185791
0.83027678728103638 0.83027678728103638 0.83027678728103638
0.84291815757751465 0.84291815757751465 0.84291815757751465
0.86302703619003296 0.86302703619003296 0.86302703619003296
0.88827931880950928 0.88827931880950928 0.88827931880950928
0.12212911993265152 0.12212911993265152 0.12212911993265152
0.14577868580818176 0.14577868580818176 0.14577868580818176
0.17721860110759735 0.17721860110759735 0.17721860110759735
0.20767378807067871 0.20767378807067871 0.20767378807067871
0.24335254728794098 0.24335254728794098 0.24335254728794098
0.30097433924674988 0.30097433924674988 0.30097433924674988
0.37014037370681763 0.37014037370681763 0.37014037370681763
0.21583075821399689 0.21583075821399689 0.21583075821399689
0.23048301041126251 0.23048301041126251 0.23048301041126251
0.25646895170211792 0.25646895170211792 0.25646895170211792
0.28434073925018311 0.28434073925018311 0.28434073925018311
0.3202674388885498 0.3202674388885498 0.3202674388885498
0.37186825275421143 0.37186825275421143 0.37186825275421143
0.43430307507514954 0.43430307507514954 0.43430307507514954
0.32795587182044983 0.32795587182044983 0.32795587182044983
0.33581006526947021 0.33581006526947021 0.33581006526947021
0.3539726734161377 0.3539726734161377 0.3539726734161377
0.37825706601142883 0.37825706601142883 0.37825706601142883
0.41194549202919006 0.41194549202919006 0.41194549202919006
0.45731037855148315 0.45731037855148315 0.45731037855148315
0.51180106401443481 0.51180106401443481 0.51180106401443481
0.45284625887870789 0.45284625887870789 0.45284625887870789
0.45656910538673401 0.45656910538673401 0.45656910538673401
0.46833759546279907 0.46833759546279907 0.46833759546279907
0.48694762587547302 0.48694762587547302 0.48694762587547302
0.51543134450912476 0.51543134450912476 0.51543134450912476
0.5529102087020874 0.5529102087020874 0.5529102087020874
0.59898847341537476 0.59898847341537476 0.59898847341537476
0.58615195751190186 0.58615195751190186 0.58615195751190186
0.58738762140274048 0.58738762140274048 0.58738762140274048
0.5943000316619873 0.5943000316619873 0.5943000316619873
0.60735112428665161 0.60735112428665161 0.60735112428665161
0.6281161904335022 0.6281161904335022 0.6281161904335022
0.65600132942199707 0.65600132942199707 0.65600132942199707
0.69308936595916748 0.69308936595916748 0.69308936595916748
0.71905279159545898 0.71905279159545898 0.71905279159545898
0.71944242715835571 0.71944242715835571 0.71944242715835571
0.72256731986999512 0.72256731986999512 0.72256731986999512
0.73054593801498413 0.73054593801498413 0.73054593801498413
0.74516230821609497 0.74516230821609497 0.74516230821609497
0.76591354608535767 0.76591354608535767 0.76591354608535767
0.79520553350448608 0.79520553350448608 0.79520553350448608
0.8432081937789917 0.8432081937789917 0.8432081937789917
0.84365999698638916 0.84365999698638916 0.84365999698638916
0.84428888559341431 0.84428888559341431 0.84428888559341431
0.84894818067550659 0.84894818067550659 0.84894818067550659
0.85953718423843384 0.85953718423843384 0.85953718423843384
0.87647300958633423 0.87647300958633423 0.87647300958633423
0.89939385652542114 0.89939385652542114 0.89939385652542114
0.19193246960639954 0.19193246960639954 0.19193246960639954
0.20828288793563843 0.20828288793563843 0.20828288793563843
0.23637905716896057 0.23637905716896057 0.23637905716896057
0.26896238327026367 0.26896238327026367 0.26896238327026367
0.30854794383049011 0.30854794383049011 0.30854794383049011
0.36484602093696594 0.36484602093696594 0.36484602093696594
0.42971721291542053 0.42971721291542053 0.42971721291542053
0.27826967835426331 0.27826967835426331 0.27826967835426331
0.29010230302810669 0.29010230302810669 0.29010230302810669
0.31369605660438538 0.31369605660438538 0.31369605660438538
0.34328943490982056 0.34328943490982056 0.34328943490982056
0.38126325607299805 0.38126325607299805 0.38126325607299805
0.43170946836471558 0.43170946836471558 0.43170946836471558
0.49036908149719238 0.49036908149719238 0.49036908149719238
0.38468906283378601 0.38468906283378601 0.38468906283378601
0.39200448989868164 0.39200448989868164 0.39200448989868164
0.40933707356452942 0.40933707356452942 0.40933707356452942
0.43413820862770081 0.43413820862770081 0.43413820862770081
0.46782267093658447 0.46782267093658447 0.46782267093658447
0.51107692718505859 0.51107692718505859 0.51107692718505859
0.56169813871383667 0.56169813871383667 0.56169813871383667
0.50314271450042725 0.50314271450042725 0.50314271450042725
0.50732284784317017 0.50732284784317017 0.50732284784317017
0.51869761943817139 0.51869761943817139 0.51869761943817139
0.53736811876296997 0.53736811876296997 0.53736811876296997
0.56424152851104736 0.56424152851104736 0.56424152851104736
0.59921741485595703 0.59921741485595703 0.59921741485595703
0.64167553186416626 0.64167553186416626 0.64167553186416626
0.62833595275878906 0.62833595275878906 0.62833595275878906
0.63040530681610107 0.63040530681610107 0.63040530681610107
0.63694280385971069 0.63694280385971069 0.63694280385971069
0.64943349361419678 0.64943349361419678 0.64943349361419678
0.66848891973495483 0.66848891973495483 0.66848891973495483
0.69444817304611206 0.69444817304611206 0.69444817304611206
0.7285923957824707 0.7285923957824707 0.7285923957824707
0.75339406728744507 0.75339406728744507 0.75339406728744507
0.75412255525588989 0.75412255525588989 0.75412255525588989
0.75654834508895874 0.75654834508895874 0.75654834508895874
0.76392638683319092 0.76392638683319092 0.76392638683319092
0.7769351601600647 0.7769351601600647 0.7769351601600647
0.79624742269515991 0.79624742269515991 0.79624742269515991
0.823344886302948 0.823344886302948 0.823344886302948
0.87076306343078613 0.87076306343078613 0.87076306343078613
0.87103402614593506 0.87103402614593506 0.87103402614593506
0.87123048305511475 0.87123048305511475 0.87123048305511475
0.87507230043411255 0.87507230043411255 0.87507230043411255
0.88426434993743896 0.88426434993743896 0.88426434993743896
0.89947408437728882 0.89947408437728882 0.89947408437728882
0.92083752155303955 0.92083752155303955 0.92083752155303955
0.27273726463317871 0.27273726463317871 0.27273726463317871
0.28422605991363525 0.28422605991363525 0.28422605991363525
0.30909237265586853 0.30909237265586853 0.30909237265586853
0.34289038181304932 0.34289038181304932 0.34289038181304932
0.38629055023193359 0.38629055023193359 0.38629055023193359
0.44102504849433899 0.44102504849433899 0.44102504849433899
0.50070446729660034 0.50070446729660034 0.50070446729660034
0.35129767656326294 0.35129767656326294 0.35129767656326294
0.36129465699195862 0.36129465699195862 0.36129465699195862
0.3828522264957428 0.3828522264957428 0.3828522264957428
0.41354775428771973 0.41354775428771973 0.41354775428771973
0.4526698887348175 0.4526698887348175 0.4526698887348175
0.50175577402114868 0.50175577402114868 0.50175577402114868
0.55536717176437378 0.55536717176437378 0.55536717176437378
0.4493161141872406 0.4493161141872406 0.4493161141872406
0.456499844789505 0.456499844789505 0.456499844789505
0.47318258881568909 0.47318258881568909 0.47318258881568909
0.49813142418861389 0.49813142418861389 0.49813142418861389
0.53145551681518555 0.53145551681518555 0.53145551681518555
0.57275116443634033 0.57275116443634033 0.57275116443634033
0.61905026435852051 0.61905026435852051 0.61905026435852051
0.5594446063041687 0.5594446063041687 0.5594446063041687
0.56431955099105835 0.56431955099105835 0.56431955099105835
0.57570463418960571 0.57570463418960571 0.57570463418960571
0.59419578313827515 0.59419578313827515 0.59419578313827515
0.62019872665405273 0.62019872665405273 0.62019872665405273
0.6533399224281311 0.6533399224281311 0.6533399224281311
0.6924203634262085 0.6924203634262085 0.6924203634262085
0.67732995748519897 0.67732995748519897 0.67732995748519897
0.67960196733474731 0.67960196733474731 0.67960196733474731
0.68577247858047485 0.68577247858047485 0.68577247858047485
0.6977534294128418 0.6977534294128418 0.6977534294128418
0.71637535095214844 0.71637535095214844 0.71637535095214844
0.74177414178848267 0.74177414178848267 0.74177414178848267
0.77365285158157349 0.77365285158157349 0.77365285158157349
0.79592865705490112 0.79592865705490112 0.79592865705490112
0.79551798105239868 0.79551798105239868 0.79551798105239868
0.7972714900970459 0.7972714900970459 0.7972714900970459
0.80374723672866821 0.80374723672866821 0.80374723672866821
0.81648904085159302 0.81648904085159302 0.81648904085159302
0.83557063341140747 0.83557063341140747 0.83557063341140747
0.86118191480636597 0.86118191480636597 0.86118191480636597
0.90751481056213379 0.90751481056213379 0.90751481056213379
0.90553730726242065 0.90553730726242065 0.90553730726242065
0.90415453910827637 0.90415453910827637 0.90415453910827637
0.90696412324905396 0.90696412324905396 0.90696412324905396
0.91567665338516235 0.91567665338516235 0.91567665338516235
0.9304431676864624 0.9304431676864624 0.9304431676864624
0.95071816444396973 0.95071816444396973 0.95071816444396973
0.35275545716285706 0.35275545716285706 0.35275545716285706
0.36395281553268433 0.36395281553268433 0.36395281553268433
0.38679301738739014 0.38679301738739014 0.38679301738739014
0.42052236199378967 0.42052236199378967 0.42052236199378967
0.46311953663825989 0.46311953663825989 0.46311953663825989
0.51619553565979004 0.51619553565979004 0.51619553565979004
0.57354307174682617 0.57354307174682617 0.57354307174682617
0.42670443654060364 0.42670443654060364 0.42670443654060364
0.43645957112312317 0.43645957112312317 0.43645957112312317
0.45681732892990112 0.45681732892990112 0.45681732892990112
0.4864291250705719 0.4864291250705719 0.4864291250705719
0.52498114109039307 0.52498114109039307 0.52498114109039307
0.57157450914382935 0.57157450914382935 0.57157450914382935
0.62067478895187378 0.62067478895187378 0.62067478895187378
0.516895592212677 0.516895592212677 0.516895592212677
0.52441728115081787 0.52441728115081787 0.52441728115081787
0.54059374332427979 0.54059374332427979 0.54059374332427979
0.5649445652961731 0.5649445652961731 0.5649445652961731
0.59705370664596558 0.59705370664596558 0.59705370664596558
0.63575893640518188 0.63575893640518188 0.63575893640518188
0.67772829532623291 0.67772829532623291 0.67772829532623291
0.618510901927948 0.618510901927948 0.618510901927948
0.62389671802520752 0.62389671802520752 0.62389671802520752
0.63543206453323364 0.63543206453323364 0.63543206453323364
0.65342468023300171 0.65342468023300171 0.65342468023300171
0.6786038875579834 0.6786038875579834 0.6786038875579834
0.7096521258354187 0.7096521258354187 0.7096521258354187
0.7449762225151062 0.7449762225151062 0.7449762225151062
0.72764736413955688 0.72764736413955688 0.72764736413955688
0.73049885034561157 0.73049885034561157 0.73049885034561157
0.73680752515792847 0.73680752515792847 0.73680752515792847
0.74864417314529419 0.74864417314529419 0.74864417314529419
0.76687914133071899 0.76687914133071899 0.76687914133071899
0.79131084680557251 0.79131084680557251 0.79131084680557251
0.82032990455627441 0.82032990455627441 0.82032990455627441
0.84013628959655762 0.84013628959655762 0.84013628959655762
0.83915305137634277 0.83915305137634277 0.83915305137634277
0.83989369869232178 0.83989369869232178 0.83989369869232178
0.84624892473220825 0.84624892473220825 0.84624892473220825
0.858867347240448 0.858867347240448 0.858867347240448
0.87773644924163818 0.87773644924163818 0.87773644924163818
0.90159350633621216 0.90159350633621216 0.90159350633621216
0.94786155223846436 0.94786155223846436 0.94786155223846436
0.94188368320465088 0.94188368320465088 0.94188368320465088
0.93870538473129272 0.93870538473129272 0.93870538473129272
0.94146972894668579 0.94146972894668579 0.94146972894668579
0.95019811391830444 0.95019811391830444 0.95019811391830444
0.96489465236663818 0.96489465236663818 0.96489465236663818
0.98412543535232544 0.98412543535232544 0.98412543535232544
