films/kodak_portra_400.cube
# Created by: G'MIC (https://gmic.eu)
TITLE "kodak_portra_400"
# LUT size
LUT_3D_SIZE 13
# Data domain
DOMAIN_MIN 0.0 0.0 0.0
DOMAIN_MAX 1.0 1.0 1.0
# LUT data points
0.028742233291268349 0.029246700927615166 0.029026554897427559
0.075655065476894379 0.031471267342567444 0.026455434039235115
0.15331253409385681 0.029360543936491013 0.024632995948195457
0.26022765040397644 0.016336822882294655 0.021692791953682899
0.38512915372848511 0.012401221320033073 0.016051767393946648
0.51706117391586304 0.013508590869605541 0.012514435686171055
0.64318734407424927 0.01051623746752739 0.0088321911171078682
0.75634884834289551 0.0050454232841730118 0.003135621314868331
0.85154682397842407 0.0019633574411273003 0.00036962173180654645
0.92393851280212402 0.023375971242785454 0
0.9709174633026123 0.085534922778606415 0
0.99345630407333374 0.15577144920825958 0
0.9997522234916687 0.21893461048603058 0.00019466923549771309
0.017158687114715576 0.070787616074085236 0.035858139395713806
0.067514769732952118 0.075305819511413574 0.030160896480083466
0.1517615020275116 0.084086395800113678 0.019918030127882957
0.26046448945999146 0.083663344383239746 0.013514813967049122
0.38742250204086304 0.081048987805843353 0.0085935555398464203
0.52027511596679688 0.080430798232555389 0.0070190578699111938
0.64620614051818848 0.077979609370231628 0.0042648613452911377
0.75797504186630249 0.073608547449111938 0.00090984272537752986
0.85304170846939087 0.076330028474330902 2.2439395252149552e-05
0.92971384525299072 0.11168722808361053 0
0.98303765058517456 0.166852205991745 0
0.9996492862701416 0.22100080549716949 0
1 0.26862224936485291 0
0.0028721378184854984 0.13447357714176178 0.050482910126447678
0.042371697723865509 0.13501653075218201 0.047422431409358978
0.13026328384876251 0.15378490090370178 0.031288161873817444
0.24910937249660492 0.17027434706687927 0.015557203441858292
0.38415360450744629 0.18016229569911957 0.0037797964178025723
0.52002322673797607 0.1848217099905014 0.00097075814846903086
0.64550191164016724 0.18853168189525604 0.00031781665165908635
0.75450998544692993 0.19578787684440613 0
0.84512263536453247 0.2112991064786911 0
0.9237244725227356 0.23637431859970093 0
0.98278123140335083 0.26764556765556335 0
0.99992936849594116 0.29835283756256104 0
1 0.32815071940422058 0
6.4625460254319478e-06 0.2166418582201004 0.06175849586725235
0.018348393961787224 0.21427823603153229 0.065294884145259857
0.092621207237243652 0.22708559036254883 0.055164322257041931
0.21360805630683899 0.25146758556365967 0.03154899924993515
0.36006566882133484 0.27796244621276855 0.0069152833893895149
0.50567638874053955 0.2953205406665802 0
0.63486397266387939 0.30449602007865906 0
0.74226802587509155 0.31361347436904907 0
0.83052569627761841 0.32522857189178467 0.00038000367931090295
0.90895545482635498 0.34140762686729431 0.00045934939407743514
0.97191810607910156 0.36058259010314941 0
0.99881255626678467 0.37769147753715515 0
1 0.39532020688056946 0
0 0.31183895468711853 0.07887585461139679
0.0024711310397833586 0.30443167686462402 0.087348520755767822
0.043868973851203918 0.30409809947013855 0.087747775018215179
0.16048583388328552 0.32663777470588684 0.057377878576517105
0.31398755311965942 0.36021089553833008 0.01718585379421711
0.47231721878051758 0.38960170745849609 0.0018517887219786644
0.61184185743331909 0.40583968162536621 8.6167283370741643e-06
0.71944808959960938 0.41247656941413879 0
0.80954432487487793 0.42070305347442627 8.2651771663222462e-05
0.89077156782150269 0.43234539031982422 9.6848430985119194e-05
0.96019488573074341 0.44612115621566772 0
0.99690991640090942 0.45671495795249939 0
1 0.46783089637756348 0
0 0.41197946667671204 0.1078781858086586
0 0.40071991086006165 0.11457308381795883
0.012621068395674229 0.38941174745559692 0.12147979438304901
0.10731154680252075 0.39984413981437683 0.10233161598443985
0.2594878077507019 0.42947155237197876 0.066875949501991272
0.422311931848526 0.4626254141330719 0.037438277155160904
0.56985557079315186 0.48723658919334412 0.011206040158867836
0.6854398250579834 0.49895957112312317 0.00018901450675912201
0.78305697441101074 0.50813841819763184 0
0.86959582567214966 0.51784008741378784 0
0.94225829839706421 0.52612876892089844 0
0.98977267742156982 0.53159457445144653 0
1 0.53868585824966431 0
0 0.50113356113433838 0.14526446163654327
0 0.49069914221763611 0.14896057546138763
0.0014737746678292751 0.47438982129096985 0.16093677282333374
0.0638856440782547 0.47128036618232727 0.15905663371086121
0.21315516531467438 0.49151265621185303 0.13352656364440918
0.36701381206512451 0.51944124698638916 0.098702646791934967
0.51171350479125977 0.54709792137145996 0.051347441971302032
0.6396680474281311 0.56850153207778931 0.0084279673174023628
0.74862873554229736 0.58255130052566528 0.0005752862780354917
0.842548668384552 0.59315192699432373 9.2899099399801344e-05
0.92097640037536621 0.59967756271362305 1.1668485967675224e-05
0.97869616746902466 0.60174942016601562 0
0.99998599290847778 0.6064150333404541 0
0 0.57810264825820923 0.19093495607376099
0 0.5707327127456665 0.19041399657726288
0.0016810249071568251 0.55703890323638916 0.20002323389053345
0.061742909252643585 0.54597657918930054 0.20641383528709412
0.19214631617069244 0.55181008577346802 0.19505621492862701
0.32942882180213928 0.57230669260025024 0.16775070130825043
0.46353304386138916 0.59908765554428101 0.11985575407743454
0.59360265731811523 0.62482893466949463 0.057311426848173141
0.70890587568283081 0.6426728367805481 0.037305377423763275
0.80946725606918335 0.65522384643554688 0.024484582245349884
0.89528554677963257 0.66291642189025879 0.0038748199585825205
0.96390116214752197 0.66674000024795532 0
0.99918264150619507 0.67147660255432129 0
0 0.64960235357284546 0.24334970116615295
0 0.64503902196884155 0.23806114494800568
0.012949804775416851 0.63574737310409546 0.24353997409343719
0.092267818748950958 0.62132954597473145 0.25305274128913879
0.20424468815326691 0.61665290594100952 0.25391063094139099
0.32211253046989441 0.62965643405914307 0.24122066795825958
0.43891912698745728 0.65084046125411987 0.21498009562492371
0.55791527032852173 0.67332941293716431 0.16826960444450378
0.67127186059951782 0.69274055957794189 0.1356159895658493
0.77423518896102905 0.70735126733779907 0.099959082901477814
0.86729192733764648 0.71844041347503662 0.043905865401029587
0.94797617197036743 0.72706496715545654 0.0036351073067635298
0.99711990356445312 0.734325110912323 0.0012441597646102309
0.0083599016070365906 0.71806025505065918 0.30673140287399292
0.008740818127989769 0.71414870023727417 0.29939502477645874
0.051916744560003281 0.70690625905990601 0.30362004041671753
0.14920635521411896 0.6959378719329834 0.31402111053466797
0.25061339139938354 0.68795263767242432 0.31944844126701355
0.34663629531860352 0.6917230486869812 0.31672376394271851
0.44454404711723328 0.70620274543762207 0.30347371101379395
0.54489833116531372 0.72360879182815552 0.27805021405220032
0.64586484432220459 0.74167478084564209 0.25070226192474365
0.74228841066360474 0.75633186101913452 0.21089541912078857
0.83855122327804565 0.77026349306106567 0.14945867657661438
0.93233352899551392 0.78419739007949829 0.076069340109825134
0.99424481391906738 0.79424041509628296 0.065287739038467407
0.10720053315162659 0.78695863485336304 0.3903692364692688
0.1138562485575676 0.78339570760726929 0.38322243094444275
0.16010680794715881 0.77836304903030396 0.38823384046554565
0.24947471916675568 0.77085405588150024 0.40059682726860046
0.33085620403289795 0.76158535480499268 0.4078819751739502
0.40447711944580078 0.759208083152771 0.40928164124488831
0.483573317527771 0.7691301703453064 0.40640631318092346
0.56353366374969482 0.78284621238708496 0.39327368140220642
0.6432073712348938 0.79728239774703979 0.37327775359153748
0.72437679767608643 0.80974167585372925 0.34501132369041443
0.81465882062911987 0.82338190078735352 0.30135533213615417
0.91150045394897461 0.84009283781051636 0.24976871907711029
0.98683881759643555 0.85187059640884399 0.23076683282852173
0.29687392711639404 0.86006307601928711 0.50089460611343384
0.30980217456817627 0.8554617166519165 0.49363601207733154
0.33994320034980774 0.85247343778610229 0.49896109104156494
0.39467796683311462 0.84856289625167847 0.51316553354263306
0.44954156875610352 0.8416857123374939 0.52271980047225952
0.49961236119270325 0.83719998598098755 0.52670502662658691
0.55619096755981445 0.84242576360702515 0.52986723184585571
0.61361485719680786 0.85137450695037842 0.52394497394561768
0.66983997821807861 0.86109113693237305 0.50780016183853149
0.73098677396774292 0.87176394462585449 0.4891851544380188
0.80809158086776733 0.88402062654495239 0.46248766779899597
0.89304637908935547 0.89788758754730225 0.43360188603401184
0.96681821346282959 0.90933406352996826 0.41630452871322632
0.49172860383987427 0.93164408206939697 0.61702132225036621
0.49516177177429199 0.92741930484771729 0.6107715368270874
0.51112610101699829 0.92518317699432373 0.61544287204742432
0.54555994272232056 0.92493164539337158 0.6307070255279541
0.57861793041229248 0.9207497239112854 0.64176762104034424
0.60620278120040894 0.91549378633499146 0.64622265100479126
0.64324575662612915 0.91722995042800903 0.65439701080322266
0.68214410543441772 0.92235982418060303 0.65362250804901123
0.71910518407821655 0.92790186405181885 0.63870632648468018
0.76374250650405884 0.93577694892883301 0.62520790100097656
0.8226349949836731 0.94584155082702637 0.6108778715133667
0.88819044828414917 0.95740997791290283 0.60025739669799805
0.94959419965744019 0.9677659273147583 0.59393829107284546
0.030935714021325111 0.032576855272054672 0.078023962676525116
0.084299035370349884 0.028184149414300919 0.082340121269226074
0.16600686311721802 0.020391277968883514 0.086153976619243622
0.2710517942905426 0.0090560764074325562 0.086012251675128937
0.39629518985748291 0.0085370531305670738 0.077184714376926422
0.53043651580810547 0.0054755266755819321 0.075172767043113708
0.65817344188690186 0.0026590235065668821 0.067733287811279297
0.77048009634017944 0.0028698041569441557 0.050721652805805206
0.86166203022003174 0.0051251580007374287 0.036927781999111176
0.93321281671524048 0.016142826527357101 0.017909301444888115
0.97833877801895142 0.067352816462516785 0.0080460347235202789
0.99715036153793335 0.14114163815975189 0.0047317505814135075
1 0.20632223784923553 0.0070172031410038471
0.014270662330091 0.086361601948738098 0.084048733115196228
0.075215928256511688 0.084222204983234406 0.087472237646579742
0.16622407734394073 0.082779392600059509 0.082735903561115265
0.27309507131576538 0.073511309921741486 0.077834829688072205
0.39870664477348328 0.065704017877578735 0.069483846426010132
0.53174906969070435 0.057581569999456406 0.064402393996715546
0.65817153453826904 0.051348458975553513 0.054966989904642105
0.76681983470916748 0.05286094918847084 0.039808712899684906
0.85715091228485107 0.070569194853305817 0.024161305278539658
0.93230628967285156 0.098506644368171692 0.015528660267591476
0.983531653881073 0.14921125769615173 0.0060912785120308399
0.99982905387878418 0.20705083012580872 0.000451540487119928
1 0.25735539197921753 0.00031041164766065776
0.001927544130012393 0.16213066875934601 0.10013709217309952
0.051168628036975861 0.15855345129966736 0.1008601039648056
0.14719215035438538 0.16528965532779694 0.08957284688949585
0.26514080166816711 0.17202757298946381 0.073817417025566101
0.39775919914245605 0.17415331304073334 0.053653895854949951
0.53228795528411865 0.17262710630893707 0.036659061908721924
0.65603780746459961 0.17458531260490417 0.026356356218457222
0.76019227504730225 0.18185149133205414 0.015626272186636925
0.8478819727897644 0.20102587342262268 0.0078022526577115059
0.92544448375701904 0.22298595309257507 0.0037580900825560093
0.9830588698387146 0.25597068667411804 0.0010134378680959344
1 0.28885790705680847 3.5050336009589955e-05
1 0.32081016898155212 0
2.8542910513351671e-05 0.24933071434497833 0.11529065668582916
0.02298666350543499 0.24369269609451294 0.11777092516422272
0.10987969487905502 0.2425808310508728 0.11088544130325317
0.23177921772003174 0.26024305820465088 0.088690847158432007
0.37396827340126038 0.28232717514038086 0.054120529443025589
0.51854819059371948 0.29572018980979919 0.017641808837652206
0.64465469121932983 0.30208572745323181 0.011189105920493603
0.74718523025512695 0.30898204445838928 0.0095309987664222717
0.83440321683883667 0.32086020708084106 0.0029034034814685583
0.9118918776512146 0.33559587597846985 2.3696002244832925e-05
0.97338682413101196 0.35511898994445801 0
0.99898487329483032 0.37235909700393677 0
1 0.391358882188797 0
0 0.34224134683609009 0.13142560422420502
0.0028655107598751783 0.33190226554870605 0.13769121468067169
0.057605009526014328 0.32139885425567627 0.13961613178253174
0.1789260059595108 0.33635178208351135 0.1187896728515625
0.32567569613456726 0.36785602569580078 0.079372778534889221
0.48273152112960815 0.39578637480735779 0.032487142831087112
0.61873668432235718 0.40749534964561462 0.013164863921701908
0.72465270757675171 0.41108840703964233 0.0061147953383624554
0.8146367073059082 0.41995623707771301 0.00029238531715236604
0.89463132619857788 0.43115395307540894 0
0.96018314361572266 0.44339731335639954 0
0.99663639068603516 0.45255106687545776 0
1 0.46366295218467712 0
0 0.43438655138015747 0.15223601460456848
0 0.42288154363632202 0.15796574950218201
0.024968778714537621 0.40814435482025146 0.1656794399023056
0.13531306385993958 0.41037961840629578 0.1574103832244873
0.27722489833831787 0.43691280484199524 0.13018737733364105
0.42890721559524536 0.46885231137275696 0.091922417283058167
0.5730975866317749 0.49082747101783752 0.050475999712944031
0.69261723756790161 0.50295364856719971 0.013206526637077332
0.78989440202713013 0.51100456714630127 0.00020841711375396699
0.87465411424636841 0.51836365461349487 0
0.94529753923416138 0.52390533685684204 0
0.99199587106704712 0.52751451730728149 0
1 0.5341225266456604 0
0 0.5190281867980957 0.18306471407413483
0 0.50972497463226318 0.18623486161231995
0.017424969002604485 0.49382844567298889 0.19581405818462372
0.10757744312286377 0.48530846834182739 0.19872552156448364
0.24166762828826904 0.50002449750900269 0.18380759656429291
0.37897586822509766 0.52598530054092407 0.15334002673625946
0.51902395486831665 0.55305790901184082 0.10950688272714615
0.64869290590286255 0.57468956708908081 0.058842498809099197
0.75814777612686157 0.58774405717849731 0.019202064722776413
0.84967058897018433 0.59499835968017578 0.0026126187294721603
0.92644721269607544 0.59728515148162842 9.8733344202628359e-06
0.98457348346710205 0.59665733575820923 0
1 0.60106426477432251 0
0 0.59331667423248291 0.22381220757961273
0 0.58606386184692383 0.22225797176361084
0.011830932460725307 0.57145726680755615 0.22994744777679443
0.094462767243385315 0.55837267637252808 0.2375434935092926
0.21820412576198578 0.56000727415084839 0.23314577341079712
0.34408858418464661 0.57773149013519287 0.21321204304695129
0.47099855542182922 0.60353219509124756 0.1777641773223877
0.5986970067024231 0.62853908538818359 0.13215948641300201
0.71739095449447632 0.64774078130722046 0.091870717704296112
0.81821680068969727 0.6587415337562561 0.050132181495428085
0.90192067623138428 0.66302204132080078 0.0095299519598484039
0.96964216232299805 0.66368967294692993 3.784778164117597e-05
0.99975675344467163 0.66737651824951172 0
0 0.66101747751235962 0.26955056190490723
2.3037779101287015e-05 0.65513330698013306 0.26460856199264526
0.022128190845251083 0.64395982027053833 0.27003023028373718
0.11240391433238983 0.62958735227584839 0.27899381518363953
0.22461614012718201 0.62315511703491211 0.28222650289535522
0.33621922135353088 0.63437163829803467 0.27284455299377441
0.44615593552589417 0.65453863143920898 0.25153526663780212
0.56084245443344116 0.67595309019088745 0.21978183090686798
0.67634123563766479 0.6966133713722229 0.18516260385513306
0.7815396785736084 0.71150189638137817 0.14036402106285095
0.87348848581314087 0.72080039978027344 0.07672940194606781
0.95154374837875366 0.72712856531143188 0.024953894317150116
0.9976961612701416 0.73228883743286133 0.016351049765944481
0.0042016124352812767 0.72578257322311401 0.32468017935752869
0.017809564247727394 0.72136187553405762 0.31954860687255859
0.075681589543819427 0.7134433388710022 0.32447412610054016
0.17139384150505066 0.70269101858139038 0.33354762196540833
0.26933574676513672 0.69400078058242798 0.34020799398422241
0.35810399055480957 0.69598853588104248 0.33915990591049194
0.44900670647621155 0.70834541320800781 0.32865387201309204
0.54596471786499023 0.72536557912826538 0.31018221378326416
0.64660108089447021 0.74381190538406372 0.28506764769554138
0.74574047327041626 0.75917774438858032 0.24816858768463135
0.84298586845397949 0.77275878190994263 0.19714805483818054
0.93410599231719971 0.78531002998352051 0.14523576200008392
0.99381250143051147 0.79317837953567505 0.11782235652208328
0.097391106188297272 0.79132133722305298 0.40046781301498413
0.13588860630989075 0.78786909580230713 0.39704844355583191
0.1938861757516861 0.78324931859970093 0.40296214818954468
0.27219665050506592 0.77619707584381104 0.41369143128395081
0.34772056341171265 0.76752245426177979 0.42226305603981018
0.41357403993606567 0.76352673768997192 0.42459884285926819
0.48280578851699829 0.76949113607406616 0.42027449607849121
0.55945461988449097 0.78226816654205322 0.4103299081325531
0.63936847448348999 0.79743427038192749 0.39219546318054199
0.72396004199981689 0.81101405620574951 0.36870214343070984
0.81637489795684814 0.82485610246658325 0.33510175347328186
0.91096055507659912 0.8397592306137085 0.29362756013870239
0.98383980989456177 0.8494868278503418 0.26059272885322571
0.2932092547416687 0.86197572946548462 0.50733894109725952
0.32792213559150696 0.85767847299575806 0.50197100639343262
0.36205515265464783 0.85491597652435303 0.50753796100616455
0.40778324007987976 0.85111397504806519 0.5192573070526123
0.4566403329372406 0.84404069185256958 0.52936857938766479
0.50220566987991333 0.83874565362930298 0.53411567211151123
0.55120885372161865 0.84142500162124634 0.53471183776855469
0.60576111078262329 0.84963005781173706 0.52892732620239258
0.66340368986129761 0.86043661832809448 0.51495605707168579
0.7316364049911499 0.87253475189208984 0.50258612632751465
0.81001895666122437 0.88493633270263672 0.48110517859458923
0.89255058765411377 0.89683324098587036 0.44860732555389404
0.96626192331314087 0.90584748983383179 0.41858053207397461
0.48905101418495178 0.93209624290466309 0.62177598476409912
0.50730204582214355 0.92952817678451538 0.61991286277770996
0.52293092012405396 0.92696428298950195 0.62201029062271118
0.54770368337631226 0.92466539144515991 0.63192176818847656
0.57570236921310425 0.91987341642379761 0.64208972454071045
0.60347694158554077 0.91530376672744751 0.64866423606872559
0.63621610403060913 0.91569048166275024 0.6539313793182373
0.67348676919937134 0.92051291465759277 0.65306621789932251
0.71564722061157227 0.92798060178756714 0.6466335654258728
0.76645684242248535 0.93777424097061157 0.63928532600402832
0.82531595230102539 0.9475521445274353 0.62568682432174683
0.88909071683883667 0.95754516124725342 0.60826957225799561
0.95123493671417236 0.96612101793289185 0.59182238578796387
0.020891420543193817 0.036255855113267899 0.1632666289806366
0.090028353035449982 0.027530176565051079 0.1750369518995285
0.19214825332164764 0.015783751383423805 0.18858920037746429
0.29037764668464661 0.0060316496528685093 0.18983018398284912
0.40758821368217468 0.0026841405779123306 0.18673242628574371
0.54467499256134033 0.00031672458862885833 0.18959060311317444
0.67336231470108032 2.1541820842685411e-06 0.1783488392829895
0.78217196464538574 0.00010082768130814657 0.16532391309738159
0.86765927076339722 0.0016480539925396442 0.15617161989212036
0.93586963415145874 0.010790013708174229 0.13722918927669525
0.98010838031768799 0.055892135947942734 0.12041359394788742
0.9983985424041748 0.13350005447864532 0.11129680275917053
1 0.20381036400794983 0.098788276314735413
0.010388153605163097 0.092631638050079346 0.16276799142360687
0.075821295380592346 0.090107664465904236 0.17295055091381073
0.18475775420665741 0.082032158970832825 0.18442314863204956
0.2945895791053772 0.0680580735206604 0.18662174046039581
0.41181746125221252 0.048708267509937286 0.18188335001468658
0.54565286636352539 0.030689150094985962 0.18016187846660614
0.67107987403869629 0.018933314830064774 0.1722845584154129
0.77634710073471069 0.020268324762582779 0.15897153317928314
0.86119133234024048 0.040157917886972427 0.14764879643917084
0.93179744482040405 0.076791055500507355 0.13407415151596069
0.98111546039581299 0.13779076933860779 0.11233930289745331
0.99938952922821045 0.19910487532615662 0.092940203845500946
1 0.24915756285190582 0.083410002291202545
0.00091883342247456312 0.17925943434238434 0.17827156186103821
0.045633863657712936 0.18220873177051544 0.18023273348808289
0.16489030420780182 0.1776263564825058 0.18327467143535614
0.28682950139045715 0.17897103726863861 0.18021225929260254
0.41534885764122009 0.16835948824882507 0.17177575826644897
0.54874241352081299 0.15500210225582123 0.15862974524497986
0.66871678829193115 0.15251249074935913 0.14825133979320526
0.7684091329574585 0.15884312987327576 0.13827642798423767
0.85126477479934692 0.18195608258247375 0.12636470794677734
0.9249681830406189 0.20890745520591736 0.10806792229413986
0.98070520162582397 0.24997031688690186 0.092736050486564636
0.99964439868927002 0.28387272357940674 0.077789545059204102
1 0.31494209170341492 0.066843591630458832
0 0.28892612457275391 0.20276392996311188
0.018532007932662964 0.28490683436393738 0.20199783146381378
0.13505931198596954 0.27088829874992371 0.19751963019371033
0.2639579176902771 0.280040442943573 0.18722045421600342
0.39997857809066772 0.2913716733455658 0.16636784374713898
0.53938311338424683 0.29444125294685364 0.13805645704269409
0.65869474411010742 0.3001190721988678 0.12337453663349152
0.75643891096115112 0.30672749876976013 0.11651106923818588
0.83868616819381714 0.31690514087677002 0.10064683854579926
0.91267496347427368 0.32996845245361328 0.079624667763710022
0.97224533557891846 0.34956032037734985 0.071690671145915985
0.99863845109939575 0.36727219820022583 0.058417391031980515
1 0.38754162192344666 0.047830723226070404
0 0.38945126533508301 0.22138078510761261
0.0076231416314840317 0.38124850392341614 0.22056488692760468
0.10167161375284195 0.36201417446136475 0.21886676549911499
0.22180208563804626 0.36073514819145203 0.21229992806911469
0.34983372688293457 0.38157683610916138 0.1871151328086853
0.49976274371147156 0.39966288208961487 0.14788974821567535
0.63064289093017578 0.40865984559059143 0.11745590716600418
0.73398786783218384 0.41365191340446472 0.090653374791145325
0.81950551271438599 0.4176657497882843 0.060476236045360565
0.89534348249435425 0.42792418599128723 0.044026020914316177
0.95930773019790649 0.44023892283439636 0.037258267402648926
0.99699097871780396 0.44952508807182312 0.033108655363321304
1 0.46002840995788574 0.038748275488615036
0 0.47346341609954834 0.23301495611667633
0.00093192304484546185 0.46411556005477905 0.23398539423942566
0.060453467071056366 0.44692853093147278 0.23523080348968506
0.18590442836284637 0.43265450000762939 0.23811499774456024
0.30457222461700439 0.44897317886352539 0.22332020103931427
0.44256162643432617 0.4772551953792572 0.191155806183815
0.58396381139755249 0.49729704856872559 0.14922915399074554
0.70409798622131348 0.50889575481414795 0.09756673127412796
0.79628801345825195 0.51233386993408203 0.043123763054609299
0.8764728307723999 0.5170600414276123 0.022208210080862045
0.94652724266052246 0.52158397436141968 0.022170348092913628
0.99219369888305664 0.52469325065612793 0.018261255696415901
1 0.53185713291168213 0.013591078110039234
0 0.54751753807067871 0.25386208295822144
0.00053088617278262973 0.53944665193557739 0.25550544261932373
0.044382520020008087 0.52312731742858887 0.25785589218139648
