films/kodak_ektar_100.cube
TITLE "data/luts/rawtherapee/HaldCLUT/Color/Kodak/Kodak Ektar 100.png"
LUT_3D_SIZE 8
DOMAIN_MIN 0 0 0
DOMAIN_MAX 1 1 1
0.000000 0.000000 0.000000
0.162465 0.000000 0.000000
0.293557 0.007843 0.000000
0.440336 0.019608 0.000000
0.644818 0.043137 0.000000
0.792717 0.066667 0.000000
0.939496 0.088515 0.000000
1.000000 0.105882 0.000000
0.040896 0.119328 0.029132
0.127171 0.125490 0.023529
0.258263 0.133333 0.023529
0.411685 0.142857 0.018968
0.618487 0.154622 0.011765
0.777031 0.150700 0.007843
0.935574 0.137975 0.000000
1.000000 0.105882 0.000000
0.078431 0.227451 0.089636
0.133333 0.231373 0.086275
0.238655 0.238655 0.085714
0.398319 0.250420 0.078271
0.597919 0.262185 0.066267
0.745738 0.262185 0.054902
0.904202 0.250660 0.039216
1.000000 0.219048 0.022969
0.018487 0.365826 0.137255
0.035374 0.366947 0.133333
0.190476 0.373669 0.130532
0.386234 0.385434 0.122689
0.563585 0.389356 0.113725
0.713165 0.389356 0.105882
0.864986 0.381513 0.090196
1.000000 0.357983 0.070588
0.000000 0.505882 0.164706
0.000000 0.508683 0.163585
0.139896 0.516527 0.159664
0.361905 0.528611 0.149020
0.512605 0.539256 0.141176
0.656583 0.545098 0.133333
0.798319 0.547899 0.122769
0.926611 0.540056 0.109804
0.000000 0.631373 0.200000
0.000560 0.631933 0.196078
0.187675 0.639776 0.192157
0.342297 0.647619 0.184874
0.484594 0.655462 0.176471
0.628011 0.663305 0.164706
0.755182 0.667227 0.147099
0.882353 0.663305 0.129412
0.067227 0.739496 0.243137
0.108844 0.740216 0.243137
0.211204 0.744858 0.239216
0.346218 0.751261 0.235294
0.481232 0.759104 0.227451
0.607843 0.768627 0.215686
0.719888 0.774790 0.202241
0.858824 0.782633 0.172549
0.070588 0.870588 0.290196
0.109804 0.870588 0.290196
0.211765 0.874510 0.286275
0.338375 0.882353 0.282353
0.453782 0.889076 0.278431
0.557423 0.894118 0.270588
0.668908 0.901961 0.254902
0.854902 0.913725 0.215686
0.000000 0.000000 0.103641
0.178151 0.003922 0.095798
0.313165 0.007843 0.091877
0.459944 0.019608 0.084034
0.665546 0.043137 0.072269
0.816246 0.066667 0.058824
0.963025 0.086275 0.044818
1.000000 0.105882 0.025210
0.050980 0.127171 0.138936
0.135014 0.135014 0.135014
0.267250 0.142857 0.131092
0.421849 0.150700 0.124210
0.632367 0.162465 0.111759
0.788796 0.158543 0.100543
0.947339 0.146230 0.085543
1.000000 0.105882 0.064426
0.082353 0.234734 0.166387
0.136157 0.238655 0.164706
0.246499 0.246499 0.160784
0.407592 0.254902 0.153970
0.606723 0.266667 0.142617
0.757423 0.266667 0.132739
0.912468 0.258263 0.119088
1.000000 0.222969 0.099720
0.010644 0.370228 0.192157
0.029132 0.373669 0.189916
0.194398 0.379740 0.186086
0.392820 0.389493 0.178151
0.570308 0.397199 0.168765
0.718207 0.395598 0.160784
0.871709 0.387755 0.149020
1.000000 0.361905 0.133814
0.000000 0.508683 0.221289
0.000000 0.512605 0.220808
0.154393 0.520448 0.215137
0.370411 0.532213 0.205602
0.517647 0.540399 0.197759
0.663305 0.547899 0.185994
0.806162 0.551821 0.172698
0.934454 0.543978 0.156222
0.000000 0.631933 0.254902
0.001361 0.635854 0.252844
0.199440 0.639776 0.249060
0.354062 0.647619 0.243377
0.492677 0.655462 0.236975
0.635500 0.666667 0.225530
0.762842 0.671148 0.213445
0.890196 0.667227 0.192397
0.087555 0.739496 0.301000
0.123798 0.741176 0.299720
0.229852 0.745098 0.299000
0.357983 0.751741 0.295078
0.489076 0.760784 0.288321
0.616246 0.770868 0.280112
0.727731 0.776471 0.268347
0.868347 0.782633 0.243137
0.098039 0.874510 0.354622
0.129412 0.874510 0.354622
0.232813 0.878431 0.352941
0.351341 0.882353 0.350700
0.465546 0.890196 0.346779
0.568868 0.898039 0.338936
0.676751 0.905882 0.327171
0.866667 0.917647 0.291877
0.000000 0.003922 0.203922
0.185994 0.007843 0.196078
0.321008 0.011765 0.191597
0.475630 0.019608 0.184314
0.681232 0.043137 0.171989
0.831933 0.066667 0.160784
0.978711 0.086275 0.148459
1.000000 0.105882 0.128852
0.060504 0.137255 0.231373
0.142857 0.142857 0.228274
0.274270 0.150700 0.223529
0.432493 0.161265 0.219048
0.643617 0.172229 0.207283
0.800560 0.168627 0.195758
0.959104 0.154622 0.183754
1.000000 0.111485 0.168067
0.086275 0.242577 0.258263
0.139256 0.246499 0.257783
0.254342 0.254342 0.253930
0.416944 0.263705 0.246499
0.618487 0.274510 0.235214
0.769188 0.277391 0.226891
0.923810 0.266347 0.215126
1.000000 0.234734 0.199440
0.000000 0.381513 0.287235
0.024090 0.383662 0.285874
0.202241 0.389356 0.283313
0.401921 0.401120 0.275470
0.578151 0.408849 0.267627
0.728852 0.405042 0.258423
0.883473 0.397199 0.248019
1.000000 0.369748 0.234734
0.000000 0.512605 0.321409
0.000000 0.516527 0.321008
0.175693 0.524370 0.317087
0.385434 0.536455 0.309644
0.532213 0.547785 0.305322
0.678649 0.555742 0.297479
0.817927 0.556863 0.285714
0.949020 0.547899 0.270028
0.000000 0.635854 0.368067
0.057223 0.639776 0.368067
0.226891 0.643697 0.364706
0.373109 0.651541 0.362842
0.508683 0.659384 0.356863
0.651541 0.670588 0.352381
0.778666 0.675070 0.341176
0.909244 0.671148 0.324930
0.123810 0.743417 0.423289
0.163563 0.743417 0.422969
0.264632 0.747339 0.422969
0.382885 0.755182 0.419048
0.512605 0.763025 0.415126
0.635809 0.772549 0.410999
0.745921 0.778711 0.402538
0.890196 0.786555 0.383754
0.133333 0.878431 0.458263
0.166146 0.878431 0.458263
0.262185 0.882353 0.454902
0.372549 0.887395 0.454342
0.481232 0.894118 0.450420
0.584314 0.901961 0.446499
0.692437 0.909804 0.438655
0.885714 0.921569 0.415126
0.003922 0.003922 0.299160
0.193838 0.011765 0.295238
0.328852 0.019608 0.291317
0.484594 0.023529 0.283473
0.697719 0.043137 0.274510
0.847619 0.066667 0.263866
0.994878 0.086275 0.254902
1.000000 0.105882 0.239216
0.067147 0.146779 0.335654
0.149020 0.154622 0.334454
0.281793 0.162465 0.330532
0.441457 0.171406 0.326611
0.654239 0.183856 0.316046
0.812325 0.178700 0.308032
0.974790 0.165426 0.298794
1.000000 0.123249 0.283473
0.094118 0.250420 0.373109
0.142949 0.254342 0.373109
0.262185 0.262185 0.369748
0.428892 0.273950 0.365826
0.630252 0.285714 0.357983
0.780975 0.285714 0.350963
0.939496 0.277871 0.342297
1.000000 0.242577 0.329972
0.000000 0.393277 0.420728
0.045161 0.393597 0.418727
0.210358 0.401120 0.417927
0.413114 0.412885 0.412885
0.591036 0.420728 0.408964
0.741737 0.418727 0.401441
0.896359 0.408964 0.393940
1.000000 0.381513 0.382633
0.000000 0.520448 0.466667
0.000000 0.521912 0.463866
0.205648 0.532213 0.463545
0.405042 0.543978 0.457452
0.551821 0.551821 0.452101
0.695798 0.559710 0.448179
0.837535 0.563585 0.440336
0.968627 0.555742 0.430572
0.001681 0.639776 0.499560
0.101389 0.643697 0.499160
0.254342 0.651118 0.498039
0.393277 0.658824 0.494278
0.528005 0.667227 0.490356
0.667227 0.675070 0.483816
0.794398 0.678992 0.478591
0.928852 0.678992 0.467787
0.149660 0.745098 0.530052
0.198525 0.747339 0.529412
0.289727 0.751261 0.526611
0.402904 0.759104 0.525948
0.528291 0.766947 0.522209
0.651541 0.775442 0.516447
0.762111 0.782633 0.510924
0.909804 0.790476 0.498679
0.145098 0.882353 0.550140
0.192637 0.886275 0.550140
0.281793 0.890196 0.550140
0.388235 0.894118 0.546218
0.492997 0.901961 0.545098
0.596078 0.909804 0.541176
0.704202 0.917647 0.534454
0.901961 0.929412 0.514846
0.003922 0.011765 0.426331
0.201681 0.023529 0.422409
0.340616 0.031373 0.422409
0.496359 0.039216 0.418487
0.716206 0.050980 0.413445
0.867227 0.063305 0.406723
1.000000 0.086275 0.398880
1.000000 0.105882 0.385994
0.076190 0.158543 0.477311
0.158543 0.166387 0.477311
0.293557 0.174230 0.477311
0.453221 0.185651 0.473389
0.669468 0.197759 0.465546
0.828011 0.193838 0.459212
0.990476 0.179112 0.451541
1.000000 0.138455 0.442017
0.101401 0.262185 0.516126
0.143177 0.266106 0.513565
0.270028 0.273950 0.512605
0.440336 0.285714 0.508683
0.642303 0.297479 0.500840
0.796639 0.298016 0.493958
0.955182 0.290105 0.488675
1.000000 0.258263 0.478271
0.000000 0.405042 0.545898
0.052661 0.408964 0.545098
0.210084 0.415961 0.543978
0.417607 0.428571 0.537026
0.597759 0.436415 0.532213
0.749580 0.436415 0.525490
0.907003 0.424993 0.520448
1.000000 0.396399 0.512605
0.000000 0.527491 0.575350
0.000000 0.528634 0.572549
0.210644 0.538970 0.570628
0.416807 0.551821 0.564386
0.559664 0.559664 0.559893
0.706557 0.568353 0.555742
0.849300 0.572229 0.548699
0.980392 0.564386 0.540856
0.017367 0.647619 0.600000
0.119888 0.650980 0.598880
0.266106 0.655462 0.596479
0.404996 0.663305 0.594958
0.538535 0.672863 0.591036
0.678992 0.682913 0.587115
0.806162 0.686835 0.579432
0.941176 0.686835 0.571589
0.178071 0.749020 0.629052
0.221483 0.751261 0.628366
0.308832 0.755182 0.626331
0.419905 0.763025 0.625130
0.543978 0.770868 0.622409
0.666838 0.780392 0.618487
0.776196 0.786555 0.613880
0.929412 0.794398 0.602801
0.175350 0.890196 0.650980
0.216887 0.894118 0.650980
0.298039 0.898039 0.649860
0.401120 0.901961 0.649860
0.507883 0.909804 0.645938
0.607843 0.917647 0.643137
0.715966 0.925490 0.639216
0.924370 0.941176 0.623529
0.011765 0.024090 0.557423
0.201681 0.039216 0.553501
0.344538 0.047619 0.549580
0.503081 0.058824 0.545658
0.724370 0.070588 0.537815
0.886835 0.063786 0.529972
1.000000 0.086275 0.525490
1.000000 0.105882 0.514286
0.076190 0.172789 0.590236
0.156863 0.180495 0.588796
0.289636 0.189916 0.584874
0.454822 0.201681 0.580952
0.673389 0.213766 0.573109
0.835854 0.212005 0.568627
0.994398 0.197759 0.561345
1.000000 0.158543 0.553501
0.098039 0.277871 0.619128
0.136935 0.281793 0.616246
0.262745 0.289636 0.615686
0.437535 0.301401 0.611285
0.646339 0.313222 0.603441
0.801189 0.314206 0.596639
0.963025 0.309244 0.592363
1.000000 0.277871 0.584874
0.000000 0.419768 0.647619
0.046967 0.420728 0.647219
0.195495 0.428571 0.643697
0.413960 0.444258 0.639776
0.598880 0.452101 0.632893
0.753501 0.456022 0.628011
0.910924 0.446807 0.623861
1.000000 0.413045 0.616246
0.000000 0.536134 0.675070
0.000000 0.537255 0.675070
0.205259 0.547899 0.673549
0.420728 0.559664 0.667227
0.567507 0.569028 0.663305
0.718207 0.579272 0.659384
0.858263 0.583193 0.655302
0.992157 0.575350 0.647619
0.028571 0.651541 0.702521
0.127171 0.655462 0.702521
0.273469 0.663305 0.699080
0.412885 0.671148 0.698119
0.547899 0.678992 0.694678
0.690756 0.690756 0.690688
0.817927 0.694678 0.686355
0.956863 0.694678 0.678992
0.194398 0.752941 0.729412
0.237535 0.755182 0.727971
0.321329 0.759104 0.726050
0.432013 0.766947 0.725490
0.555742 0.774790 0.722129
0.678992 0.784359 0.718207
0.790476 0.792157 0.714286
0.949020 0.802241 0.706443
0.184314 0.901961 0.745658
0.227451 0.901961 0.745658
0.309244 0.905882 0.745658
0.408964 0.913725 0.745098
0.513725 0.921569 0.741737
0.615766 0.929412 0.737815
0.727731 0.937255 0.733894
0.941737 0.952941 0.722129
0.011765 0.047059 0.658824
0.189916 0.058824 0.654902
0.336695 0.070588 0.653221
0.499160 0.082353 0.649300
0.724370 0.098039 0.641457
0.890756 0.092437 0.633613
1.000000 0.086275 0.629692
1.000000 0.105882 0.621849
0.070588 0.189916 0.693157
0.148471 0.197759 0.692437
0.280832 0.208804 0.688618
0.448820 0.220774 0.684594
0.676190 0.235294 0.676751
0.836174 0.234334 0.672829
0.998319 0.221289 0.665706
1.000000 0.181353 0.661064
0.067227 0.296038 0.721329
0.110982 0.301401 0.719888
0.246704 0.309244 0.719568
0.427199 0.321008 0.713725
0.645938 0.333093 0.707803
0.804482 0.336695 0.701721
0.966947 0.328852 0.696359
1.000000 0.299960 0.690196
0.000000 0.432493 0.749020
0.025210 0.436415 0.747819
0.167976 0.444258 0.745738
0.402241 0.459944 0.739976
0.594958 0.471709 0.733974
0.752541 0.475630 0.729412
0.912045 0.471709 0.724015
1.000000 0.440336 0.719888
0.000000 0.543978 0.772549
0.000000 0.547899 0.772069
0.175819 0.555742 0.768856
0.413365 0.571429 0.763025
0.567507 0.580392 0.759104
0.719328 0.591036 0.755182
0.864986 0.594958 0.750620
1.000000 0.591036 0.744618
0.001120 0.659384 0.794398
0.090916 0.663305 0.792157
0.260058 0.671148 0.788555
0.408964 0.678992 0.786555
0.547899 0.690196 0.782633
0.694678 0.698599 0.778711
0.825210 0.706443 0.774790
0.964706 0.706443 0.768627
0.186555 0.759104 0.811765
0.231784 0.759104 0.811765
0.319568 0.764706 0.810084
0.432493 0.770868 0.807843
0.559664 0.780392 0.806162
0.686275 0.790476 0.802241
0.798319 0.798319 0.798319
0.962065 0.807843 0.791437
0.172549 0.909804 0.829692
0.212485 0.913725 0.829692
0.299480 0.917647 0.829692
0.405042 0.922209 0.827451
0.513725 0.931653 0.825770
0.616246 0.941176 0.823529
0.731653 0.949020 0.821849
0.960784 0.968627 0.810084
0.015686 0.078431 0.760784
0.166387 0.090196 0.756863
0.321008 0.098039 0.752941
0.487395 0.113725 0.749020
0.720448 0.125490 0.741176
0.887395 0.121569 0.737255
1.000000 0.105882 0.729412
1.000000 0.101961 0.725490
0.031373 0.211765 0.792157
0.114686 0.219608 0.788235
0.254342 0.231373 0.784314
0.431293 0.244818 0.780392
0.667147 0.260504 0.772549
0.834414 0.262745 0.768307
0.998319 0.252661 0.760784
1.000000 0.213445 0.756863
0.026891 0.321008 0.811765
0.051541 0.328852 0.811765
0.202881 0.336695 0.807843
0.398319 0.348459 0.803922
0.634174 0.360784 0.796078
0.796719 0.364146 0.791597
0.963585 0.356303 0.784314
1.000000 0.328852 0.780392
0.000000 0.448179 0.835294
0.000000 0.452101 0.832493
0.115966 0.462345 0.831373
0.366947 0.476431 0.823529
0.583193 0.491317 0.819608
0.742137 0.499160 0.811765
0.904202 0.500360 0.807843
1.000000 0.475630 0.803922
0.000000 0.555742 0.854902
0.000000 0.559664 0.854902
0.113005 0.567507 0.850980
0.386555 0.584314 0.847059
0.555742 0.596078 0.842017
0.714286 0.606723 0.838095
0.862185 0.611765 0.834174
1.000000 0.606723 0.827451
0.000000 0.667227 0.878431
0.010644 0.671148 0.878431
0.211204 0.678992 0.874510
0.389356 0.690196 0.871148
0.536134 0.698599 0.870588
0.690756 0.710364 0.866667
0.825770 0.718207 0.866667
0.972549 0.722129 0.862745
0.127731 0.763025 0.913725
0.192157 0.766947 0.913725
0.297479 0.770868 0.913725
0.419048 0.778711 0.913725
0.555742 0.788235 0.912045
0.686835 0.798319 0.912045
0.806162 0.807123 0.913725
0.976471 0.817927 0.909804
0.121569 0.921569 0.968627
0.162465 0.925490 0.968627
0.270028 0.929412 0.968627
0.393277 0.937255 0.972549
0.509804 0.945098 0.976471
0.620168 0.956863 0.980392
0.735574 0.968627 0.986555
1.000000 0.992157 0.992157
