films/kodak_portra_400_vc.cube
# Created by: G'MIC (https://gmic.eu)
TITLE "kodak_portra_400_vc"
# LUT size
LUT_3D_SIZE 5
# Data domain
DOMAIN_MIN 0.0 0.0 0.0
DOMAIN_MAX 1.0 1.0 1.0
# LUT data points
0.026607124134898186 0.047914661467075348 0.055304672569036484
0.22364011406898499 0.069195270538330078 0.045687627047300339
0.56789875030517578 0.064251422882080078 0.0065397224389016628
0.83006703853607178 0.11064571142196655 0
0.98701000213623047 0.20135004818439484 0
0 0.23708702623844147 0.10352923721075058
0.1868303120136261 0.27784407138824463 0.068466544151306152
0.64338076114654541 0.30944722890853882 0.0009250865550711751
0.86366754770278931 0.29349479079246521 0
0.99744147062301636 0.32838869094848633 0
0.0023611180949956179 0.54003894329071045 0.22120034694671631
0.075713589787483215 0.54163211584091187 0.21793483197689056
0.52955305576324463 0.58787482976913452 0.12122754752635956
0.85137641429901123 0.58379507064819336 0.00029772589914500713
0.99769830703735352 0.52139222621917725 0
0.23795019090175629 0.73656749725341797 0.40017485618591309
0.30748572945594788 0.73211467266082764 0.39672437310218811
0.49660062789916992 0.74671542644500732 0.38565254211425781
0.73592549562454224 0.77775144577026367 0.33247774839401245
0.97387748956680298 0.78344178199768066 0.19537380337715149
0.6107979416847229 0.9084811806678772 0.68027216196060181
0.63182282447814941 0.90483850240707397 0.68242043256759644
0.68950998783111572 0.90861815214157104 0.69541436433792114
0.77585905790328979 0.92252075672149658 0.68069618940353394
0.91550946235656738 0.94483578205108643 0.65692269802093506
0.00029301363974809647 0.064573325216770172 0.26724812388420105
0.22668050229549408 0.066392920911312103 0.26824617385864258
0.59446126222610474 0.0085243824869394302 0.23464661836624146
0.8372567892074585 0.053135532885789871 0.19327886402606964
0.99239182472229004 0.20094376802444458 0.17206287384033203
0.00033210305264219642 0.2981504499912262 0.30643516778945923
0.27107572555541992 0.3099113404750824 0.31715264916419983
0.63727116584777832 0.30148494243621826 0.27540650963783264
0.84153389930725098 0.3016413152217865 0.22612012922763824
0.99560689926147461 0.33190369606018066 0.16641788184642792
0.14191414415836334 0.58032852411270142 0.39150333404541016
0.29980301856994629 0.57032930850982666 0.3856794536113739
0.56994724273681641 0.59169816970825195 0.35292315483093262
0.85285830497741699 0.57243365049362183 0.26113730669021606
0.9968796968460083 0.52655750513076782 0.17173133790493011
0.35082557797431946 0.75347256660461426 0.48931321501731873
0.41549685597419739 0.74447822570800781 0.49833792448043823
0.5419231653213501 0.74971973896026611 0.49449315667152405
0.74957913160324097 0.78116226196289062 0.46380564570426941
0.97367167472839355 0.7825005054473877 0.38239145278930664
0.62930178642272949 0.91037088632583618 0.70701855421066284
0.6497732400894165 0.90857374668121338 0.71033447980880737
0.6998254656791687 0.90855318307876587 0.71918988227844238
0.78734976053237915 0.9227033257484436 0.71524292230606079
0.9194800853729248 0.94506180286407471 0.69217342138290405
0 0.11605183035135269 0.56780719757080078
0.19479532539844513 0.12656056880950928 0.58604919910430908
0.61876988410949707 0.1166740283370018 0.59026384353637695
0.85659134387969971 0.1677585244178772 0.52485746145248413
0.99746447801589966 0.16601859033107758 0.44915801286697388
0 0.34509968757629395 0.59617316722869873
0.27497744560241699 0.34539246559143066 0.60429245233535767
0.63418257236480713 0.37120223045349121 0.60313135385513306
0.84829127788543701 0.37479361891746521 0.54346811771392822
0.99511468410491943 0.36548903584480286 0.47018581628799438
0.19368648529052734 0.6077386736869812 0.6048961877822876
0.40568014979362488 0.61279386281967163 0.61030369997024536
0.62634509801864624 0.60984188318252563 0.61248058080673218
0.82602524757385254 0.58096486330032349 0.56161797046661377
0.98393571376800537 0.55809265375137329 0.49657490849494934
0.52137207984924316 0.77758020162582397 0.66298437118530273
0.5721861720085144 0.77400094270706177 0.66821640729904175
0.63871806859970093 0.76519477367401123 0.65664958953857422
0.77409356832504272 0.78020989894866943 0.64295101165771484
0.97631418704986572 0.77445101737976074 0.58239912986755371
0.67977094650268555 0.91241586208343506 0.77133625745773315
0.69427335262298584 0.91242814064025879 0.77035689353942871
0.72729361057281494 0.91181468963623047 0.7693677544593811
0.79998695850372314 0.91964495182037354 0.77066928148269653
0.92599833011627197 0.94212281703948975 0.757976233959198
0.0005299736512824893 0.22139602899551392 0.79201483726501465
0.25233811140060425 0.23159819841384888 0.79731875658035278
0.5926361083984375 0.28375434875488281 0.79884201288223267
0.82832068204879761 0.34584954380989075 0.79235398769378662
0.98571586608886719 0.42140090465545654 0.75524842739105225
0.10114439576864243 0.39229747653007507 0.79793179035186768
0.31755891442298889 0.39443957805633545 0.79725146293640137
0.61075472831726074 0.43641954660415649 0.79725128412246704
0.82231360673904419 0.48246902227401733 0.79209131002426147
0.97609442472457886 0.5340653657913208 0.76297497749328613
0.1998734325170517 0.59987819194793701 0.7775077223777771
0.39492437243461609 0.60577398538589478 0.77949172258377075
0.61520075798034668 0.61654043197631836 0.78884780406951904
0.80857402086257935 0.64990097284317017 0.79399162530899048
0.96302920579910278 0.66459047794342041 0.77263081073760986
0.4797205924987793 0.78747749328613281 0.78883558511734009
0.54361444711685181 0.78697949647903442 0.79261690378189087
0.66379743814468384 0.78513288497924805 0.7953721284866333
0.80628973245620728 0.79015141725540161 0.80068665742874146
0.96045565605163574 0.76842844486236572 0.76500290632247925
0.7073289155960083 0.9318423867225647 0.84881442785263062
0.73412555456161499 0.93211507797241211 0.85368603467941284
0.78487426042556763 0.93174821138381958 0.8567238450050354
0.83529019355773926 0.92946320772171021 0.84801393747329712
0.95156008005142212 0.95232170820236206 0.84969562292098999
0.41356769204139709 0.46293208003044128 0.94776064157485962
0.51044034957885742 0.47675564885139465 0.94669902324676514
0.66488653421401978 0.51610380411148071 0.94214522838592529
0.82934683561325073 0.5784374475479126 0.93586599826812744
0.97475564479827881 0.62223261594772339 0.9344409704208374
0.45322334766387939 0.54334896802902222 0.9430156946182251
0.53641617298126221 0.55788540840148926 0.94420605897903442
0.67556822299957275 0.58554357290267944 0.93948912620544434
0.83038246631622314 0.63281810283660889 0.9359734058380127
0.97241264581680298 0.66059368848800659 0.93010431528091431
0.50880908966064453 0.68341648578643799 0.93638968467712402
0.5684354305267334 0.68200170993804932 0.9377056360244751
0.67713576555252075 0.68382537364959717 0.93679392337799072
0.83055907487869263 0.71800690889358521 0.93556225299835205
0.96910291910171509 0.73502582311630249 0.93395006656646729
0.51588791608810425 0.8092314600944519 0.92968183755874634
0.56145262718200684 0.81112056970596313 0.93650168180465698
0.65800899267196655 0.80827009677886963 0.93710261583328247
0.81711125373840332 0.80806654691696167 0.94191199541091919
0.96114319562911987 0.83461952209472656 0.94323647022247314
0.67743450403213501 0.95429307222366333 0.95039945840835571
0.69729006290435791 0.95429617166519165 0.95453417301177979
0.76317483186721802 0.95719635486602783 0.9555324912071228
0.85320878028869629 0.95594477653503418 0.95877164602279663
0.96768903732299805 0.96069729328155518 0.96376019716262817
