films/kodak_e-100_gx_ektachrome_100.cube
# Created by: G'MIC (https://gmic.eu)
TITLE "kodak_e-100_gx_ektachrome_100"
# LUT size
LUT_3D_SIZE 7
# Data domain
DOMAIN_MIN 0.0 0.0 0.0
DOMAIN_MAX 1.0 1.0 1.0
# LUT data points
0.027640115469694138 0.028534892946481705 0.026623399928212166
0.12970873713493347 0.020057423040270805 0.020076466724276543
0.26465550065040588 0.014188430272042751 0.011127067729830742
0.41200560331344604 0.0048875696957111359 0.0027317123021930456
0.55924063920974731 0 0.00034879797021858394
0.70687657594680786 0 0
0.84107178449630737 0.0052296207286417484 0.00046810074127279222
0.11285480856895447 0.16677047312259674 0.079130582511425018
0.18506161868572235 0.15578125417232513 0.071435622870922089
0.31009343266487122 0.13630224764347076 0.059154108166694641
0.45044165849685669 0.10293667018413544 0.043692316859960556
0.58709394931793213 0.050529211759567261 0.028893310576677322
0.72034788131713867 0.016941159963607788 0.013124428689479828
0.83993148803710938 0.0087175853550434113 0.0053183012641966343
0.18948100507259369 0.3378976583480835 0.14604078233242035
0.25022238492965698 0.33062905073165894 0.14026680588722229
0.37188524007797241 0.31291690468788147 0.12637786567211151
0.50614649057388306 0.28243684768676758 0.11308623850345612
0.6388583779335022 0.23147481679916382 0.095458164811134338
0.75776416063308716 0.14844639599323273 0.069048531353473663
0.85751384496688843 0.057954870164394379 0.044715985655784607
0.28924119472503662 0.51683306694030762 0.21777856349945068
0.3406880795955658 0.51386433839797974 0.2147660106420517
0.44308954477310181 0.50513595342636108 0.20510353147983551
0.57012492418289185 0.4871576726436615 0.19315795600414276
0.70025742053985596 0.45852220058441162 0.17477287352085114
0.82056534290313721 0.3956972062587738 0.15353810787200928
0.91400432586669922 0.2819274365901947 0.12355286628007889
0.4073144793510437 0.68554943799972534 0.30483373999595642
0.45116707682609558 0.68564939498901367 0.30018633604049683
0.534210205078125 0.6800990104675293 0.29462873935699463
0.64114171266555786 0.66977483034133911 0.28422790765762329
0.75596737861633301 0.65757238864898682 0.2696954607963562
0.8772284984588623 0.63091260194778442 0.25149652361869812
0.97789096832275391 0.56960141658782959 0.23128889501094818
0.55009520053863525 0.83896136283874512 0.40400061011314392
0.58110487461090088 0.83956313133239746 0.39962095022201538
0.64145314693450928 0.83577090501785278 0.39800319075584412
0.72054260969161987 0.83197945356369019 0.39029359817504883
0.81184309720993042 0.82712143659591675 0.37951138615608215
0.91715532541275024 0.81259256601333618 0.36557304859161377
0.99527847766876221 0.77791798114776611 0.35375341773033142
0.70105129480361938 0.97151565551757812 0.51000040769577026
0.71764612197875977 0.97170472145080566 0.50284254550933838
0.75496143102645874 0.9710349440574646 0.50400048494338989
0.81105214357376099 0.97054660320281982 0.49759411811828613
0.88228291273117065 0.96879017353057861 0.48315644264221191
0.96124505996704102 0.964927077293396 0.47655197978019714
0.99903273582458496 0.95519548654556274 0.47364285588264465
0.028467994183301926 0.0360526442527771 0.12957786023616791
0.10985695570707321 0.021631607785820961 0.11664014309644699
0.24492810666561127 0.014512215740978718 0.10517498850822449
0.39945432543754578 0.012494480237364769 0.082685597240924835
0.55121678113937378 0.00050297158304601908 0.070223115384578705
0.7034183144569397 0 0.04719206690788269
0.84156197309494019 0.0019079919438809156 0.026494164019823074
0.098852373659610748 0.17391814291477203 0.17944718897342682
0.16710831224918365 0.16126880049705505 0.17182129621505737
0.29405629634857178 0.14089730381965637 0.16203132271766663
0.43859431147575378 0.11140024662017822 0.14200146496295929
0.57922124862670898 0.059471145272254944 0.12160582840442657
0.70881730318069458 0.0068473517894744873 0.095232032239437103
0.83137357234954834 0.0002651588583830744 0.065913014113903046
0.14709100127220154 0.3450513482093811 0.23865355551242828
0.23096437752246857 0.33712401986122131 0.23384998738765717
0.35743257403373718 0.32059839367866516 0.22401334345340729
0.49452051520347595 0.28848415613174438 0.20914329588413239
0.62999093532562256 0.23373995721340179 0.18867163360118866
0.74704974889755249 0.14140745997428894 0.1611914336681366
0.84616076946258545 0.043788701295852661 0.13259796798229218
0.25727814435958862 0.5226326584815979 0.30285882949829102
0.32078975439071655 0.51880472898483276 0.30219310522079468
0.42942667007446289 0.50994575023651123 0.29616272449493408
0.55892646312713623 0.49299776554107666 0.28388369083404541
0.69139397144317627 0.46488901972770691 0.2657807469367981
0.81350719928741455 0.40402513742446899 0.24609589576721191
0.90688782930374146 0.2913232147693634 0.22202253341674805
0.38783606886863708 0.68971127271652222 0.37978121638298035
0.43322658538818359 0.68806225061416626 0.37802374362945557
0.51845413446426392 0.68363058567047119 0.3759002685546875
0.62919384241104126 0.67487627267837524 0.36651003360748291
0.74673771858215332 0.66222524642944336 0.35467404127120972
0.86752802133560181 0.63326698541641235 0.33840799331665039
0.96483635902404785 0.57077866792678833 0.31742727756500244
0.53742510080337524 0.84113746881484985 0.46226528286933899
0.56432884931564331 0.83995860815048218 0.46302220225334167
0.62534117698669434 0.83846026659011841 0.46553638577461243
0.70725852251052856 0.8369678258895874 0.45730262994766235
0.80605792999267578 0.83190494775772095 0.44987517595291138
0.91493207216262817 0.81582176685333252 0.43898418545722961
0.99687021970748901 0.77901852130889893 0.42464038729667664
0.68270456790924072 0.97148728370666504 0.56401699781417847
0.70592594146728516 0.97527718544006348 0.56330490112304688
0.74394899606704712 0.97523051500320435 0.56309968233108521
0.80057567358016968 0.97530639171600342 0.55516952276229858
0.87684577703475952 0.97462522983551025 0.54741483926773071
0.96175551414489746 0.96819972991943359 0.54151684045791626
1 0.95057797431945801 0.53370648622512817
0.027637870982289314 0.046565096825361252 0.25407949090003967
0.095816127955913544 0.033623237162828445 0.23962558805942535
0.22719933092594147 0.020041432231664658 0.23062650859355927
0.38110890984535217 0.012686575762927532 0.21382154524326324
0.53616821765899658 0.0034125084057450294 0.19815075397491455
0.68904381990432739 0 0.1742674857378006
0.82866895198822021 0.00029171214555390179 0.14998166263103485
0.081868745386600494 0.18541494011878967 0.30733475089073181
0.14908467233181 0.17317108809947968 0.30094850063323975
0.27472442388534546 0.15253487229347229 0.29197975993156433
0.42252042889595032 0.12364496290683746 0.27256813645362854
0.56574785709381104 0.073017686605453491 0.25233149528503418
0.6955980658531189 0.012628607451915741 0.2263590544462204
0.82066404819488525 0 0.20002305507659912
0.11826083809137344 0.35304632782936096 0.36759927868843079
0.20382408797740936 0.3450520932674408 0.36399003863334656
0.33287036418914795 0.33010503649711609 0.35487031936645508
0.47770822048187256 0.30030795931816101 0.3382052481174469
0.61581689119338989 0.24520775675773621 0.32031518220901489
0.73534810543060303 0.1547904759645462 0.29609256982803345
0.84048581123352051 0.066207036375999451 0.27004352211952209
0.21430566906929016 0.52700626850128174 0.43016016483306885
0.29197704792022705 0.5238836407661438 0.42751562595367432
0.40767675638198853 0.51770401000976562 0.41961503028869629
0.54247289896011353 0.50097304582595825 0.40916645526885986
0.67685884237289429 0.47452625632286072 0.39806082844734192
0.80051863193511963 0.41376975178718567 0.37948471307754517
0.89731961488723755 0.30102831125259399 0.35547518730163574
0.35863414406776428 0.69167864322662354 0.49523690342903137
0.40999019145965576 0.69134062528610229 0.49496462941169739
0.50052922964096069 0.68821686506271362 0.48979711532592773
0.61363106966018677 0.68103855848312378 0.48233768343925476
0.73178339004516602 0.66861963272094727 0.47432634234428406
0.85239160060882568 0.63763004541397095 0.45977464318275452
0.95545679330825806 0.57237869501113892 0.44004452228546143
0.51872974634170532 0.84070783853530884 0.5661129355430603
0.55119699239730835 0.84134328365325928 0.56613814830780029
0.61294072866439819 0.83999425172805786 0.56470322608947754
0.69709950685501099 0.837421715259552 0.55831754207611084
0.79362678527832031 0.83404171466827393 0.55264919996261597
0.89826744794845581 0.81912541389465332 0.54279184341430664
0.99380803108215332 0.7821841835975647 0.52586865425109863
0.67310529947280884 0.9700779914855957 0.64731806516647339
0.69726794958114624 0.97401756048202515 0.64709651470184326
0.73601663112640381 0.97316265106201172 0.64622277021408081
0.79500806331634521 0.97201502323150635 0.64125484228134155
0.86799412965774536 0.97446960210800171 0.634898841381073
0.94683295488357544 0.97114783525466919 0.6275787353515625
0.9994543194770813 0.95767503976821899 0.61731541156768799
0.016469663009047508 0.054359961301088333 0.39343792200088501
0.087211474776268005 0.041770845651626587 0.38386553525924683
0.20846432447433472 0.026721445843577385 0.37250247597694397
0.35956835746765137 0.01338348351418972 0.35821884870529175
0.51820999383926392 0.0024184433277696371 0.34261348843574524
0.67190694808959961 0 0.32281601428985596
0.80718624591827393 0 0.30249905586242676
0.046527519822120667 0.20506873726844788 0.4507276713848114
0.1209709495306015 0.19060871005058289 0.44306463003158569
0.25258633494377136 0.16953049600124359 0.43195083737373352
0.40251225233078003 0.13829606771469116 0.41553032398223877
0.55007028579711914 0.087608039379119873 0.39771884679794312
0.68280768394470215 0.021931996569037437 0.37646213173866272
0.80691301822662354 0 0.35268798470497131
0.06063411757349968 0.3670211136341095 0.50706285238265991
0.15297982096672058 0.3602604866027832 0.50314986705780029
0.30526274442672729 0.34586316347122192 0.49362063407897949
0.45908412337303162 0.31922903656959534 0.47835224866867065
0.60085546970367432 0.2676507830619812 0.46195399761199951
0.72341209650039673 0.17489846050739288 0.441083163022995
0.83154594898223877 0.08628101646900177 0.41660064458847046
0.15956953167915344 0.53594636917114258 0.56487917900085449
0.24357260763645172 0.53391569852828979 0.56337785720825195
0.38007229566574097 0.52907544374465942 0.55551564693450928
0.52095448970794678 0.51472193002700806 0.54541230201721191
0.65840983390808105 0.4877471923828125 0.53321003913879395
0.78364282846450806 0.42280232906341553 0.51513642072677612
0.88810312747955322 0.32647690176963806 0.49238282442092896
0.3209666907787323 0.69902873039245605 0.6230769157409668
0.37320619821548462 0.69833678007125854 0.62499254941940308
0.47439005970954895 0.69592833518981934 0.61672788858413696
0.59277665615081787 0.68835633993148804 0.60943901538848877
0.71365153789520264 0.67589890956878662 0.60183554887771606
0.83561593294143677 0.6455262303352356 0.58779168128967285
0.94186651706695557 0.58495545387268066 0.57059222459793091
0.49481576681137085 0.84472084045410156 0.68329322338104248
0.52849549055099487 0.84648627042770386 0.68296593427658081
0.59297007322311401 0.84454095363616943 0.67857199907302856
0.68082791566848755 0.84119510650634766 0.6730353832244873
0.77991116046905518 0.83760279417037964 0.66723239421844482
0.88738340139389038 0.82317686080932617 0.65726763010025024
0.9839133620262146 0.78907662630081177 0.64321565628051758
0.66802847385406494 0.97145503759384155 0.74798846244812012
0.68589133024215698 0.97632062435150146 0.74675613641738892
0.72265487909317017 0.97457730770111084 0.74542409181594849
0.78318101167678833 0.97269278764724731 0.74257981777191162
0.85800576210021973 0.97503626346588135 0.73676848411560059
0.94022595882415771 0.97033965587615967 0.72820848226547241
0.99848753213882446 0.95894628763198853 0.71630042791366577
0.0022671569604426622 0.065492384135723114 0.53314948081970215
0.057636335492134094 0.057299863547086716 0.53001338243484497
0.17503237724304199 0.03681597113609314 0.51825189590454102
0.33294731378555298 0.018135819584131241 0.50379270315170288
0.49859407544136047 0.0021463730372488499 0.48885270953178406
0.65773248672485352 0 0.47184932231903076
0.79627341032028198 0 0.45071780681610107
0.0027237087488174438 0.22598804533481598 0.59177953004837036
0.070035554468631744 0.21559436619281769 0.58736646175384521
0.21290801465511322 0.19212868809700012 0.57603108882904053
0.37691521644592285 0.1557210385799408 0.55879771709442139
0.53345370292663574 0.095422469079494476 0.54194355010986328
0.67264729738235474 0.036302708089351654 0.52424740791320801
0.79248780012130737 0 0.49928799271583557
0.013495591469109058 0.38495591282844543 0.64635545015335083
0.071746975183486938 0.38330677151679993 0.64199936389923096
0.25826996564865112 0.36809298396110535 0.63239991664886475
0.43588382005691528 0.34261623024940491 0.61616438627243042
0.58563345670700073 0.29062744975090027 0.60067456960678101
0.71118676662445068 0.19316257536411285 0.5822557806968689
0.81193351745605469 0.068990476429462433 0.55366700887680054
0.09718284010887146 0.54775625467300415 0.69663852453231812
0.1653454601764679 0.5490451455116272 0.69545429944992065
0.32910937070846558 0.54337465763092041 0.68974840641021729
0.49229100346565247 0.53114044666290283 0.67857599258422852
0.6387895941734314 0.50502443313598633 0.66466563940048218
0.76986616849899292 0.44795089960098267 0.64689344167709351
0.87930876016616821 0.34747159481048584 0.62253075838088989
0.25551709532737732 0.70943248271942139 0.74717658758163452
0.31220200657844543 0.70938485860824585 0.74581408500671387
0.43365973234176636 0.70605748891830444 0.7393227219581604
0.56339067220687866 0.69723111391067505 0.73306214809417725
0.69347614049911499 0.68484747409820557 0.72346872091293335
0.8193967342376709 0.65790337324142456 0.71169286966323853
0.92731791734695435 0.5965006947517395 0.69444859027862549
0.44708144664764404 0.85092270374298096 0.79787957668304443
0.48551279306411743 0.8533739447593689 0.79470312595367432
0.55791765451431274 0.85181611776351929 0.79065078496932983
0.65131241083145142 0.84884637594223022 0.78571367263793945
0.75918883085250854 0.84330075979232788 0.7794872522354126
0.86927485466003418 0.83212268352508545 0.77113872766494751
0.96717989444732666 0.79733014106750488 0.75942689180374146
0.64675432443618774 0.97446268796920776 0.84964418411254883
0.66119581460952759 0.97838985919952393 0.84912490844726562
0.6970946192741394 0.97810655832290649 0.84827280044555664
0.75843513011932373 0.97824740409851074 0.84536063671112061
0.83930641412734985 0.9788738489151001 0.84083676338195801
0.92606246471405029 0.97588634490966797 0.83219504356384277
0.99674278497695923 0.9619450569152832 0.81996124982833862
0 0.10129904747009277 0.66673332452774048
0.0173606276512146 0.084098890423774719 0.67107868194580078
0.13777725398540497 0.06743902713060379 0.65979123115539551
0.30776947736740112 0.040842723101377487 0.63847225904464722
0.47807130217552185 0.0084427632391452789 0.62427592277526855
0.63593953847885132 0 0.60600000619888306
0.770843505859375 0 0.57656925916671753
0 0.25630930066108704 0.72285956144332886
0.041271194815635681 0.24882824718952179 0.7220948338508606
0.17381288111209869 0.22569352388381958 0.71145206689834595
0.34879037737846375 0.18673977255821228 0.68901389837265015
0.51596307754516602 0.12803639471530914 0.6739189624786377
0.65533828735351562 0.057206291705369949 0.65953332185745239
0.77042180299758911 0.00066324870567768812 0.63085901737213135
0 0.40925830602645874 0.77913278341293335
0.030487794429063797 0.40571027994155884 0.77599090337753296
0.20017893612384796 0.39263108372688293 0.76303017139434814
0.40004065632820129 0.36895769834518433 0.74582433700561523
0.5674363374710083 0.32507205009460449 0.7298395037651062
0.69869518280029297 0.23132632672786713 0.7139696478843689
0.80355584621429443 0.11075283586978912 0.67854505777359009
0.015948036685585976 0.56654191017150879 0.82106846570968628
0.069220691919326782 0.5671001672744751 0.81926685571670532
0.25834879279136658 0.56081861257553101 0.81379520893096924
0.45343264937400818 0.54964673519134521 0.80444008111953735
0.61652582883834839 0.5273432731628418 0.78567373752593994
0.75466090440750122 0.46567544341087341 0.76606088876724243
0.86469024419784546 0.36363828182220459 0.73642390966415405
0.1441485732793808 0.71871954202651978 0.86669325828552246
0.21994149684906006 0.72028970718383789 0.86656004190444946
0.37539416551589966 0.71700400114059448 0.86242085695266724
0.52305668592453003 0.71102112531661987 0.85455614328384399
0.66494441032409668 0.70066022872924805 0.84205049276351929
0.79911535978317261 0.67200952768325806 0.82911151647567749
0.91284388303756714 0.61340236663818359 0.80897980928421021
0.37592625617980957 0.85673850774765015 0.90928560495376587
0.42764461040496826 0.8588605523109436 0.91084343194961548
0.51432168483734131 0.85755354166030884 0.90345489978790283
0.61518841981887817 0.85539275407791138 0.89860504865646362
0.72987896203994751 0.85197776556015015 0.89129596948623657
0.8476836085319519 0.83993279933929443 0.88282525539398193
0.95290565490722656 0.80887186527252197 0.87350326776504517
0.60444885492324829 0.97691088914871216 0.95079046487808228
0.62860369682312012 0.97996324300765991 0.94782328605651855
0.66987866163253784 0.97976934909820557 0.94833207130432129
0.73129051923751831 0.97853654623031616 0.9465906023979187
0.81633198261260986 0.97996324300765991 0.94293320178985596
0.908610999584198 0.97920733690261841 0.93420600891113281
0.99120795726776123 0.97046518325805664 0.9233393669128418
0.00094825896667316556 0.12271762639284134 0.76341414451599121
0.021720167249441147 0.11715386807918549 0.77477669715881348
0.1329643726348877 0.10723314434289932 0.76412355899810791
0.2987273633480072 0.077653504908084869 0.74090993404388428
0.46480840444564819 0.036699451506137848 0.72722363471984863
0.61852627992630005 0.0092469304800033569 0.70759725570678711
0.75618314743041992 0.0025497586466372013 0.67350149154663086
0 0.2799324095249176 0.81458067893981934
0.027618063613772392 0.27599918842315674 0.8102983832359314
0.15349571406841278 0.25960057973861694 0.80627381801605225
0.33330121636390686 0.22326406836509705 0.7823028564453125
0.50314313173294067 0.17165671288967133 0.76829403638839722
0.64153188467025757 0.10016048699617386 0.75862807035446167
0.7548559308052063 0.02456645667552948 0.73015075922012329
0 0.42950388789176941 0.86575007438659668
0.0096785305067896843 0.42633962631225586 0.861316978931427
0.16952189803123474 0.41553428769111633 0.84900885820388794
0.37499979138374329 0.39366680383682251 0.83076691627502441
0.55068451166152954 0.35970219969749451 0.81904703378677368
0.6890716552734375 0.28213298320770264 0.80773156881332397
0.79697179794311523 0.15434487164020538 0.76776999235153198
0 0.58230018615722656 0.90469276905059814
0.021766362711787224 0.5827212929725647 0.89927136898040771
0.22046168148517609 0.57699239253997803 0.88683122396469116
0.42197147011756897 0.5658954381942749 0.88448178768157959
0.59540379047393799 0.54862821102142334 0.8663439154624939
0.74469119310379028 0.50227111577987671 0.84749364852905273
0.85806190967559814 0.3996594250202179 0.81892311573028564
0.046138390898704529 0.72908508777618408 0.93905270099639893
0.15095034241676331 0.73080849647521973 0.93890833854675293
0.32555979490280151 0.72727036476135254 0.93731588125228882
0.4899926483631134 0.72269570827484131 0.93159943819046021
0.64161986112594604 0.71401321887969971 0.91827118396759033
0.78246593475341797 0.68864709138870239 0.90809273719787598
0.90449029207229614 0.63930058479309082 0.88707971572875977
0.32053354382514954 0.8612549901008606 0.97225868701934814
0.38161468505859375 0.86367505788803101 0.97554099559783936
0.4751078188419342 0.86300766468048096 0.97033035755157471
0.58659559488296509 0.86049818992614746 0.96856141090393066
0.70630866289138794 0.85868144035339355 0.96017199754714966
0.82862657308578491 0.84854698181152344 0.95771890878677368
0.94047707319259644 0.81947100162506104 0.94672244787216187
0.58084714412689209 0.97841852903366089 0.99895787239074707
0.59700256586074829 0.97974324226379395 0.99955910444259644
0.64308798313140869 0.978310227394104 0.99986213445663452
0.70870804786682129 0.97774970531463623 0.99965190887451172
0.79662531614303589 0.98000210523605347 0.99859160184860229
0.89275825023651123 0.98264890909194946 0.99355322122573853
0.98681998252868652 0.9739614725112915 0.98898023366928101
