films/kodak_elite_chrome_400.cube
# Created by: G'MIC (https://gmic.eu)
TITLE "kodak_elite_chrome_400"
# LUT size
LUT_3D_SIZE 13
# Data domain
DOMAIN_MIN 0.0 0.0 0.0
DOMAIN_MAX 1.0 1.0 1.0
# LUT data points
0.025030277669429779 0.021244272589683533 0.02131233923137188
0.063622325658798218 0.018241582438349724 0.017196506261825562
0.11025407165288925 0.017781844362616539 0.013653788715600967
0.16403508186340332 0.019242992624640465 0.012307275086641312
0.2316613495349884 0.019513074308633804 0.011018910445272923
0.31552478671073914 0.020508395507931709 0.0047163870185613632
0.40558314323425293 0.022100171074271202 0.00052087823860347271
0.49560508131980896 0.023787045851349831 0
0.58247679471969604 0.025618026033043861 0
0.66608512401580811 0.029916500672698021 0
0.74768680334091187 0.039490584284067154 0
0.82700216770172119 0.055207766592502594 0
0.90110558271408081 0.072346903383731842 0
0.056699085980653763 0.078172005712985992 0.040729492902755737
0.086191393435001373 0.073629520833492279 0.034682974219322205
0.1303599625825882 0.070397414267063141 0.031645666807889938
0.18637438118457794 0.069283656775951385 0.02903137169778347
0.25494170188903809 0.06731066107749939 0.024355212226510048
0.3361392617225647 0.065192818641662598 0.015614049509167671
0.42430505156517029 0.062589459121227264 0.0060032117180526257
0.51224344968795776 0.058311715722084045 0.00087105244165286422
0.59663718938827515 0.052299723029136658 1.5797335436218418e-05
0.67711490392684937 0.04714680090546608 0
0.75558418035507202 0.046295478940010071 0
0.8324582576751709 0.052940130233764648 0
0.90522611141204834 0.065438441932201385 0
0.09605446457862854 0.1433333158493042 0.064197361469268799
0.11758850514888763 0.13977105915546417 0.057311564683914185
0.15795357525348663 0.13713270425796509 0.053713452070951462
0.21476978063583374 0.1334320604801178 0.049503866583108902
0.28302091360092163 0.12929444015026093 0.042396783828735352
0.36208406090736389 0.12292324751615524 0.032392971217632294
0.44844606518745422 0.11649732291698456 0.020437441766262054
0.53362905979156494 0.10656566172838211 0.0085509652271866798
0.61280381679534912 0.091643676161766052 0.0016258240211755037
0.68937265872955322 0.074842847883701324 6.0496611695270985e-05
0.76318919658660889 0.059352606534957886 0
0.83671861886978149 0.052519630640745163 0
0.90912061929702759 0.060672026127576828 0
0.12784425914287567 0.22379478812217712 0.091188021004199982
0.14656153321266174 0.22104348242282867 0.08506494015455246
0.18690161406993866 0.21947562694549561 0.080431155860424042
0.24490885436534882 0.21558511257171631 0.074352934956550598
0.31436333060264587 0.2097146064043045 0.065412290394306183
0.39330238103866577 0.20025674998760223 0.054305117577314377
0.47793066501617432 0.19043773412704468 0.040982130914926529
0.55890911817550659 0.17561106383800507 0.025186516344547272
0.63386064767837524 0.15259732306003571 0.010600774548947811
0.70529633760452271 0.12601697444915771 0.0025645238347351551
0.77456903457641602 0.095414899289608002 0.00019487866666167974
0.84466636180877686 0.071111150085926056 0
0.9172559380531311 0.073110736906528473 0
0.14854539930820465 0.32199552655220032 0.11986121535301208
0.1701311320066452 0.31960317492485046 0.11458580195903778
0.21441765129566193 0.31786462664604187 0.10992550104856491
0.27504584193229675 0.31527018547058105 0.10288726538419724
0.34861785173416138 0.30928319692611694 0.09233672171831131
0.43006512522697449 0.29911893606185913 0.080838330090045929
0.51197570562362671 0.28671285510063171 0.066603012382984161
0.58628374338150024 0.27062386274337769 0.047266777604818344
0.65682750940322876 0.24550120532512665 0.028326012194156647
0.72553873062133789 0.21351689100265503 0.014247595332562923
0.79389095306396484 0.17395555973052979 0.0049295313656330109
0.86336344480514526 0.1352994292974472 0.00010992312309099361
0.93323343992233276 0.11827573925256729 0
0.18271076679229736 0.42520591616630554 0.14931733906269073
0.20953905582427979 0.42228308320045471 0.14528182148933411
0.25344812870025635 0.42144465446472168 0.14222614467144012
0.31301975250244141 0.4204348623752594 0.13517914712429047
0.38690149784088135 0.41640767455101013 0.12295275181531906
0.46531814336776733 0.40830659866333008 0.1097341775894165
0.54169625043869019 0.39849495887756348 0.09402669221162796
0.6119617223739624 0.38740947842597961 0.073365576565265656
0.68010532855987549 0.36764964461326599 0.052423156797885895
0.74839049577713013 0.33560314774513245 0.032973002642393112
0.81784451007843018 0.29246559739112854 0.015754833817481995
0.8879888653755188 0.24011319875717163 0.0030711605213582516
0.9547429084777832 0.1973295658826828 0
0.23939554393291473 0.5221819281578064 0.18549723923206329
0.26933059096336365 0.51941883563995361 0.18203017115592957
0.3119659423828125 0.51855254173278809 0.17874720692634583
0.36711916327476501 0.51823937892913818 0.17117504775524139
0.43220362067222595 0.51703214645385742 0.15928208827972412
0.50078892707824707 0.51293796300888062 0.14508834481239319
0.56908285617828369 0.50870633125305176 0.12684027850627899
0.63591670989990234 0.50592094659805298 0.1050131544470787
0.70261639356613159 0.4961472749710083 0.081485405564308167
0.77092528343200684 0.47221606969833374 0.056321103125810623
0.84163308143615723 0.43673118948936462 0.031516686081886292
0.91248601675033569 0.38451576232910156 0.010546097531914711
0.97578758001327515 0.32353377342224121 0.00040031882235780358
0.32107061147689819 0.60650151968002319 0.23367252945899963
0.34481158852577209 0.60674422979354858 0.22900846600532532
0.38101845979690552 0.60624343156814575 0.22439786791801453
0.42865020036697388 0.60599690675735474 0.21618102490901947
0.48162943124771118 0.60609233379364014 0.20601239800453186
0.53840625286102295 0.60512399673461914 0.1913662850856781
0.59839475154876709 0.60419648885726929 0.17054004967212677
0.6601683497428894 0.60437268018722534 0.14477731287479401
0.72451567649841309 0.60255193710327148 0.11763899773359299
0.79202479124069214 0.59409129619598389 0.087534509599208832
0.8623650074005127 0.57595622539520264 0.053691968321800232
0.93266576528549194 0.54463928937911987 0.020757563412189484
0.98843151330947876 0.49274837970733643 0.0014220144366845489
0.40723642706871033 0.68530058860778809 0.2898508608341217
0.42228248715400696 0.6876455545425415 0.28593039512634277
0.44815602898597717 0.6876455545425415 0.28181707859039307
0.48533260822296143 0.68758487701416016 0.27465298771858215
0.52870172262191772 0.6876455545425415 0.26488465070724487
0.57709974050521851 0.68759417533874512 0.24961619079113007
0.62975341081619263 0.68736976385116577 0.2268621027469635
0.68585574626922607 0.68592560291290283 0.19666863977909088
0.74659270048141479 0.68808794021606445 0.16621178388595581
0.81191325187683105 0.68783086538314819 0.13150148093700409
0.8805420994758606 0.67684119939804077 0.086257025599479675
0.94638657569885254 0.65947002172470093 0.038834724575281143
0.99406242370605469 0.62977677583694458 0.0061542736366391182
0.4831613302230835 0.76247727870941162 0.35441961884498596
0.49270623922348022 0.76495039463043213 0.35121390223503113
0.50869631767272949 0.76495099067687988 0.34862703084945679
0.53564333915710449 0.76495099067687988 0.3433983325958252
0.57302045822143555 0.76495099067687988 0.33344882726669312
0.61658680438995361 0.76530265808105469 0.31845617294311523
0.66405928134918213 0.76596498489379883 0.29688462615013123
0.71483927965164185 0.76632475852966309 0.26863589882850647
0.77007848024368286 0.76906532049179077 0.23697076737880707
0.83048582077026367 0.77122312784194946 0.19461734592914581
0.89545536041259766 0.76671451330184937 0.13091187179088593
0.95819628238677979 0.7573617696762085 0.057776253670454025
0.99797618389129639 0.73786389827728271 0.009556909091770649
0.55214917659759521 0.8383830189704895 0.423176109790802
0.55789840221405029 0.839946448802948 0.42022413015365601
0.5657966136932373 0.83949875831604004 0.41894051432609558
0.58561891317367554 0.8395506739616394 0.41537287831306458
0.61968547105789185 0.84111911058425903 0.40580490231513977
0.6595463752746582 0.84220713376998901 0.39293277263641357
0.70204418897628784 0.84490025043487549 0.37578341364860535
0.74707192182540894 0.84607565402984619 0.35315856337547302
0.79576313495635986 0.84904658794403076 0.32423406839370728
0.84898436069488525 0.85190200805664062 0.28047344088554382
0.90938329696655273 0.8528907299041748 0.20271420478820801
0.96996963024139404 0.84964323043823242 0.10043049603700638
0.99974924325942993 0.83328914642333984 0.036736864596605301
0.62086319923400879 0.91259485483169556 0.4912249743938446
0.62340021133422852 0.91317164897918701 0.48747730255126953
0.62772250175476074 0.91212886571884155 0.48551496863365173
0.64294350147247314 0.91198956966400146 0.48245596885681152
0.67238551378250122 0.91364938020706177 0.47528621554374695
0.70735257863998413 0.91643983125686646 0.46686241030693054
0.74422919750213623 0.91896682977676392 0.45610710978507996
0.78316247463226318 0.92148739099502563 0.43968355655670166
0.82533359527587891 0.92388236522674561 0.41752722859382629
0.87272590398788452 0.92692220211029053 0.38286516070365906
0.92684197425842285 0.92868947982788086 0.31335416436195374
0.98095524311065674 0.92587292194366455 0.21439626812934875
1 0.91181689500808716 0.13530051708221436
0.68679159879684448 0.97954177856445312 0.5541718602180481
0.68813318014144897 0.9793059229850769 0.54846268892288208
0.6924782395362854 0.97872233390808105 0.5447385311126709
0.70589679479598999 0.97889506816864014 0.54173141717910767
0.72928869724273682 0.98040372133255005 0.53813093900680542
0.75797569751739502 0.98289597034454346 0.5347365140914917
0.789093017578125 0.985298752784729 0.53036046028137207
0.82241028547286987 0.98657047748565674 0.51955300569534302
0.85921245813369751 0.98763078451156616 0.50545227527618408
0.90071254968643188 0.98893719911575317 0.48634397983551025
0.94945329427719116 0.98925602436065674 0.43451622128486633
0.99329847097396851 0.98646658658981323 0.35291546583175659
1 0.97633183002471924 0.26944944262504578
0.022711196914315224 0.022810153663158417 0.060932129621505737
0.059237148612737656 0.019802272319793701 0.055659230798482895
0.10245274752378464 0.019663777202367783 0.046687033027410507
0.15800802409648895 0.01888224296271801 0.041354820132255554
0.22945697605609894 0.017484119161963463 0.036886654794216156
0.31372711062431335 0.019133459776639938 0.027168827131390572
0.40536648035049438 0.020380625501275063 0.014316334389150143
0.4968530535697937 0.022400246933102608 0.0041877748444676399
0.58418178558349609 0.023679187521338463 0.00039686314994469285
0.66757452487945557 0.027958454564213753 0
0.74909645318984985 0.03760262206196785 0
0.82835572957992554 0.053214594721794128 0
0.90221190452575684 0.068573698401451111 0
0.049847830086946487 0.079466007649898529 0.079776808619499207
0.079309411346912384 0.07523345947265625 0.074684008955955505
0.12278565019369125 0.071562841534614563 0.068962544202804565
0.17961402237415314 0.069155238568782806 0.062420506030321121
0.25082239508628845 0.066493332386016846 0.054711181670427322
0.33445912599563599 0.064330130815505981 0.043414484709501266
0.42476123571395874 0.061795387417078018 0.029296336695551872
0.51389849185943604 0.05703696608543396 0.015434429980814457
0.5978471040725708 0.050313480198383331 0.0054556005634367466
0.67782807350158691 0.044293154031038284 0.0009912827517837286
0.75696247816085815 0.045430772006511688 1.8101112800650299e-05
0.83488696813583374 0.053628180176019669 0
0.9086301326751709 0.065921783447265625 0
0.08835148811340332 0.14424887299537659 0.10158461332321167
0.11068851500749588 0.14046567678451538 0.097279027104377747
0.15115633606910706 0.13722817599773407 0.092746034264564514
0.20796231925487518 0.13372394442558289 0.085759587585926056
0.27878734469413757 0.12996348738670349 0.07622973620891571
0.36124151945114136 0.12459836155176163 0.063641972839832306
0.44998729228973389 0.11776310205459595 0.048210486769676208
0.53542912006378174 0.10684986412525177 0.031790610402822495
0.61351382732391357 0.090685240924358368 0.017248684540390968
0.68939608335494995 0.073867440223693848 0.0059992321766912937
0.7640451192855835 0.061054423451423645 0.00057236914290115237
0.83972269296646118 0.056382108479738235 0
0.91345584392547607 0.062179729342460632 0
0.11876989901065826 0.22430694103240967 0.12800410389900208
0.1377326101064682 0.22189709544181824 0.12440992146730423
0.18005019426345825 0.21969316899776459 0.11943472921848297
0.23837853968143463 0.21689373254776001 0.11160378903150558
0.31044864654541016 0.21227134764194489 0.10093183070421219
0.39314737915992737 0.20392841100692749 0.087831728160381317
0.47914031147956848 0.19309151172637939 0.071599088609218597
0.55964457988739014 0.17729713022708893 0.052567277103662491
0.63334029912948608 0.15411552786827087 0.033457305282354355
0.70393717288970947 0.12765930593013763 0.015529528260231018
0.77521604299545288 0.10025953501462936 0.0027374865021556616
0.84868264198303223 0.078670352697372437 0
0.92154347896575928 0.07321484386920929 0
0.13656944036483765 0.32118219137191772 0.15905265510082245
0.15746361017227173 0.32004094123840332 0.15436859428882599
0.20539715886116028 0.31950297951698303 0.14839553833007812
0.26875957846641541 0.31781852245330811 0.1395890861749649
0.34441256523132324 0.31303495168685913 0.12812095880508423
0.42816480994224548 0.30284056067466736 0.11525959521532059
0.51092362403869629 0.28976762294769287 0.098919644951820374
0.58523935079574585 0.27297410368919373 0.077422365546226501
0.65498489141464233 0.24697816371917725 0.054648246616125107
0.72349220514297485 0.21462032198905945 0.031677845865488052
0.79308348894119263 0.17680877447128296 0.011376638896763325
0.86524701118469238 0.13814917206764221 0.00046813066001050174
0.93602961301803589 0.11491027474403381 0
0.17239238321781158 0.4230312705039978 0.19105009734630585
0.1975654810667038 0.42304590344429016 0.18563444912433624
0.2440410852432251 0.42419460415840149 0.17996752262115479
0.30744501948356628 0.42435100674629211 0.17069977521896362
0.38237908482551575 0.42298731207847595 0.15752798318862915
0.46193191409111023 0.4140007495880127 0.14409630000591278
0.5390743613243103 0.40279760956764221 0.12710456550121307
0.60963660478591919 0.39047420024871826 0.10404904186725616
0.67755484580993652 0.36757442355155945 0.080132700502872467
0.74605119228363037 0.33533796668052673 0.054339990019798279
0.81618648767471313 0.29307639598846436 0.027771878987550735
0.88730752468109131 0.241098552942276 0.0054773068986833096
0.95541977882385254 0.19843320548534393 0
0.23285658657550812 0.51885432004928589 0.22857868671417236
0.25912255048751831 0.51984840631484985 0.22255118191242218
0.30206683278083801 0.52157384157180786 0.21679142117500305
0.35991576313972473 0.52250111103057861 0.20755808055400848
0.4264855682849884 0.52341341972351074 0.19498181343078613
0.4959196150302887 0.51867932081222534 0.18074817955493927
0.56503510475158691 0.5135616660118103 0.16148360073566437
0.63204860687255859 0.50886416435241699 0.13644379377365112
0.69917851686477661 0.49520191550254822 0.11071339249610901
0.76818597316741943 0.47173944115638733 0.081485018134117126
0.83931106328964233 0.43646785616874695 0.049149665981531143
0.91000103950500488 0.38787606358528137 0.018391404300928116
0.97467714548110962 0.33312737941741943 0.00079019583063200116
0.31342586874961853 0.60510504245758057 0.27457356452941895
0.33567926287651062 0.60676848888397217 0.26819521188735962
0.37200772762298584 0.6080700159072876 0.26189574599266052
0.42162606120109558 0.60883092880249023 0.25261631608009338
0.47515425086021423 0.60923415422439575 0.24275787174701691
0.5322687029838562 0.60851031541824341 0.22861981391906738
0.59244704246520996 0.60737276077270508 0.20736689865589142
0.65462231636047363 0.60572576522827148 0.18004880845546722
0.71989279985427856 0.60207873582839966 0.15097300708293915
0.78865867853164673 0.59286028146743774 0.11797832697629929
0.86008191108703613 0.5740240216255188 0.078689619898796082
0.93004882335662842 0.54492151737213135 0.037632092833518982
0.98836499452590942 0.4947812557220459 0.0074936812743544579
0.39867568016052246 0.68448394536972046 0.32747837901115417
0.41388529539108276 0.68742400407791138 0.32228967547416687
0.43994307518005371 0.68774509429931641 0.31731027364730835
0.47816348075866699 0.68774509429931641 0.30991265177726746
0.52161014080047607 0.68774509429931641 0.30101814866065979
0.56994569301605225 0.68774509429931641 0.28680241107940674
0.62274032831192017 0.68774509429931641 0.26433756947517395
0.67925548553466797 0.68703526258468628 0.23444189131259918
0.74099147319793701 0.68802255392074585 0.20357216894626617
0.80773276090621948 0.68778645992279053 0.16722311079502106
0.8780670166015625 0.67892682552337646 0.118437759578228
0.94722205400466919 0.66086584329605103 0.065363876521587372
0.99614983797073364 0.62781429290771484 0.022108893841505051
0.47462961077690125 0.76167315244674683 0.38670876622200012
0.48464399576187134 0.764335036277771 0.38288933038711548
0.50126421451568604 0.76448243856430054 0.38032519817352295
0.52881538867950439 0.7643548846244812 0.37581098079681396
0.56616055965423584 0.7648889422416687 0.36716476082801819
0.60971546173095703 0.76500087976455688 0.35301434993743896
0.65689349174499512 0.76520311832427979 0.3321898877620697
0.70795935392379761 0.76563620567321777 0.30477046966552734
0.76421594619750977 0.76858371496200562 0.27358543872833252
0.82611054182052612 0.77124708890914917 0.23228670656681061
0.89192956686019897 0.76853710412979126 0.17016109824180603
0.95635855197906494 0.75817424058914185 0.094536304473876953
0.99822533130645752 0.73759245872497559 0.032675080001354218
0.54296159744262695 0.83764004707336426 0.44924291968345642
0.54971456527709961 0.83882099390029907 0.44614055752754211
0.56115943193435669 0.83882147073745728 0.44530859589576721
0.58238679170608521 0.83879345655441284 0.4425506591796875
0.61531037092208862 0.84064644575119019 0.43518102169036865
0.65441358089447021 0.84213876724243164 0.42312872409820557
0.69626116752624512 0.84340208768844604 0.4064059853553772
0.74104875326156616 0.84560346603393555 0.3841339647769928
0.7905159592628479 0.84823966026306152 0.35591310262680054
0.84569674730300903 0.85169905424118042 0.31451320648193359
0.90454947948455811 0.85322821140289307 0.24440385401248932
0.96016532182693481 0.85013079643249512 0.14346607029438019
0.99729722738265991 0.8368186354637146 0.054572027176618576
0.60983633995056152 0.91075277328491211 0.51197028160095215
0.61503010988235474 0.91220110654830933 0.50925856828689575
0.62384593486785889 0.91226577758789062 0.50816291570663452
0.64215463399887085 0.91270875930786133 0.50605642795562744
0.67100799083709717 0.91412335634231567 0.50050842761993408
0.70483821630477905 0.91667640209197998 0.49229240417480469
0.74025988578796387 0.91874891519546509 0.48081657290458679
0.77831840515136719 0.9208986759185791 0.46361163258552551
0.82057881355285645 0.92355614900588989 0.4411628246307373
0.86918574571609497 0.92726612091064453 0.41086670756340027
0.92243695259094238 0.92998230457305908 0.35365930199623108
0.9724656343460083 0.92908406257629395 0.25710272789001465
0.99917799234390259 0.91848218441009521 0.15493418276309967
0.67486870288848877 0.97786521911621094 0.57173395156860352
0.68012726306915283 0.97896015644073486 0.56849634647369385
0.68835151195526123 0.9792439341545105 0.5664520263671875
0.70461434125900269 0.98005038499832153 0.56450480222702026
0.72897076606750488 0.98175191879272461 0.56100952625274658
0.7573663592338562 0.98386973142623901 0.55679655075073242
0.78689390420913696 0.98536133766174316 0.55065280199050903
0.81873130798339844 0.98666632175445557 0.53945297002792358
0.85505622625350952 0.98787087202072144 0.52453964948654175
0.89803522825241089 0.98978430032730103 0.50757080316543579
0.94694960117340088 0.99107259511947632 0.47353416681289673
0.99122053384780884 0.98975515365600586 0.40648216009140015
1 0.98267453908920288 0.30780047178268433
0.020704291760921478 0.024642316624522209 0.10568761080503464
0.053076934069395065 0.021085208281874657 0.099421493709087372
0.098281890153884888 0.018231799826025963 0.092461951076984406
0.15511780977249146 0.017090801149606705 0.084263607859611511
0.22656305134296417 0.016973039135336876 0.074670903384685516
0.31191578507423401 0.018619852140545845 0.061515014618635178
0.40565752983093262 0.021036006510257721 0.044239059090614319
0.49893313646316528 0.023786852136254311 0.026990180835127831
0.58561503887176514 0.023690138012170792 0.013367671519517899
0.66772568225860596 0.027050003409385681 0.004331640899181366
0.74882382154464722 0.037644524127244949 0.00048967247130349278
0.82850354909896851 0.054385721683502197 0
0.90313088893890381 0.070015639066696167 0
0.044824592769145966 0.080400280654430389 0.12654244899749756
0.071966968476772308 0.076799608767032623 0.12168563902378082
0.11494061350822449 0.072708383202552795 0.11574076861143112
0.17408682405948639 0.069711022078990936 0.10685984045267105
0.24680672585964203 0.067539677023887634 0.096102125942707062
0.33200794458389282 0.06562843918800354 0.081799514591693878
0.42379996180534363 0.062654010951519012 0.063732728362083435
0.51381379365921021 0.057713720947504044 0.045393191277980804
0.59703320264816284 0.049297705292701721 0.029244950041174889
0.67630612850189209 0.043092422187328339 0.015112483873963356
0.75572788715362549 0.045783262699842453 0.0050928154960274696
0.83535629510879517 0.05831541121006012 0.00057800894137471914
0.91113364696502686 0.073183633387088776 0
0.081644929945468903 0.14478388428688049 0.1494193971157074
0.10450366139411926 0.14244197309017181 0.14590799808502197
0.14351779222488403 0.13972403109073639 0.14076623320579529
0.20047979056835175 0.13707190752029419 0.13185587525367737
0.27357897162437439 0.13283008337020874 0.12070729583501816
0.35822793841362 0.12731567025184631 0.1060306653380394
0.44777399301528931 0.11966843158006668 0.087737902998924255
0.53342908620834351 0.10771378129720688 0.067751787602901459
0.61122238636016846 0.090867273509502411 0.047754250466823578
0.68635624647140503 0.07379564642906189 0.027884554117918015
0.76271671056747437 0.064059868454933167 0.011037759482860565
0.84089434146881104 0.063174031674861908 0.0013581519015133381
0.91632932424545288 0.069141864776611328 0
0.11236552894115448 0.22558730840682983 0.17592881619930267
0.13584074378013611 0.22354881465435028 0.17292246222496033
0.17605754733085632 0.22286128997802734 0.16790291666984558
0.23113140463829041 0.22077418863773346 0.15947717428207397
0.30455011129379272 0.21562132239341736 0.14782550930976868
0.38895854353904724 0.20721575617790222 0.1331857293844223
0.47543132305145264 0.19599452614784241 0.11466602981090546
0.55594408512115479 0.17988608777523041 0.093132004141807556
0.62907832860946655 0.15632551908493042 0.069092907011508942
0.70018446445465088 0.13070674240589142 0.041825491935014725
0.7730976939201355 0.1063825711607933 0.016510937362909317
0.84948593378067017 0.085844166576862335 0.0017453960608690977
0.92358887195587158 0.076942399144172668 0
0.12993279099464417 0.32186287641525269 0.20790298283100128
0.15494008362293243 0.32121756672859192 0.2029498815536499
0.19984647631645203 0.32155793905258179 0.19736838340759277
0.26158076524734497 0.32009392976760864 0.18875636160373688
0.33800899982452393 0.31478816270828247 0.17696645855903625
0.42247286438941956 0.30438897013664246 0.16244317591190338
0.50476717948913574 0.29222980141639709 0.14411622285842896
0.57982152700424194 0.27535879611968994 0.12167956680059433
0.65015482902526855 0.24915079772472382 0.095793843269348145
0.71907961368560791 0.21767286956310272 0.063989423215389252
0.79023730754852295 0.18225856125354767 0.030724050477147102
0.86425918340682983 0.14225780963897705 0.0062473523430526257
0.93651062250137329 0.11501074582338333 1.4361213288793806e-05
0.16290007531642914 0.4228038489818573 0.24227643013000488
