films/kodak_kodachrome_25.cube
# Created by: G'MIC (https://gmic.eu)
TITLE "kodak_kodachrome_25"
# LUT size
LUT_3D_SIZE 5
# Data domain
DOMAIN_MIN 0.0 0.0 0.0
DOMAIN_MAX 1.0 1.0 1.0
# LUT data points
0.017780723050236702 0.013932665809988976 0.018200788646936417
0.13394877314567566 0.01576639898121357 0.0096324849873781204
0.48462200164794922 0.014940792694687843 0.0021039925049990416
0.99626713991165161 0.053768698126077652 0.020212778821587563
0.99997198581695557 0.31223756074905396 0.18882697820663452
0.095388732850551605 0.2771981954574585 0.13652020692825317
0.29189547896385193 0.28243783116340637 0.12271993607282639
0.62403410673141479 0.31350338459014893 0.11538271605968475
0.86206525564193726 0.39946311712265015 0.15459832549095154
0.99777555465698242 0.49920925498008728 0.25082200765609741
0.46563312411308289 0.60971814393997192 0.28780046105384827
0.53364717960357666 0.61062264442443848 0.27950850129127502
0.66220599412918091 0.61435461044311523 0.26054412126541138
0.81706434488296509 0.62580347061157227 0.25803503394126892
0.99099850654602051 0.65352994203567505 0.26630589365959167
0.68084126710891724 0.8088688850402832 0.38411542773246765
0.70630007982254028 0.805400550365448 0.38250541687011719
0.76966100931167603 0.80909496545791626 0.37718251347541809
0.86976271867752075 0.81102991104125977 0.36726313829421997
0.99974721670150757 0.8220897912979126 0.3512062132358551
0.86836928129196167 0.98976939916610718 0.47376829385757446
0.90266084671020508 0.99624764919281006 0.48354217410087585
0.93461143970489502 0.9962470531463623 0.48133504390716553
0.98424577713012695 0.99200034141540527 0.46782508492469788
1 0.99110949039459229 0.45131316781044006
0.00045704562216997147 0.0064316545613110065 0.19080816209316254
0.06589043140411377 0.0047520953230559826 0.20049230754375458
0.43317189812660217 0.0038486106786876917 0.16927710175514221
0.96362936496734619 0.065072767436504364 0.15166576206684113
1 0.31132662296295166 0.34556189179420471
0.064264871180057526 0.25173255801200867 0.27255037426948547
0.24087600409984589 0.26160487532615662 0.27816838026046753
0.58813029527664185 0.28421446681022644 0.2787935733795166
0.82690984010696411 0.38238924741744995 0.34871974587440491
0.98284256458282471 0.48782381415367126 0.43974509835243225
0.45341277122497559 0.60732215642929077 0.3280186653137207
0.51754993200302124 0.60676878690719604 0.3248048722743988
0.64804756641387939 0.61012750864028931 0.32871514558792114
0.79789334535598755 0.61793678998947144 0.36811345815658569
0.97560793161392212 0.64461100101470947 0.41513204574584961
0.67980831861495972 0.80458539724349976 0.37712547183036804
0.70332729816436768 0.80386793613433838 0.37187966704368591
0.76828986406326294 0.80734080076217651 0.36717906594276428
0.8774409294128418 0.81215375661849976 0.35438162088394165
0.99965572357177734 0.82374268770217896 0.34931761026382446
0.89255362749099731 0.99483311176300049 0.47553327679634094
0.89943766593933105 0.99446260929107666 0.48564955592155457
0.94148534536361694 0.99626225233078003 0.48390659689903259
0.98544943332672119 0.99325430393218994 0.46948593854904175
0.9998856782913208 0.99831688404083252 0.46517813205718994
0 5.834242983837612e-05 0.32770201563835144
0.021015003323554993 0 0.31789964437484741
0.36761516332626343 0.00075668632052838802 0.27415895462036133
0.97855734825134277 0.029003936797380447 0.21178074181079865
1 0.27989986538887024 0.40907680988311768
0.019661309197545052 0.20514486730098724 0.44753408432006836
0.16167637705802917 0.21425493061542511 0.44222849607467651
0.53883612155914307 0.23788225650787354 0.42678549885749817
0.82307904958724976 0.33636999130249023 0.46846213936805725
0.97658312320709229 0.47377556562423706 0.54278159141540527
0.3041422963142395 0.59133923053741455 0.61553347110748291
0.4069085419178009 0.58877933025360107 0.613067626953125
0.56817442178726196 0.59138399362564087 0.60479259490966797
0.73507410287857056 0.60269087553024292 0.61750262975692749
0.92843019962310791 0.63587421178817749 0.62940752506256104
0.63251298666000366 0.7964400053024292 0.51609987020492554
0.65686607360839844 0.79674500226974487 0.51978647708892822
0.71427327394485474 0.79805177450180054 0.55465948581695557
0.82094788551330566 0.79891407489776611 0.56743544340133667
0.98059689998626709 0.80989402532577515 0.61871218681335449
0.89523106813430786 0.99680638313293457 0.47627672553062439
0.8989710807800293 0.99316918849945068 0.4641081690788269
0.92950987815856934 0.99363070726394653 0.46700355410575867
0.98865026235580444 0.99716734886169434 0.46335780620574951
1 0.99926471710205078 0.46177533268928528
0 0 0.39653989672660828
0.00059625960420817137 0 0.40095719695091248
0.25578480958938599 0 0.35516113042831421
0.96506232023239136 0.00078481039963662624 0.24669429659843445
1 0.20971356332302094 0.42938524484634399
3.1504911021329463e-05 0.13241575658321381 0.51138532161712646
0.08155861496925354 0.1296847015619278 0.50085407495498657
0.4892919659614563 0.13660775125026703 0.46874508261680603
0.84949171543121338 0.24864679574966431 0.50362855195999146
0.98156642913818359 0.43924790620803833 0.6052899956703186
0.18817666172981262 0.55988508462905884 0.72656190395355225
0.29571753740310669 0.55655616521835327 0.71754974126815796
0.52048748731613159 0.56197613477706909 0.70760536193847656
0.70659840106964111 0.57707875967025757 0.71318131685256958
0.90846776962280273 0.61922907829284668 0.72830009460449219
0.52112805843353271 0.7788812518119812 0.81008219718933105
0.55045419931411743 0.77828574180603027 0.81242996454238892
0.62719720602035522 0.77771890163421631 0.80417937040328979
0.74991381168365479 0.78305751085281372 0.80589091777801514
0.92946702241897583 0.79747480154037476 0.81763899326324463
0.85956937074661255 0.99743902683258057 0.60756152868270874
0.87391597032546997 0.99792921543121338 0.61423903703689575
0.902088463306427 0.99742227792739868 0.62038534879684448
0.9434627890586853 0.99663960933685303 0.65713644027709961
0.99676328897476196 0.99389183521270752 0.70798832178115845
0 0 0.44047486782073975
0.012894020415842533 0 0.45402571558952332
0.1804194450378418 0 0.40475749969482422
0.90621316432952881 0.00020750457770191133 0.26779374480247498
0.99865227937698364 0.1400289386510849 0.39678454399108887
0 0.044297385960817337 0.52247041463851929
0.050472542643547058 0.067419447004795074 0.52570950984954834
0.38611102104187012 0.052516128867864609 0.48210656642913818
0.87362611293792725 0.13935452699661255 0.48228183388710022
0.9924083948135376 0.38056272268295288 0.61548495292663574
0.098911508917808533 0.51678264141082764 0.77673959732055664
0.16047835350036621 0.5213509202003479 0.76619654893875122
0.4749409556388855 0.52295821905136108 0.75000274181365967
0.6932489275932312 0.54539889097213745 0.74605131149291992
0.91223806142807007 0.58695089817047119 0.75799477100372314
0.46282583475112915 0.76074504852294922 0.89000064134597778
0.48805421590805054 0.76572948694229126 0.89906167984008789
0.57798999547958374 0.7602689266204834 0.88566488027572632
0.71502715349197388 0.76564872264862061 0.87910562753677368
0.91331422328948975 0.78318136930465698 0.8840903639793396
0.73006314039230347 0.98339295387268066 0.97373497486114502
0.764149010181427 0.99158847332000732 0.98383915424346924
0.80343180894851685 0.99564105272293091 0.98374658823013306
0.84985876083374023 0.99428695440292358 0.99464815855026245
0.97293746471405029 0.99552047252655029 0.99760282039642334
