films/kodak_portra_400_uc.cube
# Created by: G'MIC (https://gmic.eu)
TITLE "kodak_portra_400_uc"
# LUT size
LUT_3D_SIZE 5
# Data domain
DOMAIN_MIN 0.0 0.0 0.0
DOMAIN_MAX 1.0 1.0 1.0
# LUT data points
0.033152531832456589 0.047788642346858978 0.047457467764616013
0.22355051338672638 0.063819363713264465 0.036341365426778793
0.59674596786499023 0.047739814966917038 0.0041249594651162624
0.89991432428359985 0.060228072106838226 0
1 0.18240031599998474 0
0 0.23681747913360596 0.083424374461174011
0.17245440185070038 0.26319277286529541 0.047239236533641815
0.64841312170028687 0.29735016822814941 3.2312730127159739e-06
0.90366679430007935 0.28573596477508545 0
1 0.33089146018028259 0
0 0.53208637237548828 0.14750237762928009
0.0058057000860571861 0.53750008344650269 0.15653330087661743
0.50749248266220093 0.58358615636825562 0.066296026110649109
0.87089544534683228 0.59041762351989746 0.0010051801800727844
0.99963581562042236 0.54393947124481201 0.00041967653669416904
5.4931639169808477e-05 0.76167124509811401 0.31096220016479492
0.019422583281993866 0.76023858785629272 0.32820326089859009
0.38810005784034729 0.77039802074432373 0.32435345649719238
0.73188316822052002 0.79238766431808472 0.2889554500579834
0.98307442665100098 0.8137248158454895 0.18311671912670135
0.48751479387283325 0.92591285705566406 0.62045234441757202
0.55438119173049927 0.92946469783782959 0.65511703491210938
0.6470339298248291 0.9288027286529541 0.68288141489028931
0.76181310415267944 0.93951636552810669 0.6779707670211792
0.90933024883270264 0.95327192544937134 0.66722971200942993
0.0055487537756562233 0.060656484216451645 0.23886379599571228
0.23111200332641602 0.062188539654016495 0.2478647381067276
0.58903193473815918 0.0032531886827200651 0.23013222217559814
0.89196866750717163 0.051377899944782257 0.22304141521453857
0.99976354837417603 0.23840309679508209 0.22274701297283173
0 0.27476125955581665 0.26306971907615662
0.26844486594200134 0.30068749189376831 0.29032635688781738
0.65957427024841309 0.29115444421768188 0.25617194175720215
0.89855343103408813 0.31146115064620972 0.23171818256378174
1 0.35794246196746826 0.20732635259628296
0.053640656173229218 0.57229423522949219 0.35741749405860901
0.18110169470310211 0.57144194841384888 0.34979605674743652
0.57003188133239746 0.59557592868804932 0.32078093290328979
0.87658035755157471 0.57833576202392578 0.20378343760967255
0.99984240531921387 0.55176848173141479 0.12603121995925903
0.11431436240673065 0.76989841461181641 0.44146379828453064
0.23799265921115875 0.76629507541656494 0.44558072090148926
0.47928258776664734 0.77042305469512939 0.45210123062133789
0.75279468297958374 0.79529118537902832 0.43743693828582764
0.96853089332580566 0.80231910943984985 0.36528289318084717
0.56834501028060913 0.93065255880355835 0.68726146221160889
0.5906902551651001 0.93012970685958862 0.68878686428070068
0.66473734378814697 0.93051469326019287 0.71084004640579224
0.76708340644836426 0.93585926294326782 0.70531326532363892
0.91243910789489746 0.95352828502655029 0.70655614137649536
0 0.09676399827003479 0.53401994705200195
0.21462112665176392 0.096457429230213165 0.56249445676803589
0.63865607976913452 0.069881513714790344 0.58307480812072754
0.85307961702346802 0.049469217658042908 0.51098328828811646
0.99959743022918701 0.18784996867179871 0.47623312473297119
0.00014099420513957739 0.30204713344573975 0.55042928457260132
0.23495751619338989 0.30620342493057251 0.57909369468688965
0.65837514400482178 0.34996357560157776 0.60204493999481201
0.85913562774658203 0.33567824959754944 0.53538161516189575
0.99804532527923584 0.38939133286476135 0.50759345293045044
0.028834054246544838 0.57733654975891113 0.55619484186172485
0.32894989848136902 0.58895325660705566 0.57377117872238159
0.6451994776725769 0.61818850040435791 0.6123349666595459
0.855785071849823 0.60476183891296387 0.57121258974075317
0.9958120584487915 0.61506873369216919 0.54271537065505981
0.43890869617462158 0.78173047304153442 0.6294320821762085
0.52116268873214722 0.78243672847747803 0.64129018783569336
0.61767959594726562 0.78318148851394653 0.64306628704071045
0.78821903467178345 0.80579930543899536 0.64832425117492676
0.97816687822341919 0.80364120006561279 0.5868421196937561
0.66015034914016724 0.9262349009513855 0.76961988210678101
0.67408055067062378 0.92874062061309814 0.76541882753372192
0.70037275552749634 0.92809414863586426 0.76276618242263794
0.7873765230178833 0.93793851137161255 0.77484774589538574
0.92133837938308716 0.95468509197235107 0.77881407737731934
8.5808249423280358e-05 0.17278850078582764 0.7867882251739502
0.24697285890579224 0.1807912141084671 0.79329788684844971
0.62524920701980591 0.22759674489498138 0.80909568071365356
0.87098592519760132 0.3181287944316864 0.80457347631454468
0.99333500862121582 0.38288107514381409 0.764015793800354
0 0.31618484854698181 0.78515750169754028
0.23772352933883667 0.32829037308692932 0.79149192571640015
0.63308107852935791 0.38937544822692871 0.80632853507995605
0.86574387550354004 0.46793380379676819 0.81120985746383667
0.98475760221481323 0.49293482303619385 0.76947879791259766
3.2312730127159739e-06 0.53563672304153442 0.74763250350952148
0.20303699374198914 0.54802656173706055 0.75808751583099365
0.59841597080230713 0.58336126804351807 0.78771024942398071
0.83878415822982788 0.66219961643218994 0.80759084224700928
0.9648011326789856 0.65388649702072144 0.77918148040771484
0.25454771518707275 0.76997768878936768 0.76231426000595093
0.40287396311759949 0.77623039484024048 0.76717591285705566
0.6179511547088623 0.78129738569259644 0.77948856353759766
0.81765580177307129 0.80846619606018066 0.80797451734542847
0.9632270336151123 0.81096106767654419 0.79416584968566895
0.63650423288345337 0.93390363454818726 0.83484530448913574
0.68441480398178101 0.9353453516960144 0.83844280242919922
0.75641357898712158 0.93696194887161255 0.84546959400177002
0.82731568813323975 0.94160717725753784 0.8531377911567688
0.94329845905303955 0.96116966009140015 0.86029446125030518
0.41476631164550781 0.41258245706558228 0.95164448022842407
0.52643007040023804 0.42445427179336548 0.94927442073822021
0.70625388622283936 0.47936677932739258 0.94751930236816406
0.87981992959976196 0.56486976146697998 0.94544684886932373
0.99383848905563354 0.63174957036972046 0.94372725486755371
0.44071421027183533 0.50231397151947021 0.94971615076065063
0.54112952947616577 0.51466196775436401 0.94875365495681763
0.70720058679580688 0.54854071140289307 0.94460582733154297
0.87403780221939087 0.63166934251785278 0.94362324476242065
0.99249619245529175 0.67298656702041626 0.94045376777648926
0.4075959324836731 0.64027398824691772 0.93915331363677979
0.50843435525894165 0.64211571216583252 0.93963277339935303
0.67810899019241333 0.65910685062408447 0.94011837244033813
0.85740268230438232 0.72446107864379883 0.94136792421340942
0.9775698184967041 0.75600087642669678 0.94003063440322876
0.26283127069473267 0.79847222566604614 0.92836523056030273
0.39313280582427979 0.79404991865158081 0.93085867166519165
0.56553298234939575 0.78610908985137939 0.92953091859817505
0.80555099248886108 0.80923295021057129 0.94097614288330078
0.97364985942840576 0.86044996976852417 0.94591081142425537
0.59545201063156128 0.96236079931259155 0.9428364634513855
0.62751883268356323 0.96164286136627197 0.94254332780838013
0.69762921333312988 0.96039503812789917 0.94645208120346069
0.81480836868286133 0.95707100629806519 0.94882625341415405
0.96483391523361206 0.97127676010131836 0.96405559778213501
