films/kodak_kodachrome_200.cube
# Created by: G'MIC (https://gmic.eu)
TITLE "kodak_kodachrome_200"
# LUT size
LUT_3D_SIZE 7
# Data domain
DOMAIN_MIN 0.0 0.0 0.0
DOMAIN_MAX 1.0 1.0 1.0
# LUT data points
0.022304356098175049 0.016766522079706192 0.018288077786564827
0.12015294283628464 0.016689898446202278 0.019799325615167618
0.3068205714225769 0.017074361443519592 0.020609043538570404
0.51190102100372314 0.017424609512090683 0.02367878332734108
0.68762248754501343 0.015470931306481361 0.025026718154549599
0.81223392486572266 0.014562973752617836 0.018211185932159424
0.91181772947311401 0.032059598714113235 0.016655087471008301
0.066992349922657013 0.14399239420890808 0.072889037430286407
0.16091719269752502 0.14152683317661285 0.076344899833202362
0.34882351756095886 0.14408007264137268 0.084299333393573761
0.54374301433563232 0.14181773364543915 0.088341869413852692
0.70248121023178101 0.13756854832172394 0.084013901650905609
0.82823461294174194 0.12567181885242462 0.072858713567256927
0.93061649799346924 0.14234206080436707 0.065097525715827942
0.065487280488014221 0.35029447078704834 0.16503141820430756
0.20333956182003021 0.34503090381622314 0.16906343400478363
0.38867026567459106 0.34734749794006348 0.17436234652996063
0.56496715545654297 0.34725531935691833 0.17280314862728119
0.71173983812332153 0.33739534020423889 0.16206559538841248
0.83530879020690918 0.32251113653182983 0.14041970670223236
0.94033080339431763 0.31241557002067566 0.12547029554843903
0.17511865496635437 0.54080480337142944 0.28676217794418335
0.29027768969535828 0.53689473867416382 0.28535887598991394
0.43957999348640442 0.5370635986328125 0.28618019819259644
0.58767455816268921 0.53873199224472046 0.2835974395275116
0.72123545408248901 0.53820264339447021 0.26783949136734009
0.84054112434387207 0.53233987092971802 0.23663605749607086
0.94379842281341553 0.52383047342300415 0.2043159008026123
0.34848567843437195 0.68044048547744751 0.41143271327018738
0.41178372502326965 0.68123966455459595 0.41445159912109375
0.50625449419021606 0.68000608682632446 0.41381219029426575
0.61694055795669556 0.67971193790435791 0.40881699323654175
0.72929471731185913 0.67756694555282593 0.39547231793403625
0.84543949365615845 0.67437899112701416 0.36311697959899902
0.9518858790397644 0.66785424947738647 0.32829040288925171
0.46339637041091919 0.79145222902297974 0.51786786317825317
0.51001900434494019 0.79784095287322998 0.53221589326858521
0.57332468032836914 0.80000889301300049 0.53383588790893555
0.65464937686920166 0.80107200145721436 0.53017234802246094
0.74651050567626953 0.80117368698120117 0.52818173170089722
0.85851514339447021 0.80099678039550781 0.50444966554641724
0.96970993280410767 0.79354888200759888 0.46831855177879333
0.54240494966506958 0.897194504737854 0.60647058486938477
0.58721959590911865 0.90843874216079712 0.62126690149307251
0.63825374841690063 0.91449648141860962 0.62922805547714233
0.70196056365966797 0.91988992691040039 0.63515180349349976
0.77823197841644287 0.93149518966674805 0.64854335784912109
0.88087201118469238 0.93303465843200684 0.63534343242645264
0.98815000057220459 0.91661059856414795 0.59580308198928833
0.016812598332762718 0.016592107713222504 0.075316213071346283
0.11200130730867386 0.017144177109003067 0.077097825706005096
0.30205056071281433 0.017220381647348404 0.082390755414962769
0.51492059230804443 0.01875673234462738 0.082307018339633942
0.68500572443008423 0.010984862223267555 0.079794354736804962
0.81561070680618286 0.0049417084082961082 0.066193163394927979
0.92514771223068237 0.01673584058880806 0.056190058588981628
0.063437655568122864 0.14266057312488556 0.1480446457862854
0.15248763561248779 0.14218814671039581 0.15029817819595337
0.34206712245941162 0.14480435848236084 0.15734970569610596
0.54045873880386353 0.14384649693965912 0.1570182740688324
0.70067667961120605 0.13618136942386627 0.14992314577102661
0.83096820116043091 0.12144485116004944 0.1283474862575531
0.94099920988082886 0.12870848178863525 0.11254538595676422
0.06881897896528244 0.34954690933227539 0.24633242189884186
0.17998030781745911 0.35110136866569519 0.25028446316719055
0.38391029834747314 0.35357564687728882 0.2542567253112793
0.56255096197128296 0.34853139519691467 0.25009128451347351
0.70887356996536255 0.3413701057434082 0.23855671286582947
0.8385884165763855 0.32650360465049744 0.20868144929409027
0.94753718376159668 0.31742364168167114 0.18881003558635712
0.15160517394542694 0.54099142551422119 0.35868492722511292
0.27007707953453064 0.54385113716125488 0.36249071359634399
0.43065831065177917 0.54391986131668091 0.36484777927398682
0.58245867490768433 0.54072403907775879 0.36452117562294006
0.71542251110076904 0.53709512948989868 0.35013958811759949
0.83939385414123535 0.53123778104782104 0.31986597180366516
0.94567102193832397 0.52222955226898193 0.28563916683197021
0.33546200394630432 0.68145501613616943 0.47283565998077393
0.40337726473808289 0.68815010786056519 0.47713527083396912
0.49955281615257263 0.68571931123733521 0.47714608907699585
0.6109125018119812 0.68133354187011719 0.4750082790851593
0.72362416982650757 0.67798906564712524 0.46511942148208618
0.84351855516433716 0.67464250326156616 0.4389893114566803
0.95576441287994385 0.66816771030426025 0.40140333771705627
0.47158274054527283 0.79974246025085449 0.57269799709320068
0.51304167509078979 0.80899554491043091 0.58217930793762207
0.5708005428314209 0.80597883462905884 0.58242207765579224
0.6499631404876709 0.80012059211730957 0.57750743627548218
0.74334937334060669 0.80004847049713135 0.57323926687240601
0.85663187503814697 0.79975646734237671 0.55739027261734009
0.96048873662948608 0.79545193910598755 0.52984344959259033
0.55314344167709351 0.91272944211959839 0.65819853544235229
0.59258782863616943 0.92575252056121826 0.67084598541259766
0.6379324197769165 0.92647403478622437 0.67465507984161377
0.70014709234237671 0.92369377613067627 0.67352759838104248
0.77990055084228516 0.92895615100860596 0.67613768577575684
0.88033026456832886 0.93817555904388428 0.67379724979400635
0.98919212818145752 0.92711740732192993 0.64887267351150513
0.016339829191565514 0.015716223046183586 0.17360621690750122
0.10821034759283066 0.014914209954440594 0.17846709489822388
0.29081174731254578 0.016656823456287384 0.18621261417865753
0.5064542293548584 0.01912352629005909 0.18532480299472809
0.68261384963989258 0.014403907582163811 0.17504379153251648
0.81899195909500122 0.0055313408374786377 0.14993807673454285
0.9343799352645874 0.01137364748865366 0.12180107086896896
0.058052543550729752 0.14126588404178619 0.25737714767456055
0.14789722859859467 0.13981500267982483 0.26361238956451416
0.3280232846736908 0.14068911969661713 0.26919203996658325
0.52946990728378296 0.14052073657512665 0.26768890023231506
0.69223403930664062 0.12980729341506958 0.2598927915096283
0.82761126756668091 0.10703636705875397 0.22849872708320618
0.94095504283905029 0.098802857100963593 0.19730044901371002
0.051330104470252991 0.34851735830307007 0.35602033138275146
0.1621519923210144 0.35029354691505432 0.36059102416038513
0.36945620179176331 0.34899351000785828 0.36666211485862732
0.55145633220672607 0.34142452478408813 0.3651062548160553
0.69966024160385132 0.33079487085342407 0.3541891872882843
0.83144932985305786 0.31316271424293518 0.32564827799797058
0.94082558155059814 0.30239138007164001 0.30132240056991577
0.14129935204982758 0.5375669002532959 0.45463258028030396
0.25594121217727661 0.54276144504547119 0.46058839559555054
0.41853544116020203 0.54391074180603027 0.46434587240219116
0.57209718227386475 0.53970164060592651 0.4656960666179657
0.7043614387512207 0.53564202785491943 0.45849877595901489
0.82776439189910889 0.52930736541748047 0.4398919939994812
0.93183845281600952 0.52194005250930786 0.41916665434837341
0.31592324376106262 0.68100088834762573 0.54738998413085938
0.39167511463165283 0.6869884729385376 0.55174714326858521
0.48973661661148071 0.68478298187255859 0.55237787961959839
0.60265439748764038 0.68012374639511108 0.55258834362030029
0.71627998352050781 0.6780543327331543 0.5500340461730957
0.83521825075149536 0.67705434560775757 0.53932124376296997
0.9446481466293335 0.67055761814117432 0.51815658807754517
0.4643605649471283 0.80372142791748047 0.63092261552810669
0.50764614343643188 0.81174951791763306 0.63744843006134033
0.56389248371124268 0.80579656362533569 0.63610613346099854
0.64389932155609131 0.79983967542648315 0.63404899835586548
0.73929238319396973 0.8017849326133728 0.63361108303070068
0.85073584318161011 0.80148172378540039 0.62640416622161865
0.95353323221206665 0.7967216968536377 0.60986602306365967
0.56084561347961426 0.9231036901473999 0.70974957942962646
0.59318441152572632 0.93941110372543335 0.72106188535690308
0.63477802276611328 0.93455594778060913 0.72115278244018555
0.69701874256134033 0.92963308095932007 0.71941345930099487
0.77901023626327515 0.93339532613754272 0.72064036130905151
0.88161653280258179 0.93857139348983765 0.71849101781845093
0.99003309011459351 0.93002068996429443 0.70231503248214722
0.012049641460180283 0.0113817248493433 0.29588484764099121
0.095201052725315094 0.013143038377165794 0.29973465204238892
0.2728402316570282 0.015389535576105118 0.30919778347015381
0.49489673972129822 0.013040774501860142 0.31846174597740173
0.66841417551040649 0.010128664784133434 0.31379848718643188
0.80338060855865479 0.0039024802390486002 0.29327040910720825
0.91548651456832886 0.0019063163781538606 0.26237037777900696
0.040129926055669785 0.13153167068958282 0.37206330895423889
0.1343960165977478 0.13255269825458527 0.3757040798664093
0.31295821070671082 0.13744460046291351 0.38440179824829102
0.51653492450714111 0.1368553638458252 0.38897451758384705
0.68211549520492554 0.12208989262580872 0.3868638277053833
0.81426078081130981 0.097037084400653839 0.36785122752189636
0.91333478689193726 0.078678831458091736 0.35038077831268311
0.035885889083147049 0.3444458544254303 0.45721176266670227
0.14365939795970917 0.34502092003822327 0.46155574917793274
0.35683181881904602 0.34094652533531189 0.47020184993743896
0.53966206312179565 0.33687242865562439 0.47277179360389709
0.68921196460723877 0.32275781035423279 0.46899279952049255
0.81658166646957397 0.30257305502891541 0.45561084151268005
0.9197654128074646 0.29068717360496521 0.4428379237651825
0.098133504390716553 0.53872501850128174 0.54125279188156128
0.22649630904197693 0.54070651531219482 0.54649239778518677
0.40341061353683472 0.53970122337341309 0.55206286907196045
0.56134068965911865 0.53985553979873657 0.55657416582107544
0.69398635625839233 0.5356593132019043 0.55580776929855347
0.81770861148834229 0.52447915077209473 0.54733312129974365
0.92695325613021851 0.50851732492446899 0.5335686206817627
0.28893041610717773 0.68067419528961182 0.61761832237243652
0.3706512451171875 0.68313062191009521 0.62075287103652954
0.47676172852516174 0.68179857730865479 0.62258803844451904
0.59286618232727051 0.68056094646453857 0.62642520666122437
0.70730853080749512 0.68093204498291016 0.62820279598236084
0.82669860124588013 0.67667907476425171 0.62385529279708862
0.93835580348968506 0.66697806119918823 0.61260616779327393
0.45963537693023682 0.80554759502410889 0.68992090225219727
0.49660411477088928 0.80684733390808105 0.69222038984298706
0.55233216285705566 0.80370998382568359 0.69206982851028442
0.63630032539367676 0.80442816019058228 0.69453245401382446
0.73137658834457397 0.8035813570022583 0.69576162099838257
0.84175688028335571 0.80179333686828613 0.69267529249191284
0.95436316728591919 0.79926180839538574 0.6859014630317688
0.56375974416732788 0.93235903978347778 0.76288402080535889
0.59088778495788574 0.93860292434692383 0.76857572793960571
0.62814360857009888 0.93822389841079712 0.76901161670684814
0.69095462560653687 0.93851327896118164 0.77005195617675781
0.77217817306518555 0.93832612037658691 0.77211081981658936
0.875407874584198 0.9443855881690979 0.77318894863128662
0.99169349670410156 0.94384181499481201 0.76591795682907104
0.011679406277835369 0.01140696182847023 0.40224868059158325
0.085884615778923035 0.0062616835348308086 0.40442189574241638
0.25795340538024902 0.010357905179262161 0.41537430882453918
0.48131322860717773 0.010368616320192814 0.42794889211654663
0.65772908926010132 0.0032494638580828905 0.42837780714035034
0.79082340002059937 5.6367760407738388e-05 0.42054271697998047
0.89474982023239136 0.00014935662329662591 0.4112858772277832
0.035190179944038391 0.11885968595743179 0.46425959467887878
0.10797747224569321 0.11927428841590881 0.46859133243560791
0.28977566957473755 0.12347042560577393 0.47823265194892883
0.50281804800033569 0.12026693671941757 0.48720091581344604
0.67471164464950562 0.10180629789829254 0.48865804076194763
0.80898791551589966 0.081338085234165192 0.48374223709106445
0.91192746162414551 0.071265667676925659 0.47299763560295105
0.024075496941804886 0.32847446203231812 0.53778046369552612
0.12294088304042816 0.33136627078056335 0.5435105562210083
0.33360320329666138 0.32606250047683716 0.55084651708602905
0.52831065654754639 0.32030200958251953 0.55683499574661255
0.68266427516937256 0.30634975433349609 0.5601993203163147
0.81316208839416504 0.29128167033195496 0.55726450681686401
0.92012423276901245 0.2754177451133728 0.54858851432800293
0.042736485600471497 0.53836923837661743 0.61465805768966675
0.19157668948173523 0.53612065315246582 0.61843043565750122
0.38657236099243164 0.53522992134094238 0.62322640419006348
0.5516430139541626 0.53397643566131592 0.62937301397323608
0.68717002868652344 0.53124243021011353 0.63354480266571045
0.81659847497940063 0.52246785163879395 0.63343018293380737
0.93429523706436157 0.50232815742492676 0.62526321411132812
0.25472483038902283 0.67981994152069092 0.68350064754486084
0.34780058264732361 0.67812591791152954 0.6835860013961792
0.46361806988716125 0.67977434396743774 0.68615126609802246
0.58408159017562866 0.67777049541473389 0.69209808111190796
0.70091158151626587 0.67790800333023071 0.69667506217956543
0.82403701543807983 0.67467039823532104 0.69748014211654663
0.94139206409454346 0.66342788934707642 0.69187575578689575
0.44229325652122498 0.81026655435562134 0.7513156533241272
0.4835822582244873 0.80763536691665649 0.74999958276748657
0.54359948635101318 0.80653655529022217 0.75046050548553467
0.6281273365020752 0.80681890249252319 0.75352388620376587
0.72390633821487427 0.80133312940597534 0.75549966096878052
0.83611947298049927 0.80131268501281738 0.75577694177627563
0.94840872287750244 0.80081087350845337 0.75522565841674805
0.55636733770370483 0.94832360744476318 0.82106071710586548
0.58289754390716553 0.9451439380645752 0.82448017597198486
0.62032443284988403 0.94619649648666382 0.82461893558502197
0.68209803104400635 0.94939875602722168 0.82489925622940063
0.76239109039306641 0.94259476661682129 0.82632690668106079
0.86563777923583984 0.94560021162033081 0.82885539531707764
0.98412621021270752 0.95147556066513062 0.8275686502456665
0.0053012920543551445 0.002004900248721242 0.47541609406471252
0.073073491454124451 0.0010089350398629904 0.48463365435600281
0.23155787587165833 0.0077959396876394749 0.49836421012878418
0.46489125490188599 0.009708150289952755 0.50804871320724487
0.64320498704910278 0.00048355403123423457 0.51040786504745483
0.77945536375045776 0 0.51009142398834229
0.88917785882949829 7.0010915806051344e-05 0.5053943395614624
0.013202203437685966 0.098242878913879395 0.53207719326019287
0.080973304808139801 0.095386043190956116 0.53932887315750122
0.2611716091632843 0.099750041961669922 0.54838836193084717
0.48698174953460693 0.096564993262290955 0.55858558416366577
0.66179120540618896 0.080931268632411957 0.56571793556213379
0.79458492994308472 0.061515390872955322 0.56579005718231201
0.89934003353118896 0.059929449111223221 0.5578874945640564
0.0063971425406634808 0.30906009674072266 0.60233449935913086
0.088345818221569061 0.30729100108146667 0.60714077949523926
0.30592507123947144 0.30488878488540649 0.61602187156677246
0.52001494169235229 0.29653939604759216 0.62476563453674316
0.67619925737380981 0.28175601363182068 0.6308053731918335
0.80491983890533447 0.26463058590888977 0.63128066062927246
0.912395179271698 0.24350477755069733 0.62081789970397949
0.040327604860067368 0.52545994520187378 0.67732864618301392
0.14822708070278168 0.52669757604598999 0.68236088752746582
0.36127209663391113 0.52693825960159302 0.69023615121841431
0.54420477151870728 0.52718722820281982 0.6950802206993103
0.68401283025741577 0.51729691028594971 0.70100480318069458
0.81273633241653442 0.5092780590057373 0.7048875093460083
0.92806476354598999 0.48901182413101196 0.69784003496170044
0.2145264595746994 0.6745908260345459 0.74789988994598389
0.30058941245079041 0.67475956678390503 0.74705159664154053
0.43772086501121521 0.6758008599281311 0.75145971775054932
0.57308328151702881 0.67432081699371338 0.75739240646362305
0.69235575199127197 0.67126613855361938 0.76194149255752563
0.81654495000839233 0.66920530796051025 0.76917350292205811
0.93642574548721313 0.65937912464141846 0.76721847057342529
0.40524303913116455 0.8054194450378418 0.81459563970565796
0.45422911643981934 0.80456018447875977 0.8108208179473877
0.52491658926010132 0.80419999361038208 0.81462746858596802
0.61471372842788696 0.80319428443908691 0.8160516619682312
0.7137901782989502 0.80073338747024536 0.81866627931594849
0.82899421453475952 0.80012810230255127 0.82284629344940186
0.94942772388458252 0.79532784223556519 0.82579278945922852
0.53266268968582153 0.94756507873535156 0.88493388891220093
0.55988967418670654 0.94494915008544922 0.88812661170959473
0.60480058193206787 0.94540166854858398 0.88597375154495239
0.66782945394515991 0.94864296913146973 0.8877633810043335
0.75045430660247803 0.95540124177932739 0.89185696840286255
0.85557478666305542 0.95556855201721191 0.89632487297058105
0.98628300428390503 0.95677858591079712 0.89660269021987915
0.01043701171875 3.0338062060764059e-05 0.52828669548034668
0.082606703042984009 0.00020590389613062143 0.54322057962417603
0.22107754647731781 0.0045122783631086349 0.55753833055496216
0.43330246210098267 0.0017715304857119918 0.56315702199935913
0.61643129587173462 0.00012835334928240627 0.57031536102294922
0.76309621334075928 0.00010501637007109821 0.57530653476715088
0.88475048542022705 0.0080203041434288025 0.57615357637405396
0.014519127085804939 0.078209400177001953 0.58108556270599365
0.086589023470878601 0.079243995249271393 0.5924983024597168
0.25461873412132263 0.075075544416904449 0.5967445969581604
0.47116485238075256 0.075215466320514679 0.60638719797134399
0.64172655344009399 0.074674405157566071 0.62194126844406128
0.7791450023651123 0.062934800982475281 0.62630921602249146
0.89155250787734985 0.070559047162532806 0.62190324068069458
0.00919342041015625 0.28336182236671448 0.65092498064041138
0.086958564817905426 0.28112980723381042 0.65636128187179565
0.28569546341896057 0.27492305636405945 0.66340965032577515
0.50455600023269653 0.27033829689025879 0.67218434810638428
0.66403484344482422 0.26312160491943359 0.68256431818008423
0.79728978872299194 0.24261245131492615 0.68538904190063477
0.90605908632278442 0.21864087879657745 0.67585480213165283
0.022917550057172775 0.5148201584815979 0.72499310970306396
0.10854589194059372 0.51530563831329346 0.72805726528167725
0.33320435881614685 0.51038545370101929 0.73967248201370239
0.5311579704284668 0.51067459583282471 0.74218815565109253
0.67645245790481567 0.4948277473449707 0.75114619731903076
0.80723065137863159 0.48503130674362183 0.75791585445404053
0.91441291570663452 0.48130050301551819 0.75431805849075317
0.19109764695167542 0.66643989086151123 0.79828470945358276
0.26272231340408325 0.66762810945510864 0.79890251159667969
0.40921789407730103 0.6672666072845459 0.80453234910964966
0.55858081579208374 0.66465073823928833 0.81131821870803833
0.68338656425476074 0.66029500961303711 0.81682193279266357
0.80792379379272461 0.65707200765609741 0.82744866609573364
0.92808669805526733 0.6521034836769104 0.8288072943687439
0.37794885039329529 0.79986083507537842 0.86474454402923584
0.42325246334075928 0.79865527153015137 0.8603706955909729
0.50160270929336548 0.79798591136932373 0.8674735426902771
0.59975415468215942 0.79817932844161987 0.87005859613418579
0.70348119735717773 0.79679024219512939 0.87669146060943604
0.82277089357376099 0.79657280445098877 0.88518553972244263
0.94553303718566895 0.79044187068939209 0.89200639724731445
0.51550537347793579 0.95166635513305664 0.93910908699035645
0.53626722097396851 0.94046485424041748 0.93983221054077148
0.58761447668075562 0.94023889303207397 0.93744009733200073
0.65423226356506348 0.94708931446075439 0.94408845901489258
0.73925524950027466 0.95498406887054443 0.95624351501464844
0.84732550382614136 0.96067553758621216 0.96555930376052856
0.984200119972229 0.95871448516845703 0.97199875116348267
