films/kodak_portra_400_uc.cube
# Created by: G'MIC (https://gmic.eu)
TITLE "kodak_portra_400_uc"
# LUT size
LUT_3D_SIZE 13
# Data domain
DOMAIN_MIN 0.0 0.0 0.0
DOMAIN_MAX 1.0 1.0 1.0
# LUT data points
0.033152531832456589 0.047788642346858978 0.047457467764616013
0.072032064199447632 0.051087100058794022 0.044268470257520676
0.13679599761962891 0.056203655898571014 0.042842626571655273
0.22355051338672638 0.063819363713264465 0.036341365426778793
0.33354905247688293 0.064852893352508545 0.025647960603237152
0.46249321103096008 0.057886864989995956 0.012096554972231388
0.59674596786499023 0.047739814966917038 0.0041249594651162624
0.71968317031860352 0.041553780436515808 0.00029745663050562143
0.81873404979705811 0.046006206423044205 0
0.89991432428359985 0.060228072106838226 0
0.96630942821502686 0.092920415103435516 0
0.99908381700515747 0.13658511638641357 0
1 0.18240031599998474 0
0.022768506780266762 0.082340165972709656 0.053093809634447098
0.062754400074481964 0.088849343359470367 0.046464927494525909
0.13620780408382416 0.099837899208068848 0.040455702692270279
0.23296113312244415 0.1120535135269165 0.029689908027648926
0.34378331899642944 0.11908808350563049 0.017717758193612099
0.471038818359375 0.11712472885847092 0.0060251425020396709
0.60647308826446533 0.11277603358030319 0.0010340373264625669
0.72783350944519043 0.10998668521642685 1.2566061968755093e-06
0.82505428791046143 0.11456376314163208 0
0.90397012233734131 0.12687103450298309 0
0.96599215269088745 0.15153662860393524 0
0.99826425313949585 0.18453602492809296 0
1 0.2217620462179184 0
0.0025262122508138418 0.14984190464019775 0.066841110587120056
0.024918036535382271 0.15107859671115875 0.059449709951877594
0.10287533700466156 0.16208136081695557 0.048678949475288391
0.21831199526786804 0.18015196919441223 0.028038203716278076
0.35157826542854309 0.19415475428104401 0.010193184949457645
0.49226942658424377 0.19590103626251221 0.0023320068139582872
0.62822306156158447 0.19598065316677094 0.00010609345918055624
0.74029356241226196 0.19430944323539734 0
0.83017659187316895 0.19607405364513397 0
0.90369820594787598 0.20386643707752228 0
0.96088922023773193 0.21928523480892181 0
0.99528998136520386 0.24219760298728943 0
1 0.27186563611030579 0
0 0.23681747913360596 0.083424374461174011
0.0031286352314054966 0.2352009117603302 0.077524535357952118
0.055279646068811417 0.2424120306968689 0.069521106779575348
0.17245440185070038 0.26319277286529541 0.047239236533641815
0.33762562274932861 0.29289227724075317 0.013126732781529427
0.50680464506149292 0.30317723751068115 0.00039684819057583809
0.64841312170028687 0.29735016822814941 3.2312730127159739e-06
0.75048089027404785 0.28758332133293152 0
0.83412015438079834 0.2841590940952301 0
0.90366679430007935 0.28573596477508545 0
0.95832401514053345 0.29368570446968079 0
0.99269402027130127 0.30813959240913391 0
1 0.33089146018028259 0
0 0.33911976218223572 0.098624259233474731
0 0.33796238899230957 0.096176087856292725
0.01344273891299963 0.34076717495918274 0.093001767992973328
0.1029321551322937 0.35579267144203186 0.078361853957176208
0.27958256006240845 0.38439661264419556 0.044836860150098801
0.47292277216911316 0.41086065769195557 0.0077847647480666637
0.63367825746536255 0.41546827554702759 8.6167283370741643e-06
0.74521017074584961 0.3993755578994751 0
0.83136337995529175 0.38241156935691833 0
0.90289479494094849 0.37578621506690979 0
0.95925772190093994 0.37461727857589722 0
0.99371147155761719 0.38059365749359131 0
1 0.39686229825019836 0
0 0.44140103459358215 0.11709097772836685
0 0.44235911965370178 0.11748209595680237
0.00011810602154582739 0.44288992881774902 0.12027816474437714
0.024190386757254601 0.45031216740608215 0.11519566178321838
0.17462790012359619 0.46770548820495605 0.087197199463844299
0.39489343762397766 0.49069339036941528 0.036682743579149246
0.58195847272872925 0.5114406943321228 0.0065969428978860378
0.71649545431137085 0.51361942291259766 0.00052826822502538562
0.81670272350311279 0.49912342429161072 0
0.89518183469772339 0.48160883784294128 0
0.95821940898895264 0.4652063250541687 0
0.99574881792068481 0.45876404643058777 0
1 0.46791592240333557 0.00023511999461334199
0 0.53208637237548828 0.14750237762928009
0 0.5375249981880188 0.14975200593471527
0 0.53659462928771973 0.15595774352550507
0.0058057000860571861 0.53750008344650269 0.15653330087661743
0.11333936452865601 0.54698413610458374 0.13793888688087463
0.31415992975234985 0.5637061595916748 0.10179019719362259
0.50749248266220093 0.58358615636825562 0.066296026110649109
0.6614418625831604 0.60181629657745361 0.032056994736194611
0.78168201446533203 0.60578590631484985 0.0069016399793326855
0.87089544534683228 0.59041762351989746 0.0010051801800727844
0.94181907176971436 0.56695032119750977 0
0.98707413673400879 0.5491524338722229 0
0.99963581562042236 0.54393947124481201 0.00041967653669416904
0 0.61423051357269287 0.19017016887664795
0 0.61964428424835205 0.19255480170249939
0 0.61812525987625122 0.20025447010993958
0.0019530950812622905 0.61625343561172485 0.20548054575920105
0.068596422672271729 0.62197774648666382 0.1963430643081665
0.24600304663181305 0.63438624143600464 0.17796345055103302
0.43809676170349121 0.64811819791793823 0.15214157104492188
0.59103906154632568 0.66232907772064209 0.11636481434106827
0.72327888011932373 0.6773076057434082 0.073943585157394409
0.82926595211029053 0.67784625291824341 0.041512478142976761
0.91158992052078247 0.66867297887802124 0.006782950833439827
0.96787792444229126 0.65169632434844971 9.8733344202628359e-06
0.99706488847732544 0.6349937915802002 4.7062891098903492e-05
0 0.6905866265296936 0.24453045427799225
0 0.69363069534301758 0.24577505886554718
0 0.69249403476715088 0.2530730664730072
1.2925092050863896e-05 0.69070470333099365 0.25953176617622375
0.026032974943518639 0.69323199987411499 0.2578461766242981
0.18928234279155731 0.70128262042999268 0.24913814663887024
0.38725939393043518 0.7107422947883606 0.23414613306522369
0.53869509696960449 0.7204442024230957 0.21319200098514557
0.66536045074462891 0.73188108205795288 0.18751631677150726
0.77799040079116821 0.74202364683151245 0.15844982862472534
0.87795311212539673 0.75266027450561523 0.10282951593399048
0.95048612356185913 0.74801486730575562 0.045569580048322678
0.99442076683044434 0.73392003774642944 0.023250401020050049
5.4931639169808477e-05 0.76167124509811401 0.31096220016479492
0.00015896068362053484 0.76362645626068115 0.3140377402305603
0.0010970620205625892 0.76228612661361694 0.32090991735458374
0.019422583281993866 0.76023858785629272 0.32820326089859009
0.087766088545322418 0.76051479578018188 0.33086970448493958
0.22739095985889435 0.76445972919464111 0.32942834496498108
0.38810005784034729 0.77039802074432373 0.32435345649719238
0.51939892768859863 0.77698314189910889 0.31513491272926331
0.62918347120285034 0.78389453887939453 0.30272606015205383
0.73188316822052002 0.79238766431808472 0.2889554500579834
0.83422565460205078 0.80556243658065796 0.26574641466140747
0.92101335525512695 0.8150293231010437 0.22995367646217346
0.98307442665100098 0.8137248158454895 0.18311671912670135
0.070003107190132141 0.8249213695526123 0.39976993203163147
0.078795447945594788 0.82621175050735474 0.40717664361000061
0.087153322994709015 0.82570785284042358 0.41261002421379089
0.1523369699716568 0.8235008716583252 0.41992080211639404
0.24663069844245911 0.82183241844177246 0.42293307185173035
0.34661164879798889 0.82332062721252441 0.42826384305953979
0.44868278503417969 0.82675927877426147 0.43169891834259033
0.5429731011390686 0.83132320642471313 0.42829379439353943
0.62737834453582764 0.83623450994491577 0.4190516471862793
0.70914578437805176 0.83993786573410034 0.40905869007110596
0.79351729154586792 0.84424084424972534 0.39628860354423523
0.88076108694076538 0.85690420866012573 0.39456385374069214
0.95108616352081299 0.86613833904266357 0.37756407260894775
0.28720724582672119 0.87820202112197876 0.51211249828338623
0.31473788619041443 0.88164222240447998 0.52705055475234985
0.32156547904014587 0.88178998231887817 0.53346556425094604
0.35904315114021301 0.87956744432449341 0.53630590438842773
0.42303946614265442 0.87814092636108398 0.53828209638595581
0.48549097776412964 0.87789744138717651 0.54807370901107788
0.54516023397445679 0.87951332330703735 0.55722427368164062
0.60401970148086548 0.88319647312164307 0.55598914623260498
0.66253751516342163 0.8872450590133667 0.55069810152053833
0.72376453876495361 0.88961893320083618 0.54457259178161621
0.78934121131896973 0.8928370475769043 0.53824901580810547
0.85801869630813599 0.90050745010375977 0.53648978471755981
0.92047005891799927 0.90837651491165161 0.52926397323608398
0.48751479387283325 0.92591285705566406 0.62045234441757202
0.53425145149230957 0.93023175001144409 0.64176154136657715
0.5443272590637207 0.93080681562423706 0.65169596672058105
0.55438119173049927 0.92946469783782959 0.65511703491210938
0.57620483636856079 0.92811739444732666 0.65870249271392822
0.61023890972137451 0.92772281169891357 0.67093604803085327
0.6470339298248291 0.9288027286529541 0.68288141489028931
0.6804770827293396 0.93219459056854248 0.6810905933380127
0.71825492382049561 0.93641644716262817 0.68030267953872681
0.76181310415267944 0.93951636552810669 0.6779707670211792
0.80954009294509888 0.94269740581512451 0.67303210496902466
0.85954034328460693 0.9476085901260376 0.67152243852615356
0.90933024883270264 0.95327192544937134 0.66722971200942993
0.026542918756604195 0.051107324659824371 0.088117800652980804
0.073787778615951538 0.049638036638498306 0.083455659449100494
0.13698764145374298 0.049292471259832382 0.0821700319647789
0.22237852215766907 0.047760307788848877 0.08009994775056839
0.33058333396911621 0.046977084130048752 0.079857409000396729
0.46024119853973389 0.036050159484148026 0.073087818920612335
0.60024917125701904 0.02365742065012455 0.06360771507024765
0.72721320390701294 0.020950138568878174 0.049203522503376007
0.82336246967315674 0.029676923528313637 0.039760664105415344
0.89967566728591919 0.042530208826065063 0.020830895751714706
0.96236902475357056 0.083595022559165955 0.013194993138313293
0.99647742509841919 0.13486006855964661 0.0096876258030533791
1 0.18398353457450867 0.0041425516828894615
0.018004069104790688 0.092982709407806396 0.093954049050807953
0.070041283965110779 0.09414277970790863 0.090401865541934967
0.14503660798072815 0.10070299357175827 0.088810771703720093
0.23684670031070709 0.10566695034503937 0.081527397036552429
0.34877032041549683 0.10671240091323853 0.073870822787284851
0.47547510266304016 0.10326965898275375 0.061912521719932556
0.61183136701583862 0.097773037850856781 0.051888950169086456
0.73253738880157471 0.096612311899662018 0.041327711194753647
0.82740122079849243 0.10618708282709122 0.031074434518814087
0.90411567687988281 0.11903436481952667 0.0186628308147192
0.96609145402908325 0.14730608463287354 0.0094390567392110825
0.99805706739425659 0.18178161978721619 0.0042118597775697708
1 0.21964654326438904 0.0028673657216131687
0.0053018755279481411 0.15879382193088531 0.10679997503757477
0.045895565301179886 0.16221456229686737 0.10451384633779526
0.12761689722537994 0.17099818587303162 0.1000959649682045
0.23682710528373718 0.18036408722400665 0.084691517055034637
0.3670598566532135 0.18975070118904114 0.066063478589057922
0.50329697132110596 0.19176705181598663 0.050204183906316757
0.63396733999252319 0.19219812750816345 0.040422864258289337
0.74344086647033691 0.18966072797775269 0.027468632906675339
0.83078831434249878 0.19269280135631561 0.016157591715455055
0.90318721532821655 0.20075386762619019 0.0093574374914169312
0.96107751131057739 0.21608620882034302 0.0055195675231516361
0.99403482675552368 0.23899491131305695 0.002048552269116044
1 0.26960232853889465 0.00060095696244388819
0.00036549288779497147 0.2447955310344696 0.12946254014968872
0.016998082399368286 0.24834355711936951 0.12587064504623413
0.074830330908298492 0.25537434220314026 0.12122883647680283
0.19057708978652954 0.27216815948486328 0.10543140769004822
0.35787680745124817 0.29518845677375793 0.075821131467819214
0.52063030004501343 0.30242505669593811 0.04190661758184433
0.65208202600479126 0.29437997937202454 0.030737828463315964
0.7533307671546936 0.28434163331985474 0.015111197717487812
0.83538228273391724 0.28125977516174316 0.0046450896188616753
0.90395575761795044 0.28339964151382446 0.0018114575650542974
0.95866000652313232 0.29110407829284668 0.00096314371330663562
0.99189549684524536 0.30540278553962708 0.00074774050153791904
1 0.32895097136497498 0.0017978892428800464
0 0.35009434819221497 0.15074647963047028
0.0005333246081136167 0.35186061263084412 0.14913937449455261
0.012961593456566334 0.35312911868095398 0.1458798348903656
0.11318323761224747 0.36676707863807678 0.13748690485954285
0.29858684539794922 0.39101234078407288 0.11608530580997467
0.49031761288642883 0.41360324621200562 0.06209251657128334
0.64327430725097656 0.41265738010406494 0.025691745802760124
0.75037926435470581 0.3932768702507019 0.009016912430524826
0.83492326736450195 0.3787878155708313 0.0012041428126394749
0.90453869104385376 0.37271279096603394 0
0.9596477746963501 0.37158465385437012 0
0.99229925870895386 0.37881150841712952 6.582222908946278e-07
1 0.39626213908195496 0.0012358123203739524
0 0.45345252752304077 0.16759105026721954
0 0.45590269565582275 0.16744363307952881
0.00047929052379913628 0.45473453402519226 0.16730795800685883
0.0470859594643116 0.45949000120162964 0.16725119948387146
0.21274058520793915 0.47442722320556641 0.15160711109638214
0.41667136549949646 0.49627026915550232 0.10808232426643372
0.59388238191604614 0.51318365335464478 0.052837327122688293
0.72232300043106079 0.50977540016174316 0.015065944753587246
0.82079660892486572 0.49485078454017639 0.0020135168451815844
0.89896529912948608 0.47580751776695251 0.00036054124939255416
0.9584352970123291 0.4589596688747406 0.00031018725712783635
0.99183350801467896 0.45776247978210449 0
1 0.46872934699058533 0.00022734099184162915
0 0.54125517606735229 0.18924435973167419
0 0.54684996604919434 0.19152447581291199
0 0.54561513662338257 0.19522967934608459
0.012261169962584972 0.54473340511322021 0.19899821281433105
0.13860131800174713 0.55181390047073364 0.18985795974731445
0.33489251136779785 0.56718385219573975 0.1632758229970932
0.51844549179077148 0.58451038599014282 0.12548790872097015
0.66662585735321045 0.59848374128341675 0.080997422337532043
0.78816962242126465 0.60398942232131958 0.029691614210605621
0.87670952081680298 0.58766573667526245 0.005244281142950058
0.9427330493927002 0.56362569332122803 0.00017406987899448723
0.98394793272018433 0.54966551065444946 0
0.9994853138923645 0.54727542400360107 0
0 0.62141400575637817 0.22653938829898834
0 0.62600362300872803 0.22875168919563293
0 0.62482261657714844 0.23434466123580933
0.0051260855980217457 0.62254571914672852 0.23910540342330933
0.10031241923570633 0.62590944766998291 0.23588201403617859
0.27534151077270508 0.6358950138092041 0.22274242341518402
0.45138859748840332 0.64719998836517334 0.20325616002082825
0.59596848487854004 0.65889197587966919 0.17237213253974915
0.73060804605484009 0.67867815494537354 0.11511519551277161
0.83703035116195679 0.68092787265777588 0.071937546133995056
0.9142385721206665 0.67000722885131836 0.021620357409119606
0.96822768449783325 0.65312319993972778 0.0017821368528530002
0.99754077196121216 0.63832783699035645 0.0015434265369549394
0 0.69607412815093994 0.27681812644004822
0 0.69875884056091309 0.27702739834785461
1.3164445590518881e-05 0.69729423522949219 0.28238785266876221
0.0084580369293689728 0.69496661424636841 0.28860235214233398
0.089981243014335632 0.69613581895828247 0.28983470797538757
0.24629145860671997 0.70233738422393799 0.28413039445877075
0.41409260034561157 0.71043902635574341 0.27325144410133362
0.54770028591156006 0.71860772371292114 0.2576850950717926
0.67217576503753662 0.73272490501403809 0.23419016599655151
0.78723853826522827 0.74520719051361084 0.20803271234035492
0.88067841529846191 0.75242745876312256 0.14895917475223541
0.94939756393432617 0.74614721536636353 0.089498437941074371
0.99353545904159546 0.73258715867996216 0.072440549731254578
0.0026509901508688927 0.76445835828781128 0.34003296494483948
0.0057323528453707695 0.76597481966018677 0.34019070863723755
0.017643183469772339 0.76477253437042236 0.34637090563774109
0.060230597853660583 0.7622992992401123 0.35366237163543701
0.14888504147529602 0.76221829652786255 0.35764309763908386
0.27629914879798889 0.76530545949935913 0.35618603229522705
0.41278037428855896 0.77045607566833496 0.35141393542289734
0.52938240766525269 0.77673608064651489 0.34541410207748413
0.6348186731338501 0.78459382057189941 0.33531072735786438
0.73770195245742798 0.793121337890625 0.322803795337677
0.83632576465606689 0.803505539894104 0.29950752854347229
0.91861093044281006 0.80970549583435059 0.26261821389198303
0.98041963577270508 0.81011050939559937 0.24079012870788574
0.11165966093540192 0.82547122240066528 0.42565193772315979
0.12316958606243134 0.82635855674743652 0.42784446477890015
0.14623744785785675 0.82579714059829712 0.43440887331962585
0.20001749694347382 0.82520657777786255 0.44190102815628052
0.28004917502403259 0.82236689329147339 0.44577324390411377
0.36967936158180237 0.82502520084381104 0.44699251651763916
0.46049168705940247 0.82711052894592285 0.44717887043952942
0.5484696626663208 0.83152425289154053 0.44560086727142334
0.62898802757263184 0.83648991584777832 0.43688479065895081
0.71238750219345093 0.83925795555114746 0.42921316623687744
0.79749542474746704 0.84261292219161987 0.41705891489982605
0.87942516803741455 0.85216844081878662 0.40653467178344727
0.94863307476043701 0.86155790090560913 0.40033501386642456
0.3315243124961853 0.87925297021865845 0.53261876106262207
0.34343200922012329 0.88204234838485718 0.53969979286193848
0.35585272312164307 0.88214701414108276 0.54734373092651367
0.38980790972709656 0.88079285621643066 0.5529516339302063
0.44133162498474121 0.87900280952453613 0.55598384141921997
0.49564367532730103 0.87892776727676392 0.56076329946517944
0.54994070529937744 0.88081663846969604 0.56521081924438477
0.60586535930633545 0.88354486227035522 0.56513965129852295
0.66240829229354858 0.88685148954391479 0.55991315841674805
0.72422599792480469 0.88861358165740967 0.55501961708068848
0.79069000482559204 0.89100956916809082 0.55009108781814575
0.85762554407119751 0.89644449949264526 0.54193365573883057
0.91882473230361938 0.90397024154663086 0.53390318155288696
0.52272617816925049 0.92863428592681885 0.64073008298873901
0.54578030109405518 0.93156057596206665 0.65221524238586426
0.55688738822937012 0.93237364292144775 0.66182428598403931
0.57139712572097778 0.93070590496063232 0.66795778274536133
0.59079527854919434 0.9303017258644104 0.67153471708297729
0.6179007887840271 0.92992347478866577 0.67865890264511108
0.64831215143203735 0.93046224117279053 0.68534767627716064
0.68101829290390015 0.93301081657409668 0.68609678745269775
0.71735972166061401 0.93575352430343628 0.68437284231185913
0.76054227352142334 0.93854683637619019 0.68364197015762329
0.80942165851593018 0.94203174114227295 0.68365663290023804
0.85976314544677734 0.94588547945022583 0.67680680751800537
0.91034597158432007 0.9510190486907959 0.66672712564468384
0.016281247138977051 0.054883562028408051 0.15410222113132477
0.072828151285648346 0.052747614681720734 0.15334503352642059
0.13975398242473602 0.054668217897415161 0.15373122692108154
0.21818931400775909 0.05270138755440712 0.15238414704799652
0.32290905714035034 0.041353039443492889 0.15245778858661652
0.45216181874275208 0.020267171785235405 0.14986966550350189
0.600574791431427 0.0098605137318372726 0.14294174313545227
0.72591060400009155 0.011153082363307476 0.14415156841278076
0.82063108682632446 0.027046831324696541 0.1406499445438385
0.89582979679107666 0.05011049285531044 0.12400636821985245
0.95666521787643433 0.10374689847230911 0.11014151573181152
0.99153274297714233 0.15420156717300415 0.10057763755321503
0.99961715936660767 0.19947177171707153 0.087760582566261292
0.0075272056274116039 0.10401251167058945 0.1576235443353653
0.063176371157169342 0.10258130729198456 0.16091234982013702
0.14544689655303955 0.10620395094156265 0.16334475576877594
0.23464673757553101 0.1078716516494751 0.15930211544036865
0.34616172313690186 0.10116710513830185 0.15531209111213684
0.47687059640884399 0.090375177562236786 0.15123967826366425
0.61631792783737183 0.082572922110557556 0.15223275125026703
0.73319941759109497 0.082771718502044678 0.14860066771507263
0.82463175058364868 0.10860957950353622 0.13934370875358582
0.89883232116699219 0.12495499849319458 0.12332101166248322
0.95834636688232422 0.15827429294586182 0.10936710238456726
0.99404990673065186 0.1942208856344223 0.093888811767101288
1 0.23070338368415833 0.08567269891500473
0.0026353274006396532 0.17077037692070007 0.1640344113111496
0.049341596662998199 0.17409075796604156 0.17079649865627289
0.147046759724617 0.17981694638729095 0.17659947276115417
0.25105386972427368 0.1855759471654892 0.1703639030456543
0.37559214234352112 0.18782612681388855 0.15929639339447021
0.51425457000732422 0.18516688048839569 0.15116012096405029
0.64173382520675659 0.19169639050960541 0.1498337984085083
0.74403840303421021 0.19145426154136658 0.14019955694675446
0.82864606380462646 0.19943682849407196 0.12564505636692047
0.90066659450531006 0.20723702013492584 0.11259701102972031
0.95915883779525757 0.22449338436126709 0.099047578871250153
0.99303323030471802 0.24801519513130188 0.083787910640239716
1 0.27841126918792725 0.074966654181480408
0.00033228256506845355 0.25891333818435669 0.18841615319252014
0.032396160066127777 0.26566037535667419 0.19173553586006165
0.1217440590262413 0.27293786406517029 0.19671694934368134
0.23210212588310242 0.28521642088890076 0.19189900159835815
0.38399788737297058 0.2979854941368103 0.17580428719520569
0.53625017404556274 0.29868873953819275 0.15278768539428711
0.65766698122024536 0.29373079538345337 0.13529324531555176
0.75370794534683228 0.2888982892036438 0.1196468248963356
0.83320969343185425 0.28756257891654968 0.10135672986507416
0.90260213613510132 0.29012051224708557 0.088141284883022308
0.95984530448913574 0.29852887988090515 0.077765427529811859
0.99442142248153687 0.31232759356498718 0.072704747319221497
1 0.33611118793487549 0.072786204516887665
0 0.36752846837043762 0.22224950790405273
0.010880488902330399 0.37360316514968872 0.22678124904632568
0.062897838652133942 0.3748224675655365 0.22254647314548492
0.17180114984512329 0.38522693514823914 0.21797686815261841
0.33998742699623108 0.40488356351852417 0.20379945635795593
0.51458287239074707 0.41815659403800964 0.17162719368934631
0.65308481454849243 0.40780988335609436 0.13095299899578094
0.7535102367401123 0.38862320780754089 0.098773211240768433
0.83322852849960327 0.37946623563766479 0.076288960874080658
0.9025646448135376 0.37726122140884399 0.060981780290603638
0.95936566591262817 0.37726444005966187 0.056929182261228561
0.9940793514251709 0.38499221205711365 0.046218331903219223
1 0.40242239832878113 0.053363680839538574
7.8418204793706536e-05 0.47117391228675842 0.25049674510955811
0.0060659521259367466 0.47607740759849548 0.24797491729259491
0.025734590366482735 0.47416424751281738 0.24058088660240173
0.10081823170185089 0.47628387808799744 0.23962509632110596
0.259632408618927 0.48738965392112732 0.23238590359687805
0.44500726461410522 0.50207674503326416 0.20991994440555573
0.60566836595535278 0.50823616981506348 0.16194631159305573
0.72818034887313843 0.50374698638916016 0.10557427257299423
0.82132613658905029 0.49053880572319031 0.073319979012012482
0.89639878273010254 0.47316974401473999 0.055168960243463516
0.95628434419631958 0.46173924207687378 0.046040523797273636
0.99196207523345947 0.46260082721710205 0.025759931653738022
1 0.47238919138908386 0.029719108715653419
0.0068355933763086796 0.5569387674331665 0.26952454447746277
