films/kodak_kodachrome_25.cube
# Created by: G'MIC (https://gmic.eu)
TITLE "kodak_kodachrome_25"
# LUT size
LUT_3D_SIZE 7
# Data domain
DOMAIN_MIN 0.0 0.0 0.0
DOMAIN_MAX 1.0 1.0 1.0
# LUT data points
0.017780723050236702 0.013932665809988976 0.018200788646936417
0.08187345415353775 0.016785940155386925 0.0087817925959825516
0.20858888328075409 0.015260718762874603 0.0088965026661753654
0.48462200164794922 0.014940792694687843 0.0021039925049990416
0.88700056076049805 0.026260105893015862 0.0038067088462412357
1 0.11389719694852829 0.052268803119659424
0.99997198581695557 0.31223756074905396 0.18882697820663452
0.080404110252857208 0.15061001479625702 0.074058160185813904
0.1592620313167572 0.15471832454204559 0.069328576326370239
0.34354409575462341 0.16279873251914978 0.059146717190742493
0.61313599348068237 0.17892482876777649 0.048805549740791321
0.85118871927261353 0.24061520397663116 0.079016439616680145
0.95529240369796753 0.34890419244766235 0.14441496133804321
0.99982678890228271 0.44721156358718872 0.23976020514965057
0.13498702645301819 0.42501696944236755 0.20733146369457245
0.26501429080963135 0.41805216670036316 0.19537019729614258
0.45252901315689087 0.42566078901290894 0.18065744638442993
0.62243646383285522 0.43920749425888062 0.17769381403923035
0.7734648585319519 0.4643898606300354 0.18075305223464966
0.89293015003204346 0.50541609525680542 0.2034401148557663
0.99479573965072632 0.54955565929412842 0.25307705998420715
0.46563312411308289 0.60971814393997192 0.28780046105384827
0.50517016649246216 0.61135661602020264 0.28417879343032837
0.5700344443321228 0.61164814233779907 0.27320832014083862
0.66220599412918091 0.61435461044311523 0.26054412126541138
0.76293951272964478 0.62093490362167358 0.25785678625106812
0.87469756603240967 0.63214832544326782 0.26014566421508789
0.99099850654602051 0.65352994203567505 0.26630589365959167
0.62548798322677612 0.74261474609375 0.3516019880771637
0.63858640193939209 0.73737156391143799 0.34910613298416138
0.67171245813369751 0.74004054069519043 0.34435358643531799
0.72952258586883545 0.74333155155181885 0.33630397915840149
0.8015742301940918 0.74743729829788208 0.32923656702041626
0.90068823099136353 0.74973732233047485 0.32281768321990967
0.99792754650115967 0.76005429029464722 0.31621208786964417
0.73908537626266479 0.87527704238891602 0.41714709997177124
0.7562333345413208 0.87731754779815674 0.42121893167495728
0.77668225765228271 0.87720614671707153 0.4194091260433197
0.81902861595153809 0.87916773557662964 0.4163634181022644
0.87376445531845093 0.87880557775497437 0.41008180379867554
0.94611489772796631 0.87790828943252563 0.40094009041786194
1 0.88449269533157349 0.38813140988349915
0.86836928129196167 0.98976939916610718 0.47376829385757446
0.8897559642791748 0.99495261907577515 0.48204043507575989
0.90996980667114258 0.99619048833847046 0.48345407843589783
0.93461143970489502 0.9962470531463623 0.48133504390716553
0.96733593940734863 0.99419981241226196 0.47369706630706787
0.99725925922393799 0.99041402339935303 0.46226105093955994
1 0.99110949039459229 0.45131316781044006
0.0014117222744971514 0.0065803676843643188 0.11814148724079132
0.044060591608285904 0.01166356448084116 0.13048236072063446
0.16689570248126984 0.0047650956548750401 0.12482932955026627
0.44880464673042297 0.0081962281838059425 0.10531499236822128
0.8534245491027832 0.025407962501049042 0.07562912255525589
0.99991744756698608 0.11887304484844208 0.15441103279590607
1 0.30762720108032227 0.30223923921585083
0.051186610013246536 0.13161668181419373 0.14699582755565643
0.13193871080875397 0.1389450877904892 0.15231871604919434
0.30877253413200378 0.15053369104862213 0.15218056738376617
0.58934396505355835 0.1583845317363739 0.14585199952125549
0.83186715841293335 0.22239314019680023 0.18486315011978149
0.93717283010482788 0.33487731218338013 0.27772831916809082
0.99681872129440308 0.43810164928436279 0.36892062425613403
0.099832050502300262 0.41534969210624695 0.24879467487335205
0.23634599149227142 0.41356652975082397 0.24381297826766968
0.43091771006584167 0.41894644498825073 0.24268145859241486
0.60568356513977051 0.43381679058074951 0.24631120264530182
0.75378262996673584 0.45897045731544495 0.26983019709587097
0.875873863697052 0.49789714813232422 0.3135068416595459
0.98241680860519409 0.54355698823928833 0.37470120191574097
0.45462670922279358 0.6075432300567627 0.29488363862037659
0.50147676467895508 0.60998058319091797 0.28510203957557678
0.56564676761627197 0.61107116937637329 0.28678134083747864
0.65925943851470947 0.61343377828598022 0.27903640270233154
0.7593313455581665 0.61717265844345093 0.28766641020774841
0.87068772315979004 0.62710040807723999 0.31147584319114685
0.98676937818527222 0.64934170246124268 0.32929122447967529
0.62176346778869629 0.74197298288345337 0.34811919927597046
0.63781982660293579 0.74034249782562256 0.34000757336616516
0.67258602380752563 0.73898220062255859 0.33985462784767151
0.73017024993896484 0.74195951223373413 0.32905632257461548
0.80246549844741821 0.74584400653839111 0.32465752959251404
0.90198558568954468 0.74920141696929932 0.32338631153106689
0.99776732921600342 0.76320034265518188 0.31470122933387756
0.75022894144058228 0.87757307291030884 0.41455653309822083
0.7509123682975769 0.87467557191848755 0.4188799262046814
0.77886319160461426 0.87574964761734009 0.41901656985282898
0.81696420907974243 0.87714123725891113 0.41532742977142334
0.87339180707931519 0.88121289014816284 0.40962564945220947
0.94845134019851685 0.88042318820953369 0.39912647008895874
1 0.88921242952346802 0.38842913508415222
0.89481616020202637 0.99617183208465576 0.48074117302894592
0.8919711709022522 0.99473041296005249 0.48636782169342041
0.91020804643630981 0.99605691432952881 0.48775702714920044
0.93705582618713379 0.99626225233078003 0.4857843816280365
0.96978592872619629 0.99636000394821167 0.47833192348480225
0.99561780691146851 0.99207466840744019 0.46599292755126953
1 0.99690353870391846 0.4617798924446106
4.5955883251735941e-05 0.005596803966909647 0.25388872623443604
0.011257754638791084 0.0022821314632892609 0.25473499298095703
0.12265755236148834 0.00091762171359732747 0.24511529505252838
0.40720921754837036 0.0028193604666739702 0.21462374925613403
0.83617269992828369 0.016954174265265465 0.16348686814308167
0.99996232986450195 0.12864942848682404 0.2393525093793869
1 0.30762156844139099 0.37563034892082214
0.019072633236646652 0.11688033491373062 0.30544427037239075
0.094199642539024353 0.1202823594212532 0.30817326903343201
0.25864905118942261 0.12590758502483368 0.30252900719642639
0.55271017551422119 0.13301928341388702 0.28710535168647766
0.82052630186080933 0.19234053790569305 0.30509614944458008
0.93029457330703735 0.31606227159500122 0.38269731402397156
0.994456946849823 0.42980706691741943 0.45631206035614014
0.079151064157485962 0.38750508427619934 0.40795296430587769
0.15236745774745941 0.39677160978317261 0.41825950145721436
0.37104567885398865 0.39626303315162659 0.41087630391120911
0.56656599044799805 0.41231527924537659 0.41804474592208862
0.71706044673919678 0.44575846195220947 0.43635034561157227
0.84884464740753174 0.48610648512840271 0.46378180384635925
0.96017968654632568 0.5361289381980896 0.5076184868812561
0.42291310429573059 0.60474634170532227 0.4168737530708313
0.45550945401191711 0.60225635766983032 0.41519725322723389
0.52508050203323364 0.60184192657470703 0.42151099443435669
0.62289482355117798 0.60386508703231812 0.42686441540718079
0.72121173143386841 0.60817831754684448 0.44920343160629272
0.8335680365562439 0.61873197555541992 0.47717133164405823
0.95776861906051636 0.64027082920074463 0.51628869771957397
0.61487364768981934 0.736308753490448 0.36639630794525146
0.63035362958908081 0.73642653226852417 0.36140316724777222
0.66427707672119141 0.73653554916381836 0.36667957901954651
0.72189426422119141 0.73935294151306152 0.36392670869827271
0.79246342182159424 0.74050688743591309 0.37216150760650635
0.88785815238952637 0.7443850040435791 0.38471817970275879
0.98740625381469727 0.75683397054672241 0.42123886942863464
0.74903178215026855 0.87509059906005859 0.39787033200263977
0.74904865026473999 0.87259900569915771 0.40933519601821899
0.77480530738830566 0.87678790092468262 0.40922930836677551
0.81985831260681152 0.87997275590896606 0.40335926413536072
0.87230300903320312 0.87968981266021729 0.39838951826095581
0.95063984394073486 0.87994301319122314 0.38797405362129211
1 0.88877129554748535 0.38899531960487366
0.88962280750274658 0.99390208721160889 0.47058403491973877
0.88902962207794189 0.99146431684494019 0.47947517037391663
0.91811800003051758 0.99678033590316772 0.48288843035697937
0.94109392166137695 0.99615347385406494 0.48095709085464478
0.96439367532730103 0.99166297912597656 0.47008469700813293
0.99483835697174072 0.99192267656326294 0.46244800090789795
1 0.9986724853515625 0.46678254008293152
0 5.834242983837612e-05 0.32770201563835144
0.00074373133247718215 0 0.322794109582901
0.085218243300914764 0 0.31061318516731262
0.36761516332626343 0.00075668632052838802 0.27415895462036133
0.81930315494537354 0.009756455197930336 0.20826202630996704
1 0.083928309381008148 0.26562219858169556
1 0.27989986538887024 0.40907680988311768
0.002546587260439992 0.096931234002113342 0.39214080572128296
0.057983741164207458 0.086528986692428589 0.38294506072998047
0.22045506536960602 0.091570384800434113 0.37148907780647278
0.5048290491104126 0.10473263263702393 0.35501205921173096
0.81500953435897827 0.15493427217006683 0.3536837100982666
0.93169265985488892 0.28224223852157593 0.427742600440979
0.99472993612289429 0.42033135890960693 0.50974059104919434
0.01841340959072113 0.35949751734733582 0.52690452337265015
0.097619347274303436 0.36587592959403992 0.52394837141036987
0.32272729277610779 0.36859250068664551 0.51399844884872437
0.53679293394088745 0.38828673958778381 0.50927507877349854
0.70150578022003174 0.42361626029014587 0.52395921945571899
0.83623981475830078 0.46938022971153259 0.54939049482345581
0.95377784967422485 0.52742117643356323 0.57480251789093018
0.3041422963142395 0.59133923053741455 0.61553347110748291
0.36153033375740051 0.58979177474975586 0.61374545097351074
0.45836156606674194 0.58837908506393433 0.61276602745056152
0.56817442178726196 0.59138399362564087 0.60479259490966797
0.67838150262832642 0.59703689813613892 0.61092805862426758
0.79568040370941162 0.60970807075500488 0.62186509370803833
0.92843019962310791 0.63587421178817749 0.62940752506256104
0.54091930389404297 0.72406363487243652 0.5940740704536438
0.56081891059875488 0.72545719146728516 0.58839213848114014
0.59654408693313599 0.72446638345718384 0.60026097297668457
0.65417790412902832 0.727242112159729 0.60257834196090698
0.72831159830093384 0.72933733463287354 0.61635416746139526
0.82396936416625977 0.73240017890930176 0.63628315925598145
0.95830744504928589 0.74588602781295776 0.65235507488250732
0.72966307401657104 0.87617737054824829 0.43871772289276123
0.73663508892059326 0.87634056806564331 0.44897344708442688
0.76251602172851562 0.87631165981292725 0.45275291800498962
0.79699760675430298 0.8764578104019165 0.46904706954956055
0.85739004611968994 0.87613129615783691 0.45737767219543457
0.92631810903549194 0.87709289789199829 0.48882398009300232
0.99426007270812988 0.88323855400085449 0.51547646522521973
0.89523106813430786 0.99680638313293457 0.47627672553062439
0.89091134071350098 0.9923061728477478 0.46518915891647339
0.90796297788619995 0.99411827325820923 0.47239071130752563
0.92950987815856934 0.99363070726394653 0.46700355410575867
0.96833604574203491 0.99611657857894897 0.46713757514953613
0.99888157844543457 0.99765807390213013 0.44401711225509644
1 0.99926471710205078 0.46177533268928528
0 0 0.37580156326293945
0 0 0.37556493282318115
0.045841246843338013 0 0.3652707040309906
0.28940105438232422 0 0.33083736896514893
0.77632850408554077 0.0012674368917942047 0.25234684348106384
0.99972617626190186 0.024373477324843407 0.27206632494926453
0.99996966123580933 0.23477049171924591 0.43128195405006409
0.00011740291665773839 0.05722413957118988 0.43781366944313049
0.02106691338121891 0.049339205026626587 0.43045097589492798
0.15705569088459015 0.05441531166434288 0.41864112019538879
0.45218536257743835 0.057701140642166138 0.39216217398643494
0.80870717763900757 0.099008403718471527 0.37856015563011169
0.94712883234024048 0.22853443026542664 0.45319542288780212
0.99451363086700439 0.39035153388977051 0.5468258261680603
0.0095674255862832069 0.30750307440757751 0.57114917039871216
0.052638635039329529 0.31395751237869263 0.56827980279922485
0.26472657918930054 0.31860116124153137 0.55807209014892578
0.519703209400177 0.3383655846118927 0.54907101392745972
0.68902826309204102 0.39176276326179504 0.56821930408477783
0.83733165264129639 0.44246348738670349 0.59676021337509155
0.95152044296264648 0.51573044061660767 0.62923365831375122
0.23187942802906036 0.57035136222839355 0.69291877746582031
0.29698538780212402 0.57087695598602295 0.6879388689994812
0.4073823094367981 0.57025641202926636 0.68293428421020508
0.53739386796951294 0.57575583457946777 0.67754000425338745
0.65539240837097168 0.58270245790481567 0.68148541450500488
0.78121811151504517 0.59721273183822632 0.69260013103485107
0.91519075632095337 0.62823283672332764 0.70218527317047119
0.47902259230613708 0.71414381265640259 0.73843193054199219
0.50094598531723022 0.71507936716079712 0.73995417356491089
0.54209637641906738 0.71393179893493652 0.73986560106277466
0.60841202735900879 0.71440738439559937 0.73756140470504761
0.6881372332572937 0.71869468688964844 0.74311834573745728
0.79439795017242432 0.72401297092437744 0.74625653028488159
0.92660456895828247 0.73938268423080444 0.75265294313430786
0.63751822710037231 0.86340028047561646 0.73075801134109497
0.64834773540496826 0.86331737041473389 0.72571724653244019
0.67098957300186157 0.86252301931381226 0.73985111713409424
0.71385800838470459 0.86279886960983276 0.74616509675979614
0.77526402473449707 0.86458069086074829 0.74732285737991333
0.85791552066802979 0.86585551500320435 0.7555730938911438
0.96938276290893555 0.87308353185653687 0.77515363693237305
0.89507055282592773 0.99798929691314697 0.46856361627578735
0.89736974239349365 0.99646604061126709 0.46483501791954041
0.90900814533233643 0.99623221158981323 0.4716503918170929
0.94353938102722168 0.99811458587646484 0.46280521154403687
0.96745955944061279 0.99662601947784424 0.47265726327896118
0.9991220235824585 0.99828654527664185 0.45635244250297546
0.9999423623085022 0.99897915124893188 0.48245686292648315
0 0 0.41407787799835205
0 0 0.4287039041519165
0.020156007260084152 0 0.41832143068313599
0.20746167004108429 0 0.37960755825042725
0.66369414329528809 0 0.30332055687904358
1 0.012455645017325878 0.26091933250427246
0.99965906143188477 0.18630596995353699 0.42112687230110168
0 0.014591501094400883 0.46797439455986023
0.0014082666020840406 0.014601195231080055 0.46814107894897461
0.079422220587730408 0.015383806079626083 0.45755693316459656
0.35342574119567871 0.018086781725287437 0.42500564455986023
0.78746706247329712 0.03964526578783989 0.383757084608078
0.97411257028579712 0.15450529754161835 0.44770565629005432
0.99874675273895264 0.33999380469322205 0.56734800338745117
0 0.24129284918308258 0.60450947284698486
0.014352536760270596 0.2401336133480072 0.59608286619186401
0.18571573495864868 0.24203868210315704 0.58462011814117432
0.49202659726142883 0.25091013312339783 0.56440180540084839
0.70243388414382935 0.31714648008346558 0.58428162336349487
0.84878158569335938 0.38845518231391907 0.61795127391815186
0.9542919397354126 0.48702138662338257 0.6635550856590271
0.13549962639808655 0.54814010858535767 0.75788253545761108
0.17500461637973785 0.54628795385360718 0.74986547231674194
0.32874628901481628 0.54004961252212524 0.74264079332351685
0.50034254789352417 0.54624193906784058 0.73291194438934326
0.63101702928543091 0.55520057678222656 0.73118263483047485
0.76611173152923584 0.57113182544708252 0.73521524667739868
0.90325736999511719 0.60714256763458252 0.74595814943313599
0.40779075026512146 0.69985556602478027 0.82319778203964233
0.43640735745429993 0.69764262437820435 0.82272928953170776
0.49014085531234741 0.69627135992050171 0.81923902034759521
0.56527405977249146 0.69757246971130371 0.81427496671676636
0.65420055389404297 0.70161908864974976 0.81158268451690674
0.76720494031906128 0.70660197734832764 0.81048440933227539
0.90633273124694824 0.7259412407875061 0.81622600555419922
0.56846922636032104 0.85399311780929565 0.89191281795501709
0.57705831527709961 0.85162949562072754 0.89583355188369751
0.60608017444610596 0.85130375623703003 0.8830033540725708
0.65577083826065063 0.85054850578308105 0.88329339027404785
0.72592306137084961 0.85468417406082153 0.89062619209289551
0.81530320644378662 0.85378456115722656 0.88261008262634277
0.94031625986099243 0.8631281852722168 0.88542753458023071
0.77981740236282349 0.99072092771530151 0.85336160659790039
0.80102324485778809 0.99452328681945801 0.84527850151062012
0.79950284957885742 0.98911696672439575 0.86159753799438477
0.82970386743545532 0.99319308996200562 0.86214059591293335
0.86033827066421509 0.99485892057418823 0.87501442432403564
0.91198289394378662 0.99643999338150024 0.88417690992355347
0.990040123462677 0.99197959899902344 0.89099591970443726
0 0 0.44047486782073975
0.00055853149387985468 0 0.45398339629173279
0.038706161081790924 0 0.44275146722793579
0.1804194450378418 0 0.40475749969482422
0.60139626264572144 0 0.32583221793174744
0.99979013204574585 0.0043039359152317047 0.2554895281791687
0.99865227937698364 0.1400289386510849 0.39678454399108887
0 0.0001478008198319003 0.48052480816841125
0.0053490134887397289 0.004759560339152813 0.4890541136264801
0.079411514103412628 0.0065051806159317493 0.47803810238838196
0.304738849401474 0.001304566627368331 0.44018721580505371
0.75908052921295166 0.0030699935741722584 0.38111841678619385
0.98690074682235718 0.10543302446603775 0.42446079850196838
0.99982678890228271 0.30004414916038513 0.56230205297470093
0 0.19058386981487274 0.60831212997436523
0.011159365996718407 0.19241732358932495 0.60099750757217407
0.15367229282855988 0.19417162239551544 0.58763593435287476
0.45884844660758972 0.19890201091766357 0.5635066032409668
0.70971983671188354 0.25389662384986877 0.57220059633255005
0.85767257213592529 0.34341070055961609 0.61373507976531982
0.96315872669219971 0.45593038201332092 0.66809767484664917
0.098911508917808533 0.51678264141082764 0.77673959732055664
0.098136022686958313 0.52170038223266602 0.76991993188858032
0.27427613735198975 0.51736909151077271 0.75965803861618042
0.4749409556388855 0.52295821905136108 0.75000274181365967
0.62235242128372192 0.53563433885574341 0.74657398462295532
0.76866340637207031 0.55211305618286133 0.74685633182525635
0.91223806142807007 0.58695089817047119 0.75799477100372314
0.3696344792842865 0.68606305122375488 0.85097754001617432
0.38199558854103088 0.68866503238677979 0.8569139838218689
0.4494134783744812 0.68705499172210693 0.85389250516891479
0.53894555568695068 0.68634068965911865 0.84597700834274292
0.64182525873184204 0.69112896919250488 0.83877992630004883
0.76240462064743042 0.69598639011383057 0.83307468891143799
0.91058874130249023 0.71315932273864746 0.83692443370819092
0.54157441854476929 0.84239107370376587 0.93546497821807861
0.55485731363296509 0.8469577431678772 0.93902599811553955
0.58421564102172852 0.84538954496383667 0.93315452337265015
0.63384628295898438 0.84262531995773315 0.92689788341522217
0.70840626955032349 0.84741312265396118 0.93172597885131836
0.79766637086868286 0.84737801551818848 0.92550176382064819
0.92640763521194458 0.85666036605834961 0.92972278594970703
0.73006314039230347 0.98339295387268066 0.97373497486114502
0.75833994150161743 0.99233829975128174 0.9796067476272583
0.77100270986557007 0.99134343862533569 0.98536443710327148
0.80343180894851685 0.99564105272293091 0.98374658823013306
0.82858735322952271 0.99359512329101562 0.9946931004524231
0.88276797533035278 0.99628621339797974 0.99578738212585449
0.97293746471405029 0.99552047252655029 0.99760282039642334
