films/kodak_ektachrome_100_vs.cube
# Created by: G'MIC (https://gmic.eu)
TITLE "kodak_ektachrome_100_vs"
# LUT size
LUT_3D_SIZE 13
# Data domain
DOMAIN_MIN 0.0 0.0 0.0
DOMAIN_MAX 1.0 1.0 1.0
# LUT data points
0.021143386140465736 0.013376078568398952 0.010724624618887901
0.044880315661430359 0.0065903309732675552 0.0073349298909306526
0.093291416764259338 0.0062235216610133648 0.006156502291560173
0.16936767101287842 0.0060206842608749866 0.0039779362268745899
0.25714677572250366 0.0069529963657259941 0.003151807701215148
0.35163897275924683 0.0096312128007411957 0.00231321738101542
0.45871022343635559 0.009375852532684803 0.00015761431131977588
0.56760579347610474 0.0070089302025735378 0
0.66987156867980957 0.0042559155263006687 0
0.77006185054779053 0.0015963835176080465 0
0.87124693393707275 0.00013263178698252887 0
0.96215444803237915 0 0.0012481539743021131
0.99994164705276489 0 0.0015622008359059691
0.032901763916015625 0.054474625736474991 0.02733122929930687
0.063090994954109192 0.047822359949350357 0.020834663882851601
0.12408460676670074 0.044946201145648956 0.013608715496957302
0.20372234284877777 0.042768143117427826 0.0086140204221010208
0.28992310166358948 0.041564207524061203 0.0068756700493395329
0.38320755958557129 0.044404678046703339 0.0042865080758929253
0.48399406671524048 0.044176392257213593 0.0011299282778054476
0.58631259202957153 0.038602087646722794 8.1499885709490627e-05
0.6860959529876709 0.028149429708719254 0
0.78527134656906128 0.014585786499083042 0
0.88424158096313477 0.0032677743583917618 0
0.97067618370056152 8.1290447269566357e-05 0.0001172832417069003
1 0.0008144603343680501 0.0017041673418134451
0.059747464954853058 0.12392563372850418 0.057783089578151703
0.096441097557544708 0.12269295752048492 0.051973965018987656
0.15623486042022705 0.1216273307800293 0.043864291161298752
0.23416031897068024 0.11482617259025574 0.033411033451557159
0.31974580883979797 0.10676242411136627 0.025732541456818581
0.41224789619445801 0.10357452183961868 0.017235489562153816
0.50758391618728638 0.10004555433988571 0.010753152891993523
0.60312104225158691 0.091689527034759521 0.0060739554464817047
0.69910717010498047 0.073756888508796692 0.0021205528173595667
0.79692423343658447 0.04906889796257019 0.00060338038019835949
0.89346021413803101 0.023606648668646812 0.00050359987653791904
0.97572308778762817 0.0080689825117588043 0.0010586457792669535
1 0.014145719818770885 0.0066056195646524429
0.093534745275974274 0.21515679359436035 0.098308160901069641
0.13389934599399567 0.2146603912115097 0.094429977238178253
0.18920101225376129 0.21498380601406097 0.084935449063777924
0.26061701774597168 0.2084866464138031 0.071510344743728638
0.34414619207382202 0.19840985536575317 0.059897627681493759
0.43548208475112915 0.18888834118843079 0.049185149371623993
0.52740985155105591 0.18135765194892883 0.041247230023145676
0.61875784397125244 0.17068740725517273 0.033436629921197891
0.71190840005874634 0.15040165185928345 0.02515646256506443
0.80828166007995605 0.11999918520450592 0.019567571580410004
0.9024621844291687 0.08550223708152771 0.017874773591756821
0.9801439642906189 0.061041738837957382 0.019102118909358978
1 0.066455438733100891 0.027963915839791298
0.12344679236412048 0.31099280714988708 0.13771654665470123
0.16043467819690704 0.31082260608673096 0.13249292969703674
0.22162458300590515 0.3081108033657074 0.12097170948982239
0.29259851574897766 0.3037467896938324 0.10831810534000397
0.37259268760681152 0.2963736355304718 0.097710974514484406
0.45915895700454712 0.28823578357696533 0.08931770920753479
0.54789501428604126 0.28004974126815796 0.082213699817657471
0.63571155071258545 0.26976689696311951 0.072648726403713226
0.72565257549285889 0.25193199515342712 0.063454180955886841
0.81970101594924927 0.22313553094863892 0.059449110180139542
0.91008538007736206 0.19139686226844788 0.059183366596698761
0.98230248689651489 0.16766354441642761 0.062057912349700928
1 0.16124789416790009 0.068039342761039734
0.1765521913766861 0.40717694163322449 0.16724500060081482
0.21024727821350098 0.40505388379096985 0.16084353625774384
0.26746192574501038 0.40340882539749146 0.14998047053813934
0.33453890681266785 0.39994391798973083 0.13957506418228149
0.40796872973442078 0.39659202098846436 0.13159884512424469
0.48767167329788208 0.39172399044036865 0.12538807094097137
0.57189559936523438 0.38497099280357361 0.11989234387874603
0.65637028217315674 0.37653681635856628 0.11128129810094833
0.74224168062210083 0.3635154664516449 0.10426553338766098
0.83201533555984497 0.34126043319702148 0.10217488557100296
0.91821026802062988 0.31429684162139893 0.10454261302947998
0.98448449373245239 0.29143595695495605 0.11124942451715469
1 0.27724412083625793 0.11690959334373474
0.25104999542236328 0.50020664930343628 0.19120626151561737
0.28148540854454041 0.49955418705940247 0.1840173751115799
0.32920441031455994 0.49753668904304504 0.17438492178916931
0.38656190037727356 0.49608516693115234 0.1668221652507782
0.45026952028274536 0.49601846933364868 0.16094045341014862
0.52167248725891113 0.49419590830802917 0.15456035733222961
0.60029298067092896 0.48896005749702454 0.1471792608499527
0.68164020776748657 0.48251757025718689 0.13979214429855347
0.76370829343795776 0.47426104545593262 0.13489401340484619
0.84874075651168823 0.4585595428943634 0.13382166624069214
0.92806488275527954 0.43561398983001709 0.1402471512556076
0.9850274920463562 0.41390237212181091 0.15499639511108398
1 0.39699137210845947 0.16467297077178955
0.3290763795375824 0.59297388792037964 0.21782585978507996
0.35546505451202393 0.59247761964797974 0.2111610621213913
0.39463073015213013 0.59128707647323608 0.2031770646572113
0.44255107641220093 0.5908583402633667 0.19655889272689819
0.4981544017791748 0.5911102294921875 0.19007769227027893
0.56322824954986572 0.58989697694778442 0.18038313090801239
0.63649815320968628 0.58642888069152832 0.16934886574745178
0.71367567777633667 0.58227413892745972 0.16039705276489258
0.79348313808441162 0.57644045352935791 0.1526176780462265
0.87398701906204224 0.56589680910110474 0.1484949141740799
0.94249176979064941 0.54889446496963501 0.15940837562084198
0.98510855436325073 0.52881783246994019 0.1885218620300293
0.99986553192138672 0.51248669624328613 0.20513784885406494
0.40604594349861145 0.68352365493774414 0.24956418573856354
0.42686444520950317 0.68366658687591553 0.24553944170475006
0.45745781064033508 0.68288463354110718 0.24002115428447723
0.49906954169273376 0.68279153108596802 0.23302488029003143
0.54912906885147095 0.68259084224700928 0.22437800467014313
0.60960537195205688 0.68125587701797485 0.20961509644985199
0.67743825912475586 0.6789778470993042 0.19385874271392822
0.74947178363800049 0.67631977796554565 0.18159744143486023
0.82675999402999878 0.67229598760604858 0.16886866092681885
0.90302044153213501 0.66493111848831177 0.15902270376682281
0.96048986911773682 0.65223604440689087 0.16889217495918274
0.9885517954826355 0.63524526357650757 0.20335541665554047
0.99934405088424683 0.62074458599090576 0.22413459420204163
0.48535612225532532 0.77190631628036499 0.28491020202636719
0.50203895568847656 0.77283823490142822 0.28401944041252136
0.52595680952072144 0.77187657356262207 0.27940773963928223
0.56275105476379395 0.77229291200637817 0.27176293730735779
0.60726022720336914 0.77234989404678345 0.26117393374443054
0.66131269931793213 0.77122807502746582 0.24509148299694061
0.72168439626693726 0.76917922496795654 0.22796675562858582
0.78692811727523804 0.76723045110702515 0.21268488466739655
0.86151623725891113 0.76450496912002563 0.1938440203666687
0.93395048379898071 0.75888818502426147 0.17420139908790588
0.9821174144744873 0.74983227252960205 0.17209929227828979
0.9950907826423645 0.73885059356689453 0.19471694529056549
0.99934446811676025 0.72666639089584351 0.20889429748058319
0.57133322954177856 0.85764461755752563 0.31802210211753845
0.58837610483169556 0.85993987321853638 0.31820577383041382
0.61089849472045898 0.85871028900146484 0.31505653262138367
0.64026755094528198 0.85901081562042236 0.30728274583816528
0.67609864473342896 0.85994225740432739 0.2964932918548584
0.7213824987411499 0.85867083072662354 0.28259634971618652
0.77398592233657837 0.8560364842414856 0.26793104410171509
0.83309197425842285 0.85397189855575562 0.25296953320503235
0.89813816547393799 0.85295957326889038 0.23239609599113464
0.95622420310974121 0.85137283802032471 0.20839303731918335
0.99159204959869385 0.84676021337509155 0.19315090775489807
0.99914872646331787 0.83918857574462891 0.19238409399986267
0.99981874227523804 0.82780992984771729 0.19155915081501007
0.6647229790687561 0.93799257278442383 0.34199079871177673
0.68456363677978516 0.94250863790512085 0.34536653757095337
0.7089240550994873 0.93757098913192749 0.34425407648086548
0.73008400201797485 0.93801194429397583 0.33804357051849365
0.75255608558654785 0.94257116317749023 0.32860919833183289
0.78906357288360596 0.94017666578292847 0.31735792756080627
0.83628278970718384 0.9359511137008667 0.30623745918273926
0.88872921466827393 0.93292039632797241 0.29549351334571838
0.93868154287338257 0.93327707052230835 0.28023406863212585
0.97462695837020874 0.93726152181625366 0.26037412881851196
0.99485993385314941 0.93689590692520142 0.23943845927715302
1 0.92716139554977417 0.21686597168445587
1 0.91320335865020752 0.2004222571849823
0.75789159536361694 0.9950408935546875 0.35640785098075867
0.78155994415283203 0.99730151891708374 0.36140719056129456
0.80998289585113525 0.99383199214935303 0.36258286237716675
0.82446169853210449 0.99439948797225952 0.35788094997406006
0.83594620227813721 0.99749678373336792 0.34983187913894653
0.86411136388778687 0.99634826183319092 0.34084457159042358
0.90311259031295776 0.9944724440574646 0.33282732963562012
0.94763314723968506 0.99293261766433716 0.32695555686950684
0.98368829488754272 0.99303382635116577 0.31779348850250244
0.99662429094314575 0.99572771787643433 0.3015713095664978
0.99985712766647339 0.99623501300811768 0.28002253174781799
1 0.99129122495651245 0.24746417999267578
1 0.98192936182022095 0.21979433298110962
0.0094709359109401703 0.010942451655864716 0.036683596670627594
0.028841909021139145 0.0073563368059694767 0.034684199839830399
0.078412853181362152 0.0055763092823326588 0.033063925802707672
0.15695473551750183 0.0039778468199074268 0.029731465503573418
0.2443278580904007 0.005103421863168478 0.028850166127085686
0.34117767214775085 0.0064231422729790211 0.024588506668806076
0.44973078370094299 0.0058348863385617733 0.013795336708426476
0.56099426746368408 0.0034376257099211216 0.0043717478401958942
0.6606789231300354 0.0017045562854036689 0.0022753397934138775
0.75754755735397339 0.00030993291875347495 0.0021801968105137348
0.85922122001647949 0 0.0045289280824363232
0.95284473896026611 0 0.0086626093834638596
0.99959158897399902 0 0.010795967653393745
0.023149438202381134 0.052519541233778 0.057267792522907257
0.052210565656423569 0.047700770199298859 0.051687397062778473
0.11094095557928085 0.043620720505714417 0.044351000338792801
0.19068382680416107 0.042095541954040527 0.039248179644346237
0.27671024203300476 0.041508514434099197 0.037811893969774246
0.37061429023742676 0.041457232087850571 0.03272494301199913
0.47280415892601013 0.039100602269172668 0.023076854646205902
0.57693219184875488 0.031935419887304306 0.012466894462704659
0.67506289482116699 0.02049623429775238 0.0056283390149474144
0.77250343561172485 0.007368932943791151 0.0028864243067800999
0.87148576974868774 0.00039245007792487741 0.0039596408605575562
0.95994764566421509 0 0.0072377673350274563
1 0 0.011260567232966423
0.053206752985715866 0.12492144852876663 0.088409155607223511
0.089582346379756927 0.12312815338373184 0.083309292793273926
0.14702154695987701 0.11958595365285873 0.075185500085353851
0.22159837186336517 0.11566618084907532 0.067196696996688843
0.30581974983215332 0.10806660354137421 0.060749456286430359
0.3977254331111908 0.10222233831882477 0.053066477179527283
0.49402469396591187 0.095815159380435944 0.043882541358470917
0.5912095308303833 0.084000259637832642 0.033359140157699585
0.68697303533554077 0.063538268208503723 0.021681377664208412
0.78284770250320435 0.037557892501354218 0.012477635405957699
0.87941145896911621 0.017575686797499657 0.012069627642631531
0.96201890707015991 0.0049725701101124287 0.013699759729206562
0.99980413913726807 0.0041110021993517876 0.018363099545240402
0.091422498226165771 0.21465300023555756 0.12450512498617172
0.12799635529518127 0.21432839334011078 0.12361770123243332
0.18025921285152435 0.21295350790023804 0.11638203263282776
0.2488463819026947 0.20773774385452271 0.10554063320159912
0.33100417256355286 0.19748307764530182 0.095664016902446747
0.42122659087181091 0.18743443489074707 0.0863824263215065
0.51379650831222534 0.17771515250205994 0.077273845672607422
0.60669100284576416 0.16372276842594147 0.066952615976333618
0.70086073875427246 0.14077995717525482 0.055455509573221207
0.79682654142379761 0.11133053153753281 0.046296678483486176
0.88973689079284668 0.081685759127140045 0.042045727372169495
0.96676880121231079 0.057181235402822495 0.040353827178478241
0.99972301721572876 0.050340853631496429 0.042803745716810226
0.12292670458555222 0.31057661771774292 0.15983504056930542
0.15511687099933624 0.30922985076904297 0.15860569477081299
0.20984086394309998 0.30718019604682922 0.15147742629051208
0.27952054142951965 0.30278801918029785 0.1414492130279541
0.35961601138114929 0.29535600543022156 0.13237972557544708
0.44584181904792786 0.2867790162563324 0.12467555701732635
0.53460860252380371 0.27751457691192627 0.11721236258745193
0.62437587976455688 0.26433330774307251 0.10795600712299347
0.71661257743835449 0.244551882147789 0.098671630024909973
0.8118317723274231 0.21753300726413727 0.092516399919986725
0.90380644798278809 0.1881050169467926 0.089777268469333649
0.97756785154342651 0.16211329400539398 0.088945232331752777
0.99999207258224487 0.14710447192192078 0.089256137609481812
0.17000159621238708 0.40736797451972961 0.18848881125450134
0.2016003280878067 0.40494745969772339 0.18419092893600464
0.25492757558822632 0.40342023968696594 0.17676553130149841
0.32178014516830444 0.3996891975402832 0.16894768178462982
0.3959445059299469 0.39565819501876831 0.16278530657291412
0.47592839598655701 0.39040970802307129 0.15769101679325104
0.55982452630996704 0.38346138596534729 0.15238633751869202
0.64570337533950806 0.37364593148231506 0.14587245881557465
0.73426961898803711 0.35934877395629883 0.14073304831981659
0.82690823078155518 0.33817341923713684 0.13837568461894989
0.91766870021820068 0.31295549869537354 0.14060644805431366
0.98693525791168213 0.28910821676254272 0.14485631883144379
1 0.26881876587867737 0.14597265422344208
0.24506935477256775 0.50297826528549194 0.2085423618555069
0.2737712562084198 0.50061482191085815 0.20246617496013641
0.32044383883476257 0.49922358989715576 0.19462288916110992
0.37767449021339417 0.49614527821540833 0.18914513289928436
0.4416871964931488 0.49547401070594788 0.18542726337909698
0.51346021890640259 0.49201467633247375 0.18083903193473816
0.59174966812133789 0.48713824152946472 0.17608116567134857
0.67282611131668091 0.48075360059738159 0.17183709144592285
0.75663447380065918 0.47216790914535522 0.17000041902065277
0.84475243091583252 0.45683503150939941 0.17169611155986786
0.93006473779678345 0.43472295999526978 0.18013860285282135
0.99011719226837158 0.41201964020729065 0.19325640797615051
1 0.39274173974990845 0.19900040328502655
0.32666721940040588 0.59606391191482544 0.22938287258148193
0.35194438695907593 0.59534406661987305 0.22251306474208832
0.39092543721199036 0.59307742118835449 0.21463429927825928
0.43826508522033691 0.59237855672836304 0.20956026017665863
0.49373850226402283 0.59145534038543701 0.20469881594181061
0.55893230438232422 0.5886610746383667 0.19685760140419006
0.63128805160522461 0.58495140075683594 0.18954659998416901
0.70713019371032715 0.58090871572494507 0.18584625422954559
0.7867313027381897 0.5751645565032959 0.18388482928276062
0.86901605129241943 0.564342200756073 0.18582655489444733
0.9432716965675354 0.54726862907409668 0.20123638212680817
0.99008655548095703 0.52789342403411865 0.22699467837810516
0.99987483024597168 0.51188135147094727 0.24000492691993713
0.40552863478660583 0.68731743097305298 0.25512677431106567
0.42650175094604492 0.68699687719345093 0.24978409707546234
0.4572131335735321 0.68557196855545044 0.24363969266414642
0.49803313612937927 0.68460971117019653 0.23683302104473114
0.54861462116241455 0.6837080717086792 0.22791530191898346
0.60907608270645142 0.68113046884536743 0.21433940529823303
0.67688083648681641 0.67777138948440552 0.20127412676811218
0.74661630392074585 0.67554515600204468 0.19663262367248535
0.82184690237045288 0.67164552211761475 0.19103550910949707
0.89790385961532593 0.66363966464996338 0.18859845399856567
0.95948129892349243 0.65062600374221802 0.20527093112468719
0.98979473114013672 0.63411217927932739 0.24056397378444672
0.99930804967880249 0.61976969242095947 0.26186585426330566
0.48690110445022583 0.77616220712661743 0.28511381149291992
0.5023200511932373 0.77568763494491577 0.2828977108001709
0.52684974670410156 0.77425432205200195 0.27809610962867737
0.56259679794311523 0.77421027421951294 0.26931068301200867
0.60737830400466919 0.77402061223983765 0.2582252025604248
0.66143268346786499 0.77211290597915649 0.24310648441314697
0.72277295589447021 0.76945561170578003 0.22732678055763245
0.78833627700805664 0.767924964427948 0.21692156791687012
0.860451340675354 0.76515054702758789 0.20428763329982758
0.93211781978607178 0.75901412963867188 0.19078178703784943
0.98261523246765137 0.74936467409133911 0.19609364867210388
0.99731415510177612 0.73644465208053589 0.23036603629589081
0.99995404481887817 0.72258609533309937 0.25503888726234436
0.57517427206039429 0.86209428310394287 0.31684577465057373
0.58814138174057007 0.86152321100234985 0.3175385594367981
0.60861295461654663 0.85968649387359619 0.31335800886154175
0.63840651512145996 0.86012321710586548 0.30386915802955627
0.67455899715423584 0.8611946702003479 0.29339027404785156
0.71940410137176514 0.86034655570983887 0.28009471297264099
0.77317303419113159 0.85851103067398071 0.26501333713531494
0.83298856019973755 0.8570486307144165 0.25100588798522949
0.89727497100830078 0.85546642541885376 0.23290853202342987
0.95712071657180786 0.85236793756484985 0.21128205955028534
0.99354803562164307 0.84746593236923218 0.19951909780502319
1 0.83903628587722778 0.21041113138198853
1 0.82716715335845947 0.22415606677532196
0.67088723182678223 0.94241839647293091 0.34428083896636963
0.68629127740859985 0.94250947237014771 0.34531590342521667
0.70634478330612183 0.93854838609695435 0.34237796068191528
0.72778034210205078 0.93890500068664551 0.33500343561172485
0.75130218267440796 0.94245857000350952 0.32687938213348389
0.78574079275131226 0.94234025478363037 0.31660550832748413
0.83202320337295532 0.93997335433959961 0.30394598841667175
0.88191366195678711 0.93893599510192871 0.29277560114860535
0.93259823322296143 0.93828499317169189 0.27586844563484192
0.97321784496307373 0.93703001737594604 0.2556132972240448
0.99399834871292114 0.93358922004699707 0.23943331837654114
0.99995297193527222 0.92796111106872559 0.22363854944705963
1 0.91794884204864502 0.21302327513694763
0.76768803596496582 0.99705934524536133 0.36078569293022156
0.78734487295150757 0.9972156286239624 0.36181706190109253
0.80843579769134521 0.99513894319534302 0.36014986038208008
0.82382833957672119 0.99535799026489258 0.35499542951583862
0.83790010213851929 0.99688225984573364 0.34824481606483459
0.86318492889404297 0.99703723192214966 0.33981022238731384
0.89971166849136353 0.99649107456207275 0.33003371953964233
0.93890386819839478 0.99593305587768555 0.32138946652412415
0.97399377822875977 0.99557167291641235 0.30946853756904602
0.99364584684371948 0.99510538578033447 0.29684999585151672
0.99911236763000488 0.99336057901382446 0.2848111093044281
1 0.99109476804733276 0.25480028986930847
1 0.98591041564941406 0.22615592181682587
0.00098646571859717369 0.0065417569130659103 0.081308804452419281
0.012920514680445194 0.0050945207476615906 0.083311401307582855
0.057787217199802399 0.0070272856391966343 0.080042131245136261
0.14029140770435333 0.0045112310908734798 0.074256107211112976
0.23094615340232849 0.0045025544241070747 0.068398252129554749
0.32815024256706238 0.0058048171922564507 0.060155261307954788
0.43592178821563721 0.0051440969109535217 0.04791177436709404
0.54588037729263306 0.0028936648741364479 0.035043004900217056
0.64880967140197754 0.0013522877125069499 0.027628101408481598
0.74908709526062012 0.00027609433163888752 0.024253545328974724
0.85209131240844727 0 0.023697571828961372
0.94831305742263794 0 0.02314210869371891
0.99915230274200439 0 0.025067556649446487
0.01084563322365284 0.047092452645301819 0.1044890433549881
0.035971637815237045 0.043990399688482285 0.10262303054332733
0.091870732605457306 0.043001871556043625 0.095319129526615143
0.17384028434753418 0.040215644985437393 0.087462738156318665
0.26254710555076599 0.039379462599754333 0.081487901508808136
0.35684013366699219 0.040068473666906357 0.073524028062820435
0.45891103148460388 0.036885622888803482 0.061809122562408447
0.56305843591690063 0.029385749250650406 0.04886295273900032
0.66316276788711548 0.019432801753282547 0.037889860570430756
0.76198607683181763 0.008645135909318924 0.030186371877789497
0.86098605394363403 0.0010929033160209656 0.026707533746957779
0.95052152872085571 0 0.025254432111978531
0.9991268515586853 0 0.026898941025137901
0.039234999567270279 0.1225682869553566 0.13547652959823608
0.072818011045455933 0.119992695748806 0.13182975351810455
0.1287858635187149 0.11509586125612259 0.12403486669063568
0.2055734395980835 0.10950483381748199 0.11517290771007538
0.29170000553131104 0.10435043275356293 0.1071755513548851
0.38350918889045715 0.10005787760019302 0.098275594413280487
0.47990426421165466 0.092865884304046631 0.087459683418273926
0.57786911725997925 0.080390363931655884 0.074842892587184906
0.67477136850357056 0.061960872262716293 0.061055980622768402
0.77139872312545776 0.040776047855615616 0.048658080399036407
0.86628347635269165 0.02162487618625164 0.041510622948408127
0.9479108452796936 0.0055450438521802425 0.036320794373750687
0.99750047922134399 0.00081923243124037981 0.035315524786710739
0.074755832552909851 0.21267732977867126 0.16886770725250244
0.11118671298027039 0.21097317337989807 0.16852143406867981
0.16356950998306274 0.20746564865112305 0.16223031282424927
0.2341945618391037 0.20114333927631378 0.15246006846427917
0.31779858469963074 0.19292032718658447 0.1429600864648819
0.40720823407173157 0.1848645955324173 0.13406002521514893
0.49957332015037537 0.17493760585784912 0.12413249164819717
0.59364098310470581 0.15957394242286682 0.11234211921691895
0.68863600492477417 0.13790483772754669 0.099001787602901459
0.78434795141220093 0.11205830425024033 0.086409792304039001
0.87524878978729248 0.084620065987110138 0.076484709978103638
0.94942760467529297 0.055463902652263641 0.066458664834499359
0.9956977367401123 0.035623468458652496 0.060119986534118652
0.098996259272098541 0.30712112784385681 0.20146919786930084
0.13091754913330078 0.30628401041030884 0.20180732011795044
0.18906861543655396 0.30377829074859619 0.19631339609622955
0.26333475112915039 0.29891109466552734 0.18755529820919037
0.3455691933631897 0.2920374870300293 0.179610475897789
0.4317171573638916 0.28490164875984192 0.17290720343589783
0.52044177055358887 0.27590581774711609 0.16531117260456085
0.61159414052963257 0.26109552383422852 0.15528686344623566
0.70526069402694702 0.24042251706123352 0.14471264183521271
0.80024254322052002 0.2159903347492218 0.13564418256282806
0.89051032066345215 0.18823894858360291 0.12840674817562103
0.96331220865249634 0.15834856033325195 0.12048990279436111
0.99889719486236572 0.13558484613895416 0.11404870450496674
0.14447042346000671 0.4049299955368042 0.22678156197071075
