films/kodak_elite_chrome_200.cube
# Created by: G'MIC (https://gmic.eu)
TITLE "kodak_elite_chrome_200"
# LUT size
LUT_3D_SIZE 5
# Data domain
DOMAIN_MIN 0.0 0.0 0.0
DOMAIN_MAX 1.0 1.0 1.0
# LUT data points
0.026220269501209259 0.022765245288610458 0.02004222571849823
0.18668165802955627 0.0076068355701863766 0.0056798448786139488
0.4209291934967041 0.0021333582699298859 0
0.664603590965271 0 0
0.89417213201522827 0 0
0.12935212254524231 0.25805231928825378 0.11112422496080399
0.27833199501037598 0.23911395668983459 0.084098368883132935
0.50552487373352051 0.20026153326034546 0.04176870733499527
0.72979944944381714 0.13339242339134216 0.011560417711734772
0.9092598557472229 0.05759015679359436 0.0093802511692047119
0.27781012654304504 0.5392833948135376 0.21148151159286499
0.40804287791252136 0.5350576639175415 0.18902887403964996
0.62417083978652954 0.51042783260345459 0.15000446140766144
0.84292060136795044 0.47775411605834961 0.11115552484989166
0.99083191156387329 0.41419842839241028 0.086099438369274139
0.48318159580230713 0.78578531742095947 0.30281192064285278
0.576607346534729 0.78526800870895386 0.29044076800346375
0.74843502044677734 0.77806895971298218 0.26322788000106812
0.94571363925933838 0.76087713241577148 0.22794967889785767
1 0.72205543518066406 0.20195671916007996
0.70672780275344849 0.98219811916351318 0.37084949016571045
0.76261276006698608 0.97941058874130249 0.35757583379745483
0.88756245374679565 0.978007972240448 0.34863996505737305
0.99898159503936768 0.97421294450759888 0.32459375262260437
1 0.9606134295463562 0.3059508204460144
0.011948379687964916 0.021182430908083916 0.15663206577301025
0.14179748296737671 0.0090280873700976372 0.12618634104728699
0.37353384494781494 2.423454679956194e-05 0.088349498808383942
0.6086236834526062 0 0.036399137228727341
0.83748912811279297 0 0.022460354492068291
0.08686453104019165 0.2486032098531723 0.25334066152572632
0.23325386643409729 0.22769233584403992 0.22875918447971344
0.46131724119186401 0.18452504277229309 0.18287815153598785
0.67475712299346924 0.11683958768844604 0.11756043136119843
0.8545219898223877 0.015408100560307503 0.064370356500148773
0.20090699195861816 0.54063218832015991 0.35549980401992798
0.34974077343940735 0.53350830078125 0.33951827883720398
0.5756533145904541 0.51261740922927856 0.30526727437973022
0.79409265518188477 0.47268661856651306 0.26007360219955444
0.9682813286781311 0.40175607800483704 0.22267249226570129
0.41485157608985901 0.78859758377075195 0.44674921035766602
0.51445335149765015 0.78663063049316406 0.44041275978088379
0.69168198108673096 0.77867400646209717 0.41801056265830994
0.89233255386352539 0.76233541965484619 0.386819988489151
1 0.72083777189254761 0.35398188233375549
0.6376151442527771 0.98517745733261108 0.52106690406799316
0.7047162652015686 0.98489058017730713 0.50959622859954834
0.82991284132003784 0.98324662446975708 0.50124651193618774
0.98199558258056641 0.97777903079986572 0.47730019688606262
1 0.95420044660568237 0.45483437180519104
0.00041450050775893033 0.0060808667913079262 0.34323671460151672
0.10564893484115601 0.0011623307364061475 0.31359747052192688
0.31786435842514038 0 0.27594736218452454
0.55411326885223389 0 0.23504950106143951
0.76720952987670898 0 0.18544746935367584
0.012617193162441254 0.22423975169658661 0.44380876421928406
0.16005706787109375 0.20260827243328094 0.42285189032554626
0.39096465706825256 0.15996421873569489 0.37850743532180786
0.60103714466094971 0.093400232493877411 0.32457858324050903
0.7877010703086853 0.017659669741988182 0.26916670799255371
0.090827688574790955 0.53321892023086548 0.55164551734924316
0.26199233531951904 0.52666383981704712 0.53886884450912476
0.5062938928604126 0.50504100322723389 0.50686299800872803
0.71961700916290283 0.45850974321365356 0.46276482939720154
0.90213620662689209 0.37203648686408997 0.41332057118415833
0.31451621651649475 0.78824388980865479 0.63614308834075928
0.42916285991668701 0.78841376304626465 0.63260447978973389
0.61847352981567383 0.77844971418380737 0.61100280284881592
0.8214108943939209 0.76294660568237305 0.57827067375183105
0.99159109592437744 0.71934705972671509 0.53836488723754883
0.55800783634185791 0.98821908235549927 0.69845974445343018
0.62625545263290405 0.98957890272140503 0.69902998208999634
0.75670862197875977 0.98803985118865967 0.68674832582473755
0.92430597543716431 0.98426562547683716 0.66131401062011719
1 0.95701485872268677 0.6304280161857605
0 0 0.51876330375671387
0.084286846220493317 0 0.49892336130142212
0.26504391431808472 0 0.46763718128204346
0.48538047075271606 0 0.42504531145095825
0.69269311428070068 0 0.38528957962989807
0.0032896753400564194 0.1728886216878891 0.61514055728912354
0.12842673063278198 0.14883925020694733 0.59470623731613159
0.32711547613143921 0.12006872147321701 0.55707210302352905
0.52993565797805786 0.059532675892114639 0.5059928297996521
0.70985454320907593 0.00024369184393435717 0.45176175236701965
0.051153071224689484 0.5046459436416626 0.72131836414337158
0.20978492498397827 0.50193077325820923 0.71055847406387329
0.44622498750686646 0.48173856735229492 0.68119889497756958
0.65102821588516235 0.42432275414466858 0.63755172491073608
0.8220861554145813 0.31424054503440857 0.58164095878601074
0.25163769721984863 0.78452414274215698 0.81017237901687622
0.36596176028251648 0.78588986396789551 0.80950993299484253
0.5587952733039856 0.77372187376022339 0.78754621744155884
0.75468158721923828 0.75514352321624756 0.75606542825698853
0.94044196605682373 0.70845866203308105 0.71585273742675781
0.49094259738922119 0.99071937799453735 0.87034916877746582
0.5589824914932251 0.99066287279129028 0.87525689601898193
0.69391375780105591 0.99255192279815674 0.86338788270950317
0.8598254919052124 0.99082750082015991 0.845264732837677
0.9996870756149292 0.96870726346969604 0.81054335832595825
0.00014935662329662591 0 0.66750270128250122
0.073727115988731384 0 0.65863645076751709
0.22981975972652435 0 0.63649976253509521
0.43999126553535461 0 0.58933931589126587
0.65607368946075439 0 0.56242746114730835
0.026992304250597954 0.081445477902889252 0.752777099609375
0.1007116287946701 0.064652763307094574 0.73285001516342163
0.27802643179893494 0.035772047936916351 0.69672185182571411
0.46252921223640442 0.00051027187146246433 0.64791089296340942
0.64737337827682495 0 0.60719168186187744
0.078289121389389038 0.44864025712013245 0.86011785268783569
0.21522878110408783 0.4420013427734375 0.84892803430557251
0.40426036715507507 0.39673355221748352 0.81619447469711304
0.58897024393081665 0.33696246147155762 0.77346467971801758
0.74424713850021362 0.20951500535011292 0.71614474058151245
0.25822246074676514 0.7563360333442688 0.94871097803115845
0.35955771803855896 0.756439208984375 0.95140761137008667
0.52688342332839966 0.73933440446853638 0.93164169788360596
0.70751601457595825 0.72320902347564697 0.90389895439147949
0.88294696807861328 0.67291057109832764 0.86485183238983154
0.49177432060241699 0.98936212062835693 0.9967958927154541
0.54134964942932129 0.98983025550842285 0.99901086091995239
0.65900540351867676 0.98517000675201416 0.99804753065109253
0.80723530054092407 0.98335033655166626 0.99531787633895874
0.97890245914459229 0.97527289390563965 0.97773963212966919
