films/kodak_portra_160_nc.cube
# Created by: G'MIC (https://gmic.eu)
TITLE "kodak_portra_160_nc"
# LUT size
LUT_3D_SIZE 13
# Data domain
DOMAIN_MIN 0.0 0.0 0.0
DOMAIN_MAX 1.0 1.0 1.0
# LUT data points
0.023169424384832382 0.029044834896922112 0.030770216137170792
0.054093051701784134 0.036966703832149506 0.026887137442827225
0.11377456039190292 0.044377841055393219 0.02983907051384449
0.19837449491024017 0.053829748183488846 0.029533296823501587
0.29996773600578308 0.061143733561038971 0.025945940986275673
0.40917134284973145 0.060652203857898712 0.017109217122197151
0.51650995016098022 0.066832475364208221 0.0093882689252495766
0.61728066205978394 0.079270400106906891 0.0054111108183860779
0.70924663543701172 0.097056999802589417 0.0033284504897892475
0.79216057062149048 0.12194309383630753 0.0023447074927389622
0.86690199375152588 0.1531008780002594 0.0026917401701211929
0.93478715419769287 0.18700091540813446 0.0058776405639946461
0.99021488428115845 0.2244986891746521 0.017894893884658813
0.013528621755540371 0.066617943346500397 0.038206256926059723
0.047812577337026596 0.076695248484611511 0.032224468886852264
0.12068146467208862 0.089225605130195618 0.027977094054222107
0.21254339814186096 0.10153613984584808 0.026238549500703812
0.31547880172729492 0.10956857353448868 0.024132372811436653
0.42495155334472656 0.11400149762630463 0.014069186523556709
0.53275585174560547 0.1223481297492981 0.005108552984893322
0.63123255968093872 0.13280443847179413 0.0021193260326981544
0.72084033489227295 0.14607052505016327 0.0010871437843888998
0.80194848775863647 0.16441309452056885 0.00022313735098578036
0.87512087821960449 0.1873386949300766 1.1848001122416463e-05
0.9407312273979187 0.21633480489253998 0.00094190111849457026
0.99187213182449341 0.25219497084617615 0.0097381295636296272
0.001663267845287919 0.13295939564704895 0.05384763702750206
0.018988382071256638 0.14215859770774841 0.047278504818677902
0.097177274525165558 0.1616659015417099 0.030471516773104668
0.22097654640674591 0.18254217505455017 0.012737917713820934
0.34217187762260437 0.18613085150718689 0.013289507478475571
0.45550805330276489 0.18674881756305695 0.0066333245486021042
0.55939900875091553 0.19308708608150482 0.0011723537463694811
0.65149021148681641 0.19936178624629974 0.00020051843603141606
0.73502284288406372 0.20797146856784821 7.5396369538793806e-06
0.81201648712158203 0.22070203721523285 0
0.88232427835464478 0.23780032992362976 0
0.94481682777404785 0.26096898317337036 0.0001919017086038366
0.99327856302261353 0.29213553667068481 0.0057985042221844196
0 0.21988339722156525 0.077060297131538391
0.00035108678275719285 0.2268718034029007 0.072806969285011292
0.034837670624256134 0.24441885948181152 0.057239264249801636
0.1781160831451416 0.27884063124656677 0.027154674753546715
0.3547910749912262 0.30260723829269409 0.0076424991711974144
0.48958039283752441 0.3001384437084198 0.0010061226785182953
0.58954787254333496 0.29010745882987976 0.0002071604976663366
0.67506325244903564 0.2868058979511261 0
0.75038254261016846 0.28491121530532837 0
0.82311731576919556 0.28932052850723267 0
0.89004528522491455 0.30037087202072144 0
0.94974201917648315 0.31820970773696899 2.8722427032334963e-06
0.9947655200958252 0.34360355138778687 0.0024300070945173502
0 0.32484698295593262 0.10821479558944702
0 0.32847237586975098 0.10559723526239395
0.0042846677824854851 0.33902150392532349 0.097943685948848724
0.10253578424453735 0.36600631475448608 0.072540819644927979
0.29775366187095642 0.40012732148170471 0.026256397366523743
0.47551387548446655 0.4166606068611145 0.00022560569050256163
0.60724842548370361 0.41489017009735107 0
0.69197064638137817 0.39552617073059082 0
0.76417595148086548 0.37615722417831421 0.00022044462093617767
0.8347204327583313 0.36689749360084534 0.00056409649550914764
0.89760762453079224 0.37115186452865601 1.4361213288793806e-05
0.95358830690383911 0.38353562355041504 0
0.99550336599349976 0.40251913666725159 0.00077809352660551667
0 0.42411774396896362 0.1504945307970047
0 0.42443722486495972 0.15002760291099548
1.9447476006462239e-05 0.42911872267723083 0.14755992591381073
0.043478813022375107 0.4438207745552063 0.13233450055122375
0.20223303139209747 0.46838521957397461 0.083001233637332916
0.4018922746181488 0.50020700693130493 0.028464971110224724
0.5763622522354126 0.52219361066818237 0.0083628632128238678
0.68517208099365234 0.50800883769989014 0.00012042476009810343
0.77024930715560913 0.48389485478401184 5.959903501207009e-05
0.84346675872802734 0.46368873119354248 0.00026008754502981901
0.90217548608779907 0.45583808422088623 8.9757586465566419e-06
0.95405566692352295 0.45630624890327454 0
0.99489182233810425 0.46629470586776733 0.00096790090901777148
0 0.50704872608184814 0.20446595549583435
0 0.50853079557418823 0.20298928022384644
0 0.51088380813598633 0.20336328446865082
0.022730853408575058 0.51871556043624878 0.19713893532752991
0.14558756351470947 0.53639262914657593 0.16796556115150452
0.32350081205368042 0.56417751312255859 0.12204445898532867
0.49782183766365051 0.58878016471862793 0.074884511530399323
0.64160454273223877 0.5980878472328186 0.022281991317868233
0.76108157634735107 0.59550446271896362 0.00027845794102177024
0.84547579288482666 0.57789093255996704 0
0.9015313982963562 0.55450201034545898 1.6156365745700896e-05
0.95234149694442749 0.53865724802017212 0.00040938434540294111
0.9936785101890564 0.53575229644775391 0.0044087129645049572
0 0.5829232931137085 0.261495441198349
0 0.58524459600448608 0.25995269417762756
0.0008372287848033011 0.5868527889251709 0.26281452178955078
0.030867902562022209 0.59072417020797729 0.26374951004981995
0.12833954393863678 0.60142546892166138 0.25200062990188599
0.27845573425292969 0.62033271789550781 0.22014294564723969
0.42998459935188293 0.64060080051422119 0.18066088855266571
0.57519006729125977 0.65852862596511841 0.11943763494491577
0.71960794925689697 0.67757982015609741 0.039184585213661194
0.82942473888397217 0.67854940891265869 0.0028346939943730831
0.89725369215011597 0.6576036810874939 0.0013277240796014667
0.95189827680587769 0.63355416059494019 0.0091630527749657631
0.99370884895324707 0.61894923448562622 0.032552413642406464
0.011791199445724487 0.65559685230255127 0.32199203968048096
0.014057114720344543 0.65834158658981323 0.32164987921714783
0.033404048532247543 0.65953320264816284 0.32542282342910767
0.082732059061527252 0.66056269407272339 0.3283139169216156
0.16664440929889679 0.66593420505523682 0.32351011037826538
0.28129792213439941 0.6779778003692627 0.30730986595153809
0.40051007270812988 0.69309628009796143 0.28276008367538452
0.52046799659729004 0.70783466100692749 0.24384142458438873
0.64954715967178345 0.72334104776382446 0.18418894708156586
0.7768247127532959 0.74134045839309692 0.095872677862644196
0.87884646654129028 0.74490964412689209 0.036964744329452515
0.94480514526367188 0.72861939668655396 0.0534224733710289
0.99189579486846924 0.71336454153060913 0.096436381340026855
0.08452664315700531 0.72529309988021851 0.39194181561470032
0.096960835158824921 0.72838437557220459 0.39389488101005554
0.12285438925027847 0.72970271110534668 0.3981320858001709
0.17316620051860809 0.72786837816238403 0.40070948004722595
0.24287478625774384 0.72836601734161377 0.39753484725952148
0.32733172178268433 0.73584336042404175 0.39143767952919006
0.41634497046470642 0.74789524078369141 0.37988573312759399
0.50820928812026978 0.76059699058532715 0.3585980236530304
0.60986787080764771 0.77200639247894287 0.32670456171035767
0.71724605560302734 0.78473067283630371 0.270833820104599
0.82336509227752686 0.79604023694992065 0.20448388159275055
0.91509270668029785 0.8006024956703186 0.17511141300201416
0.98410618305206299 0.79822331666946411 0.18711882829666138
0.21836456656455994 0.79184186458587646 0.48099237680435181
0.24081294238567352 0.79340219497680664 0.48461514711380005
0.26485475897789001 0.79399114847183228 0.4885297417640686
0.30176809430122375 0.79179573059082031 0.49021551012992859
0.35058864951133728 0.78993254899978638 0.48780381679534912
0.40967318415641785 0.79497599601745605 0.48775988817214966
0.47378873825073242 0.80422544479370117 0.4840366542339325
0.54058611392974854 0.81387311220169067 0.47080186009407043
0.61265182495117188 0.82261890172958374 0.44866219162940979
0.69162321090698242 0.83133292198181152 0.41773298382759094
0.78088432550430298 0.84240895509719849 0.37803485989570618
0.87667566537857056 0.8566899299621582 0.32933062314987183
0.9653390645980835 0.86834144592285156 0.30272451043128967
0.40770778059959412 0.85498011112213135 0.59159272909164429
0.42553973197937012 0.85380929708480835 0.59129703044891357
0.43754285573959351 0.85390329360961914 0.59359496831893921
0.45350369811058044 0.85343849658966064 0.59555530548095703
0.47888723015785217 0.85274791717529297 0.59556317329406738
0.51564908027648926 0.85569512844085693 0.59815537929534912
0.5596923828125 0.86194765567779541 0.59925442934036255
0.60374897718429565 0.86873573064804077 0.5900338888168335
0.65022432804107666 0.87569469213485718 0.57231223583221436
0.70439004898071289 0.88345891237258911 0.55222415924072266
0.7705768346786499 0.89313113689422607 0.53069019317626953
0.84575814008712769 0.90530884265899658 0.49694553017616272
0.92759180068969727 0.91853374242782593 0.46861487627029419
0.58031159639358521 0.91390097141265869 0.69975322484970093
0.58625376224517822 0.91250425577163696 0.69597578048706055
0.58972448110580444 0.91223806142807007 0.69721454381942749
0.59450346231460571 0.91252982616424561 0.70021510124206543
0.60202145576477051 0.91207373142242432 0.700339674949646
0.62241953611373901 0.91378885507583618 0.7053254246711731
0.65215450525283813 0.91811186075210571 0.71154266595840454
0.67852765321731567 0.9232298731803894 0.70484679937362671
0.70600032806396484 0.9291951060295105 0.69210535287857056
0.74229890108108521 0.93652600049972534 0.68341749906539917
0.7889859676361084 0.94536381959915161 0.6755644679069519
0.84267318248748779 0.9541359543800354 0.65507179498672485
0.90401273965835571 0.96298271417617798 0.63292914628982544
0.023247184231877327 0.033708475530147552 0.066482588648796082
0.056241519749164581 0.037438053637742996 0.066794663667678833
0.11577076464891434 0.040818292647600174 0.067735753953456879
0.19695514440536499 0.048781227320432663 0.070044226944446564
0.29962480068206787 0.050031267106533051 0.071390651166439056
0.4116784930229187 0.047860551625490189 0.06927788257598877
0.52121192216873169 0.056971471756696701 0.065419182181358337
0.62208050489425659 0.073503576219081879 0.062117170542478561
0.71308714151382446 0.095495648682117462 0.060079105198383331
0.79411071538925171 0.1258535236120224 0.058079514652490616
0.86669653654098511 0.16192401945590973 0.059314846992492676
0.93296748399734497 0.19543632864952087 0.067160032689571381
0.98795849084854126 0.23210997879505157 0.085357561707496643
0.016599871218204498 0.076461687684059143 0.075515851378440857
0.055420625954866409 0.081858418881893158 0.077746748924255371
0.12588649988174438 0.090245746076107025 0.077970661222934723
0.21319474279880524 0.10035757720470428 0.078369468450546265
0.31377199292182922 0.1070704311132431 0.078656725585460663
0.42570674419403076 0.11311759054660797 0.073227196931838989
0.53446716070175171 0.12101730704307556 0.064498841762542725
0.63385117053985596 0.13282959163188934 0.059799522161483765
0.72183483839035034 0.14751346409320831 0.056500706821680069
0.80127274990081787 0.16742201149463654 0.050120949745178223
0.87379747629165649 0.19131271541118622 0.044365137815475464
0.93867868185043335 0.21964313089847565 0.05228830873966217
0.9904167652130127 0.25671082735061646 0.075527995824813843
0.0072094486095011234 0.14448131620883942 0.096210181713104248
0.038873665034770966 0.1486373245716095 0.097468525171279907
0.11346521973609924 0.16294923424720764 0.086752124130725861
0.22820064425468445 0.17575562000274658 0.073722675442695618
0.34689617156982422 0.18192091584205627 0.070919021964073181
0.45814728736877441 0.1866162121295929 0.064905069768428802
0.5602041482925415 0.19148397445678711 0.0558205246925354
0.65240144729614258 0.1972821056842804 0.051203243434429169
0.734325110912323 0.20683334767818451 0.045565076172351837
0.81055068969726562 0.22139395773410797 0.039023842662572861
0.88075429201126099 0.23969465494155884 0.03632843866944313
0.94296050071716309 0.26269915699958801 0.04691740870475769
0.99178743362426758 0.29576483368873596 0.070834174752235413
0.00085600308375433087 0.23495475947856903 0.1269754022359848
0.01201521884649992 0.2387876957654953 0.12470351904630661
0.06420956552028656 0.24962316453456879 0.11267466843128204
0.19804251194000244 0.27812957763671875 0.08240007609128952
0.36687532067298889 0.3011777400970459 0.055002264678478241
0.49201095104217529 0.2947746217250824 0.045230597257614136
0.58948063850402832 0.28494507074356079 0.044049579650163651
0.673076331615448 0.2819162905216217 0.040146652609109879
0.74903064966201782 0.28274062275886536 0.034194063395261765
0.82207292318344116 0.29128563404083252 0.03386395052075386
0.88862377405166626 0.30380129814147949 0.033929713070392609
0.94808846712112427 0.32141214609146118 0.040753740817308426
0.99410218000411987 0.34757283329963684 0.060511361807584763
0.0019663192797452211 0.34009519219398499 0.16131357848644257
0.0027199091855436563 0.34445825219154358 0.15738832950592041
0.01560573186725378 0.34756302833557129 0.15057691931724548
0.12203957140445709 0.37009760737419128 0.12622220814228058
0.30801725387573242 0.40045273303985596 0.080822572112083435
0.48328337073326111 0.41915720701217651 0.028845483437180519
0.60643994808197021 0.40832465887069702 0.024345353245735168
0.69290709495544434 0.38944467902183533 0.030208796262741089
0.765236496925354 0.3751579225063324 0.03617960587143898
0.8347352147102356 0.37092608213424683 0.038862027227878571
0.89713948965072632 0.3750215470790863 0.036292355507612228
0.95338225364685059 0.38674178719520569 0.035423725843429565
0.99560302495956421 0.40643423795700073 0.051520958542823792
0.0035939982626587152 0.43598076701164246 0.20212379097938538
0.0009950525127351284 0.43769273161888123 0.19966548681259155
0.0017559574916958809 0.43875318765640259 0.19528862833976746
0.066932231187820435 0.44935339689254761 0.18194077908992767
0.22385275363922119 0.47158756852149963 0.14224474132061005
0.40992707014083862 0.50102764368057251 0.082490183413028717
0.57778018712997437 0.5194433331489563 0.033147849142551422
0.69531786441802979 0.51218867301940918 0.013000174425542355
0.7755468487739563 0.48798784613609314 0.022110853344202042
0.8449285626411438 0.46914088726043701 0.028300730511546135
0.90268373489379883 0.45764979720115662 0.029820520430803299
0.95474183559417725 0.45739549398422241 0.03624584898352623
0.99512982368469238 0.46951127052307129 0.05473758652806282
0.0012875426327809691 0.51755428314208984 0.24879838526248932
0.0019055535085499287 0.51878362894058228 0.24733734130859375
0.0055822632275521755 0.51922309398651123 0.24572752416133881
0.053597439080476761 0.52422249317169189 0.23935133218765259
0.17443349957466125 0.53852361440658569 0.21624012291431427
0.33612060546875 0.56208533048629761 0.17486637830734253
0.5031052827835083 0.58782291412353516 0.11683144420385361
0.65109258890151978 0.60327059030532837 0.049380283802747726
0.7694847583770752 0.6012263298034668 0.011523228138685226
0.84768056869506836 0.57903987169265747 0.014565755613148212
0.90262305736541748 0.55303257703781128 0.020375868305563927
0.95469176769256592 0.5367400050163269 0.041437305510044098
0.99465745687484741 0.53847259283065796 0.061489090323448181
0.0026199789717793465 0.59118747711181641 0.29701930284500122
0.0074933520518243313 0.59315222501754761 0.29567816853523254
0.0219448022544384 0.59366297721862793 0.2964644730091095
0.070679426193237305 0.59545063972473145 0.29562568664550781
0.16734583675861359 0.60393857955932617 0.28558111190795898
0.30118244886398315 0.61957579851150513 0.26230737566947937
0.43827053904533386 0.63870608806610107 0.22899116575717926
0.5789150595664978 0.65807926654815674 0.16870111227035522
0.72013002634048462 0.67496687173843384 0.08563677966594696
0.83282995223999023 0.67865198850631714 0.033213071525096893
0.89739501476287842 0.65644377470016479 0.04601745679974556
0.95121759176254272 0.63235419988632202 0.07315845787525177
0.99413609504699707 0.62139344215393066 0.096105150878429413
0.038503024727106094 0.66121935844421387 0.34994032979011536
0.047045134007930756 0.66333937644958496 0.34916198253631592
0.072132974863052368 0.66360712051391602 0.35102754831314087
0.11976915597915649 0.66344577074050903 0.35291442275047302
0.19891445338726044 0.66723364591598511 0.34974989295005798
0.30359122157096863 0.67757713794708252 0.33825275301933289
0.41172271966934204 0.69161152839660645 0.31778192520141602
0.52708053588867188 0.70683592557907104 0.28280913829803467
0.65264338254928589 0.7219545841217041 0.22567477822303772
0.78021568059921265 0.74142909049987793 0.1456419825553894
0.87461966276168823 0.74096256494522095 0.12017817795276642
0.94272375106811523 0.72749847173690796 0.12946945428848267
0.99200034141540527 0.7138635516166687 0.15248255431652069
0.12383317947387695 0.72842186689376831 0.41258472204208374
0.13642622530460358 0.73056173324584961 0.4143042266368866
0.16231502592563629 0.73043030500411987 0.41771700978279114
0.20503462851047516 0.7287256121635437 0.4200747013092041
0.2665957510471344 0.72871178388595581 0.41829869151115417
0.34239622950553894 0.73484760522842407 0.41369530558586121
0.4238676130771637 0.74601876735687256 0.40115103125572205
0.51220703125 0.75904631614685059 0.37863901257514954
0.61198818683624268 0.77089142799377441 0.34954565763473511
0.71998578310012817 0.78358608484268188 0.30326777696609497
0.82604241371154785 0.79471367597579956 0.256134033203125
0.9177432656288147 0.80142867565155029 0.22745688259601593
0.98571127653121948 0.79914873838424683 0.22981187701225281
0.25552332401275635 0.79315608739852905 0.4961458146572113
0.27299943566322327 0.79484981298446655 0.49954310059547424
0.29520586133003235 0.7944532036781311 0.5031895637512207
0.32579627633094788 0.79232490062713623 0.50515234470367432
0.36795637011528015 0.79074394702911377 0.5039362907409668
0.41984131932258606 0.79432862997055054 0.50324040651321411
0.47691589593887329 0.80249840021133423 0.49677392840385437
0.53867608308792114 0.81193238496780396 0.48108023405075073
0.61132782697677612 0.82123631238937378 0.46355161070823669
0.69347190856933594 0.83123522996902466 0.43604651093482971
0.78601199388504028 0.84410631656646729 0.39969715476036072
0.88240188360214233 0.85942357778549194 0.35862058401107788
0.96814650297164917 0.86980205774307251 0.3348010778427124
0.42608988285064697 0.85591274499893188 0.60183417797088623
0.44152659177780151 0.85618871450424194 0.60288679599761963
0.45449680089950562 0.85614001750946045 0.60550141334533691
0.46961334347724915 0.85506099462509155 0.60736078023910522
0.49177277088165283 0.85417479276657104 0.60751020908355713
0.52342838048934937 0.85601580142974854 0.60904765129089355
0.5612562894821167 0.86161136627197266 0.60727095603942871
0.60263180732727051 0.86858546733856201 0.59815859794616699
0.64963835477828979 0.87547433376312256 0.58401727676391602
0.70494568347930908 0.8834766149520874 0.56577068567276001
0.7735753059387207 0.89435493946075439 0.5438767671585083
0.85275691747665405 0.90820074081420898 0.51352620124816895
0.93276625871658325 0.92051368951797485 0.48643955588340759
0.58363360166549683 0.91396677494049072 0.70575958490371704
0.59435707330703735 0.91409313678741455 0.70603173971176147
0.60012823343276978 0.91409313678741455 0.70777004957199097
0.60577338933944702 0.91409313678741455 0.71044474840164185
0.61235076189041138 0.91409313678741455 0.71069633960723877
0.62898153066635132 0.91521281003952026 0.71358901262283325
0.65266412496566772 0.91920089721679688 0.71554839611053467
0.67855077981948853 0.92424285411834717 0.71127712726593018
0.70725339651107788 0.93015509843826294 0.70215338468551636
0.74249118566513062 0.93667107820510864 0.69255417585372925
0.7885284423828125 0.94486707448959351 0.68170583248138428
0.84519404172897339 0.95453417301177979 0.66369724273681641
0.90906614065170288 0.9637075662612915 0.63901287317276001
0.020184116438031197 0.039660077542066574 0.13317093253135681
0.068565264344215393 0.043436028063297272 0.13486924767494202
0.12800918519496918 0.048716407269239426 0.13428947329521179
0.2003563791513443 0.05036863312125206 0.13239635527133942
0.30284887552261353 0.038535352796316147 0.13140633702278137
0.41777819395065308 0.034064948558807373 0.13270735740661621
0.53079211711883545 0.041874319314956665 0.13358026742935181
0.62786883115768433 0.070383794605731964 0.14086155593395233
0.71379935741424561 0.10254118591547012 0.14602695405483246
0.79048246145248413 0.14553476870059967 0.15024881064891815
0.86187303066253662 0.18653276562690735 0.1528620570898056
0.92765957117080688 0.21589021384716034 0.15659844875335693
0.98393267393112183 0.24782669544219971 0.16856476664543152
0.0071841073222458363 0.089056126773357391 0.14334936439990997
0.059753715991973877 0.09397558867931366 0.14755716919898987
0.13526959717273712 0.099648222327232361 0.14835198223590851
0.21677759289741516 0.10509780049324036 0.14817802608013153
0.31672325730323792 0.10693280398845673 0.14839966595172882
0.42846032977104187 0.11081337928771973 0.14946934580802917
0.53926914930343628 0.11705729365348816 0.1474175751209259
0.6360735297203064 0.13873335719108582 0.15187880396842957
0.7192007303237915 0.15987324714660645 0.15382392704486847
0.79510366916656494 0.18556897342205048 0.15157566964626312
0.86708694696426392 0.21123886108398438 0.14917293190956116
0.93231582641601562 0.23634311556816101 0.15261320769786835
0.98662066459655762 0.27075251936912537 0.16531358659267426
0.0045166616328060627 0.16127648949623108 0.15824994444847107
0.050569869577884674 0.16514676809310913 0.16261228919029236
0.13463281095027924 0.17075534164905548 0.16288486123085022
0.23505023121833801 0.17826326191425323 0.16063612699508667
0.34951665997505188 0.18663378059864044 0.15800510346889496
0.45736521482467651 0.19392590224742889 0.15946726500988007
0.55797535181045532 0.19930087029933929 0.15659363567829132
0.64973020553588867 0.20784647762775421 0.15452516078948975
0.72902882099151611 0.22158525884151459 0.15280871093273163
0.80351418256759644 0.23674681782722473 0.14815999567508698
0.87360274791717529 0.25405144691467285 0.14583916962146759
0.93623429536819458 0.27738305926322937 0.15255990624427795
0.98795419931411743 0.31100943684577942 0.16812203824520111
0.0047898986376821995 0.2534797191619873 0.18937033414840698
0.048945795744657516 0.25681430101394653 0.18873891234397888
0.12157223373651505 0.26082909107208252 0.18849626183509827
0.22694697976112366 0.27832257747650146 0.17843937873840332
0.37364307045936584 0.29458132386207581 0.16147404909133911
0.49109956622123718 0.29246348142623901 0.15497007966041565
0.58353686332702637 0.29050692915916443 0.15411873161792755
0.66776317358016968 0.28993129730224609 0.15072080492973328
0.74501627683639526 0.29262557625770569 0.14685738086700439
0.81636208295822144 0.30262556672096252 0.14363326132297516
0.88139826059341431 0.31742316484451294 0.14210589230060577
0.94135791063308716 0.33618992567062378 0.1487138420343399
0.99073499441146851 0.36137780547142029 0.16409638524055481
0.022924745455384254 0.35548031330108643 0.2283729761838913
0.058578476309776306 0.36033213138580322 0.22847695648670197
0.092586800456047058 0.36263883113861084 0.22543571889400482
0.1832607090473175 0.3766251802444458 0.21494713425636292
0.33584010601043701 0.39994838833808899 0.1899857223033905
0.49110209941864014 0.41535946726799011 0.15421164035797119
0.60289078950881958 0.40031787753105164 0.14223474264144897
0.68916350603103638 0.38344711065292358 0.14085721969604492
0.76194560527801514 0.37571007013320923 0.14137506484985352
0.82910263538360596 0.37897524237632751 0.1397477388381958
