films/kodak_portra_400_nc.cube
# Created by: G'MIC (https://gmic.eu)
TITLE "kodak_portra_400_nc"
# LUT size
LUT_3D_SIZE 7
# Data domain
DOMAIN_MIN 0.0 0.0 0.0
DOMAIN_MAX 1.0 1.0 1.0
# LUT data points
0.038760211318731308 0.048111680895090103 0.049444608390331268
0.10976222902536392 0.056898362934589386 0.051998049020767212
0.28401473164558411 0.066354446113109589 0.044114910066127777
0.53031665086746216 0.057307641953229904 0.02833130769431591
0.73634356260299683 0.066965125501155853 0.016872810199856758
0.87194746732711792 0.12170733511447906 0.0071114483289420605
0.98783904314041138 0.19729682803153992 0.025353524833917618
0.027405159547924995 0.12883350253105164 0.069144591689109802
0.12412729859352112 0.15233157575130463 0.052643224596977234
0.35326424241065979 0.18643909692764282 0.020090244710445404
0.60493725538253784 0.19787010550498962 0.0021428724285215139
0.7678225040435791 0.20271565020084381 0.0015516692074015737
0.88846451044082642 0.22553110122680664 0.0025087993126362562
0.99171698093414307 0.27404224872589111 0.022376401349902153
0.00033864041324704885 0.3221796452999115 0.12612481415271759
0.11497744172811508 0.33286330103874207 0.11688156425952911
0.3655068576335907 0.39839506149291992 0.044080786406993866
0.63787919282913208 0.42364069819450378 0.0028912413399666548
0.80224615335464478 0.39037695527076721 0
0.91357618570327759 0.37864288687705994 0
0.99564999341964722 0.39571377635002136 0.0025232352782040834
0.061454862356185913 0.54328912496566772 0.2240108847618103
0.18270380795001984 0.53340518474578857 0.22553451359272003
0.34164124727249146 0.55091577768325806 0.18499590456485748
0.55197638273239136 0.58674269914627075 0.076195724308490753
0.75887918472290039 0.59313231706619263 8.9757581008598208e-05
0.91150248050689697 0.56298589706420898 0
0.99858182668685913 0.53792309761047363 0.00073355878703296185
0.2744598388671875 0.68088006973266602 0.35493731498718262
0.33376100659370422 0.67768198251724243 0.35531437397003174
0.41186344623565674 0.67847496271133423 0.34713295102119446
0.51883429288864136 0.69441545009613037 0.30149397253990173
0.67837774753570557 0.7208285927772522 0.18176351487636566
0.85912477970123291 0.73657053709030151 0.034497413784265518
0.98498672246932983 0.70744937658309937 0.077133849263191223
0.48922249674797058 0.79652106761932373 0.52351832389831543
0.511913001537323 0.79554802179336548 0.52127623558044434
0.54776561260223389 0.79439264535903931 0.51945745944976807
0.60476046800613403 0.80175131559371948 0.50803714990615845
0.6788439154624939 0.81331390142440796 0.46749687194824219
0.79486238956451416 0.82692384719848633 0.38862428069114685
0.94729429483413696 0.84555387496948242 0.33418548107147217
0.68964874744415283 0.90344315767288208 0.70754313468933105
0.68645936250686646 0.8999330997467041 0.69530695676803589
0.70546668767929077 0.89859861135482788 0.70187050104141235
0.74613916873931885 0.90361297130584717 0.71586257219314575
0.77398020029067993 0.91309469938278198 0.69143402576446533
0.82798200845718384 0.9255947470664978 0.66165810823440552
0.92049247026443481 0.94560766220092773 0.63877946138381958
0.026529828086495399 0.05141613632440567 0.13689199090003967
0.12968747317790985 0.05064060166478157 0.14377515017986298
0.30385199189186096 0.026059020310640335 0.14346238970756531
0.54242855310440063 0.011621078476309776 0.15509624779224396
0.72162759304046631 0.04074980691075325 0.16331875324249268
0.85566085577011108 0.12950685620307922 0.16058723628520966
0.97646415233612061 0.20775283873081207 0.17973008751869202
0.0099929356947541237 0.15817426145076752 0.16736285388469696
0.1409965455532074 0.16308556497097015 0.17337715625762939
0.3697705864906311 0.17220345139503479 0.16368627548217773
0.59332293272018433 0.16757993400096893 0.16252699494361877
0.74912536144256592 0.19788569211959839 0.15871576964855194
0.87458467483520508 0.22707264125347137 0.15976163744926453
0.98570364713668823 0.27791020274162292 0.18182970583438873
0.034755364060401917 0.3678128719329834 0.23987367749214172
0.1814885288476944 0.37149259448051453 0.24221205711364746
0.38736790418624878 0.40488997101783752 0.19763259589672089
0.64455288648605347 0.40604645013809204 0.14437691867351532
0.79335230588912964 0.3769567608833313 0.13373851776123047
0.89994317293167114 0.37492331862449646 0.1366189569234848
0.99209213256835938 0.39461627602577209 0.17140370607376099
0.17760558426380157 0.56172704696655273 0.32362207770347595
0.26793602108955383 0.55942380428314209 0.32888534665107727
0.38109242916107178 0.55690211057662964 0.30925193428993225
0.56404048204421997 0.58919137716293335 0.21705761551856995
0.76936870813369751 0.59391903877258301 0.1150708943605423
0.90611457824707031 0.55686688423156738 0.11133664846420288
0.99779224395751953 0.53739720582962036 0.13813818991184235
0.3480851948261261 0.6928098201751709 0.42538875341415405
0.39360269904136658 0.68969810009002686 0.42976069450378418
0.45281076431274414 0.67996060848236084 0.42549446225166321
0.53990292549133301 0.69489133358001709 0.3877398669719696
0.68480795621871948 0.71919757127761841 0.29525464773178101
0.8549809455871582 0.73030900955200195 0.21507304906845093
0.98546570539474487 0.7071717381477356 0.21937744319438934
0.52025765180587769 0.80158013105392456 0.55444079637527466
0.53974926471710205 0.80076676607131958 0.56005370616912842
0.56714200973510742 0.79583990573883057 0.5574040412902832
0.61644589900970459 0.80008363723754883 0.54675781726837158
0.68745338916778564 0.81210607290267944 0.5076943039894104
0.8052445650100708 0.82897055149078369 0.44228038191795349
0.95137912034988403 0.84656816720962524 0.39217424392700195
0.69946593046188354 0.90333592891693115 0.72021937370300293
0.69965964555740356 0.90231674909591675 0.71500617265701294
0.71599376201629639 0.89960598945617676 0.71952909231185913
0.75103092193603516 0.90222275257110596 0.72689175605773926
0.78428453207015991 0.91419500112533569 0.71665841341018677
0.83187168836593628 0.92503219842910767 0.68450832366943359
0.91964870691299438 0.94244569540023804 0.64773964881896973
0.0028102800715714693 0.056882552802562714 0.34451863169670105
0.14919468760490417 0.048448778688907623 0.35060796141624451
0.35766544938087463 0.028267864137887955 0.35246488451957703
0.60574781894683838 0.0022741879802197218 0.3528134822845459
0.76670199632644653 0.0016019035829231143 0.31277167797088623
0.8705209493637085 0.055574648082256317 0.31277069449424744
0.96732103824615479 0.24041642248630524 0.34491896629333496
0 0.19280323386192322 0.36754077672958374
0.13021844625473022 0.18247164785861969 0.37999832630157471
0.41055998206138611 0.19438517093658447 0.3913213312625885
0.63118487596511841 0.18455730378627777 0.37861910462379456
0.75698840618133545 0.19352582097053528 0.35398021340370178
0.86442965269088745 0.25274425745010376 0.35217651724815369
0.96526163816452026 0.32573884725570679 0.36474877595901489
0.056701406836509705 0.40845605731010437 0.41654419898986816
0.19358941912651062 0.41985437273979187 0.4332641065120697
0.4436495304107666 0.42638039588928223 0.43521550297737122
0.63897609710693359 0.41500243544578552 0.40900704264640808
0.75660407543182373 0.4036637544631958 0.3885560929775238
0.86827188730239868 0.40833374857902527 0.37277162075042725
0.9668203592300415 0.43980017304420471 0.37964966893196106
0.33877629041671753 0.5988650918006897 0.48568642139434814
0.40874248743057251 0.59663718938827515 0.490621417760849
0.47994247078895569 0.58288407325744629 0.48372861742973328
0.60187721252441406 0.60272455215454102 0.44079595804214478
0.76997506618499756 0.59330004453659058 0.40175086259841919
0.88989520072937012 0.56646144390106201 0.38150173425674438
0.98551332950592041 0.56470471620559692 0.38244166970252991
0.46051454544067383 0.7138856053352356 0.54094606637954712
0.48528093099594116 0.71114510297775269 0.54176968336105347
0.52354490756988525 0.70234006643295288 0.53584998846054077
0.58612412214279175 0.70493471622467041 0.51469093561172485
0.70265007019042969 0.72620159387588501 0.46665588021278381
0.8578142523765564 0.73280930519104004 0.41811841726303101
0.98335164785385132 0.71208286285400391 0.4105074405670166
0.57499903440475464 0.81060677766799927 0.62442487478256226
0.58651572465896606 0.80927205085754395 0.62486362457275391
0.60536485910415649 0.80397039651870728 0.61857813596725464
0.64386641979217529 0.80261695384979248 0.61428403854370117
0.70220887660980225 0.81036490201950073 0.58729606866836548
0.80858254432678223 0.82944583892822266 0.54234689474105835
0.95493322610855103 0.85070878267288208 0.50315147638320923
0.70470553636550903 0.90373909473419189 0.74031549692153931
0.7151113748550415 0.90370422601699829 0.74229520559310913
0.73112326860427856 0.90325522422790527 0.74513429403305054
0.76146429777145386 0.90671569108963013 0.75023996829986572
0.78636759519577026 0.91096669435501099 0.74228811264038086
0.84354698657989502 0.92828863859176636 0.72439289093017578
0.92680454254150391 0.95040488243103027 0.69753164052963257
0.0038319306913763285 0.071932956576347351 0.56075090169906616
0.16276448965072632 0.065092913806438446 0.56444621086120605
0.42734602093696594 0.05405488982796669 0.57987034320831299
0.635112464427948 0.04376552626490593 0.5723307728767395
0.78701716661453247 0.082186691462993622 0.54145330190658569
0.90544074773788452 0.21752171218395233 0.51094067096710205
0.9892999529838562 0.30293864011764526 0.5016855001449585
0 0.21374157071113586 0.5777900218963623
0.13371753692626953 0.21057987213134766 0.58428966999053955
0.44077891111373901 0.22561889886856079 0.59835577011108398
0.64694911241531372 0.24307137727737427 0.59189033508300781
0.77776467800140381 0.28155234456062317 0.55249309539794922
0.89208072423934937 0.33571669459342957 0.52671033143997192
0.97877901792526245 0.37456062436103821 0.51358753442764282
0.0096869822591543198 0.42382267117500305 0.58679038286209106
0.17892852425575256 0.4296150803565979 0.59460115432739258
0.45504167675971985 0.43824362754821777 0.60371965169906616
0.64398157596588135 0.4629882276058197 0.60167288780212402
0.75973856449127197 0.47151395678520203 0.57992935180664062
0.86317062377929688 0.46925893425941467 0.55274933576583862
0.96003979444503784 0.47623947262763977 0.53509622812271118
0.30043348670005798 0.60920673608779907 0.60511064529418945
0.39323058724403381 0.61410027742385864 0.61072468757629395
0.51227545738220215 0.61510401964187622 0.6146237850189209
0.63120853900909424 0.61710387468338013 0.61122977733612061
0.75249910354614258 0.60824102163314819 0.59476196765899658
0.8536795973777771 0.59270995855331421 0.57223594188690186
0.9566916823387146 0.58872896432876587 0.55300402641296387
0.51179927587509155 0.73375540971755981 0.64541375637054443
0.54285722970962524 0.73466181755065918 0.64921045303344727
0.59592384099960327 0.73351103067398071 0.65059530735015869
0.64382302761077881 0.72480303049087524 0.64289361238479614
0.72730147838592529 0.7358207106590271 0.61209136247634888
0.86127495765686035 0.72853606939315796 0.58259880542755127
0.97325390577316284 0.71102458238601685 0.56864339113235474
0.6286957859992981 0.82344812154769897 0.70403885841369629
0.64555811882019043 0.82239073514938354 0.70730042457580566
0.66239470243453979 0.82016557455062866 0.69873934984207153
0.68496990203857422 0.81371086835861206 0.69266694784164429
0.73069983720779419 0.81413108110427856 0.67697662115097046
0.8259052038192749 0.83427804708480835 0.64453542232513428
0.95356208086013794 0.84464621543884277 0.62152951955795288
0.72591900825500488 0.91045552492141724 0.78270602226257324
0.7407534122467041 0.91018003225326538 0.78707742691040039
0.75184190273284912 0.90834373235702515 0.78522974252700806
0.7688668966293335 0.9088626503944397 0.7831118106842041
0.79862219095230103 0.9101942777633667 0.78131562471389771
0.85254716873168945 0.92671471834182739 0.76742798089981079
0.93274796009063721 0.94880330562591553 0.74450147151947021
0.015560389496386051 0.12902401387691498 0.71850311756134033
0.19774585962295532 0.12821243703365326 0.7218930721282959
0.43308448791503906 0.13898889720439911 0.72500807046890259
0.64014393091201782 0.1831386387348175 0.7257111668586731
0.78507125377655029 0.24030472338199615 0.71464234590530396
0.88599061965942383 0.31157255172729492 0.6838381290435791
0.98435777425765991 0.42581996321678162 0.67431700229644775
0.057011920958757401 0.2502824068069458 0.72648429870605469
0.20685967803001404 0.25316697359085083 0.7283860445022583
0.44595634937286377 0.26853325963020325 0.72900408506393433
0.64807426929473877 0.32053294777870178 0.73146313428878784
0.7837255597114563 0.36183428764343262 0.72070527076721191
0.87827879190444946 0.406026691198349 0.69001322984695435
0.98018825054168701 0.48567727208137512 0.68026375770568848
0.13998796045780182 0.44079044461250305 0.72030758857727051
0.28190848231315613 0.43942829966545105 0.72309595346450806
0.46923828125 0.44905483722686768 0.72443759441375732
0.6447262167930603 0.48178067803382874 0.73103326559066772
0.77357053756713867 0.50643211603164673 0.72843337059020996
0.87489849328994751 0.53708255290985107 0.71076923608779907
0.96534043550491333 0.57304054498672485 0.69348353147506714
0.25236755609512329 0.60138285160064697 0.71400153636932373
0.33933147788047791 0.60406428575515747 0.71330899000167847
0.47613155841827393 0.60747581720352173 0.71660137176513672
0.62429457902908325 0.61813104152679443 0.7261773943901062
0.75462186336517334 0.64118778705596924 0.73209398984909058
0.85105657577514648 0.64584612846374512 0.71815836429595947
0.94488239288330078 0.64074844121932983 0.69580268859863281
0.48255854845046997 0.74079602956771851 0.7334638237953186
0.50901037454605103 0.74111902713775635 0.73270773887634277
0.58238261938095093 0.74380004405975342 0.73891454935073853
0.6561044454574585 0.74239844083786011 0.74167722463607788
0.75117099285125732 0.74412274360656738 0.74270278215408325
0.85024702548980713 0.73934489488601685 0.72738772630691528
0.9421379566192627 0.72098523378372192 0.70365053415298462
0.65382277965545654 0.83873534202575684 0.77836030721664429
0.6735304594039917 0.8392903208732605 0.7803044319152832
0.69795310497283936 0.83746147155761719 0.77881735563278198
0.73452228307723999 0.83490949869155884 0.77831459045410156
0.77594202756881714 0.83230000734329224 0.77467060089111328
0.84397095441818237 0.83699369430541992 0.75071418285369873
0.95609086751937866 0.84279316663742065 0.7308763861656189
0.75768202543258667 0.92333108186721802 0.83865046501159668
0.76867967844009399 0.92326891422271729 0.83918458223342896
0.77689528465270996 0.92186003923416138 0.83662456274032593
0.79810887575149536 0.92460727691650391 0.8333095908164978
0.82505977153778076 0.9226834774017334 0.83268499374389648
0.86403894424438477 0.92612504959106445 0.82016527652740479
0.94384533166885376 0.94896584749221802 0.80352461338043213
0.17044629156589508 0.23107524216175079 0.84193235635757446
0.31276810169219971 0.24068272113800049 0.84117388725280762
0.47688087821006775 0.26412639021873474 0.83960086107254028
0.64108467102050781 0.31340530514717102 0.83620870113372803
0.78421521186828613 0.39269369840621948 0.83457678556442261
0.88511949777603149 0.43960464000701904 0.81984657049179077
0.97246187925338745 0.48279169201850891 0.80909889936447144
0.25160917639732361 0.33290505409240723 0.84110128879547119
0.35192066431045532 0.3401675820350647 0.84193462133407593
0.4951251745223999 0.36020490527153015 0.83894532918930054
0.64952665567398071 0.40440121293067932 0.83842331171035767
0.78493320941925049 0.46440324187278748 0.83747869729995728
0.88158315420150757 0.50001257658004761 0.8233991265296936
0.96908086538314819 0.53296303749084473 0.81358599662780762
0.3210684061050415 0.47419083118438721 0.83290749788284302
0.39042261242866516 0.47866922616958618 0.83436477184295654
0.5125424861907959 0.49247175455093384 0.83333319425582886
0.65065425634384155 0.52300810813903809 0.83480381965637207
0.77733945846557617 0.56055426597595215 0.83600872755050659
0.87501066923141479 0.58803874254226685 0.82952618598937988
0.96191710233688354 0.6151118278503418 0.82308441400527954
0.33610254526138306 0.61329782009124756 0.82042008638381958
0.39559197425842285 0.61675566434860229 0.82203084230422974
0.50647485256195068 0.61818885803222656 0.82583153247833252
0.62962031364440918 0.628429114818573 0.82975244522094727
0.76194208860397339 0.6620061993598938 0.83414584398269653
0.86475831270217896 0.68361759185791016 0.8342055082321167
0.95218032598495483 0.69834756851196289 0.82824862003326416
0.42943340539932251 0.73746949434280396 0.82392722368240356
0.46273091435432434 0.73724621534347534 0.82395952939987183
0.53499728441238403 0.73741441965103149 0.8235851526260376
0.61762958765029907 0.73397266864776611 0.82221990823745728
0.74464124441146851 0.74480253458023071 0.83289927244186401
0.85391408205032349 0.76496428251266479 0.83973401784896851
0.94425159692764282 0.76751899719238281 0.83036768436431885
0.61688232421875 0.84310495853424072 0.84486907720565796
0.63807934522628784 0.84405708312988281 0.84716439247131348
0.66949403285980225 0.84310603141784668 0.84610289335250854
0.72480463981628418 0.84206998348236084 0.84905135631561279
0.78706032037734985 0.84391593933105469 0.85206329822540283
0.85932594537734985 0.84322303533554077 0.85276645421981812
0.95904886722564697 0.84764277935028076 0.84184271097183228
0.77024054527282715 0.9324641227722168 0.88956356048583984
0.77560442686080933 0.93337917327880859 0.88972383737564087
0.79136151075363159 0.93637412786483765 0.89176374673843384
0.82371914386749268 0.93898212909698486 0.8956916332244873
0.85554426908493042 0.93924850225448608 0.89299845695495605
0.88683027029037476 0.93696492910385132 0.88938009738922119
0.95320576429367065 0.95289945602416992 0.87648767232894897
0.46378839015960693 0.43941494822502136 0.94264692068099976
0.49697023630142212 0.43161144852638245 0.94085294008255005
0.58291339874267578 0.46163845062255859 0.94001960754394531
0.68870347738265991 0.504158616065979 0.9367784857749939
0.79560881853103638 0.54217517375946045 0.93245035409927368
0.89811241626739502 0.60347378253936768 0.93080621957778931
0.98228466510772705 0.63327556848526001 0.92994821071624756
0.48182916641235352 0.49654674530029297 0.94209235906600952
0.52201980352401733 0.50229984521865845 0.94136053323745728
0.59405785799026489 0.51737946271896362 0.94043385982513428
0.69225895404815674 0.54457253217697144 0.93661874532699585
0.79471933841705322 0.57999074459075928 0.93275946378707886
0.89497107267379761 0.63401061296463013 0.93211781978607178
0.98246610164642334 0.6515536904335022 0.93146443367004395
0.50184285640716553 0.58112365007400513 0.93794554471969604
0.53323590755462646 0.58273661136627197 0.93729132413864136
0.59879374504089355 0.59145420789718628 0.9360349178314209
0.69387966394424438 0.61432784795761108 0.93377983570098877
0.79310137033462524 0.64162236452102661 0.93035566806793213
0.88972240686416626 0.68352007865905762 0.93051469326019287
0.97494220733642578 0.69501954317092896 0.9321739673614502
0.50704634189605713 0.67492568492889404 0.9323803186416626
0.53444308042526245 0.67430013418197632 0.93446296453475952
0.59985125064849854 0.67646598815917969 0.93510079383850098
0.68452626466751099 0.68745040893554688 0.93321722745895386
0.78652495145797729 0.70779126882553101 0.93192058801651001
0.88384377956390381 0.73551690578460693 0.93389546871185303
0.96798837184906006 0.7475854754447937 0.93360179662704468
0.48369041085243225 0.76302677392959595 0.93056184053421021
0.52204799652099609 0.76593637466430664 0.93242102861404419
0.57645761966705322 0.7636268138885498 0.93047040700912476
0.65571743249893188 0.76083940267562866 0.9299963116645813
0.76703184843063354 0.76885706186294556 0.93693834543228149
0.87228620052337646 0.78805160522460938 0.94049596786499023
0.96187472343444824 0.80773216485977173 0.93821704387664795
0.61488175392150879 0.86116272211074829 0.93801617622375488
0.6247260570526123 0.86075824499130249 0.93736129999160767
0.65763550996780396 0.86110556125640869 0.93971902132034302
0.69835621118545532 0.85721695423126221 0.93790632486343384
0.75909042358398438 0.85394138097763062 0.94403535127639771
0.865104079246521 0.85444390773773193 0.94758909940719604
0.96163195371627808 0.87276595830917358 0.94751429557800293
0.74004179239273071 0.94762980937957764 0.95504063367843628
0.74041235446929932 0.94826614856719971 0.95095932483673096
0.76522266864776611 0.95308351516723633 0.95732516050338745
0.79643696546554565 0.95538145303726196 0.95767676830291748
0.83995765447616577 0.95304781198501587 0.95993810892105103
0.89355617761611938 0.95446914434432983 0.96535319089889526
0.96867340803146362 0.96175563335418701 0.96544754505157471
