films/kodak_elite_chrome_200.cube
# Created by: G'MIC (https://gmic.eu)
TITLE "kodak_elite_chrome_200"
# LUT size
LUT_3D_SIZE 13
# Data domain
DOMAIN_MIN 0.0 0.0 0.0
DOMAIN_MAX 1.0 1.0 1.0
# LUT data points
0.026220269501209259 0.022765245288610458 0.02004222571849823
0.066675744950771332 0.017373103648424149 0.013839093036949635
0.12157639116048813 0.012453730218112469 0.0099770938977599144
0.18668165802955627 0.0076068355701863766 0.0056798448786139488
0.26024612784385681 0.005287559237331152 0.001488853944465518
0.33997142314910889 0.004354394506663084 4.9546186346560717e-05
0.4209291934967041 0.0021333582699298859 0
0.50220406055450439 0.00035579907125793397 0
0.58354443311691284 0 0
0.664603590965271 0 0
0.74530357122421265 0 0
0.82400745153427124 0 0
0.89417213201522827 0 0
0.063823997974395752 0.09029097855091095 0.044467657804489136
0.093390174210071564 0.08346964418888092 0.036868840456008911
0.14435487985610962 0.075160965323448181 0.031867682933807373
0.20978739857673645 0.065556950867176056 0.025240805000066757
0.28369098901748657 0.058718334883451462 0.014779618009924889
0.36273330450057983 0.052679684013128281 0.0052194930613040924
0.44303357601165771 0.042571019381284714 0.0012416315730661154
0.52301502227783203 0.028629856184124947 0.00013596778444480151
0.60224813222885132 0.015876529738306999 0
0.68021005392074585 0.0069392933510243893 0
0.7557721734046936 0.00087554036872461438 0
0.82761567831039429 0 0
0.89226013422012329 0 0
0.10350379347801208 0.16935519874095917 0.075154893100261688
0.1275031566619873 0.16320063173770905 0.067683234810829163
0.17629460990428925 0.15618467330932617 0.06069590151309967
0.24189390242099762 0.14705841243267059 0.051661055535078049
0.31528142094612122 0.13810937106609344 0.038451910018920898
0.39261254668235779 0.12771913409233093 0.024222100153565407
0.47151279449462891 0.1117970198392868 0.014643127098679543
0.54973036050796509 0.090458765625953674 0.0080150226131081581
0.6263115406036377 0.069432534277439117 0.0028132570441812277
0.70077532529830933 0.052430067211389542 0.00025479187024757266
0.77095562219619751 0.02955944649875164 0
0.83461028337478638 0.0067833396606147289 0
0.89360231161117554 0.0022070042323321104 0.001122897258028388
0.12935212254524231 0.25805231928825378 0.11112422496080399
0.15833546221256256 0.252920001745224 0.10350418090820312
0.21098849177360535 0.24720989167690277 0.094843879342079163
0.27833199501037598 0.23911395668983459 0.084098368883132935
0.35125890374183655 0.22963830828666687 0.068790555000305176
0.42750173807144165 0.21758796274662018 0.052773524075746536
0.50552487373352051 0.20026153326034546 0.04176870733499527
0.58269518613815308 0.17775294184684753 0.032752227038145065
0.65780723094940186 0.1551021933555603 0.02247956208884716
0.72979944944381714 0.13339242339134216 0.011560417711734772
0.7963026762008667 0.10473401099443436 0.0052965050563216209
0.85545235872268677 0.072167463600635529 0.004811260849237442
0.9092598557472229 0.05759015679359436 0.0093802511692047119
0.16395582258701324 0.35197162628173828 0.14686982333660126
0.19562435150146484 0.34919241070747375 0.13967606425285339
0.24897019565105438 0.34500619769096375 0.1309722363948822
0.31548449397087097 0.3378714919090271 0.11911311745643616
0.38931030035018921 0.32833382487297058 0.10383909940719604
0.46560490131378174 0.31654790043830872 0.088308863341808319
0.54322481155395508 0.30150231719017029 0.075785964727401733
0.62036824226379395 0.28376924991607666 0.064538918435573578
0.69528216123580933 0.2649780809879303 0.052207976579666138
0.7665666937828064 0.24299523234367371 0.039222255349159241
0.83226257562637329 0.21501155197620392 0.02824675664305687
0.88923072814941406 0.18521502614021301 0.024072863161563873
0.93723553419113159 0.16637401282787323 0.026742612943053246
0.21580697596073151 0.44677147269248962 0.1801125705242157
0.24631640315055847 0.44662001729011536 0.17406156659126282
0.29395371675491333 0.44507661461830139 0.16669657826423645
0.35765314102172852 0.43882334232330322 0.15490730106830597
0.43070384860038757 0.42947250604629517 0.13983388245105743
0.50676196813583374 0.41883936524391174 0.12534897029399872
0.5833735466003418 0.40721777081489563 0.11239723116159439
0.65933644771575928 0.39432385563850403 0.10023964941501617
0.73460197448730469 0.3806309700012207 0.087499894201755524
0.8062935471534729 0.36408117413520813 0.073696643114089966
0.87204223871231079 0.33998394012451172 0.060203328728675842
0.92710816860198975 0.31400665640830994 0.052284944802522659
0.96785664558410645 0.29078289866447449 0.053224436938762665
0.27781012654304504 0.5392833948135376 0.21148151159286499
0.30634182691574097 0.54048120975494385 0.20659749209880829
0.34914857149124146 0.53988367319107056 0.2002226859331131
0.40804287791252136 0.5350576639175415 0.18902887403964996
0.47759139537811279 0.52736949920654297 0.17505809664726257
0.5503661036491394 0.51903098821640015 0.16182512044906616
0.62417083978652954 0.51042783260345459 0.15000446140766144
0.69853669404983521 0.50125163793563843 0.13804382085800171
0.77238732576370239 0.49080798029899597 0.125234454870224
0.84292060136795044 0.47775411605834961 0.11115552484989166
0.90602117776870728 0.45962485671043396 0.097196884453296661
0.95660042762756348 0.43815672397613525 0.087386816740036011
0.99083191156387329 0.41419842839241028 0.086099438369274139
0.34468448162078857 0.62704050540924072 0.24195662140846252
0.37153872847557068 0.62855911254882812 0.23819780349731445
0.41070279479026794 0.62777817249298096 0.23244932293891907
0.46390798687934875 0.62447637319564819 0.22250615060329437
0.52740359306335449 0.61930865049362183 0.2103395015001297
0.59528619050979614 0.61356359720230103 0.19905467331409454
0.66489160060882568 0.60755181312561035 0.18802338838577271
0.73660904169082642 0.60079848766326904 0.1769825667142868
0.80893105268478394 0.59218800067901611 0.16437877714633942
0.87717705965042114 0.5810551643371582 0.15030395984649658
0.93458724021911621 0.56680858135223389 0.13695517182350159
0.97705459594726562 0.54938352108001709 0.12600304186344147
0.99893677234649658 0.52792143821716309 0.12195919454097748
0.41322830319404602 0.70930099487304688 0.27262920141220093
0.43687877058982849 0.71117722988128662 0.27041223645210266
0.47217243909835815 0.71045827865600586 0.26539921760559082
0.52004438638687134 0.70800995826721191 0.25702279806137085
0.57715767621994019 0.704609215259552 0.24703031778335571
0.63972020149230957 0.70085674524307251 0.236906498670578
0.70554059743881226 0.69711798429489136 0.22646860778331757
0.77408832311630249 0.69251912832260132 0.21545423567295074
0.84541648626327515 0.68492680788040161 0.20307600498199463
0.9118918776512146 0.67527604103088379 0.19006238877773285
0.96383029222488403 0.6634906530380249 0.177225261926651
0.9946940541267395 0.64855360984802246 0.16660664975643158
1 0.63001793622970581 0.16193406283855438
0.48318159580230713 0.78578531742095947 0.30281192064285278
0.5026782751083374 0.78801888227462769 0.30221596360206604
0.53415203094482422 0.78733879327774048 0.2975408136844635
0.576607346534729 0.78526800870895386 0.29044076800346375
0.62717217206954956 0.78295737504959106 0.28285971283912659
0.68527168035507202 0.7804681658744812 0.27367979288101196
0.74843502044677734 0.77806895971298218 0.26322788000106812
0.81451898813247681 0.77468842267990112 0.25191402435302734
0.88249838352203369 0.76868259906768799 0.23992317914962769
0.94571363925933838 0.76087713241577148 0.22794967889785767
0.99005448818206787 0.75124388933181763 0.21669313311576843
0.99998074769973755 0.73860651254653931 0.20695659518241882
1 0.72205543518066406 0.20195671916007996
0.55765920877456665 0.85657531023025513 0.32875519990921021
0.57514548301696777 0.85852599143981934 0.32714352011680603
0.60110676288604736 0.85772019624710083 0.32335653901100159
0.63645225763320923 0.85604900121688843 0.31860741972923279
0.67904967069625854 0.85457175970077515 0.31480121612548828
0.7330741286277771 0.85286372900009155 0.30679714679718018
0.7946162223815918 0.85079056024551392 0.29598239064216614
0.85777539014816284 0.84794735908508301 0.28469517827033997
0.9183657169342041 0.84385758638381958 0.27333715558052063
0.9700770378112793 0.8386719822883606 0.26260215044021606
0.99873811006546021 0.83169710636138916 0.25256088376045227
1 0.82197177410125732 0.24408553540706635
1 0.8080517053604126 0.23891295492649078
0.63549178838729858 0.9225345253944397 0.34997937083244324
0.65114873647689819 0.92344504594802856 0.3470856249332428
0.67158234119415283 0.92213958501815796 0.34293028712272644
0.69996744394302368 0.92038553953170776 0.33960291743278503
0.73642492294311523 0.91962987184524536 0.3379027247428894
0.78517115116119385 0.91858220100402832 0.33313179016113281
0.84250342845916748 0.91696780920028687 0.32391619682312012
0.90094923973083496 0.91506147384643555 0.31373095512390137
0.9521600604057312 0.91249102354049683 0.30375891923904419
0.98771959543228149 0.90954482555389404 0.29432085156440735
0.99993741512298584 0.9054563045501709 0.28566738963127136
1 0.89921516180038452 0.27817356586456299
1 0.88832098245620728 0.27323028445243835
0.70672780275344849 0.98219811916351318 0.37084949016571045
0.72022467851638794 0.98215222358703613 0.36684682965278625
0.73784679174423218 0.98060333728790283 0.36182555556297302
0.76261276006698608 0.97941058874130249 0.35757583379745483
0.79542630910873413 0.97871392965316772 0.35673084855079651
0.83764797449111938 0.978598952293396 0.35449060797691345
0.88756245374679565 0.978007972240448 0.34863996505737305
0.93992716073989868 0.97678595781326294 0.34060832858085632
0.98237788677215576 0.9753841757774353 0.33213287591934204
0.99898159503936768 0.97421294450759888 0.32459375262260437
1 0.97216153144836426 0.31733912229537964
1 0.96873253583908081 0.31070372462272644
1 0.9606134295463562 0.3059508204460144
0.022055039182305336 0.020532511174678802 0.055761855095624924
0.057145211845636368 0.013932096771895885 0.049044396728277206
0.10937461256980896 0.0099159693345427513 0.042407017201185226
0.17446719110012054 0.0081737292930483818 0.03107033483684063
0.24831362068653107 0.0064050112850964069 0.018383055925369263
0.32590398192405701 0.0035226112231612206 0.011127008125185966
0.40595161914825439 0.0010454963194206357 0.0058762645348906517
0.48651313781738281 1.7592486983630806e-05 0.0017226424533873796
0.56705176830291748 0 7.4379116995260119e-05
0.64741390943527222 0 0
0.72774559259414673 0 0
0.80528181791305542 0 0
0.87384998798370361 0 2.7809890525531955e-05
0.055597089231014252 0.084284327924251556 0.082985714077949524
0.083844281733036041 0.076677970588207245 0.075862526893615723
0.13372297585010529 0.070099681615829468 0.067962527275085449
0.19887064397335052 0.064023770391941071 0.056970261037349701
0.27210330963134766 0.057879429310560226 0.043745663017034531
0.3497757613658905 0.049111146479845047 0.032312940806150436
0.42895603179931641 0.037589579820632935 0.022086603567004204
0.50804561376571655 0.024981105700135231 0.011772020719945431
0.58597743511199951 0.013941162265837193 0.0033327587880194187
0.66296243667602539 0.0056393793784081936 0.00011815089965239167
0.73831945657730103 0.00034754135413095355 0
0.81079375743865967 0 0
0.87557452917098999 0 0.00013477100583259016
0.093311071395874023 0.16273544728755951 0.11493784934282303
0.11718929558992386 0.15695458650588989 0.10771743208169937
0.16524131596088409 0.15200477838516235 0.098408989608287811
0.23058198392391205 0.14388120174407959 0.087666861712932587
0.30338197946548462 0.13408803939819336 0.074380181729793549
0.38007250428199768 0.1224556565284729 0.06025555357336998
0.45821276307106018 0.10709858685731888 0.04759591817855835
0.53589898347854614 0.088361985981464386 0.034959428012371063
0.61152744293212891 0.068930290639400482 0.020541336387395859
0.68456578254699707 0.049361225217580795 0.007440649438649416
0.75448900461196899 0.025015244260430336 0.0014663995243608952
0.82024210691452026 0.0048072813078761101 0.00045839196536689997
0.8805922269821167 0.00053839589236304164 0.002638454083353281
0.12045467644929886 0.25332972407341003 0.15026825666427612
0.14930716156959534 0.24880065023899078 0.14295646548271179
0.1997104287147522 0.24393953382968903 0.13403157889842987
0.26607725024223328 0.23609116673469543 0.12304552644491196
0.33891510963439941 0.22584880888462067 0.10864934325218201
0.41521331667900085 0.21348890662193298 0.093008287250995636
0.49323222041130066 0.19707733392715454 0.079211398959159851
0.57023859024047852 0.17718194425106049 0.065327741205692291
0.64445686340332031 0.15453788638114929 0.048944942653179169
0.71500718593597412 0.12964461743831635 0.03078034333884716
0.78138488531112671 0.098330676555633545 0.017381824553012848
0.84217149019241333 0.063444532454013824 0.012584387324750423
0.89710503816604614 0.044074848294258118 0.01552994642406702
0.1514446884393692 0.34991627931594849 0.18599003553390503
0.1843017190694809 0.34675881266593933 0.17915080487728119
0.23633068799972534 0.34276726841926575 0.17085848748683929
0.3025936484336853 0.33586737513542175 0.15965940058231354
0.37607523798942566 0.32653382420539856 0.14503246545791626
0.45317178964614868 0.31502255797386169 0.12972936034202576
0.53169620037078857 0.30129799246788025 0.11547643691301346
0.60898494720458984 0.28440311551094055 0.10067674517631531
0.68302595615386963 0.26378244161605835 0.083470091223716736
0.75375497341156006 0.23882867395877838 0.064257405698299408
0.82004261016845703 0.20826277136802673 0.048340696841478348
0.87880575656890869 0.17449222505092621 0.040702864527702332
0.92752766609191895 0.14991243183612823 0.04145272821187973
0.19789239764213562 0.44662991166114807 0.21969914436340332
0.23091648519039154 0.44631412625312805 0.21403941512107849
0.280061274766922 0.44315710663795471 0.20665477216243744
0.34423965215682983 0.43750113248825073 0.19536615908145905
0.41760805249214172 0.42924478650093079 0.18121327459812164
0.4943358302116394 0.41969484090805054 0.16701658070087433
0.57171154022216797 0.40932565927505493 0.15385200083255768
0.64861112833023071 0.39661243557929993 0.13960842788219452
0.72305220365524292 0.38068601489067078 0.12374183535575867
0.79544246196746826 0.36031684279441833 0.10578262060880661
0.86434662342071533 0.33645391464233398 0.089093558490276337
0.92285943031311035 0.30911445617675781 0.078671969473361969
0.9634089469909668 0.28076121211051941 0.078135937452316284
0.25789856910705566 0.54100394248962402 0.25097200274467468
0.28858095407485962 0.54142886400222778 0.24679140746593475
0.33357936143875122 0.53957092761993408 0.24040332436561584
0.39398244023323059 0.535319983959198 0.22958467900753021
0.46470025181770325 0.52883726358413696 0.21572184562683105
0.53826171159744263 0.52132850885391235 0.20339211821556091
0.61218726634979248 0.5132678747177124 0.19226482510566711
0.68703937530517578 0.50400960445404053 0.17984290421009064
0.76123863458633423 0.49253854155540466 0.16551242768764496
0.83381491899490356 0.47793117165565491 0.14950041472911835
0.90157288312911987 0.46086600422859192 0.1339212954044342
0.95649164915084839 0.43847045302391052 0.12267665565013885
0.99109822511672974 0.41045206785202026 0.12010188400745392
0.32647925615310669 0.6302800178527832 0.28039288520812988
0.35343000292778015 0.63085007667541504 0.27810874581336975
0.39364096522331238 0.62955278158187866 0.27329534292221069
0.44886183738708496 0.62635451555252075 0.26343202590942383
0.51502621173858643 0.62176644802093506 0.2502189576625824
0.58334755897521973 0.61639368534088135 0.23999032378196716
0.65262466669082642 0.61050093173980713 0.23130922019481659
0.7247050404548645 0.60372960567474365 0.22048018872737885
0.79779833555221558 0.59513121843338013 0.20744641125202179
0.86867678165435791 0.58392000198364258 0.19301162660121918
0.93099015951156616 0.56954073905944824 0.17889644205570221
0.97866439819335938 0.55060583353042603 0.16797789931297302
0.99963957071304321 0.52673554420471191 0.16280980408191681
0.39725226163864136 0.71343570947647095 0.31057506799697876
0.42031049728393555 0.71443599462509155 0.31009268760681152
0.45540058612823486 0.71274203062057495 0.30647021532058716
0.50405031442642212 0.71040850877761841 0.29851043224334717
0.56307536363601685 0.70716273784637451 0.2882956862449646
0.62655943632125854 0.70353668928146362 0.27901268005371094
0.69279855489730835 0.69956070184707642 0.27028185129165649
0.76229661703109741 0.69461333751678467 0.26021689176559448
0.83382982015609741 0.68764227628707886 0.24809831380844116
0.90247607231140137 0.67837423086166382 0.23489762842655182
0.9598013162612915 0.66614753007888794 0.22199855744838715
0.99547296762466431 0.64937466382980347 0.2113165408372879
1 0.62980693578720093 0.20512530207633972
0.46682575345039368 0.78921812772750854 0.34219828248023987
0.48753592371940613 0.79054391384124756 0.34155777096748352
0.51809465885162354 0.78933781385421753 0.3382437527179718
0.56059205532073975 0.78754764795303345 0.33204075694084167
0.61237853765487671 0.78506505489349365 0.32460173964500427
0.67124444246292114 0.783100426197052 0.31642982363700867
0.73462629318237305 0.78040945529937744 0.30760103464126587
0.80150133371353149 0.77644336223602295 0.29732581973075867
0.86986958980560303 0.77082479000091553 0.28590065240859985
0.93395179510116577 0.76351916790008545 0.27378785610198975
0.98412823677062988 0.75353634357452393 0.2622503936290741
0.99994516372680664 0.74028211832046509 0.25216451287269592
1 0.72283095121383667 0.24554483592510223
0.5401185154914856 0.85944491624832153 0.37013021111488342
0.55892056226730347 0.86053907871246338 0.36812549829483032
0.5850372314453125 0.85967659950256348 0.36444056034088135
0.62102377414703369 0.85804206132888794 0.3594660758972168
0.66576743125915527 0.85650372505187988 0.35494342446327209
0.71960592269897461 0.85501301288604736 0.34885039925575256
0.78009921312332153 0.85315930843353271 0.34043174982070923
0.84324365854263306 0.85035735368728638 0.33067697286605835
0.90488219261169434 0.84655231237411499 0.3198191225528717
0.95950222015380859 0.84116929769515991 0.30897426605224609
0.99560189247131348 0.83390367031097412 0.29853230714797974
1 0.82348811626434326 0.28951564431190491
1 0.80880463123321533 0.2833537757396698
0.61462664604187012 0.92492532730102539 0.39355692267417908
0.63237178325653076 0.92565017938613892 0.38969859480857849
0.65501284599304199 0.92420989274978638 0.38428321480751038
0.68516117334365845 0.92224025726318359 0.37892958521842957
0.72361582517623901 0.92158901691436768 0.37729933857917786
0.77165740728378296 0.9211498498916626 0.37464785575866699
0.82739174365997314 0.92007279396057129 0.36845600605010986
0.88507246971130371 0.91824209690093994 0.36000603437423706
0.93852400779724121 0.91578108072280884 0.35066136717796326
0.98005658388137817 0.91248679161071777 0.34087404608726501
0.99948042631149292 0.90780556201934814 0.33170101046562195
1 0.90018081665039062 0.32385241985321045
1 0.88786333799362183 0.31812092661857605
0.68409007787704468 0.98316526412963867 0.41561374068260193
0.70134049654006958 0.98353201150894165 0.41011923551559448
0.72148913145065308 0.98284202814102173 0.40290588140487671
0.74844914674758911 0.98031127452850342 0.39558416604995728
0.78180325031280518 0.98028254508972168 0.39632928371429443
0.82358479499816895 0.98081392049789429 0.39699795842170715
0.87268567085266113 0.98066091537475586 0.39333087205886841
0.92381387948989868 0.98003983497619629 0.38684427738189697
0.96801948547363281 0.97897052764892578 0.37891846895217896
0.99584734439849854 0.97720539569854736 0.37077879905700684
1 0.97471725940704346 0.36316806077957153
1 0.96931260824203491 0.35635605454444885
1 0.95899057388305664 0.35124710202217102
0.017917856574058533 0.021036963909864426 0.1008157953619957
0.04835936427116394 0.014581149443984032 0.094560377299785614
0.096742697060108185 0.010710129514336586 0.086075834929943085
0.16063840687274933 0.0086671123281121254 0.072270624339580536
0.23439347743988037 0.0065131690353155136 0.057477060705423355
0.31141066551208496 0.0026281767059117556 0.04887785017490387
0.39041662216186523 0.00042814365588128567 0.039648033678531647
0.46996927261352539 0 0.027835097163915634
0.54879027605056763 0 0.013715213164687157
0.62771099805831909 0 0.0032679839059710503
0.70750290155410767 0 0.00061274511972442269
0.78492909669876099 0 0.00062893138965591788
0.85403811931610107 0 0.0037229349836707115
0.046433348208665848 0.081570476293563843 0.13209167122840881
0.072579748928546906 0.07343977689743042 0.12567815184593201
0.12146833539009094 0.067394748330116272 0.11588208377361298
0.18669167160987854 0.060896795243024826 0.10238318145275116
0.25942754745483398 0.054927002638578415 0.086740724742412567
0.33615511655807495 0.044523097574710846 0.074105054140090942
0.41424426436424255 0.032784346491098404 0.061788011342287064
0.49165031313896179 0.02202504500746727 0.046908330172300339
0.56743931770324707 0.013822503387928009 0.028566397726535797
0.64252954721450806 0.0070405397564172745 0.010427213273942471
0.71756255626678467 0.0006471521919593215 0.0030496784020215273
0.79062032699584961 0 0.0023571688216179609
0.85678958892822266 0 0.0056372550316154957
0.079819217324256897 0.15882501006126404 0.16529832780361176
0.1039770096540451 0.15266796946525574 0.15870124101638794
0.15307275950908661 0.14794017374515533 0.1477082371711731
0.21831107139587402 0.13915269076824188 0.1351400762796402
0.29025214910507202 0.12917150557041168 0.12107817828655243
0.36644035577774048 0.11638577282428741 0.10627415776252747
0.44390839338302612 0.10127793997526169 0.091410450637340546
0.52025914192199707 0.08450818806886673 0.07458844780921936
0.5938764214515686 0.067303799092769623 0.05467287078499794
0.66507387161254883 0.048771489411592484 0.033515390008687973
0.73436760902404785 0.023375328630208969 0.01820862665772438
0.80039483308792114 0.0029645883478224277 0.011183585040271282
0.8616102933883667 0 0.01223099697381258
0.10627394914627075 0.25083604454994202 0.19845883548259735
0.13676393032073975 0.24606384336948395 0.19167403876781464
0.18763026595115662 0.24091392755508423 0.18233145773410797
0.25239741802215576 0.23273536562919617 0.17113497853279114
0.32455494999885559 0.22201763093471527 0.15748657286167145
0.40095135569572449 0.20859310030937195 0.14220172166824341
0.47921454906463623 0.19286520779132843 0.12642760574817657
0.55513352155685425 0.17403614521026611 0.10926887392997742
0.62767678499221802 0.15151242911815643 0.088089510798454285
0.69629311561584473 0.12540610134601593 0.064810208976268768
0.76171433925628662 0.092008076608181 0.045030407607555389
0.82211637496948242 0.052213914692401886 0.032778318971395493
0.87673741579055786 0.025558097288012505 0.028749069198966026
0.13261815905570984 0.34911784529685974 0.23283527791500092
0.16807512938976288 0.34553465247154236 0.22704479098320007
0.22080285847187042 0.34103652834892273 0.21932400763034821
0.28674593567848206 0.33384940028190613 0.20862136781215668
0.36120942234992981 0.32419022917747498 0.19512051343917847
0.43842601776123047 0.31280419230461121 0.1801789402961731
0.51763260364532471 0.30037969350814819 0.16510123014450073
0.59496402740478516 0.28439557552337646 0.14806993305683136
0.66700619459152222 0.26119878888130188 0.12761203944683075
0.73555970191955566 0.23333099484443665 0.10450726747512817
0.80077838897705078 0.20001107454299927 0.084060534834861755
0.85929960012435913 0.16151203215122223 0.071062184870243073
0.90927165746688843 0.13098916411399841 0.06628640741109848
0.17486454546451569 0.44662991166114807 0.2667689323425293
0.21034282445907593 0.44580033421516418 0.26204565167427063
0.26172831654548645 0.44185921549797058 0.2552679181098938
0.32695561647415161 0.43614086508750916 0.24495331943035126
0.40105238556861877 0.42827329039573669 0.23200537264347076
0.47864437103271484 0.4193473756313324 0.21822074055671692
0.55735874176025391 0.41007331013679504 0.20475856959819794
0.63365429639816284 0.39776289463043213 0.18952034413814545
0.70677477121353149 0.37910598516464233 0.17132282257080078
