films/kodak_e-100_gx_ektachrome_100.cube
# Created by: G'MIC (https://gmic.eu)
TITLE "kodak_e-100_gx_ektachrome_100"
# LUT size
LUT_3D_SIZE 5
# Data domain
DOMAIN_MIN 0.0 0.0 0.0
DOMAIN_MAX 1.0 1.0 1.0
# LUT data points
0.027640115469694138 0.028534892946481705 0.026623399928212166
0.1944568008184433 0.017545422539114952 0.016040757298469543
0.41200560331344604 0.0048875696957111359 0.0027317123021930456
0.6331360936164856 0 4.7392004489665851e-05
0.84107178449630737 0.0052296207286417484 0.00046810074127279222
0.15224876999855042 0.24902552366256714 0.11116491258144379
0.27438449859619141 0.23217658698558807 0.098304107785224915
0.47644445300102234 0.18476378917694092 0.076149076223373413
0.67427420616149902 0.098043210804462433 0.049214679747819901
0.84500938653945923 0.023421164602041245 0.020266169682145119
0.28924119472503662 0.51683306694030762 0.21777856349945068
0.38709309697151184 0.51041966676712036 0.21069160103797913
0.57012492418289185 0.4871576726436615 0.19315795600414276
0.76323747634887695 0.43614104390144348 0.16620911657810211
0.91400432586669922 0.2819274365901947 0.12355286628007889
0.47393357753753662 0.76462733745574951 0.3531515896320343
0.54618662595748901 0.76276481151580811 0.34688201546669006
0.67940622568130493 0.75320947170257568 0.33604058623313904
0.83972692489624023 0.73827052116394043 0.31663772463798523
0.99241411685943604 0.67713958024978638 0.29080924391746521
0.70105129480361938 0.97151565551757812 0.51000040769577026
0.7335858941078186 0.97095602750778198 0.50272005796432495
0.81105214357376099 0.97054660320281982 0.49759411811828613
0.92288446426391602 0.96709096431732178 0.47900038957595825
0.99903273582458496 0.95519548654556274 0.47364285588264465
0.029034169390797615 0.04134693369269371 0.18924784660339355
0.16160516440868378 0.021848537027835846 0.16996753215789795
0.39087757468223572 0.012724768370389938 0.14501592516899109
0.62071067094802856 0.00012889188656117767 0.12038574367761612
0.83649015426635742 0.00085685582598671317 0.080359451472759247
0.11300871521234512 0.26073551177978516 0.26970657706260681
0.24565239250659943 0.24402685463428497 0.26175734400749207
0.45726874470710754 0.19727909564971924 0.23703441023826599
0.65803200006484985 0.096061527729034424 0.20404550433158875
0.8296617865562439 0.0061719855293631554 0.15990738570690155
0.23699228465557098 0.52435123920440674 0.36376252770423889
0.35990419983863831 0.51779615879058838 0.35905575752258301
0.55136704444885254 0.49650886654853821 0.34360501170158386
0.74804764986038208 0.44530156254768372 0.32172942161560059
0.90238422155380249 0.296253502368927 0.28622138500213623
0.44967406988143921 0.7682032585144043 0.47016468644142151
0.52047955989837646 0.76502466201782227 0.46975257992744446
0.66017234325408936 0.76039445400238037 0.46215987205505371
0.82567155361175537 0.74279499053955078 0.44939693808555603
0.98426914215087891 0.67905920743942261 0.42135581374168396
0.67659884691238403 0.97041058540344238 0.60222560167312622
0.71780312061309814 0.97454714775085449 0.60208600759506226
0.79731708765029907 0.97460746765136719 0.59430360794067383
0.91375619173049927 0.97281277179718018 0.5851062536239624
1 0.95229321718215942 0.57234638929367065
0.016469663009047508 0.054359961301088333 0.39343792200088501
0.14266285300254822 0.034340053796768188 0.37863484025001526
0.35956835746765137 0.01338348351418972 0.35821884870529175
0.59619450569152832 0.00011740291665773839 0.33343198895454407
0.80718624591827393 0 0.30249905586242676
0.061068248003721237 0.28296026587486267 0.47921767830848694
0.20258641242980957 0.26526230573654175 0.46899136900901794
0.42967236042022705 0.22327245771884918 0.44627746939659119
0.63800853490829468 0.12544271349906921 0.4186701774597168
0.81423985958099365 0.017136726528406143 0.38295263051986694
0.15956953167915344 0.53594636917114258 0.56487917900085449
0.30927401781082153 0.53197789192199707 0.56022089719772339
0.52095448970794678 0.51472193002700806 0.54541230201721191
0.72274541854858398 0.46131807565689087 0.52489769458770752
0.88810312747955322 0.32647690176963806 0.49238282442092896
0.40627828240394592 0.77417701482772827 0.65298998355865479
0.48537716269493103 0.77387374639511108 0.651347815990448
0.63448232412338257 0.76759511232376099 0.6405366063117981
0.80128544569015503 0.75242078304290771 0.62933230400085449
0.9649118185043335 0.69229805469512939 0.60691744089126587
0.66802847385406494 0.97145503759384155 0.74798846244812012
0.7011340856552124 0.97597682476043701 0.74632388353347778
0.78318101167678833 0.97269278764724731 0.74257981777191162
0.89924556016921997 0.97368884086608887 0.73289000988006592
0.99848753213882446 0.95894628763198853 0.71630042791366577
0 0.083221599459648132 0.60165274143218994
0.087555907666683197 0.060096021741628647 0.59788995981216431
0.31921869516372681 0.02663738839328289 0.57382845878601074
0.56918799877166748 0.00025527057005092502 0.55109035968780518
0.78428119421005249 0 0.51685166358947754
0 0.31920644640922546 0.68782192468643188
0.12254958599805832 0.30387035012245178 0.68024975061416626
0.38971620798110962 0.25935143232345581 0.65437442064285278
0.61861580610275269 0.15858657658100128 0.63156259059906006
0.78936094045639038 0.017908118665218353 0.59297281503677368
0.05511615052819252 0.55706292390823364 0.76107323169708252
0.1978314220905304 0.55580604076385498 0.75793623924255371
0.47358199954032898 0.54034870862960815 0.74370557069778442
0.69697862863540649 0.49044591188430786 0.71957963705062866
0.87052816152572632 0.35167211294174194 0.68259555101394653
0.30272912979125977 0.78613024950027466 0.83309197425842285
0.4146883487701416 0.7870597243309021 0.82703703641891479
0.5860862135887146 0.78025752305984497 0.81950539350509644
0.77264142036437988 0.76450496912002563 0.80645465850830078
0.93954658508300781 0.70814758539199829 0.78820347785949707
0.62836778163909912 0.9757314920425415 0.90180641412734985
0.66110241413116455 0.97996324300765991 0.9005047082901001
0.74475944042205811 0.97993254661560059 0.89734423160552979
0.87273585796356201 0.97949123382568359 0.88939183950424194
0.99499672651290894 0.96566230058670044 0.87287569046020508
0.00094825896667316556 0.12271762639284134 0.76341414451599121
0.064856313169002533 0.11233489215373993 0.77178925275802612
0.2987273633480072 0.077653504908084869 0.74090993404388428
0.54293650388717651 0.018646076321601868 0.72063666582107544
0.75618314743041992 0.0025497586466372013 0.67350149154663086
0 0.35428538918495178 0.83885848522186279
0.078980885446071625 0.3448432981967926 0.82939809560775757
0.35503128170967102 0.30660653114318848 0.80260282754898071
0.59839379787445068 0.22788257896900177 0.79170602560043335
0.76989579200744629 0.075233623385429382 0.75159889459609985
0 0.58230018615722656 0.90469276905059814
0.11012064665555954 0.58060210943222046 0.89294344186782837
0.42197147011756897 0.5658954381942749 0.88448178768157959
0.67300319671630859 0.53140819072723389 0.85765749216079712
0.85806190967559814 0.3996594250202179 0.81892311573028564
0.17606242001056671 0.79666239023208618 0.95640569925308228
0.32600289583206177 0.79792439937591553 0.95950174331665039
0.53411263227462769 0.79412060976028442 0.95198041200637817
0.73660516738891602 0.78250449895858765 0.94184809923171997
0.9206661581993103 0.73291033506393433 0.91963309049606323
0.58084714412689209 0.97841852903366089 0.99895787239074707
0.61622589826583862 0.97920149564743042 0.9998551607131958
0.70870804786682129 0.97774970531463623 0.99965190887451172
0.84441077709197998 0.98242330551147461 0.99688202142715454
0.98681998252868652 0.9739614725112915 0.98898023366928101
