films/kodak_ektachrome_100_vs.cube
# Created by: G'MIC (https://gmic.eu)
TITLE "kodak_ektachrome_100_vs"
# LUT size
LUT_3D_SIZE 7
# Data domain
DOMAIN_MIN 0.0 0.0 0.0
DOMAIN_MAX 1.0 1.0 1.0
# LUT data points
0.021143386140465736 0.013376078568398952 0.010724624618887901
0.093291416764259338 0.0062235216610133648 0.006156502291560173
0.25714677572250366 0.0069529963657259941 0.003151807701215148
0.45871022343635559 0.009375852532684803 0.00015761431131977588
0.66987156867980957 0.0042559155263006687 0
0.87124693393707275 0.00013263178698252887 0
0.99994164705276489 0 0.0015622008359059691
0.059747464954853058 0.12392563372850418 0.057783089578151703
0.15623486042022705 0.1216273307800293 0.043864291161298752
0.31974580883979797 0.10676242411136627 0.025732541456818581
0.50758391618728638 0.10004555433988571 0.010753152891993523
0.69910717010498047 0.073756888508796692 0.0021205528173595667
0.89346021413803101 0.023606648668646812 0.00050359987653791904
1 0.014145719818770885 0.0066056195646524429
0.12344679236412048 0.31099280714988708 0.13771654665470123
0.22162458300590515 0.3081108033657074 0.12097170948982239
0.37259268760681152 0.2963736355304718 0.097710974514484406
0.54789501428604126 0.28004974126815796 0.082213699817657471
0.72565257549285889 0.25193199515342712 0.063454180955886841
0.91008538007736206 0.19139686226844788 0.059183366596698761
1 0.16124789416790009 0.068039342761039734
0.25104999542236328 0.50020664930343628 0.19120626151561737
0.32920441031455994 0.49753668904304504 0.17438492178916931
0.45026952028274536 0.49601846933364868 0.16094045341014862
0.60029298067092896 0.48896005749702454 0.1471792608499527
0.76370829343795776 0.47426104545593262 0.13489401340484619
0.92806488275527954 0.43561398983001709 0.1402471512556076
1 0.39699137210845947 0.16467297077178955
0.40604594349861145 0.68352365493774414 0.24956418573856354
0.45745781064033508 0.68288463354110718 0.24002115428447723
0.54912906885147095 0.68259084224700928 0.22437800467014313
0.67743825912475586 0.6789778470993042 0.19385874271392822
0.82675999402999878 0.67229598760604858 0.16886866092681885
0.96048986911773682 0.65223604440689087 0.16889217495918274
0.99934405088424683 0.62074458599090576 0.22413459420204163
0.57133322954177856 0.85764461755752563 0.31802210211753845
0.61089849472045898 0.85871028900146484 0.31505653262138367
0.67609864473342896 0.85994225740432739 0.2964932918548584
0.77398592233657837 0.8560364842414856 0.26793104410171509
0.89813816547393799 0.85295957326889038 0.23239609599113464
0.99159204959869385 0.84676021337509155 0.19315090775489807
0.99981874227523804 0.82780992984771729 0.19155915081501007
0.75789159536361694 0.9950408935546875 0.35640785098075867
0.80998289585113525 0.99383199214935303 0.36258286237716675
0.83594620227813721 0.99749678373336792 0.34983187913894653
0.90311259031295776 0.9944724440574646 0.33282732963562012
0.98368829488754272 0.99303382635116577 0.31779348850250244
0.99985712766647339 0.99623501300811768 0.28002253174781799
1 0.98192936182022095 0.21979433298110962
0.00098646571859717369 0.0065417569130659103 0.081308804452419281
0.057787217199802399 0.0070272856391966343 0.080042131245136261
0.23094615340232849 0.0045025544241070747 0.068398252129554749
0.43592178821563721 0.0051440969109535217 0.04791177436709404
0.64880967140197754 0.0013522877125069499 0.027628101408481598
0.85209131240844727 0 0.023697571828961372
0.99915230274200439 0 0.025067556649446487
0.039234999567270279 0.1225682869553566 0.13547652959823608
0.1287858635187149 0.11509586125612259 0.12403486669063568
0.29170000553131104 0.10435043275356293 0.1071755513548851
0.47990426421165466 0.092865884304046631 0.087459683418273926
0.67477136850357056 0.061960872262716293 0.061055980622768402
0.86628347635269165 0.02162487618625164 0.041510622948408127
0.99750047922134399 0.00081923243124037981 0.035315524786710739
0.098996259272098541 0.30712112784385681 0.20146919786930084
0.18906861543655396 0.30377829074859619 0.19631339609622955
0.3455691933631897 0.2920374870300293 0.179610475897789
0.52044177055358887 0.27590581774711609 0.16531117260456085
0.70526069402694702 0.24042251706123352 0.14471264183521271
0.89051032066345215 0.18823894858360291 0.12840674817562103
0.99889719486236572 0.13558484613895416 0.11404870450496674
0.23109437525272369 0.5038267970085144 0.23971974849700928
0.3026314377784729 0.49951446056365967 0.23244814574718475
0.42892885208129883 0.49338924884796143 0.22666041553020477
0.57974529266357422 0.48416885733604431 0.22211088240146637
0.74646496772766113 0.46621841192245483 0.21871832013130188
0.92122358083724976 0.4331439733505249 0.22981300950050354
1 0.38839370012283325 0.23788312077522278
0.4018872082233429 0.68938982486724854 0.26772117614746094
0.45377618074417114 0.68731063604354858 0.25771346688270569
0.54395037889480591 0.68396008014678955 0.24618946015834808
0.66830873489379883 0.67611503601074219 0.23353740572929382
0.80886590480804443 0.66784226894378662 0.23591111600399017
0.94828814268112183 0.64654433727264404 0.26381513476371765
1 0.61462318897247314 0.3107433021068573
0.57964408397674561 0.86513710021972656 0.31271299719810486
0.60656768083572388 0.85991102457046509 0.30839237570762634
0.67324149608612061 0.86240673065185547 0.29188352823257446
0.77203196287155151 0.85901945829391479 0.26615482568740845
0.8944404125213623 0.85604667663574219 0.2424701601266861
0.99080091714859009 0.84693038463592529 0.22607044875621796
1 0.82619166374206543 0.26738610863685608
0.77794849872589111 0.99820303916931152 0.36137539148330688
0.80717682838439941 0.99696147441864014 0.35285875201225281
0.84049159288406372 0.99748021364212036 0.34226202964782715
0.90105289220809937 0.99762177467346191 0.32248857617378235
0.97178232669830322 0.99703925848007202 0.29335460066795349
0.99871516227722168 0.99213391542434692 0.27918681502342224
1 0.98803448677062988 0.23526142537593842
0 0.0037763258442282677 0.19184064865112305
0.028310708701610565 0.0067734960466623306 0.18664009869098663
0.19273138046264648 0.0021473155356943607 0.16388709843158722
0.40425419807434082 0.0035114961210638285 0.1325976550579071
0.62493842840194702 0.0022642845287919044 0.10547980666160583
0.83684796094894409 0.00079282873775810003 0.084527991712093353
0.99636995792388916 0 0.071986809372901917
0.016014188528060913 0.11551572382450104 0.25344944000244141
0.091633737087249756 0.11176828294992447 0.2442610114812851
0.25576052069664001 0.094304420053958893 0.21757836639881134
0.45288935303688049 0.079554177820682526 0.1852024644613266
0.65187215805053711 0.062437526881694794 0.15696029365062714
0.85202676057815552 0.035169113427400589 0.12094162404537201
0.99783527851104736 0.0091894259676337242 0.096429131925106049
0.051461149007081985 0.30008623003959656 0.32728049159049988
0.14671048521995544 0.29499217867851257 0.31769305467605591
0.30509516596794128 0.28639525175094604 0.30212152004241943
0.49071869254112244 0.26924413442611694 0.28154626488685608
0.67643797397613525 0.23704001307487488 0.25352615118026733
0.86650216579437256 0.19425725936889648 0.22211453318595886
0.99874299764633179 0.14619149267673492 0.19137786328792572
0.14821653068065643 0.49394914507865906 0.37232771515846252
0.24112731218338013 0.49092540144920349 0.36641684174537659
0.3817145824432373 0.48577401041984558 0.36346733570098877
0.54078429937362671 0.47376564145088196 0.35879147052764893
0.70981037616729736 0.4572119414806366 0.3479616641998291
0.88682311773300171 0.43359249830245972 0.34317892789840698
1 0.38579455018043518 0.32548090815544128
0.34770756959915161 0.68137133121490479 0.37225019931793213
0.40642336010932922 0.6794779896736145 0.37210556864738464
0.49878755211830139 0.67606580257415771 0.37533095479011536
0.62154018878936768 0.66773825883865356 0.38375988602638245
0.76262855529785156 0.65752714872360229 0.39714163541793823
0.90995293855667114 0.63966691493988037 0.41682130098342896
0.99807995557785034 0.60970145463943481 0.4264865517616272
0.56700044870376587 0.86520415544509888 0.34565693140029907
0.59535372257232666 0.86295074224472046 0.33891314268112183
0.65092325210571289 0.86234384775161743 0.34868690371513367
0.74784868955612183 0.85844272375106812 0.33763489127159119
0.8649526834487915 0.85195267200469971 0.34811887145042419
0.9715532660484314 0.83763700723648071 0.38493680953979492
0.99958306550979614 0.81252634525299072 0.44228366017341614
0.79283177852630615 0.99852943420410156 0.35369628667831421
0.81476235389709473 0.99844950437545776 0.35106632113456726
0.85559451580047607 0.99805992841720581 0.33457288146018982
0.9192044734954834 0.99702334403991699 0.3200131356716156
0.98453187942504883 0.99779409170150757 0.27302950620651245
1 0.99673408269882202 0.25809949636459351
0.99970501661300659 0.9867929220199585 0.27821913361549377
0 0.00070262234658002853 0.29584735631942749
0.0083491755649447441 0.0042753629386425018 0.28407827019691467
0.15157671272754669 0.0033169914968311787 0.25670579075813293
0.3808479905128479 0.0013267815811559558 0.21967090666294098
0.60287714004516602 0.00035597858368419111 0.18780595064163208
0.81518340110778809 0 0.15816952288150787
0.98744314908981323 0 0.14028178155422211
0.0051929997280240059 0.10423330962657928 0.36776018142700195
0.049873039126396179 0.10694926977157593 0.35621491074562073
0.20739550888538361 0.092389531433582306 0.32597464323043823
0.42067873477935791 0.07207595556974411 0.2846628725528717
0.62571638822555542 0.056423529982566833 0.24880193173885345
0.83300876617431641 0.023846808820962906 0.20196494460105896
0.9979168176651001 0.0019304612651467323 0.16326181590557098
0.031842384487390518 0.29148182272911072 0.45368987321853638
0.092084445059299469 0.28717008233070374 0.44379881024360657
0.25426360964775085 0.27901053428649902 0.42238131165504456
0.45263439416885376 0.26270100474357605 0.39183419942855835
0.64155703783035278 0.23272894322872162 0.35785859823226929
0.8428729772567749 0.18229185044765472 0.31340441107749939
0.99931371212005615 0.12795652449131012 0.26504385471343994
0.060866590589284897 0.48248189687728882 0.52494281530380249
0.14161454141139984 0.48049560189247131 0.51967144012451172
0.31528466939926147 0.47744762897491455 0.50809568166732788
0.49145960807800293 0.46731030941009521 0.49110695719718933
0.66675871610641479 0.45260915160179138 0.47156691551208496
0.85710412263870239 0.428864985704422 0.44857940077781677
0.99929505586624146 0.37732142210006714 0.41189965605735779
0.23564083874225616 0.6651308536529541 0.5649113655090332
0.29945340752601624 0.66341239213943481 0.56836199760437012
0.41976544260978699 0.66266548633575439 0.56364947557449341
0.55986666679382324 0.65731728076934814 0.5584222674369812
0.71151500940322876 0.64807307720184326 0.55156129598617554
0.87744933366775513 0.63207048177719116 0.5413934588432312
0.9995381236076355 0.5993456244468689 0.52750635147094727
0.48038429021835327 0.84829449653625488 0.53484582901000977
0.50874584913253784 0.84688037633895874 0.53671610355377197
0.57689493894577026 0.84648644924163818 0.54273974895477295
0.67524373531341553 0.84206795692443848 0.55176073312759399
0.79356163740158081 0.83700990676879883 0.56632554531097412
0.92900931835174561 0.82084506750106812 0.58841913938522339
0.99995583295822144 0.8037455677986145 0.60165703296661377
0.80513262748718262 0.99569398164749146 0.36132660508155823
0.82908415794372559 0.99487209320068359 0.36721771955490112
0.87100446224212646 0.99393588304519653 0.35152125358581543
0.92633461952209473 0.99430346488952637 0.35575211048126221
0.97989124059677124 0.99290001392364502 0.34718775749206543
0.9980931282043457 0.99071764945983887 0.37785112857818604
0.99998706579208374 0.98624134063720703 0.49048590660095215
0 0 0.39366519451141357
0.0027782665565609932 0 0.37794479727745056
0.12224535644054413 0 0.34938329458236694
0.34417754411697388 0 0.31111472845077515
0.57454937696456909 0 0.27271732687950134
0.79679703712463379 0 0.23794373869895935
0.98137670755386353 0 0.21219804883003235
0.00068646599538624287 0.094436526298522949 0.47457617521286011
0.020499315112829208 0.090589828789234161 0.45869001746177673
0.15679201483726501 0.079306736588478088 0.42646533250808716
0.38182386755943298 0.063036181032657623 0.38366672396659851
0.59682744741439819 0.047591622918844223 0.34025594592094421
0.81027960777282715 0.014286833815276623 0.28528383374214172
0.98774385452270508 0.00010890586418099701 0.23908032476902008
0.0043084984645247459 0.28345587849617004 0.5677449107170105
0.03518078476190567 0.27909067273139954 0.55683565139770508
0.19181087613105774 0.27175945043563843 0.53217893838882446
0.40880888700485229 0.25034794211387634 0.49673610925674438
0.61134976148605347 0.21939566731452942 0.45446142554283142
0.82294845581054688 0.16528154909610748 0.39725384116172791
0.99612677097320557 0.11139848083257675 0.3392338752746582
0.0049965949729084969 0.47468620538711548 0.64952760934829712
0.056697800755500793 0.47305041551589966 0.6418921947479248
0.24366781115531921 0.46971940994262695 0.62736988067626953
0.44398245215415955 0.45949915051460266 0.60395288467407227
0.63136762380599976 0.44298890233039856 0.57602941989898682
0.82952845096588135 0.4145101010799408 0.54040175676345825
0.99444884061813354 0.36800333857536316 0.49468797445297241
0.12136604636907578 0.65665876865386963 0.71387869119644165
0.19760465621948242 0.65527749061584473 0.70926988124847412
0.34618011116981506 0.65071290731430054 0.69973194599151611
0.50609982013702393 0.64883434772491455 0.6855158805847168
0.66869723796844482 0.63860386610031128 0.66888821125030518
0.84575724601745605 0.62352621555328369 0.64865010976791382
0.99587994813919067 0.59367245435714722 0.62078845500946045
0.36659559607505798 0.83188790082931519 0.74468421936035156
0.41079244017601013 0.83404570817947388 0.74261635541915894
0.48916161060333252 0.82901912927627563 0.74314713478088379
0.60127121210098267 0.82634472846984863 0.73860359191894531
0.73030370473861694 0.82343560457229614 0.73747700452804565
0.88128906488418579 0.81189626455307007 0.72593456506729126
0.99939429759979248 0.79307013750076294 0.7120518684387207
0.73246008157730103 0.99081885814666748 0.57424938678741455
0.7430039644241333 0.99217617511749268 0.58472424745559692
0.78421378135681152 0.99009966850280762 0.58482438325881958
0.83695775270462036 0.99135458469390869 0.60465610027313232
0.9079774022102356 0.98944419622421265 0.63085740804672241
0.97902798652648926 0.98742425441741943 0.67340946197509766
1 0.97512447834014893 0.69066154956817627
0 0 0.48164653778076172
0.0006052653188817203 0 0.46995794773101807
0.088528409600257874 0 0.443675696849823
0.3012794554233551 0.00084678799612447619 0.39972749352455139
0.54556375741958618 0.00090022367658093572 0.35176059603691101
0.77782672643661499 0 0.3134433925151825
0.97833526134490967 0 0.27638342976570129
0 0.086453758180141449 0.57146257162094116
0.0027920741122215986 0.08053162693977356 0.5572742223739624
0.11438463628292084 0.0732436403632164 0.52218949794769287
0.33468937873840332 0.056493930518627167 0.47194138169288635
0.56211155652999878 0.044457484036684036 0.42457890510559082
0.78847205638885498 0.01283657643944025 0.36288300156593323
0.98091095685958862 0.00038573320489376783 0.30585211515426636
0 0.27508071064949036 0.67072755098342896
0.0030437842942774296 0.27250128984451294 0.65946346521377563
0.13317151367664337 0.26571017503738403 0.62937742471694946
0.36270853877067566 0.24529661238193512 0.58925926685333252
0.57507526874542236 0.21390855312347412 0.54338556528091431
0.79378998279571533 0.16258233785629272 0.48012864589691162
0.97733175754547119 0.10372311621904373 0.41498070955276489
0 0.46709808707237244 0.75617891550064087
0.0042752735316753387 0.46622654795646667 0.7510446310043335
0.16171917319297791 0.4618808925151825 0.73139899969100952
0.39316725730895996 0.45360153913497925 0.70476776361465454
0.59096354246139526 0.44256523251533508 0.67206722497940063
0.79669231176376343 0.41466116905212402 0.62710630893707275
0.98104548454284668 0.37202095985412598 0.5751606822013855
0.017149157822132111 0.64845895767211914 0.83288568258285522
0.073342688381671906 0.64653497934341431 0.83079773187637329
0.24707292020320892 0.6451038122177124 0.81758129596710205
0.44176921248435974 0.64079064130783081 0.8021131157875061
0.62180572748184204 0.63468748331069946 0.77623045444488525
0.81360548734664917 0.61920297145843506 0.7440229058265686
0.98390978574752808 0.59338235855102539 0.70666801929473877
0.24017725884914398 0.82139438390731812 0.89299541711807251
0.29021713137626648 0.820331871509552 0.89212369918823242
0.40208920836448669 0.82001197338104248 0.88393986225128174
0.52995115518569946 0.81759798526763916 0.87837940454483032
0.67650514841079712 0.81415611505508423 0.86160111427307129
0.84038752317428589 0.80231624841690063 0.83922308683395386
0.99311554431915283 0.78673124313354492 0.81601125001907349
0.58517670631408691 0.98318600654602051 0.86815232038497925
0.61016511917114258 0.98559725284576416 0.86975038051605225
0.6624685525894165 0.98490661382675171 0.87043076753616333
0.72174489498138428 0.98346048593521118 0.87792962789535522
0.81871289014816284 0.98468190431594849 0.87433856725692749
0.91465145349502563 0.9807593822479248 0.88214266300201416
0.99933552742004395 0.97170555591583252 0.87449461221694946
0 0 0.5501214861869812
0.006597466766834259 0 0.54217743873596191
0.081166557967662811 0 0.51644593477249146
0.2678186297416687 0.0015233058948069811 0.46822801232337952
0.5209839940071106 0.003222551429644227 0.40970346331596375
0.75691401958465576 0.00013263178698252887 0.36808249354362488
0.95264548063278198 0.00099104340188205242 0.32530370354652405
0.00024776085047051311 0.076200343668460846 0.63901060819625854
0.0047280406579375267 0.075346730649471283 0.627419114112854
0.098750144243240356 0.068913824856281281 0.58996117115020752
0.30037021636962891 0.05157763883471489 0.53538328409194946
0.53290706872940063 0.05256010964512825 0.4889695942401886
0.76894080638885498 0.021622601896524429 0.42100939154624939
0.96302497386932373 0.0065846759825944901 0.35622462630271912
0 0.2674688994884491 0.74388331174850464
0.0076695163734257221 0.26722463965415955 0.72838348150253296
0.099303781986236572 0.25922566652297974 0.6933864951133728
0.32502526044845581 0.241007000207901 0.64930492639541626
0.5481032133102417 0.21389378607273102 0.60403549671173096
0.77546060085296631 0.168224036693573 0.53587371110916138
0.97053402662277222 0.12952490150928497 0.46969550848007202
0 0.4608968198299408 0.82862168550491333
0 0.46015805006027222 0.82275211811065674
0.083213850855827332 0.45507550239562988 0.79533708095550537
0.35329923033714294 0.44799607992172241 0.76525330543518066
0.56371670961380005 0.43487650156021118 0.7298160195350647
0.77438193559646606 0.40558943152427673 0.67860192060470581
0.96176809072494507 0.36302345991134644 0.62602335214614868
1.8669577912078239e-05 0.63940238952636719 0.91509044170379639
0.0027907576877623796 0.63965910673141479 0.90802335739135742
0.15250426530838013 0.63670265674591064 0.89431256055831909
0.39130067825317383 0.63359516859054565 0.87353736162185669
0.58703857660293579 0.62757515907287598 0.84617960453033447
0.78761297464370728 0.61273550987243652 0.80833476781845093
0.96676832437515259 0.58953416347503662 0.76238912343978882
0.11204779893159866 0.81614798307418823 0.98253500461578369
0.17985932528972626 0.81165540218353271 0.98576980829238892
0.33262938261032104 0.81041508913040161 0.9694029688835144
0.47766619920730591 0.80961042642593384 0.96356427669525146
0.63836765289306641 0.80651819705963135 0.94127398729324341
0.81287205219268799 0.79654985666275024 0.9143517017364502
0.97111755609512329 0.78019040822982788 0.87994545698165894
0.50299292802810669 0.97989481687545776 0.99931198358535767
0.50982517004013062 0.97524112462997437 0.99993467330932617
0.57787573337554932 0.97417360544204712 0.99985063076019287
0.65173077583312988 0.97352677583694458 1
0.75519192218780518 0.9759138822555542 0.99990737438201904
0.87471950054168701 0.97395879030227661 0.99373996257781982
0.99426501989364624 0.97353219985961914 0.98451370000839233
