films/kodak_portra_400_nc.cube
# Created by: G'MIC (https://gmic.eu)
TITLE "kodak_portra_400_nc"
# LUT size
LUT_3D_SIZE 5
# Data domain
DOMAIN_MIN 0.0 0.0 0.0
DOMAIN_MAX 1.0 1.0 1.0
# LUT data points
0.038760211318731308 0.048111680895090103 0.049444608390331268
0.1867782324552536 0.060820888727903366 0.048502035439014435
0.53031665086746216 0.057307641953229904 0.02833130769431591
0.80651867389678955 0.091649241745471954 0.012628966942429543
0.98783904314041138 0.19729682803153992 0.025353524833917618
0.0097380392253398895 0.21193310618400574 0.090909518301486969
0.22284220159053802 0.25989896059036255 0.0465862937271595
0.63970685005187988 0.30323252081871033 0.0030326992273330688
0.84795862436294556 0.29087996482849121 0
0.99360024929046631 0.33096477389335632 0.012019168585538864
0.061454862356185913 0.54328912496566772 0.2240108847618103
0.25961565971374512 0.53735041618347168 0.21254462003707886
0.55197638273239136 0.58674269914627075 0.076195724308490753
0.8438228964805603 0.58353585004806519 0
0.99858182668685913 0.53792309761047363 0.00073355878703296185
0.38186061382293701 0.73962157964706421 0.43473586440086365
0.44598820805549622 0.7366105318069458 0.43413498997688293
0.55075538158416748 0.74904102087020874 0.40674486756324768
0.73400253057479858 0.77423423528671265 0.28105595707893372
0.96710401773452759 0.78248751163482666 0.19044949114322662
0.68964874744415283 0.90344315767288208 0.70754313468933105
0.6920166015625 0.89852017164230347 0.69580560922622681
0.74613916873931885 0.90361297130584717 0.71586257219314575
0.7964748740196228 0.91886287927627563 0.67700183391571045
0.92049247026443481 0.94560766220092773 0.63877946138381958
0.0091386083513498306 0.054004505276679993 0.23109477758407593
0.23042912781238556 0.04066898301243782 0.23757581412792206
0.57674622535705566 0.00046911800745874643 0.23767298460006714
0.80017340183258057 0.048954412341117859 0.23224063217639923
0.96645843982696533 0.2351502925157547 0.26809117197990417
0.0043522105552256107 0.27052134275436401 0.27989611029624939
0.28060555458068848 0.28771334886550903 0.30351921916007996
0.62862718105316162 0.28791791200637817 0.28120401501655579
0.81543087959289551 0.30403077602386475 0.27051541209220886
0.98068344593048096 0.35046130418777466 0.27833166718482971
0.27572092413902283 0.57974594831466675 0.40839982032775879
0.38490220904350281 0.56957709789276123 0.40878430008888245
0.58262324333190918 0.59602445363998413 0.33341249823570251
0.84438139200210571 0.57178187370300293 0.25945842266082764
0.99461358785629272 0.54922884702682495 0.2712647020816803
0.47253572940826416 0.75581163167953491 0.52915674448013306
0.50991636514663696 0.74868631362915039 0.53085815906524658
0.58401679992675781 0.74903565645217896 0.50991725921630859
0.74888849258422852 0.77693521976470947 0.42655244469642639
0.97277933359146118 0.78711563348770142 0.37004789710044861
0.70233744382858276 0.90335094928741455 0.72913455963134766
0.7120862603187561 0.90173161029815674 0.72794687747955322
0.75584506988525391 0.90467780828475952 0.73693323135375977
0.80685484409332275 0.91866958141326904 0.7167961597442627
0.92243748903274536 0.94657933712005615 0.67235791683197021
0.0038319306913763285 0.071932956576347351 0.56075090169906616
0.29444578289985657 0.060650933533906937 0.57121032476425171
0.635112464427948 0.04376552626490593 0.5723307728767395
0.84868592023849487 0.15379713475704193 0.52370631694793701
0.9892999529838562 0.30293864011764526 0.5016855001449585
5.1700368203455582e-05 0.32120952010154724 0.58622616529464722
0.31956946849822998 0.3227887749671936 0.60017102956771851
0.64916545152664185 0.35836613178253174 0.59900164604187012
0.8254273533821106 0.39342594146728516 0.55226081609725952
0.97087043523788452 0.42259469628334045 0.5244368314743042
0.30043348670005798 0.60920673608779907 0.60511064529418945
0.45302298665046692 0.61518734693527222 0.61230933666229248
0.63120853900909424 0.61710387468338013 0.61122977733612061
0.80447471141815186 0.60113155841827393 0.58504724502563477
0.9566916823387146 0.58872896432876587 0.55300402641296387
0.57684153318405151 0.78084743022918701 0.67325878143310547
0.61199069023132324 0.78007388114929199 0.67341697216033936
0.6584850549697876 0.76973122358322144 0.66385561227798462
0.77682048082351685 0.78712224960327148 0.62051182985305786
0.96854215860366821 0.78000378608703613 0.58731907606124878
0.72591900825500488 0.91045552492141724 0.78270602226257324
0.74625450372695923 0.90909552574157715 0.78662067651748657
0.7688668966293335 0.9088626503944397 0.7831118106842041
0.82237052917480469 0.91657865047454834 0.77658993005752563
0.93274796009063721 0.94880330562591553 0.74450147151947021
0.057061392813920975 0.17148119211196899 0.78500354290008545
0.34644755721092224 0.18226125836372375 0.78474909067153931
0.63575214147567749 0.24338419735431671 0.7829970121383667
0.83754593133926392 0.34592106938362122 0.76852869987487793
0.97617965936660767 0.44597736001014709 0.74367886781692505
0.19633735716342926 0.36730799078941345 0.78409242630004883
0.38633674383163452 0.37303000688552856 0.78410798311233521
0.64722365140914917 0.42782354354858398 0.78649479150772095
0.83382993936538696 0.48144981265068054 0.78025656938552856
0.96811354160308838 0.55264264345169067 0.75724619626998901
0.26994198560714722 0.60209363698959351 0.76499152183532715
0.41879427433013916 0.60833621025085449 0.76831138134002686
0.62298506498336792 0.61931478977203369 0.77805495262145996
0.81396311521530151 0.66100585460662842 0.78632462024688721
0.94788318872451782 0.68214446306228638 0.76736736297607422
0.55048352479934692 0.79429596662521362 0.79158014059066772
0.59803438186645508 0.7940068244934082 0.79379081726074219
0.68440538644790649 0.79166799783706665 0.79501765966415405
0.80317366123199463 0.79467415809631348 0.79758238792419434
0.95056712627410889 0.7894323468208313 0.77558726072311401
0.77037292718887329 0.92801296710968018 0.86441433429718018
0.78096872568130493 0.92952269315719604 0.86411541700363159
0.81579107046127319 0.93265581130981445 0.86430639028549194
0.85246855020523071 0.92788839340209961 0.85852926969528198
0.94685894250869751 0.95101642608642578 0.83899044990539551
0.46378839015960693 0.43941494822502136 0.94264692068099976
0.53322148323059082 0.43895426392555237 0.94049686193466187
0.68870347738265991 0.504158616065979 0.9367784857749939
0.8492317795753479 0.57350969314575195 0.9314543604850769
0.98228466510772705 0.63327556848526001 0.92994821071624756
0.49508512020111084 0.53864157199859619 0.9412263035774231
0.55849575996398926 0.54550957679748535 0.93841004371643066
0.69432002305984497 0.57805705070495605 0.93532651662826538
0.84555447101593018 0.63589107990264893 0.93167930841445923
0.98007023334503174 0.66925293207168579 0.93280577659606934
0.50704634189605713 0.67492568492889404 0.9323803186416626
0.56248050928115845 0.67444068193435669 0.93460190296173096
0.68452626466751099 0.68745040893554688 0.93321722745895386
0.83751249313354492 0.72310066223144531 0.9330870509147644
0.96798837184906006 0.7475854754447937 0.93360179662704468
0.54453307390213013 0.81348395347595215 0.93549662828445435
0.57498753070831299 0.81210803985595703 0.93311256170272827
0.66010576486587524 0.80602008104324341 0.93092614412307739
0.81097871065139771 0.80934959650039673 0.9421457052230835
0.96120643615722656 0.83967030048370361 0.94244903326034546
0.74004179239273071 0.94762980937957764 0.95504063367843628
0.75133991241455078 0.95025724172592163 0.95465236902236938
0.79643696546554565 0.95538145303726196 0.95767676830291748
0.86571586132049561 0.95301049947738647 0.96368658542633057
0.96867340803146362 0.96175563335418701 0.96544754505157471
