films/kodak_portra_400_vc.cube
# Created by: G'MIC (https://gmic.eu)
TITLE "kodak_portra_400_vc"
# LUT size
LUT_3D_SIZE 13
# Data domain
DOMAIN_MIN 0.0 0.0 0.0
DOMAIN_MAX 1.0 1.0 1.0
# LUT data points
0.026607124134898186 0.047914661467075348 0.055304672569036484
0.065031163394451141 0.051837712526321411 0.051680471748113632
0.13492259383201599 0.061626791954040527 0.050922349095344543
0.22364011406898499 0.069195270538330078 0.045687627047300339
0.33032324910163879 0.072419293224811554 0.03435027226805687
0.44933873414993286 0.068145468831062317 0.01834157295525074
0.56789875030517578 0.064251422882080078 0.0065397224389016628
0.67551141977310181 0.067636795341968536 0.00070567411603406072
0.76052600145339966 0.084778755903244019 0
0.83006703853607178 0.11064571142196655 0
0.89011585712432861 0.13975799083709717 0
0.9423515796661377 0.1702028214931488 0
0.98701000213623047 0.20135004818439484 0
0.018115309998393059 0.085936784744262695 0.063580818474292755
0.060392867773771286 0.091645948588848114 0.05775827169418335
0.13852588832378387 0.10299528390169144 0.05172373354434967
0.23561380803585052 0.11264768242835999 0.041719969362020493
0.349994957447052 0.12084057182073593 0.027083901688456535
0.47211399674415588 0.12347695976495743 0.012544325552880764
0.5880047082901001 0.12569402158260345 0.0026127833407372236
0.69001352787017822 0.13188855350017548 0.00018346449360251427
0.77299785614013672 0.14443491399288177 0
0.84066587686538696 0.16327458620071411 0
0.89906841516494751 0.18536119163036346 0
0.95011532306671143 0.20946763455867767 0
0.99183756113052368 0.23609130084514618 0
0.0021794338244944811 0.15258322656154633 0.081916466355323792
0.028427751734852791 0.15306740999221802 0.077834859490394592
0.10527044534683228 0.168021559715271 0.067048855125904083
0.2255672961473465 0.18575397133827209 0.043074514716863632
0.36820253729820251 0.20005573332309723 0.018609648570418358
0.50401008129119873 0.2011973112821579 0.0089788399636745453
0.61820715665817261 0.20403294265270233 0.00078914867481216788
0.71256172657012939 0.20629905164241791 0
0.78860759735107422 0.21238440275192261 0
0.85195523500442505 0.22398659586906433 0
0.9079398512840271 0.23886187374591827 0
0.95711296796798706 0.25663870573043823 0
0.99519354104995728 0.27792534232139587 0
0 0.23708702623844147 0.10352923721075058
0.0030804802663624287 0.2366020679473877 0.10403279215097427
0.052138429135084152 0.24794724583625793 0.096830002963542938
0.1868303120136261 0.27784407138824463 0.068466544151306152
0.35907202959060669 0.3090185821056366 0.029852310195565224
0.51997369527816772 0.31761178374290466 0.010315225459635258
0.64338076114654541 0.30944722890853882 0.0009250865550711751
0.73517537117004395 0.29377514123916626 0
0.80514276027679443 0.28989216685295105 0
0.86366754770278931 0.29349479079246521 0
0.91649198532104492 0.30186760425567627 0
0.96388101577758789 0.31285035610198975 0
0.99744147062301636 0.32838869094848633 0
0 0.34288802742958069 0.13401947915554047
7.8986677181092091e-06 0.34260267019271851 0.13555961847305298
0.024444565176963806 0.3479180634021759 0.13404877483844757
0.13853262364864349 0.37014615535736084 0.11750051379203796
0.30961212515830994 0.40339186787605286 0.080964811146259308
0.49294987320899963 0.4320177435874939 0.032089322805404663
0.63787657022476196 0.42907387018203735 0.003480574581772089
0.73919200897216797 0.40401414036750793 0
0.81052190065383911 0.3852066695690155 0
0.86950981616973877 0.37496936321258545 0
0.92237246036529541 0.37471497058868408 0
0.96857082843780518 0.37808144092559814 0
0.99859213829040527 0.38617175817489624 0
5.0563437980599701e-05 0.45359647274017334 0.17521730065345764
0 0.45008909702301025 0.17426745593547821
0.010478001087903976 0.45002052187919617 0.17517408728599548
0.090718351304531097 0.4617011547088623 0.16644442081451416
0.24704411625862122 0.4830106794834137 0.13955335319042206
0.42811286449432373 0.50672394037246704 0.092148110270500183
0.59412878751754761 0.52790623903274536 0.028969679027795792
0.71189546585083008 0.51775634288787842 0.0028186873532831669
0.79726600646972656 0.49497458338737488 2.0105699150008149e-05
0.86613327264785767 0.47382023930549622 0
0.92319029569625854 0.46145808696746826 0
0.96993613243103027 0.45188838243484497 0
0.9985424280166626 0.44981810450553894 0
0.0023611180949956179 0.54003894329071045 0.22120034694671631
0.00255433632992208 0.53839081525802612 0.21897807717323303
0.016740940511226654 0.53679877519607544 0.22075730562210083
0.075713589787483215 0.54163211584091187 0.21793483197689056
0.21462710201740265 0.55208200216293335 0.2024589478969574
0.37799134850502014 0.56768262386322021 0.17300491034984589
0.52955305576324463 0.58787482976913452 0.12122754752635956
0.6582598090171814 0.59878897666931152 0.06526782363653183
0.76824259757995605 0.59932065010070801 0.013310899958014488
0.85137641429901123 0.58379507064819336 0.00029772589914500713
0.91585779190063477 0.56076288223266602 0
0.96743196249008179 0.5362783670425415 0
0.99769830703735352 0.52139222621917725 0
0.038414854556322098 0.61060589551925659 0.27276933193206787
0.046327851712703705 0.61044305562973022 0.2691338062286377
0.073352277278900146 0.60833793878555298 0.27064678072929382
0.13239419460296631 0.60799258947372437 0.27083310484886169
0.23675492405891418 0.61313766241073608 0.26327717304229736
0.36224687099456787 0.62418085336685181 0.24622164666652679
0.48467940092086792 0.63858741521835327 0.21967053413391113
0.60216516256332397 0.65539497137069702 0.17905862629413605
0.72035098075866699 0.67172980308532715 0.10773050785064697
0.81836462020874023 0.67183500528335571 0.049730770289897919
0.89711076021194458 0.65835112333297729 0.019308561459183693
0.95866644382476807 0.63244229555130005 0.009499688632786274
0.99643033742904663 0.61148649454116821 0.00076772650936618447
0.12420030683279037 0.67508947849273682 0.33167281746864319
0.13423722982406616 0.67512619495391846 0.32624408602714539
0.16236200928688049 0.67258012294769287 0.32682445645332336
0.21420763432979584 0.67033207416534424 0.32895031571388245
0.29082420468330383 0.67317914962768555 0.32576665282249451
0.38194125890731812 0.68242257833480835 0.31488776206970215
0.4755932092666626 0.6930961012840271 0.30093616247177124
0.56995248794555664 0.70517265796661377 0.28004717826843262
0.67073714733123779 0.71728771924972534 0.24642567336559296
0.77263122797012329 0.72972208261489868 0.19778254628181458
0.86715912818908691 0.7375025749206543 0.15187788009643555
0.94227093458175659 0.72467750310897827 0.10678752511739731
0.99242740869522095 0.70541536808013916 0.046331383287906647
0.23795019090175629 0.73656749725341797 0.40017485618591309
0.24539436399936676 0.73671120405197144 0.39315083622932434
0.26772332191467285 0.73429238796234131 0.39290764927864075
0.30748572945594788 0.73211467266082764 0.39672437310218811
0.36209344863891602 0.73298352956771851 0.39693227410316467
0.42743360996246338 0.73891633749008179 0.39272400736808777
0.49660062789916992 0.74671542644500732 0.38565254211425781
0.5690535306930542 0.7550424337387085 0.37456813454627991
0.64914137125015259 0.76463609933853149 0.35732665657997131
0.73592549562454224 0.77775144577026367 0.33247774839401245
0.82691186666488647 0.79238569736480713 0.30540508031845093
0.9099922776222229 0.79353111982345581 0.25652706623077393
0.97387748956680298 0.78344178199768066 0.19537380337715149
0.3648521900177002 0.79636722803115845 0.48256441950798035
0.37035295367240906 0.79669928550720215 0.4765779972076416
0.38515931367874146 0.7943306565284729 0.47624349594116211
0.41118970513343811 0.79075878858566284 0.47910559177398682
0.44710627198219299 0.7904781699180603 0.48050260543823242
0.49364379048347473 0.79436981678009033 0.48326164484024048
0.54325002431869507 0.80030620098114014 0.48146930336952209
0.59652328491210938 0.80640268325805664 0.47479727864265442
0.65581262111663818 0.81327909231185913 0.46398529410362244
0.71971422433853149 0.82205456495285034 0.44948890805244446
0.79157352447509766 0.83245337009429932 0.42983153462409973
0.87180393934249878 0.84084349870681763 0.39885616302490234
0.94270968437194824 0.84294742345809937 0.36472156643867493
0.49477079510688782 0.85436141490936279 0.58066165447235107
0.5003204345703125 0.85490226745605469 0.57895535230636597
0.50996476411819458 0.85256773233413696 0.57996648550033569
0.52308875322341919 0.84879469871520996 0.57836234569549561
0.54348230361938477 0.84689730405807495 0.57769113779067993
0.57702308893203735 0.85004442930221558 0.58619600534439087
0.61256664991378784 0.85470187664031982 0.58918613195419312
0.64893603324890137 0.85975468158721924 0.58531993627548218
0.69063091278076172 0.86497694253921509 0.57886779308319092
0.73695755004882812 0.87090110778808594 0.56771433353424072
0.79112762212753296 0.87764298915863037 0.55254936218261719
0.85472619533538818 0.88648945093154907 0.5365411639213562
0.91969895362854004 0.89437907934188843 0.52056699991226196
0.6107979416847229 0.9084811806678772 0.68027216196060181
0.61598354578018188 0.90887713432312012 0.68009132146835327
0.62478542327880859 0.907970130443573 0.68382948637008667
0.63182282447814941 0.90483850240707397 0.68242043256759644
0.64286822080612183 0.90264600515365601 0.68249285221099854
0.66632062196731567 0.90519320964813232 0.69182205200195312
0.68950998783111572 0.90861815214157104 0.69541436433792114
0.71242153644561768 0.91263210773468018 0.69244372844696045
0.74198716878890991 0.9177708625793457 0.69037747383117676
0.77585905790328979 0.92252075672149658 0.68069618940353394
0.81561970710754395 0.92835670709609985 0.66906088590621948
0.86276096105575562 0.93659496307373047 0.6634332537651062
0.91550946235656738 0.94483578205108643 0.65692269802093506
0.022167101502418518 0.051410481333732605 0.096317946910858154
0.065215028822422028 0.05087648332118988 0.095597974956035614
0.13481803238391876 0.05550403892993927 0.097635246813297272
0.22026921808719635 0.054841060191392899 0.095918647944927216
0.32573157548904419 0.054416626691818237 0.089015796780586243
0.44610574841499329 0.048619020730257034 0.079071700572967529
0.56561136245727539 0.047309711575508118 0.069691643118858337
0.67874324321746826 0.047931760549545288 0.051984556019306183
0.76449978351593018 0.06648833304643631 0.032488774508237839
0.8338693380355835 0.096549026668071747 0.016590522602200508
0.89453905820846558 0.1296030580997467 0.0062625957652926445
0.94749552011489868 0.16291026771068573 0.0012848498299717903
0.99142640829086304 0.19697539508342743 0
0.013102362863719463 0.09599042683839798 0.10908340662717819
0.061599507927894592 0.096313998103141785 0.10664726793766022
0.14226220548152924 0.10236980766057968 0.10453305393457413
0.23619960248470306 0.104722760617733 0.097757019102573395
0.34434887766838074 0.11174163967370987 0.090060457587242126
0.46635210514068604 0.11009202897548676 0.076018393039703369
0.58532655239105225 0.1129489541053772 0.061535928398370743
0.68947994709014893 0.12246693670749664 0.048274274915456772
0.77245879173278809 0.13433592021465302 0.030566496774554253
0.83995985984802246 0.15376682579517365 0.017718670889735222
0.90000611543655396 0.17676343023777008 0.0072707529179751873
0.95262539386749268 0.20141293108463287 0.0010473962174728513
0.99383854866027832 0.22928999364376068 0
0.0022265415173023939 0.16482280194759369 0.12660737335681915
0.039988290518522263 0.16484107077121735 0.12573818862438202
0.12679259479045868 0.17676009237766266 0.12179740518331528
0.24120590090751648 0.18694747984409332 0.10650462657213211
0.37271931767463684 0.19386318325996399 0.088408060371875763
0.50370723009109497 0.19395780563354492 0.071070261299610138
0.61777800321578979 0.19741608202457428 0.053064517676830292
0.71005666255950928 0.201499342918396 0.037461642175912857
0.78451478481292725 0.20756222307682037 0.021037187427282333
0.84914880990982056 0.21814091503620148 0.012286840938031673
0.90735727548599243 0.23225001990795135 0.0053385118953883648
0.95862174034118652 0.24885757267475128 0.00051275512669235468
0.99612468481063843 0.27009868621826172 0
1.9926183085772209e-05 0.25215604901313782 0.15033145248889923
0.017242655158042908 0.25320315361022949 0.15265142917633057
0.088303618133068085 0.26259255409240723 0.15174427628517151
0.21435724198818207 0.28614011406898499 0.13313420116901398
0.37736794352531433 0.30895128846168518 0.10254721343517303
0.5299224853515625 0.31192111968994141 0.073051035404205322
0.64658248424530029 0.3029683530330658 0.046291723847389221
0.73221856355667114 0.29142999649047852 0.027071963995695114
0.80121350288391113 0.28714403510093689 0.016325483098626137
0.8611609935760498 0.28989335894584656 0.0075846505351364613
0.91607385873794556 0.29734528064727783 0.0016166985733434558
0.9660993218421936 0.30702304840087891 3.4392112866044044e-05
0.99861055612564087 0.3220517635345459 0
0 0.35831806063652039 0.18204523622989655
0.0042719673365354538 0.35944467782974243 0.18411138653755188
0.057517152279615402 0.36214694380760193 0.18637548387050629
0.17154175043106079 0.37941822409629822 0.1752200722694397
0.33348327875137329 0.40864989161491394 0.14587090909481049
0.50497680902481079 0.43016520142555237 0.0998191237449646
0.64340388774871826 0.42705801129341125 0.053984832018613815
0.73795336484909058 0.4037940502166748 0.021059252321720123
0.80922126770019531 0.38450908660888672 0.012391453608870506
0.86905759572982788 0.37336575984954834 0.0070258048363029957
0.92304551601409912 0.37232539057731628 0.00015534045815002173
0.97163337469100952 0.37437736988067627 0
0.99937313795089722 0.38264429569244385 0
0 0.46406272053718567 0.21891632676124573
0.0020685233175754547 0.46387296915054321 0.2186434417963028
0.044012587517499924 0.46153894066810608 0.22148923575878143
0.14011842012405396 0.46872234344482422 0.21514590084552765
0.28377816081047058 0.48813125491142273 0.19348524510860443
0.4446004331111908 0.50928193330764771 0.15696066617965698
0.59501177072525024 0.52433937788009644 0.10217954218387604
0.71173989772796631 0.51715260744094849 0.040712349116802216
0.79824566841125488 0.49525296688079834 0.018804349005222321
0.86741149425506592 0.47199976444244385 0.011928064748644829
0.92622601985931396 0.45720383524894714 0.0014397564809769392
0.97535854578018188 0.44766104221343994 0
0.9997786283493042 0.44785508513450623 0
3.7698184314649552e-05 0.54936701059341431 0.25654232501983643
0.01102472934871912 0.54918879270553589 0.25658640265464783
0.057682126760482788 0.54566526412963867 0.25941899418830872
0.13888520002365112 0.54660403728485107 0.25653690099716187
0.26158669590950012 0.55589085817337036 0.24396543204784393
0.39732992649078369 0.56964248418807983 0.22285047173500061
0.53450673818588257 0.58736580610275269 0.18175444006919861
0.66232359409332275 0.60075145959854126 0.12173148989677429
0.76733171939849854 0.59815847873687744 0.066580764949321747
0.85020846128463745 0.58153396844863892 0.02420838363468647
0.91865420341491699 0.55582636594772339 0.005545253399759531
0.97491955757141113 0.530403733253479 0.00067225436214357615
0.99977469444274902 0.5205569863319397 1.1848001122416463e-05
0.025777928531169891 0.61943840980529785 0.30000999569892883
0.057611726224422455 0.6191217303276062 0.29930028319358826
0.10650032013654709 0.61508393287658691 0.3025117814540863
0.1755310595035553 0.61107438802719116 0.30389925837516785
0.27117609977722168 0.61394274234771729 0.2980494499206543
0.3802015483379364 0.62447893619537354 0.28331035375595093
0.49427089095115662 0.64018404483795166 0.25744813680648804
0.6103852391242981 0.6587754487991333 0.21791419386863708
0.72062605619430542 0.67033624649047852 0.16440439224243164
0.81695014238357544 0.6703183650970459 0.11117333918809891
0.89785397052764893 0.65505152940750122 0.062420804053544998
0.96298599243164062 0.62848258018493652 0.028783341869711876
0.99770700931549072 0.60950863361358643 0.0040466156788170338
0.12393593788146973 0.68248486518859863 0.3532177209854126
0.14662438631057739 0.68173694610595703 0.35048940777778625
0.18561498820781708 0.67764711380004883 0.35331732034683228
0.24112631380558014 0.67277795076370239 0.35673588514328003
0.31271100044250488 0.67338079214096069 0.35451549291610718
0.39525032043457031 0.68171751499176025 0.34446507692337036
0.48339810967445374 0.69378268718719482 0.33070474863052368
0.57698136568069458 0.70699214935302734 0.31040021777153015
0.6751818060874939 0.71813547611236572 0.28087708353996277
0.77392888069152832 0.72932630777359009 0.24440789222717285
0.86709058284759521 0.73564606904983521 0.20394913852214813
0.94331824779510498 0.72293567657470703 0.15371508896350861
0.99302804470062256 0.70403170585632324 0.095451638102531433
0.24532362818717957 0.74217498302459717 0.41603362560272217
0.25885611772537231 0.74160796403884888 0.41246482729911804
0.28512722253799438 0.73786044120788574 0.41488373279571533
0.32457974553108215 0.73378133773803711 0.41902390122413635
0.37561860680580139 0.73326176404953003 0.41940361261367798
0.43536514043807983 0.73866063356399536 0.41504254937171936
0.4996677041053772 0.74663800001144409 0.40733033418655396
0.5704537034034729 0.75519168376922607 0.39651873707771301
0.65004873275756836 0.76353096961975098 0.38150709867477417
0.73715043067932129 0.77730393409729004 0.36307910084724426
0.82831048965454102 0.79190897941589355 0.34137153625488281
0.91290920972824097 0.79427319765090942 0.30412054061889648
0.97966176271438599 0.78730785846710205 0.2584737241268158
0.37320226430892944 0.79989862442016602 0.49115258455276489
0.38162848353385925 0.79972344636917114 0.49093142151832581
0.39778590202331543 0.79684889316558838 0.49355137348175049
0.42240467667579651 0.79264873266220093 0.49633064866065979
0.45549550652503967 0.79078418016433716 0.49729183316230774
0.49697265028953552 0.7945522665977478 0.49857723712921143
0.54142904281616211 0.79974687099456787 0.49452006816864014
0.59258109331130981 0.80537033081054688 0.48685213923454285
0.6531975269317627 0.81193119287490845 0.47692638635635376
0.72090315818786621 0.82178950309753418 0.46609795093536377
0.79642993211746216 0.83356231451034546 0.45377793908119202
0.87482422590255737 0.84153574705123901 0.43140155076980591
0.94818317890167236 0.84677344560623169 0.4072093665599823
0.4997696578502655 0.8563113808631897 0.58421844244003296
0.50687921047210693 0.85637432336807251 0.58690780401229858
0.51647669076919556 0.85419130325317383 0.58969277143478394
0.52973037958145142 0.85005837678909302 0.59001427888870239
0.54834264516830444 0.84797859191894531 0.58944952487945557
0.57725745439529419 0.85013705492019653 0.59516078233718872
0.6087486743927002 0.85413259267807007 0.59618937969207764
0.64453339576721191 0.85870867967605591 0.59256452322006226
0.68819433450698853 0.86388140916824341 0.58683204650878906
0.73770898580551147 0.87058979272842407 0.5786205530166626
0.79224973917007446 0.8768656849861145 0.56619083881378174
0.85317397117614746 0.88375163078308105 0.55014842748641968
0.92112988233566284 0.89420443773269653 0.53928679227828979
0.61143285036087036 0.90965557098388672 0.68203449249267578
0.61919134855270386 0.91030222177505493 0.68469911813735962
0.62649315595626831 0.90867418050765991 0.68792974948883057
0.63487881422042847 0.90582531690597534 0.68925291299819946
0.64584648609161377 0.90400153398513794 0.69006639719009399
0.6638723611831665 0.90535801649093628 0.69512802362442017
0.68518388271331787 0.90837854146957397 0.69859069585800171
0.70971810817718506 0.91217696666717529 0.69783878326416016
0.74033105373382568 0.91724586486816406 0.69550132751464844
0.77672600746154785 0.92290854454040527 0.68999040126800537
0.81632298231124878 0.92823201417922974 0.67972767353057861
0.86209434270858765 0.93475079536437988 0.67007917165756226
0.91604155302047729 0.9431648850440979 0.66010868549346924
0.0083199292421340942 0.057033658027648926 0.1714228093624115
0.052818328142166138 0.055472772568464279 0.17153201997280121
0.12928560376167297 0.058878686279058456 0.17309263348579407
0.21734435856342316 0.052655640989542007 0.17076632380485535
0.33153024315834045 0.033410720527172089 0.15991190075874329
0.45492872595787048 0.020594563335180283 0.15164129436016083
0.57402247190475464 0.025197437033057213 0.14886930584907532
0.68292051553726196 0.028913401067256927 0.1378677636384964
0.76681983470916748 0.045305453240871429 0.11829928308725357
0.8328133225440979 0.080143950879573822 0.10295440256595612
0.89139461517333984 0.11967015266418457 0.089048139750957489
0.94796282052993774 0.15654969215393066 0.06917840987443924
0.99341088533401489 0.19565843045711517 0.050133123993873596
0.0058100833557546139 0.10631215572357178 0.18058948218822479
0.050555061548948288 0.10570943355560303 0.18259768187999725
0.13524901866912842 0.1088285893201828 0.18442419171333313
0.23288942873477936 0.10655372589826584 0.17882126569747925
0.34357339143753052 0.10063150525093079 0.17193660140037537
0.46915134787559509 0.081006087362766266 0.15990301966667175
0.5890546441078186 0.087418653070926666 0.15339377522468567
0.6908612847328186 0.10300116240978241 0.14345845580101013
0.77025145292282104 0.11755948513746262 0.12610892951488495
0.83551818132400513 0.14172928035259247 0.11251602321863174
0.89548832178115845 0.16951866447925568 0.093605116009712219
0.95038580894470215 0.19670803844928741 0.070979833602905273
0.993549644947052 0.22655132412910461 0.048121672123670578
0.00050177483353763819 0.17974428832530975 0.19474875926971436
0.035296227782964706 0.18135161697864532 0.1972879022359848
0.13419494032859802 0.18599618971347809 0.20104365050792694
0.25120750069618225 0.19224770367145538 0.19336146116256714
0.3757040798664093 0.19316504895687103 0.18355566263198853
0.50050711631774902 0.18853099644184113 0.17254108190536499
0.61307418346405029 0.19215169548988342 0.16266871988773346
0.70327794551849365 0.19584685564041138 0.14730134606361389
0.77667742967605591 0.2051595151424408 0.12730047106742859
0.84192121028900146 0.21491514146327972 0.11003205180168152
0.90155249834060669 0.23027688264846802 0.091882742941379547
0.95478278398513794 0.24722476303577423 0.066663734614849091
0.9949575662612915 0.26708763837814331 0.042829118669033051
0.00022726619499735534 0.27589452266693115 0.22083169221878052
0.031441289931535721 0.27790185809135437 0.22285951673984528
0.12438403815031052 0.28356927633285522 0.22669020295143127
0.24586588144302368 0.2979387640953064 0.21841044723987579
0.39670464396476746 0.30938452482223511 0.1992717981338501
0.53638887405395508 0.30335637927055359 0.17741894721984863
0.64356499910354614 0.2960420548915863 0.15939189493656158
0.72273939847946167 0.28943908214569092 0.14120030403137207
0.79171943664550781 0.28829920291900635 0.12209752202033997
0.85382640361785889 0.29179474711418152 0.10087699443101883
0.91042381525039673 0.29860091209411621 0.081167854368686676
0.9629819393157959 0.3076494038105011 0.058309398591518402
0.99820965528488159 0.3215671181678772 0.034141704440116882
0.00058620679192245007 0.38500094413757324 0.25320315361022949
0.029784737154841423 0.38690453767776489 0.25322586297988892
0.11701837927103043 0.38510817289352417 0.25826242566108704
0.21987168490886688 0.39268797636032104 0.25201338529586792
0.36629721522331238 0.4183441698551178 0.23140181601047516
0.52326256036758423 0.42803242802619934 0.1987849622964859
0.64812588691711426 0.4174349308013916 0.16522100567817688
0.73408746719360352 0.39659008383750916 0.13181409239768982
0.8037034273147583 0.38554573059082031 0.11114384979009628
0.8648829460144043 0.37719526886940002 0.092435590922832489
0.91853374242782593 0.37559008598327637 0.067424416542053223
0.96897327899932861 0.3769124448299408 0.05146828293800354
0.99930006265640259 0.38469132781028748 0.028144761919975281
0.0046453885734081268 0.48489168286323547 0.28310343623161316
0.038223415613174438 0.48664718866348267 0.28291594982147217
0.11812395602464676 0.48050549626350403 0.28652378916740417
0.20605239272117615 0.47929906845092773 0.28242781758308411
0.32661193609237671 0.49526771903038025 0.26753097772598267
0.4720110297203064 0.51712214946746826 0.2427506297826767
