films/kodak_portra_160_vc.cube
# Created by: G'MIC (https://gmic.eu)
TITLE "kodak_portra_160_vc"
# LUT size
LUT_3D_SIZE 7
# Data domain
DOMAIN_MIN 0.0 0.0 0.0
DOMAIN_MAX 1.0 1.0 1.0
# LUT data points
0.018843153491616249 0.024042975157499313 0.029004011303186417
0.10241983085870743 0.034831777215003967 0.030476963147521019
0.29858759045600891 0.045822728425264359 0.021198974922299385
0.55602598190307617 0.031727030873298645 0.0076954858377575874
0.7804151177406311 0.038949135690927505 0
0.94300329685211182 0.091154091060161591 0
1 0.18035835027694702 0.0045271781273186207
0.0023795184679329395 0.12015953660011292 0.052396632730960846
0.089141368865966797 0.1352362185716629 0.034722842276096344
0.32163459062576294 0.16064126789569855 0.0073036192916333675
0.57929062843322754 0.17098444700241089 2.297794162586797e-05
0.78563088178634644 0.17862714827060699 0
0.93835544586181641 0.20937730371952057 0
1 0.26480704545974731 0
2.0225375919835642e-05 0.31533753871917725 0.10773346573114395
0.0096221622079610825 0.32360923290252686 0.10419271141290665
0.29247060418128967 0.36384978890419006 0.029700843617320061
0.58593744039535522 0.37950393557548523 4.0570426790509373e-05
0.77593338489532471 0.35242047905921936 0
0.92706596851348877 0.35059261322021484 0
1 0.37834650278091431 0
0.00073083618190139532 0.52439415454864502 0.20426340401172638
0.0021865994203835726 0.52529168128967285 0.199750155210495
0.21856999397277832 0.53581905364990234 0.16039508581161499
0.50784260034561157 0.56388533115386963 0.078315377235412598
0.74024152755737305 0.56099826097488403 0.0022074980661273003
0.90671771764755249 0.52578794956207275 0
1 0.51447349786758423 0
0.097911328077316284 0.67744773626327515 0.32653582096099854
0.078247919678688049 0.67895984649658203 0.32240948081016541
0.28552761673927307 0.67676496505737305 0.31806847453117371
0.47059530019760132 0.69076681137084961 0.26404017210006714
0.6764976978302002 0.70628494024276733 0.14955931901931763
0.88221150636672974 0.71825218200683594 0.021703742444515228
0.99754029512405396 0.69918513298034668 0.0014587701298296452
0.37498971819877625 0.81140393018722534 0.48771435022354126
0.39135754108428955 0.81198835372924805 0.48839947581291199
0.46414092183113098 0.80843240022659302 0.49728500843048096
0.55322122573852539 0.81229668855667114 0.47855672240257263
0.67153006792068481 0.82056915760040283 0.43700185418128967
0.81652933359146118 0.83254384994506836 0.36416140198707581
0.97181916236877441 0.84787464141845703 0.24385435879230499
0.63038688898086548 0.92757195234298706 0.68425112962722778
0.64434397220611572 0.92626315355300903 0.68714529275894165
0.67059248685836792 0.92475634813308716 0.69628387689590454
0.71113574504852295 0.92725640535354614 0.70374864339828491
0.75832158327102661 0.93477451801300049 0.68695920705795288
0.83548521995544434 0.94521152973175049 0.65144389867782593
0.93427371978759766 0.95856529474258423 0.6088874340057373
0.0086500579491257668 0.037487629801034927 0.14297524094581604
0.10855086147785187 0.038030214607715607 0.13690927624702454
0.30690422654151917 0.010235087014734745 0.12992794811725616
0.57107877731323242 0.0054058297537267208 0.13472779095172882
0.78716909885406494 0.030041428282856941 0.15098224580287933
0.93873357772827148 0.13039582967758179 0.13570944964885712
0.9998244047164917 0.2174505889415741 0.14261242747306824
5.5111155234044418e-05 0.1516864001750946 0.16642428934574127
0.11175429075956345 0.14923112094402313 0.16318593919277191
0.34330594539642334 0.15373486280441284 0.15260596573352814
0.59274828433990479 0.16699220240116119 0.14740382134914398
0.78856319189071655 0.18894638121128082 0.13717643916606903
0.93538773059844971 0.22682525217533112 0.12179240584373474
0.998768150806427 0.28229081630706787 0.12071499973535538
0.004991448950022459 0.34737977385520935 0.22082789242267609
0.081207692623138428 0.35415086150169373 0.22583498060703278
0.33140704035758972 0.3734343945980072 0.18971504271030426
0.59191101789474487 0.36683368682861328 0.11665643751621246
0.77971625328063965 0.35180476307868958 0.079490989446640015
0.92698138952255249 0.3575914204120636 0.073452487587928772
0.9997631311416626 0.39173504710197449 0.075141578912734985
0.023195752874016762 0.54121965169906616 0.29285287857055664
0.079014092683792114 0.54118448495864868 0.29587927460670471
0.28999584913253784 0.53925633430480957 0.28613051772117615
0.52499651908874512 0.56447780132293701 0.19834381341934204
0.75587338209152222 0.55867254734039307 0.10733485221862793
0.90923666954040527 0.52176356315612793 0.03183358907699585
0.99939572811126709 0.51528012752532959 0.039534803479909897
0.15107513964176178 0.68947511911392212 0.3849102258682251
0.21189069747924805 0.68754786252975464 0.38601663708686829
0.34744438529014587 0.68187648057937622 0.3874666690826416
0.49567848443984985 0.69131457805633545 0.35295814275741577
0.6845821738243103 0.70708930492401123 0.28188592195510864
0.8774610161781311 0.71595883369445801 0.16684819757938385
0.99471306800842285 0.69281208515167236 0.08936367928981781
0.41376316547393799 0.81662082672119141 0.52675712108612061
0.44172543287277222 0.81470304727554321 0.52614039182662964
0.50499856472015381 0.80908828973770142 0.53732895851135254
0.58013665676116943 0.81008189916610718 0.52867847681045532
0.68257379531860352 0.82141256332397461 0.4906882643699646
0.8231348991394043 0.83375751972198486 0.42353296279907227
0.97363483905792236 0.8476639986038208 0.35210105776786804
0.63448500633239746 0.92646092176437378 0.69684338569641113
0.6555030345916748 0.927390456199646 0.70541924238204956
0.68302690982818604 0.92588514089584351 0.71137326955795288
0.71753466129302979 0.92578256130218506 0.71615111827850342
0.76028299331665039 0.93175423145294189 0.70065551996231079
0.83461427688598633 0.94418704509735107 0.67328488826751709
0.93396627902984619 0.95818233489990234 0.6355404257774353
0.0010370591189712286 0.071282632648944855 0.36633205413818359
0.13135944306850433 0.07725110650062561 0.36372926831245422
0.34718549251556396 0.069050177931785583 0.34775340557098389
0.56073987483978271 0.0018027211772277951 0.31937053799629211
0.78294438123703003 0.0017884946428239346 0.29279550909996033
0.94160348176956177 0.055363044142723083 0.30365663766860962
0.99942845106124878 0.27427127957344055 0.35108104348182678
0 0.20517092943191528 0.37641504406929016
0.11579770594835281 0.20375466346740723 0.38018995523452759
0.37584459781646729 0.21491424739360809 0.37372389435768127
0.59278315305709839 0.15758359432220459 0.34237518906593323
0.7887534499168396 0.16138811409473419 0.33283236622810364
0.93296331167221069 0.25201195478439331 0.35050246119499207
0.99843430519104004 0.36871835589408875 0.37465587258338928
0.0010839874157682061 0.39710995554924011 0.39285165071487427
0.12526537477970123 0.40021610260009766 0.3991146981716156
0.38083165884017944 0.39147093892097473 0.39244481921195984
0.59889411926269531 0.37975409626960754 0.36645188927650452
0.77921789884567261 0.39555975794792175 0.36224180459976196
0.92005521059036255 0.41511666774749756 0.35628589987754822
0.99796092510223389 0.44651550054550171 0.35691726207733154
0.13089849054813385 0.5663607120513916 0.43252682685852051
0.286641925573349 0.56894916296005249 0.43752601742744446
0.40244176983833313 0.55764198303222656 0.43781372904777527
0.55741500854492188 0.56611210107803345 0.39856567978858948
0.75866258144378662 0.54504519701004028 0.34398144483566284
0.90936845541000366 0.53372049331665039 0.31696024537086487
0.99854350090026855 0.5378614068031311 0.30761528015136719
0.35915642976760864 0.70495647192001343 0.51118886470794678
0.38705134391784668 0.70216405391693115 0.50000661611557007
0.45053058862686157 0.69446933269500732 0.49930199980735779
0.54653531312942505 0.69301438331604004 0.48649805784225464
0.70576637983322144 0.71098768711090088 0.43936958909034729
0.8811299204826355 0.71215462684631348 0.37660139799118042
0.99291336536407471 0.6848333477973938 0.31808209419250488
0.5109671950340271 0.82034808397293091 0.6093677282333374
0.52006232738494873 0.81959241628646851 0.60268014669418335
0.56445437669754028 0.81493985652923584 0.60873693227767944
0.61925071477890015 0.81150215864181519 0.60604780912399292
0.70373481512069702 0.82160967588424683 0.57859581708908081
0.83374011516571045 0.83703267574310303 0.52989637851715088
0.96908259391784668 0.84343475103378296 0.47888293862342834
0.66308319568634033 0.92709743976593018 0.73160451650619507
0.67151772975921631 0.92941296100616455 0.73260903358459473
0.6952052116394043 0.92763042449951172 0.73896068334579468
0.73294758796691895 0.92580211162567139 0.74702370166778564
0.77371174097061157 0.93069267272949219 0.73639196157455444
0.84318536520004272 0.9436911940574646 0.71017855405807495
0.94313669204711914 0.95719820261001587 0.67569512128829956
0.00088077620603144169 0.14101694524288177 0.59088659286499023
0.14420747756958008 0.14591214060783386 0.59513413906097412
0.43906962871551514 0.18872305750846863 0.59212416410446167
0.63124650716781616 0.18822668492794037 0.57450097799301147
0.76659780740737915 0.085405372083187103 0.51898849010467529
0.92427617311477661 0.053140781819820404 0.47253456711769104
1 0.19074985384941101 0.46861571073532104
0.00010932473378488794 0.26991182565689087 0.60910165309906006
0.16947109997272491 0.27692714333534241 0.61109572649002075
0.45633772015571594 0.30937814712524414 0.60364007949829102
0.63066375255584717 0.3121337890625 0.58074450492858887
0.77625733613967896 0.23611517250537872 0.53400206565856934
0.92695075273513794 0.22152747213840485 0.48916614055633545
0.99998921155929565 0.30359214544296265 0.48861837387084961
0.0083483532071113586 0.46529397368431091 0.60662156343460083
0.15007469058036804 0.46213752031326294 0.60888451337814331
0.4345937967300415 0.45237737894058228 0.60140615701675415
0.62737613916397095 0.45709118247032166 0.58556759357452393
0.76536816358566284 0.41612771153450012 0.54649585485458374
0.91145056486129761 0.42871201038360596 0.53076499700546265
0.99888807535171509 0.46597579121589661 0.53005886077880859
0.12954361736774445 0.59709382057189941 0.58510935306549072
0.26795381307601929 0.59989923238754272 0.59181720018386841
0.44351711869239807 0.59144884347915649 0.59233772754669189
0.59785664081573486 0.58073228597640991 0.58110648393630981
0.7553333044052124 0.56851494312286377 0.55549019575119019
0.8946157693862915 0.58058136701583862 0.55525445938110352
0.99456095695495605 0.6029658317565918 0.55622208118438721
0.4137682318687439 0.72101682424545288 0.6197696328163147
0.46706968545913696 0.72051692008972168 0.62564325332641602
0.54039293527603149 0.71220678091049194 0.62571424245834351
0.62334305047988892 0.70307523012161255 0.62201166152954102
0.73672538995742798 0.71595805883407593 0.59344720840454102
0.87901324033737183 0.70022296905517578 0.54636901617050171
0.99296623468399048 0.69018888473510742 0.5164152979850769
0.58262568712234497 0.82877844572067261 0.69562053680419922
0.60171771049499512 0.8275458812713623 0.69592726230621338
0.63845241069793701 0.82511442899703979 0.69649618864059448
0.67336571216583252 0.81963622570037842 0.69097316265106201
0.73348879814147949 0.82080352306365967 0.67884665727615356
0.83846169710159302 0.83472126722335815 0.64368730783462524
0.97391176223754883 0.84695756435394287 0.6000065803527832
0.7083733081817627 0.93221253156661987 0.7838863730430603
0.70911973714828491 0.93355387449264526 0.78078806400299072
0.72593593597412109 0.9327394962310791 0.78088849782943726
0.75057423114776611 0.93009400367736816 0.78152543306350708
0.78773653507232666 0.93141233921051025 0.78113269805908203
0.85273510217666626 0.94411695003509521 0.7651711106300354
0.95209974050521851 0.96103805303573608 0.73547828197479248
0.067808769643306732 0.24756520986557007 0.76434123516082764
0.23573674261569977 0.26163360476493835 0.76625430583953857
0.48630180954933167 0.29405590891838074 0.76599740982055664
0.67527157068252563 0.36024263501167297 0.75604456663131714
0.80648314952850342 0.3662753701210022 0.73159736394882202
0.90811043977737427 0.29571706056594849 0.69114899635314941
0.99854671955108643 0.32493460178375244 0.65675002336502075
0.11500228941440582 0.35432487726211548 0.77604740858078003
0.27717104554176331 0.36491185426712036 0.77531808614730835
0.50450241565704346 0.38776808977127075 0.76871919631958008
0.6829189658164978 0.44117575883865356 0.75818610191345215
0.8027266263961792 0.44683936238288879 0.73764097690582275
0.9048541784286499 0.38149288296699524 0.69538265466690063
0.99810469150543213 0.39277398586273193 0.66210341453552246
0.23256325721740723 0.51876145601272583 0.76602911949157715
0.33788898587226868 0.5142967700958252 0.76393347978591919
0.502388596534729 0.51132291555404663 0.76169461011886597
0.6760859489440918 0.5455595850944519 0.75786089897155762
0.78989958763122559 0.55110234022140503 0.73892980813980103
0.89349508285522461 0.50246137380599976 0.69953107833862305
0.99451750516891479 0.50294262170791626 0.6776423454284668
0.24736714363098145 0.63629424571990967 0.74796068668365479
0.32294905185699463 0.63844043016433716 0.74347877502441406
0.48213374614715576 0.6329919695854187 0.7441897988319397
0.64456748962402344 0.63171356916427612 0.7457737922668457
0.77668243646621704 0.64055085182189941 0.73672735691070557
0.88056105375289917 0.61387890577316284 0.71241128444671631
0.98907023668289185 0.62137353420257568 0.70152401924133301
0.40956053137779236 0.74283641576766968 0.74177253246307373
0.45416194200515747 0.74082547426223755 0.7377326488494873
0.54452759027481079 0.73601287603378296 0.73716861009597778
0.65037256479263306 0.73215669393539429 0.74230241775512695
0.76248425245285034 0.72889018058776855 0.73814523220062256
0.87524944543838501 0.72211825847625732 0.71765869855880737
0.98516666889190674 0.7174718976020813 0.6969834566116333
0.58430564403533936 0.84292727708816528 0.77247762680053711
0.60795176029205322 0.8398473858833313 0.77258938550949097
0.66094034910202026 0.83855700492858887 0.77459079027175903
0.72472995519638062 0.8363490104675293 0.77817904949188232
0.7755778431892395 0.82994663715362549 0.77569198608398438
0.85229110717773438 0.83952993154525757 0.75321108102798462
0.97947114706039429 0.8394705057144165 0.72057604789733887
0.71965914964675903 0.9401477575302124 0.83318454027175903
0.73248171806335449 0.94000256061553955 0.83428376913070679
0.75251340866088867 0.93980902433395386 0.83344244956970215
0.78319692611694336 0.93906068801879883 0.83383703231811523
0.81689667701721191 0.93988639116287231 0.83602803945541382
0.86773091554641724 0.94634151458740234 0.83378255367279053
0.95283973217010498 0.95994061231613159 0.81049191951751709
0.30650046467781067 0.38906955718994141 0.88474923372268677
0.40915602445602417 0.40277945995330811 0.88148778676986694
0.55715411901473999 0.43248119950294495 0.87830030918121338
0.7085539698600769 0.48598802089691162 0.87269705533981323
0.83276009559631348 0.56151050329208374 0.86731398105621338
0.9164002537727356 0.55413734912872314 0.85433411598205566
0.99485856294631958 0.52264440059661865 0.83025056123733521
0.35811105370521545 0.46749603748321533 0.88425374031066895
0.44913673400878906 0.47804200649261475 0.88279813528060913
0.57612615823745728 0.49839958548545837 0.8783113956451416
0.71617609262466431 0.53925555944442749 0.87168031930923462
0.83133244514465332 0.59808361530303955 0.86530184745788574
0.91396188735961914 0.60028302669525146 0.85466116666793823
0.98703968524932861 0.55436307191848755 0.83074873685836792
0.44097322225570679 0.58190327882766724 0.87628179788589478
0.49290502071380615 0.58418852090835571 0.87568575143814087
0.59245777130126953 0.59356629848480225 0.87273353338241577
0.72094106674194336 0.619850754737854 0.8708149790763855
0.82967489957809448 0.66250503063201904 0.86607080698013306
0.90465539693832397 0.65789330005645752 0.85347402095794678
0.98122906684875488 0.61999523639678955 0.83277875185012817
0.43896502256393433 0.68352240324020386 0.86430537700653076
0.50102341175079346 0.68962585926055908 0.86343252658843994
0.59535402059555054 0.68776619434356689 0.86444306373596191
0.7071155309677124 0.68939602375030518 0.86614656448364258
0.81939655542373657 0.71705955266952515 0.86625862121582031
0.89426726102828979 0.72121894359588623 0.85663449764251709
0.9774547815322876 0.68979299068450928 0.83845704793930054
0.4779486358165741 0.77471387386322021 0.85950684547424316
0.51685863733291626 0.77458775043487549 0.86083841323852539
0.58527439832687378 0.77440226078033447 0.8607180118560791
0.67913818359375 0.77132982015609741 0.85813522338867188
0.79528003931045532 0.77483099699020386 0.86086809635162354
0.89144480228424072 0.78930044174194336 0.86151605844497681
0.9737011194229126 0.76298123598098755 0.84067171812057495
0.59623914957046509 0.8638145923614502 0.86395490169525146
0.6148105263710022 0.86164134740829468 0.86169075965881348
0.65568935871124268 0.85944926738739014 0.85840308666229248
0.72229337692260742 0.85956531763076782 0.8651658296585083
0.79396617412567139 0.85595297813415527 0.86635899543762207
0.87850868701934814 0.85221534967422485 0.86217564344406128
0.97485285997390747 0.84771561622619629 0.84218025207519531
0.70971298217773438 0.95259803533554077 0.89370089769363403
0.72127443552017212 0.95214325189590454 0.88964176177978516
0.74734681844711304 0.95107781887054443 0.89059853553771973
0.7897828221321106 0.94974732398986816 0.89395415782928467
0.84444856643676758 0.95078581571578979 0.90070497989654541
0.89796477556228638 0.95207697153091431 0.90167313814163208
0.96077978610992432 0.9626423716545105 0.88550353050231934
0.56331276893615723 0.57049471139907837 0.96926891803741455
0.59966588020324707 0.57435262203216553 0.96713244915008545
0.68102353811264038 0.60478174686431885 0.96301835775375366
0.773406982421875 0.63277417421340942 0.95811003446578979
0.86120176315307617 0.67262864112854004 0.95327341556549072
0.9362332820892334 0.72146326303482056 0.94922459125518799
0.99871826171875 0.69917923212051392 0.94170832633972168
0.57373237609863281 0.61121004819869995 0.96989315748214722
0.62439131736755371 0.62152987718582153 0.96809643507003784
0.69016915559768677 0.63535428047180176 0.96477246284484863
0.77687561511993408 0.65899515151977539 0.95914870500564575
0.86155992746353149 0.69618678092956543 0.95308226346969604
0.93278414011001587 0.74341201782226562 0.94885003566741943
0.99451982975006104 0.72235524654388428 0.94273823499679565
0.61336636543273926 0.67861431837081909 0.96641421318054199
0.63725042343139648 0.67751950025558472 0.9655730128288269
0.69768810272216797 0.68697488307952881 0.96316391229629517
0.7803577184677124 0.70755636692047119 0.95834195613861084
0.86170905828475952 0.73576205968856812 0.9531281590461731
0.93013107776641846 0.77137249708175659 0.94906806945800781
0.99104434251785278 0.76041954755783081 0.94354164600372314
0.63607358932495117 0.75543117523193359 0.96257519721984863
0.66048514842987061 0.75318342447280884 0.96277672052383423
0.70262503623962402 0.75082248449325562 0.96261823177337646
0.77284765243530273 0.75639051198959351 0.96035134792327881
0.85554105043411255 0.77581435441970825 0.95673924684524536
0.92855393886566162 0.80444419384002686 0.9546130895614624
0.98842799663543701 0.80124831199645996 0.95272785425186157
0.59575295448303223 0.82250720262527466 0.95958542823791504
0.61764311790466309 0.82123184204101562 0.96081757545471191
0.68329924345016479 0.82169854640960693 0.96128207445144653
0.75553971529006958 0.82003861665725708 0.96172118186950684
0.837871253490448 0.82260483503341675 0.96082907915115356
0.92287170886993408 0.84774386882781982 0.95744556188583374
0.98094934225082397 0.85312598943710327 0.95442616939544678
0.64708828926086426 0.89573603868484497 0.95993399620056152
0.65883004665374756 0.89337253570556641 0.95630192756652832
0.69891238212585449 0.89560419321060181 0.96058022975921631
0.74823993444442749 0.89462614059448242 0.9610292911529541
0.8187299370765686 0.89505505561828613 0.96225559711456299
0.90458184480667114 0.89841365814208984 0.9653584361076355
0.9800230860710144 0.91365402936935425 0.95887249708175659
0.72203445434570312 0.97381997108459473 0.97258704900741577
0.72147560119628906 0.96878659725189209 0.96159791946411133
0.75609606504440308 0.9704585075378418 0.96762311458587646
0.79427117109298706 0.96928530931472778 0.96557897329330444
0.84707182645797729 0.97070550918579102 0.971027672290802
0.91003412008285522 0.97032272815704346 0.97336632013320923
0.98156607151031494 0.97620493173599243 0.97341299057006836
