films/kodak_elite_chrome_400.cube
# Created by: G'MIC (https://gmic.eu)
TITLE "kodak_elite_chrome_400"
# LUT size
LUT_3D_SIZE 5
# Data domain
DOMAIN_MIN 0.0 0.0 0.0
DOMAIN_MAX 1.0 1.0 1.0
# LUT data points
0.025030277669429779 0.021244272589683533 0.02131233923137188
0.16403508186340332 0.019242992624640465 0.012307275086641312
0.40558314323425293 0.022100171074271202 0.00052087823860347271
0.66608512401580811 0.029916500672698021 0
0.90110558271408081 0.072346903383731842 0
0.12784425914287567 0.22379478812217712 0.091188021004199982
0.24490885436534882 0.21558511257171631 0.074352934956550598
0.47793066501617432 0.19043773412704468 0.040982130914926529
0.70529633760452271 0.12601697444915771 0.0025645238347351551
0.9172559380531311 0.073110736906528473 0
0.23939554393291473 0.5221819281578064 0.18549723923206329
0.36711916327476501 0.51823937892913818 0.17117504775524139
0.56908285617828369 0.50870633125305176 0.12684027850627899
0.77092528343200684 0.47221606969833374 0.056321103125810623
0.97578758001327515 0.32353377342224121 0.00040031882235780358
0.4831613302230835 0.76247727870941162 0.35441961884498596
0.53564333915710449 0.76495099067687988 0.3433983325958252
0.66405928134918213 0.76596498489379883 0.29688462615013123
0.83048582077026367 0.77122312784194946 0.19461734592914581
0.99797618389129639 0.73786389827728271 0.009556909091770649
0.68679159879684448 0.97954177856445312 0.5541718602180481
0.70589679479598999 0.97889506816864014 0.54173141717910767
0.789093017578125 0.985298752784729 0.53036046028137207
0.90071254968643188 0.98893719911575317 0.48634397983551025
1 0.97633183002471924 0.26944944262504578
0.01679496094584465 0.024856822565197945 0.15433116257190704
0.14552554488182068 0.017303630709648132 0.13413804769515991
0.40130919218063354 0.020608192309737206 0.087092019617557526
0.66468298435211182 0.025653734803199768 0.026740683242678642
0.90397197008132935 0.071153633296489716 0
0.098680458962917328 0.22751548886299133 0.2350974828004837
0.22004622220993042 0.22217760980129242 0.21822108328342438
0.46618208289146423 0.19620448350906372 0.17293114960193634
0.69362467527389526 0.12960420548915863 0.089151822030544281
0.92208045721054077 0.075030773878097534 0.00089126289822161198
0.20680622756481171 0.51473939418792725 0.34075623750686646
0.33596712350845337 0.5183519721031189 0.32447731494903564
0.54816687107086182 0.51236790418624878 0.28288772702217102
0.7536042332649231 0.47342276573181152 0.19270592927932739
0.96811431646347046 0.33233946561813354 0.047454144805669785
0.45696189999580383 0.75689291954040527 0.47090622782707214
0.51153534650802612 0.75767004489898682 0.46520110964775085
0.63926988840103149 0.75901347398757935 0.43713915348052979
0.81083196401596069 0.75884956121444702 0.36432352662086487
0.99236887693405151 0.73055016994476318 0.1820516437292099
0.65920126438140869 0.97285968065261841 0.61918860673904419
0.69967687129974365 0.97790324687957764 0.61681735515594482
0.77947503328323364 0.98211586475372314 0.60324323177337646
0.89027291536331177 0.98578470945358276 0.56934201717376709
1 0.98249208927154541 0.4326164722442627
0.011226639151573181 0.025434801355004311 0.35725244879722595
0.11399425566196442 0.015298835933208466 0.34273731708526611
0.35778194665908813 0.012171292677521706 0.300066739320755
0.63698828220367432 0.018272982910275459 0.21450361609458923
0.89844059944152832 0.063435815274715424 0.054883051663637161
0.065875157713890076 0.22959817945957184 0.44813776016235352
0.17172890901565552 0.22058773040771484 0.4402962327003479
0.42457127571105957 0.19688254594802856 0.40543144941329956
0.66105645895004272 0.124314084649086 0.34154441952705383
0.89378172159194946 0.057633701711893082 0.18242631852626801
0.14033149182796478 0.51050752401351929 0.5325164794921875
0.28191983699798584 0.51263856887817383 0.5305590033531189
0.51080316305160522 0.50801032781600952 0.50970476865768433
0.71675413846969604 0.47209683060646057 0.46376943588256836
0.9354436993598938 0.32959797978401184 0.33402588963508606
0.42451921105384827 0.7514079213142395 0.62291210889816284
0.48003003001213074 0.75325304269790649 0.61942386627197266
0.60999059677124023 0.75710785388946533 0.60237973928451538
0.77966928482055664 0.74732029438018799 0.57568520307540894
0.97479575872421265 0.7141646146774292 0.48266953229904175
0.66211426258087158 0.97242641448974609 0.73641979694366455
0.67638623714447021 0.97242981195449829 0.72688281536102295
0.75451338291168213 0.97666352987289429 0.71885055303573608
0.87188971042633057 0.98356026411056519 0.69933921098709106
0.99664068222045898 0.98096299171447754 0.62627065181732178
0 0.035310275852680206 0.56925469636917114
0.078607849776744843 0.023214960470795631 0.563770592212677
0.30979356169700623 0.012774149887263775 0.5457494854927063
0.58918780088424683 0.0013403799384832382 0.51783674955368042
0.84515905380249023 0.013742364943027496 0.39781704545021057
0 0.25803235173225403 0.64103972911834717
0.092395603656768799 0.24608394503593445 0.63137644529342651
0.38096228241920471 0.21846435964107513 0.61755919456481934
0.62722373008728027 0.1407579779624939 0.60339260101318359
0.85014146566390991 0.03543231263756752 0.51740419864654541
0.035606727004051208 0.51507329940795898 0.70337545871734619
0.198136106133461 0.51736491918563843 0.69844096899032593
0.46679818630218506 0.51736700534820557 0.68794137239456177
0.68406796455383301 0.48353168368339539 0.6691291332244873
0.89947587251663208 0.34316986799240112 0.61049371957778931
0.36280140280723572 0.74985218048095703 0.7747836709022522
0.43371248245239258 0.75318628549575806 0.77275723218917847
0.57443654537200928 0.75612664222717285 0.76379460096359253
0.7488560676574707 0.74546200037002563 0.74710667133331299
0.94775533676147461 0.70838546752929688 0.69915401935577393
0.61656516790390015 0.96058052778244019 0.8565906286239624
0.65767151117324829 0.96667665243148804 0.85676687955856323
0.73318988084793091 0.97202545404434204 0.85298877954483032
0.85698628425598145 0.97962415218353271 0.84169524908065796
0.99271899461746216 0.97717970609664917 0.79828417301177979
0.0005081625422462821 0.05268077552318573 0.74670577049255371
0.056726343929767609 0.051758307963609695 0.74299275875091553
0.2529451847076416 0.024758612737059593 0.73596018552780151
0.54891175031661987 0.0036870022304356098 0.71688991785049438
0.80332642793655396 0.0014262779150158167 0.67340075969696045
0 0.29722753167152405 0.80488073825836182
0.055741090327501297 0.28329122066497803 0.80332010984420776
0.32665196061134338 0.26196405291557312 0.79772782325744629
0.58672314882278442 0.17701886594295502 0.78854084014892578
0.81571304798126221 0.054343383759260178 0.74989575147628784
0.0019696105737239122 0.52788358926773071 0.86208468675613403
0.092555925250053406 0.53101146221160889 0.8602181077003479
0.40170294046401978 0.53353321552276611 0.85809189081192017
0.6413419246673584 0.51881515979766846 0.85241854190826416
0.86067241430282593 0.38936609029769897 0.81864231824874878
0.22989256680011749 0.75393533706665039 0.92014658451080322
0.34341186285018921 0.75748294591903687 0.92102056741714478
0.52176159620285034 0.75973355770111084 0.91953808069229126
0.70655673742294312 0.75532311201095581 0.91602271795272827
0.90693515539169312 0.71308279037475586 0.88756740093231201
0.60454279184341431 0.95793908834457397 0.98421740531921387
0.63642209768295288 0.96003609895706177 0.98746508359909058
0.69797170162200928 0.96760749816894531 0.98577308654785156
0.82365554571151733 0.97632116079330444 0.98626011610031128
0.97926700115203857 0.9766659140586853 0.97740322351455688
