films/kodak_hie_hs_infra.cube
# Created by: G'MIC (https://gmic.eu)
TITLE "kodak_hie_hs_infra"
# LUT size
LUT_3D_SIZE 5
# Data domain
DOMAIN_MIN 0.0 0.0 0.0
DOMAIN_MAX 1.0 1.0 1.0
# LUT data points
0.052513886243104935 0.052513886243104935 0.052513886243104935
0.23550333082675934 0.23550333082675934 0.23550333082675934
0.50867569446563721 0.50867569446563721 0.50867569446563721
0.79712235927581787 0.79712235927581787 0.79712235927581787
0.97416168451309204 0.97416168451309204 0.97416168451309204
0.24736502766609192 0.24736502766609192 0.24736502766609192
0.33749550580978394 0.33749550580978394 0.33749550580978394
0.55758720636367798 0.55758720636367798 0.55758720636367798
0.8006024956703186 0.8006024956703186 0.8006024956703186
0.96480125188827515 0.96480125188827515 0.96480125188827515
0.50811195373535156 0.50811195373535156 0.50811195373535156
0.53133201599121094 0.53133201599121094 0.53133201599121094
0.63790613412857056 0.63790613412857056 0.63790613412857056
0.81021064519882202 0.81021064519882202 0.81021064519882202
0.96586471796035767 0.96586471796035767 0.96586471796035767
0.92741924524307251 0.92741924524307251 0.92741924524307251
0.91782283782958984 0.91782283782958984 0.91782283782958984
0.80721777677536011 0.80721777677536011 0.80721777677536011
0.84367662668228149 0.84367662668228149 0.84367662668228149
0.97699928283691406 0.97699928283691406 0.97699928283691406
0.88133257627487183 0.88133257627487183 0.88133257627487183
0.99641424417495728 0.99641424417495728 0.99641424417495728
1 1 1
0.97032785415649414 0.97032785415649414 0.97032785415649414
0.98149955272674561 0.98149955272674561 0.98149955272674561
0.051291044801473618 0.051291044801473618 0.051291044801473618
0.24758045375347137 0.24758045375347137 0.24758045375347137
0.54732292890548706 0.54732292890548706 0.54732292890548706
0.82063281536102295 0.82063281536102295 0.82063281536102295
0.98121809959411621 0.98121809959411621 0.98121809959411621
0.20658348500728607 0.20658348500728607 0.20658348500728607
0.33267715573310852 0.33267715573310852 0.33267715573310852
0.5723947286605835 0.5723947286605835 0.5723947286605835
0.81889647245407104 0.81889647245407104 0.81889647245407104
0.98373085260391235 0.98373085260391235 0.98373085260391235
0.45311710238456726 0.45311710238456726 0.45311710238456726
0.49723824858665466 0.49723824858665466 0.49723824858665466
0.63189375400543213 0.63189375400543213 0.63189375400543213
0.82406777143478394 0.82406777143478394 0.82406777143478394
0.98157691955566406 0.98157691955566406 0.98157691955566406
0.88497841358184814 0.88497841358184814 0.88497841358184814
0.83399373292922974 0.83399373292922974 0.83399373292922974
0.7605736255645752 0.7605736255645752 0.7605736255645752
0.84652423858642578 0.84652423858642578 0.84652423858642578
0.98063725233078003 0.98063725233078003 0.98063725233078003
0.93841570615768433 0.93841570615768433 0.93841570615768433
1 1 1
0.99991059303283691 0.99991059303283691 0.99991059303283691
0.96602296829223633 0.96602296829223633 0.96602296829223633
0.98415899276733398 0.98415899276733398 0.98415899276733398
0.05083039402961731 0.05083039402961731 0.05083039402961731
0.30423107743263245 0.30423107743263245 0.30423107743263245
0.59658956527709961 0.59658956527709961 0.59658956527709961
0.83644890785217285 0.83644890785217285 0.83644890785217285
0.99157369136810303 0.99157369136810303 0.99157369136810303
0.21719910204410553 0.21719910204410553 0.21719910204410553
0.37997454404830933 0.37997454404830933 0.37997454404830933
0.62950640916824341 0.62950640916824341 0.62950640916824341
0.85299587249755859 0.85299587249755859 0.85299587249755859
0.99573951959609985 0.99573951959609985 0.99573951959609985
0.41069674491882324 0.41069674491882324 0.41069674491882324
0.49922850728034973 0.49922850728034973 0.49922850728034973
0.67272543907165527 0.67272543907165527 0.67272543907165527
0.85849237442016602 0.85849237442016602 0.85849237442016602
0.99287831783294678 0.99287831783294678 0.99287831783294678
0.69513523578643799 0.69513523578643799 0.69513523578643799
0.70725923776626587 0.70725923776626587 0.70725923776626587
0.75145930051803589 0.75145930051803589 0.75145930051803589
0.87755477428436279 0.87755477428436279 0.87755477428436279
0.98679608106613159 0.98679608106613159 0.98679608106613159
1 1 1
1 1 1
0.99240076541900635 0.99240076541900635 0.99240076541900635
0.93465590476989746 0.93465590476989746 0.93465590476989746
0.99055081605911255 0.99055081605911255 0.99055081605911255
0.14469531178474426 0.14469531178474426 0.14469531178474426
0.43033093214035034 0.43033093214035034 0.43033093214035034
0.67429304122924805 0.67429304122924805 0.67429304122924805
0.88768583536148071 0.88768583536148071 0.88768583536148071
1 1 1
0.3233892023563385 0.3233892023563385 0.3233892023563385
0.49898639321327209 0.49898639321327209 0.49898639321327209
0.71792799234390259 0.71792799234390259 0.71792799234390259
0.89826279878616333 0.89826279878616333 0.89826279878616333
1 1 1
0.47585460543632507 0.47585460543632507 0.47585460543632507
0.5830075740814209 0.5830075740814209 0.5830075740814209
0.75207871198654175 0.75207871198654175 0.75207871198654175
0.90404117107391357 0.90404117107391357 0.90404117107391357
0.99999028444290161 0.99999028444290161 0.99999028444290161
0.62317532300949097 0.62317532300949097 0.62317532300949097
0.68042105436325073 0.68042105436325073 0.68042105436325073
0.8041994571685791 0.8041994571685791 0.8041994571685791
0.91077125072479248 0.91077125072479248 0.91077125072479248
0.99689298868179321 0.99689298868179321 0.99689298868179321
0.9769827127456665 0.9769827127456665 0.9769827127456665
0.96823525428771973 0.96823525428771973 0.96823525428771973
0.94864886999130249 0.94864886999130249 0.94864886999130249
0.93922966718673706 0.93922966718673706 0.93922966718673706
0.99482744932174683 0.99482744932174683 0.99482744932174683
0.4209848940372467 0.4209848940372467 0.4209848940372467
0.59478259086608887 0.59478259086608887 0.59478259086608887
0.76348918676376343 0.76348918676376343 0.76348918676376343
0.92538559436798096 0.92538559436798096 0.92538559436798096
1 1 1
0.56046396493911743 0.56046396493911743 0.56046396493911743
0.66548728942871094 0.66548728942871094 0.66548728942871094
0.80455142259597778 0.80455142259597778 0.80455142259597778
0.94429463148117065 0.94429463148117065 0.94429463148117065
1 1 1
0.64324384927749634 0.64324384927749634 0.64324384927749634
0.72737634181976318 0.72737634181976318 0.72737634181976318
0.84255445003509521 0.84255445003509521 0.84255445003509521
0.95861870050430298 0.95861870050430298 0.95861870050430298
1 1 1
0.76595473289489746 0.76595473289489746 0.76595473289489746
0.79986196756362915 0.79986196756362915 0.79986196756362915
0.89406269788742065 0.89406269788742065 0.89406269788742065
0.98042798042297363 0.98042798042297363 0.98042798042297363
1 1 1
0.88413053750991821 0.88413053750991821 0.88413053750991821
0.89679980278015137 0.89679980278015137 0.89679980278015137
0.93011409044265747 0.93011409044265747 0.93011409044265747
0.97705811262130737 0.97705811262130737 0.97705811262130737
1 1 1
