films/kodak_tri-x_400.cube
# Created by: G'MIC (https://gmic.eu)
TITLE "kodak_tri-x_400"
# LUT size
LUT_3D_SIZE 7
# Data domain
DOMAIN_MIN 0.0 0.0 0.0
DOMAIN_MAX 1.0 1.0 1.0
# LUT data points
0.075034990906715393 0.075034990906715393 0.075034990906715393
0.099266171455383301 0.099266171455383301 0.099266171455383301
0.14197951555252075 0.14197951555252075 0.14197951555252075
0.19870172441005707 0.19870172441005707 0.19870172441005707
0.27823951840400696 0.27823951840400696 0.27823951840400696
0.3692944347858429 0.3692944347858429 0.3692944347858429
0.48586204648017883 0.48586204648017883 0.48586204648017883
0.13992123305797577 0.13992123305797577 0.13992123305797577
0.17399200797080994 0.17399200797080994 0.17399200797080994
0.21719442307949066 0.21719442307949066 0.21719442307949066
0.28404378890991211 0.28404378890991211 0.28404378890991211
0.3570798933506012 0.3570798933506012 0.3570798933506012
0.43997624516487122 0.43997624516487122 0.43997624516487122
0.56242722272872925 0.56242722272872925 0.56242722272872925
0.27455881237983704 0.27455881237983704 0.27455881237983704
0.26295068860054016 0.26295068860054016 0.26295068860054016
0.3461725115776062 0.3461725115776062 0.3461725115776062
0.42266461253166199 0.42266461253166199 0.42266461253166199
0.48953953385353088 0.48953953385353088 0.48953953385353088
0.57419931888580322 0.57419931888580322 0.57419931888580322
0.66323775053024292 0.66323775053024292 0.66323775053024292
0.40447208285331726 0.40447208285331726 0.40447208285331726
0.39372619986534119 0.39372619986534119 0.39372619986534119
0.44088953733444214 0.44088953733444214 0.44088953733444214
0.53428769111633301 0.53428769111633301 0.53428769111633301
0.61941790580749512 0.61941790580749512 0.61941790580749512
0.69940745830535889 0.69940745830535889 0.69940745830535889
0.77448242902755737 0.77448242902755737 0.77448242902755737
0.58015292882919312 0.58015292882919312 0.58015292882919312
0.56260067224502563 0.56260067224502563 0.56260067224502563
0.55768513679504395 0.55768513679504395 0.55768513679504395
0.62446564435958862 0.62446564435958862 0.62446564435958862
0.72376447916030884 0.72376447916030884 0.72376447916030884
0.79931175708770752 0.79931175708770752 0.79931175708770752
0.86615651845932007 0.86615651845932007 0.86615651845932007
0.754874587059021 0.754874587059021 0.754874587059021
0.74084752798080444 0.74084752798080444 0.74084752798080444
0.72123312950134277 0.72123312950134277 0.72123312950134277
0.75499552488327026 0.75499552488327026 0.75499552488327026
0.80882585048675537 0.80882585048675537 0.80882585048675537
0.86630445718765259 0.86630445718765259 0.86630445718765259
0.9303741455078125 0.9303741455078125 0.9303741455078125
0.90825891494750977 0.90825891494750977 0.90825891494750977
0.89739066362380981 0.89739066362380981 0.89739066362380981
0.90114277601242065 0.90114277601242065 0.90114277601242065
0.90099203586578369 0.90099203586578369 0.90099203586578369
0.92631757259368896 0.92631757259368896 0.92631757259368896
0.93553835153579712 0.93553835153579712 0.93553835153579712
0.94673460721969604 0.94673460721969604 0.94673460721969604
0.11265856027603149 0.11265856027603149 0.11265856027603149
0.1474204808473587 0.1474204808473587 0.1474204808473587
0.19607448577880859 0.19607448577880859 0.19607448577880859
0.24675928056240082 0.24675928056240082 0.24675928056240082
0.29855963587760925 0.29855963587760925 0.29855963587760925
0.38157913088798523 0.38157913088798523 0.38157913088798523
0.49416375160217285 0.49416375160217285 0.49416375160217285
0.20260748267173767 0.20260748267173767 0.20260748267173767
0.20273840427398682 0.20273840427398682 0.20273840427398682
0.25020405650138855 0.25020405650138855 0.25020405650138855
0.2940085232257843 0.2940085232257843 0.2940085232257843
0.36436006426811218 0.36436006426811218 0.36436006426811218
0.46052432060241699 0.46052432060241699 0.46052432060241699
0.5551721453666687 0.5551721453666687 0.5551721453666687
0.33140510320663452 0.33140510320663452 0.33140510320663452
0.31121915578842163 0.31121915578842163 0.31121915578842163
0.35909488797187805 0.35909488797187805 0.35909488797187805
0.4300936758518219 0.4300936758518219 0.4300936758518219
0.49621117115020752 0.49621117115020752 0.49621117115020752
0.57573938369750977 0.57573938369750977 0.57573938369750977
0.65737181901931763 0.65737181901931763 0.65737181901931763
0.47497302293777466 0.47497302293777466 0.47497302293777466
0.43574163317680359 0.43574163317680359 0.43574163317680359
0.45425069332122803 0.45425069332122803 0.45425069332122803
0.54999154806137085 0.54999154806137085 0.54999154806137085
0.63145184516906738 0.63145184516906738 0.63145184516906738
0.6984444260597229 0.6984444260597229 0.6984444260597229
0.76730251312255859 0.76730251312255859 0.76730251312255859
0.63375300168991089 0.63375300168991089 0.63375300168991089
0.6064450740814209 0.6064450740814209 0.6064450740814209
0.583720862865448 0.583720862865448 0.583720862865448
0.63826745748519897 0.63826745748519897 0.63826745748519897
0.72975009679794312 0.72975009679794312 0.72975009679794312
0.80315947532653809 0.80315947532653809 0.80315947532653809
0.86035597324371338 0.86035597324371338 0.86035597324371338
0.77836710214614868 0.77836710214614868 0.77836710214614868
0.76473456621170044 0.76473456621170044 0.76473456621170044
0.74950319528579712 0.74950319528579712 0.74950319528579712
0.76520240306854248 0.76520240306854248 0.76520240306854248
0.81710290908813477 0.81710290908813477 0.81710290908813477
0.8773767352104187 0.8773767352104187 0.8773767352104187
0.92659324407577515 0.92659324407577515 0.92659324407577515
0.90017694234848022 0.90017694234848022 0.90017694234848022
0.90391331911087036 0.90391331911087036 0.90391331911087036
0.90454208850860596 0.90454208850860596 0.90454208850860596
0.90612703561782837 0.90612703561782837 0.90612703561782837
0.92751246690750122 0.92751246690750122 0.92751246690750122
0.94694429636001587 0.94694429636001587 0.94694429636001587
0.97422617673873901 0.97422617673873901 0.97422617673873901
0.18136918544769287 0.18136918544769287 0.18136918544769287
0.22155666351318359 0.22155666351318359 0.22155666351318359
0.28065687417984009 0.28065687417984009 0.28065687417984009
0.3699338436126709 0.3699338436126709 0.3699338436126709
0.44037434458732605 0.44037434458732605 0.44037434458732605
0.48244372010231018 0.48244372010231018 0.48244372010231018
0.51462048292160034 0.51462048292160034 0.51462048292160034
0.2230527400970459 0.2230527400970459 0.2230527400970459
0.26893782615661621 0.26893782615661621 0.26893782615661621
0.32253879308700562 0.32253879308700562 0.32253879308700562
0.39295774698257446 0.39295774698257446 0.39295774698257446
0.43838280439376831 0.43838280439376831 0.43838280439376831
0.4942304790019989 0.4942304790019989 0.4942304790019989
0.54830127954483032 0.54830127954483032 0.54830127954483032
0.37443932890892029 0.37443932890892029 0.37443932890892029
0.37381181120872498 0.37381181120872498 0.37381181120872498
0.40377938747406006 0.40377938747406006 0.40377938747406006
0.46097654104232788 0.46097654104232788 0.46097654104232788
0.49640408158302307 0.49640408158302307 0.49640408158302307
0.57064074277877808 0.57064074277877808 0.57064074277877808
0.65266042947769165 0.65266042947769165 0.65266042947769165
0.54361569881439209 0.54361569881439209 0.54361569881439209
0.52800053358078003 0.52800053358078003 0.52800053358078003
0.51631283760070801 0.51631283760070801 0.51631283760070801
0.56275564432144165 0.56275564432144165 0.56275564432144165
0.63457208871841431 0.63457208871841431 0.63457208871841431
0.70068222284317017 0.70068222284317017 0.70068222284317017
0.76682615280151367 0.76682615280151367 0.76682615280151367
0.68896484375 0.68896484375 0.68896484375
0.66103768348693848 0.66103768348693848 0.66103768348693848
0.6400948166847229 0.6400948166847229 0.6400948166847229
0.66110682487487793 0.66110682487487793 0.66110682487487793
0.74182319641113281 0.74182319641113281 0.74182319641113281
0.80660367012023926 0.80660367012023926 0.80660367012023926
0.86554509401321411 0.86554509401321411 0.86554509401321411
0.81241083145141602 0.81241083145141602 0.81241083145141602
0.80473637580871582 0.80473637580871582 0.80473637580871582
0.78543055057525635 0.78543055057525635 0.78543055057525635
0.78572815656661987 0.78572815656661987 0.78572815656661987
0.82894855737686157 0.82894855737686157 0.82894855737686157
0.88456052541732788 0.88456052541732788 0.88456052541732788
0.92326915264129639 0.92326915264129639 0.92326915264129639
0.91805684566497803 0.91805684566497803 0.91805684566497803
0.92974507808685303 0.92974507808685303 0.92974507808685303
0.91616487503051758 0.91616487503051758 0.91616487503051758
0.91042661666870117 0.91042661666870117 0.91042661666870117
0.92821633815765381 0.92821633815765381 0.92821633815765381
0.95370155572891235 0.95370155572891235 0.95370155572891235
0.96720415353775024 0.96720415353775024 0.96720415353775024
0.27220085263252258 0.27220085263252258 0.27220085263252258
0.31129142642021179 0.31129142642021179 0.31129142642021179
0.36708143353462219 0.36708143353462219 0.36708143353462219
0.4342101514339447 0.4342101514339447 0.4342101514339447
0.52167344093322754 0.52167344093322754 0.52167344093322754
0.64359664916992188 0.64359664916992188 0.64359664916992188
0.69752246141433716 0.69752246141433716 0.69752246141433716
0.31698644161224365 0.31698644161224365 0.31698644161224365
0.35536080598831177 0.35536080598831177 0.35536080598831177
0.41588589549064636 0.41588589549064636 0.41588589549064636
0.46899789571762085 0.46899789571762085 0.46899789571762085
0.56106710433959961 0.56106710433959961 0.56106710433959961
0.65406680107116699 0.65406680107116699 0.65406680107116699
0.70221126079559326 0.70221126079559326 0.70221126079559326
0.38892364501953125 0.38892364501953125 0.38892364501953125
0.41427898406982422 0.41427898406982422 0.41427898406982422
0.47133570909500122 0.47133570909500122 0.47133570909500122
0.53598153591156006 0.53598153591156006 0.53598153591156006
0.60736095905303955 0.60736095905303955 0.60736095905303955
0.66566675901412964 0.66566675901412964 0.66566675901412964
0.69031333923339844 0.69031333923339844 0.69031333923339844
0.57639938592910767 0.57639938592910767 0.57639938592910767
0.57556921243667603 0.57556921243667603 0.57556921243667603
0.58357274532318115 0.58357274532318115 0.58357274532318115
0.60598862171173096 0.60598862171173096 0.60598862171173096
0.65866190195083618 0.65866190195083618 0.65866190195083618
0.70227706432342529 0.70227706432342529 0.70227706432342529
0.74526536464691162 0.74526536464691162 0.74526536464691162
0.74378758668899536 0.74378758668899536 0.74378758668899536
0.73275578022003174 0.73275578022003174 0.73275578022003174
0.72601473331451416 0.72601473331451416 0.72601473331451416
0.71981930732727051 0.71981930732727051 0.71981930732727051
0.76507091522216797 0.76507091522216797 0.76507091522216797
0.81362712383270264 0.81362712383270264 0.81362712383270264
0.86051380634307861 0.86051380634307861 0.86051380634307861
0.8512568473815918 0.8512568473815918 0.8512568473815918
0.8495715856552124 0.8495715856552124 0.8495715856552124
0.8412511944770813 0.8412511944770813 0.8412511944770813
0.82129138708114624 0.82129138708114624 0.82129138708114624
0.85692423582077026 0.85692423582077026 0.85692423582077026
0.88880616426467896 0.88880616426467896 0.88880616426467896
0.9277612566947937 0.9277612566947937 0.9277612566947937
0.9460141658782959 0.9460141658782959 0.9460141658782959
0.93922716379165649 0.93922716379165649 0.93922716379165649
0.94273859262466431 0.94273859262466431 0.94273859262466431
0.93078672885894775 0.93078672885894775 0.93078672885894775
0.9393811821937561 0.9393811821937561 0.9393811821937561
0.95204222202301025 0.95204222202301025 0.95204222202301025
0.976981520652771 0.976981520652771 0.976981520652771
0.40970686078071594 0.40970686078071594 0.40970686078071594
0.43298089504241943 0.43298089504241943 0.43298089504241943
0.49769937992095947 0.49769937992095947 0.49769937992095947
0.56217634677886963 0.56217634677886963 0.56217634677886963
0.61660319566726685 0.61660319566726685 0.61660319566726685
0.6876293420791626 0.6876293420791626 0.6876293420791626
0.81138360500335693 0.81138360500335693 0.81138360500335693
0.44830355048179626 0.44830355048179626 0.44830355048179626
0.47741177678108215 0.47741177678108215 0.47741177678108215
0.52919059991836548 0.52919059991836548 0.52919059991836548
0.58478659391403198 0.58478659391403198 0.58478659391403198
0.63675826787948608 0.63675826787948608 0.63675826787948608
0.71267104148864746 0.71267104148864746 0.71267104148864746
0.82610899209976196 0.82610899209976196 0.82610899209976196
0.4801279604434967 0.4801279604434967 0.4801279604434967
0.51626062393188477 0.51626062393188477 0.51626062393188477
0.56896686553955078 0.56896686553955078 0.56896686553955078
0.62837326526641846 0.62837326526641846 0.62837326526641846
0.68745070695877075 0.68745070695877075 0.68745070695877075
0.76078873872756958 0.76078873872756958 0.76078873872756958
0.83772242069244385 0.83772242069244385 0.83772242069244385
0.58958357572555542 0.58958357572555542 0.58958357572555542
0.5822913646697998 0.5822913646697998 0.5822913646697998
0.61064392328262329 0.61064392328262329 0.61064392328262329
0.67330682277679443 0.67330682277679443 0.67330682277679443
0.72371643781661987 0.72371643781661987 0.72371643781661987
0.78601372241973877 0.78601372241973877 0.78601372241973877
0.82257270812988281 0.82257270812988281 0.82257270812988281
0.76670545339584351 0.76670545339584351 0.76670545339584351
0.76732665300369263 0.76732665300369263 0.76732665300369263
0.76389497518539429 0.76389497518539429 0.76389497518539429
0.76752501726150513 0.76752501726150513 0.76752501726150513
0.79495877027511597 0.79495877027511597 0.79495877027511597
0.82192111015319824 0.82192111015319824 0.82192111015319824
0.85042667388916016 0.85042667388916016 0.85042667388916016
0.88746237754821777 0.88746237754821777 0.88746237754821777
0.88914012908935547 0.88914012908935547 0.88914012908935547
0.88629531860351562 0.88629531860351562 0.88629531860351562
0.88447028398513794 0.88447028398513794 0.88447028398513794
0.88874542713165283 0.88874542713165283 0.88874542713165283
0.90774643421173096 0.90774643421173096 0.90774643421173096
0.92315429449081421 0.92315429449081421 0.92315429449081421
0.95904582738876343 0.95904582738876343 0.95904582738876343
0.9591946005821228 0.9591946005821228 0.9591946005821228
0.95829629898071289 0.95829629898071289 0.95829629898071289
0.95432823896408081 0.95432823896408081 0.95432823896408081
0.95492786169052124 0.95492786169052124 0.95492786169052124
0.96140432357788086 0.96140432357788086 0.96140432357788086
0.97655367851257324 0.97655367851257324 0.97655367851257324
0.58252120018005371 0.58252120018005371 0.58252120018005371
0.60875695943832397 0.60875695943832397 0.60875695943832397
0.65247577428817749 0.65247577428817749 0.65247577428817749
0.70970988273620605 0.70970988273620605 0.70970988273620605
0.75301092863082886 0.75301092863082886 0.75301092863082886
0.78452330827713013 0.78452330827713013 0.78452330827713013
0.81924200057983398 0.81924200057983398 0.81924200057983398
0.61950480937957764 0.61950480937957764 0.61950480937957764
0.63360071182250977 0.63360071182250977 0.63360071182250977
0.67200773954391479 0.67200773954391479 0.67200773954391479
0.71396726369857788 0.71396726369857788 0.71396726369857788
0.76325446367263794 0.76325446367263794 0.76325446367263794
0.79665070772171021 0.79665070772171021 0.79665070772171021
0.85219848155975342 0.85219848155975342 0.85219848155975342
0.64845055341720581 0.64845055341720581 0.64845055341720581
0.66369128227233887 0.66369128227233887 0.66369128227233887
0.69651502370834351 0.69651502370834351 0.69651502370834351
0.73514318466186523 0.73514318466186523 0.73514318466186523
0.78751993179321289 0.78751993179321289 0.78751993179321289
0.82965099811553955 0.82965099811553955 0.82965099811553955
0.85834348201751709 0.85834348201751709 0.85834348201751709
0.66260242462158203 0.66260242462158203 0.66260242462158203
0.68185663223266602 0.68185663223266602 0.68185663223266602
0.7199394702911377 0.7199394702911377 0.7199394702911377
0.76802259683609009 0.76802259683609009 0.76802259683609009
0.8092302680015564 0.8092302680015564 0.8092302680015564
0.85849481821060181 0.85849481821060181 0.85849481821060181
0.90060889720916748 0.90060889720916748 0.90060889720916748
0.78243106603622437 0.78243106603622437 0.78243106603622437
0.7864258885383606 0.7864258885383606 0.7864258885383606
0.77905750274658203 0.77905750274658203 0.77905750274658203
0.80167621374130249 0.80167621374130249 0.80167621374130249
0.83999264240264893 0.83999264240264893 0.83999264240264893
0.87756919860839844 0.87756919860839844 0.87756919860839844
0.92435252666473389 0.92435252666473389 0.92435252666473389
0.8985561728477478 0.8985561728477478 0.8985561728477478
0.90009504556655884 0.90009504556655884 0.90009504556655884
0.89849245548248291 0.89849245548248291 0.89849245548248291
0.90295898914337158 0.90295898914337158 0.90295898914337158
0.89901113510131836 0.89901113510131836 0.89901113510131836
0.91668355464935303 0.91668355464935303 0.91668355464935303
0.95115596055984497 0.95115596055984497 0.95115596055984497
0.96385461091995239 0.96385461091995239 0.96385461091995239
0.97124165296554565 0.97124165296554565 0.97124165296554565
0.9720686674118042 0.9720686674118042 0.9720686674118042
0.96663486957550049 0.96663486957550049 0.96663486957550049
0.96406441926956177 0.96406441926956177 0.96406441926956177
0.97003734111785889 0.97003734111785889 0.97003734111785889
0.98089140653610229 0.98089140653610229 0.98089140653610229
0.77869433164596558 0.77869433164596558 0.77869433164596558
0.80342882871627808 0.80342882871627808 0.80342882871627808
0.81030714511871338 0.81030714511871338 0.81030714511871338
0.85107547044754028 0.85107547044754028 0.85107547044754028
0.87794476747512817 0.87794476747512817 0.87794476747512817
0.9032665491104126 0.9032665491104126 0.9032665491104126
0.92624622583389282 0.92624622583389282 0.92624622583389282
0.80633252859115601 0.80633252859115601 0.80633252859115601
0.80218744277954102 0.80218744277954102 0.80218744277954102
0.83355790376663208 0.83355790376663208 0.83355790376663208
0.85694438219070435 0.85694438219070435 0.85694438219070435
0.88492757081985474 0.88492757081985474 0.88492757081985474
0.91071093082427979 0.91071093082427979 0.91071093082427979
0.91385579109191895 0.91385579109191895 0.91385579109191895
0.81205415725708008 0.81205415725708008 0.81205415725708008
0.8235892653465271 0.8235892653465271 0.8235892653465271
0.83759653568267822 0.83759653568267822 0.83759653568267822
0.85770708322525024 0.85770708322525024 0.85770708322525024
0.89396131038665771 0.89396131038665771 0.89396131038665771
0.91597265005111694 0.91597265005111694 0.91597265005111694
0.93062764406204224 0.93062764406204224 0.93062764406204224
0.82330030202865601 0.82330030202865601 0.82330030202865601
0.83155149221420288 0.83155149221420288 0.83155149221420288
0.85020977258682251 0.85020977258682251 0.85020977258682251
0.87374240159988403 0.87374240159988403 0.87374240159988403
0.90209013223648071 0.90209013223648071 0.90209013223648071
0.92909109592437744 0.92909109592437744 0.92909109592437744
0.95097154378890991 0.95097154378890991 0.95097154378890991
0.82733923196792603 0.82733923196792603 0.82733923196792603
0.81219542026519775 0.81219542026519775 0.81219542026519775
0.851856529712677 0.851856529712677 0.851856529712677
0.88604468107223511 0.88604468107223511 0.88604468107223511
0.91347867250442505 0.91347867250442505 0.91347867250442505
0.93973910808563232 0.93973910808563232 0.93973910808563232
0.96540510654449463 0.96540510654449463 0.96540510654449463
0.92076784372329712 0.92076784372329712 0.92076784372329712
0.91708636283874512 0.91708636283874512 0.91708636283874512
0.92426711320877075 0.92426711320877075 0.92426711320877075
0.90767234563827515 0.90767234563827515 0.90767234563827515
0.93779665231704712 0.93779665231704712 0.93779665231704712
0.95549595355987549 0.95549595355987549 0.95549595355987549
0.96870237588882446 0.96870237588882446 0.96870237588882446
0.96132874488830566 0.96132874488830566 0.96132874488830566
0.9766351580619812 0.9766351580619812 0.9766351580619812
0.96306270360946655 0.96306270360946655 0.96306270360946655
0.97187811136245728 0.97187811136245728 0.97187811136245728
0.98209464550018311 0.98209464550018311 0.98209464550018311
0.97625827789306641 0.97625827789306641 0.97625827789306641
0.97724539041519165 0.97724539041519165 0.97724539041519165
