films/kodak_t-max_3200.cube
# Created by: G'MIC (https://gmic.eu)
TITLE "kodak_t-max_3200"
# LUT size
LUT_3D_SIZE 5
# Data domain
DOMAIN_MIN 0.0 0.0 0.0
DOMAIN_MAX 1.0 1.0 1.0
# LUT data points
0.031207410618662834 0.031207410618662834 0.031207410618662834
0.018995905295014381 0.018995905295014381 0.018995905295014381
0.044591553509235382 0.044591553509235382 0.044591553509235382
0.092019923031330109 0.092019923031330109 0.092019923031330109
0.2220490574836731 0.2220490574836731 0.2220490574836731
0.18733382225036621 0.18733382225036621 0.18733382225036621
0.17537593841552734 0.17537593841552734 0.17537593841552734
0.20660494267940521 0.20660494267940521 0.20660494267940521
0.27126488089561462 0.27126488089561462 0.27126488089561462
0.39480561017990112 0.39480561017990112 0.39480561017990112
0.42413690686225891 0.42413690686225891 0.42413690686225891
0.4285423755645752 0.4285423755645752 0.4285423755645752
0.453084796667099 0.453084796667099 0.453084796667099
0.50568509101867676 0.50568509101867676 0.50568509101867676
0.57780730724334717 0.57780730724334717 0.57780730724334717
0.69478023052215576 0.69478023052215576 0.69478023052215576
0.69078606367111206 0.69078606367111206 0.69078606367111206
0.69762915372848511 0.69762915372848511 0.69762915372848511
0.7198936939239502 0.7198936939239502 0.7198936939239502
0.75099384784698486 0.75099384784698486 0.75099384784698486
0.87486052513122559 0.87486052513122559 0.87486052513122559
0.89020359516143799 0.89020359516143799 0.89020359516143799
0.88459360599517822 0.88459360599517822 0.88459360599517822
0.88836485147476196 0.88836485147476196 0.88836485147476196
0.90325778722763062 0.90325778722763062 0.90325778722763062
0.033328216522932053 0.033328216522932053 0.033328216522932053
0.042282942682504654 0.042282942682504654 0.042282942682504654
0.078423306345939636 0.078423306345939636 0.078423306345939636
0.14341920614242554 0.14341920614242554 0.14341920614242554
0.28156426548957825 0.28156426548957825 0.28156426548957825
0.19884242117404938 0.19884242117404938 0.19884242117404938
0.20795673131942749 0.20795673131942749 0.20795673131942749
0.25369423627853394 0.25369423627853394 0.25369423627853394
0.33188614249229431 0.33188614249229431 0.33188614249229431
0.45076873898506165 0.45076873898506165 0.45076873898506165
0.4639228880405426 0.4639228880405426 0.4639228880405426
0.47215330600738525 0.47215330600738525 0.47215330600738525
0.50554966926574707 0.50554966926574707 0.50554966926574707
0.55637288093566895 0.55637288093566895 0.55637288093566895
0.62624973058700562 0.62624973058700562 0.62624973058700562
0.71616137027740479 0.71616137027740479 0.71616137027740479
0.72305095195770264 0.72305095195770264 0.72305095195770264
0.73404902219772339 0.73404902219772339 0.73404902219772339
0.75137341022491455 0.75137341022491455 0.75137341022491455
0.78059506416320801 0.78059506416320801 0.78059506416320801
0.89716231822967529 0.89716231822967529 0.89716231822967529
0.9100380539894104 0.9100380539894104 0.9100380539894104
0.91086798906326294 0.91086798906326294 0.91086798906326294
0.91608625650405884 0.91608625650405884 0.91608625650405884
0.93153315782546997 0.93153315782546997 0.93153315782546997
0.085073955357074738 0.085073955357074738 0.085073955357074738
0.096837423741817474 0.096837423741817474 0.096837423741817474
0.13861632347106934 0.13861632347106934 0.13861632347106934
0.21159608662128448 0.21159608662128448 0.21159608662128448
0.34630668163299561 0.34630668163299561 0.34630668163299561
0.27397221326828003 0.27397221326828003 0.27397221326828003
0.28614166378974915 0.28614166378974915 0.28614166378974915
0.33180803060531616 0.33180803060531616 0.33180803060531616
0.40572527050971985 0.40572527050971985 0.40572527050971985
0.51675593852996826 0.51675593852996826 0.51675593852996826
0.52544474601745605 0.52544474601745605 0.52544474601745605
0.53313589096069336 0.53313589096069336 0.53313589096069336
0.56332695484161377 0.56332695484161377 0.56332695484161377
0.60493332147598267 0.60493332147598267 0.60493332147598267
0.66661077737808228 0.66661077737808228 0.66661077737808228
0.74856829643249512 0.74856829643249512 0.74856829643249512
0.75205004215240479 0.75205004215240479 0.75205004215240479
0.75762516260147095 0.75762516260147095 0.75762516260147095
0.77255040407180786 0.77255040407180786 0.77255040407180786
0.8037104606628418 0.8037104606628418 0.8037104606628418
0.91142314672470093 0.91142314672470093 0.91142314672470093
0.92019116878509521 0.92019116878509521 0.92019116878509521
0.92316412925720215 0.92316412925720215 0.92316412925720215
0.9297141432762146 0.9297141432762146 0.9297141432762146
0.94395160675048828 0.94395160675048828 0.94395160675048828
0.16847978532314301 0.16847978532314301 0.16847978532314301
0.20392154157161713 0.20392154157161713 0.20392154157161713
0.24960502982139587 0.24960502982139587 0.24960502982139587
0.3191448450088501 0.3191448450088501 0.3191448450088501
0.46724027395248413 0.46724027395248413 0.46724027395248413
0.37534046173095703 0.37534046173095703 0.37534046173095703
0.40819558501243591 0.40819558501243591 0.40819558501243591
0.4530586302280426 0.4530586302280426 0.4530586302280426
0.5103614330291748 0.5103614330291748 0.5103614330291748
0.59973889589309692 0.59973889589309692 0.59973889589309692
0.59079146385192871 0.59079146385192871 0.59079146385192871
0.61356526613235474 0.61356526613235474 0.61356526613235474
0.64249181747436523 0.64249181747436523 0.64249181747436523
0.67187029123306274 0.67187029123306274 0.67187029123306274
0.71882098913192749 0.71882098913192749 0.71882098913192749
0.77887070178985596 0.77887070178985596 0.77887070178985596
0.78924190998077393 0.78924190998077393 0.78924190998077393
0.79562455415725708 0.79562455415725708 0.79562455415725708
0.81073176860809326 0.81073176860809326 0.81073176860809326
0.83663594722747803 0.83663594722747803 0.83663594722747803
0.9310186505317688 0.9310186505317688 0.9310186505317688
0.93834280967712402 0.93834280967712402 0.93834280967712402
0.94020682573318481 0.94020682573318481 0.94020682573318481
0.94800823926925659 0.94800823926925659 0.94800823926925659
0.95942085981369019 0.95942085981369019 0.95942085981369019
0.34827381372451782 0.34827381372451782 0.34827381372451782
0.38322928547859192 0.38322928547859192 0.38322928547859192
0.4189574122428894 0.4189574122428894 0.4189574122428894
0.49249047040939331 0.49249047040939331 0.49249047040939331
0.58019047975540161 0.58019047975540161 0.58019047975540161
0.50708687305450439 0.50708687305450439 0.50708687305450439
0.55255740880966187 0.55255740880966187 0.55255740880966187
0.59761548042297363 0.59761548042297363 0.59761548042297363
0.63771390914916992 0.63771390914916992 0.63771390914916992
0.68822669982910156 0.68822669982910156 0.68822669982910156
0.67179363965988159 0.67179363965988159 0.67179363965988159
0.70328241586685181 0.70328241586685181 0.70328241586685181
0.72905176877975464 0.72905176877975464 0.72905176877975464
0.74893254041671753 0.74893254041671753 0.74893254041671753
0.77969038486480713 0.77969038486480713 0.77969038486480713
0.82249122858047485 0.82249122858047485 0.82249122858047485
0.83866828680038452 0.83866828680038452 0.83866828680038452
0.84934800863265991 0.84934800863265991 0.84934800863265991
0.86079937219619751 0.86079937219619751 0.86079937219619751
0.88161909580230713 0.88161909580230713 0.88161909580230713
0.95510786771774292 0.95510786771774292 0.95510786771774292
0.96384358406066895 0.96384358406066895 0.96384358406066895
0.966480553150177 0.966480553150177 0.966480553150177
0.97560101747512817 0.97560101747512817 0.97560101747512817
0.98799401521682739 0.98799401521682739 0.98799401521682739
