films/kodak_ektar_100.cube
TITLE "data/luts/rawtherapee/HaldCLUT/Color/Kodak/Kodak Ektar 100.png"
LUT_3D_SIZE 64
DOMAIN_MIN 0 0 0
DOMAIN_MAX 1 1 1
0.000000 0.000000 0.000000
0.016060 0.000000 0.000000
0.039963 0.000000 0.000000
0.059384 0.000000 0.000000
0.079178 0.000000 0.000000
0.095051 0.000000 0.000000
0.110924 0.000000 0.000000
0.126797 0.000000 0.000000
0.142670 0.000000 0.000000
0.162465 0.000000 0.000000
0.178338 0.000000 0.000000
0.190289 0.003922 0.000000
0.206162 0.003922 0.000000
0.218114 0.003922 0.000000
0.237908 0.003922 0.000000
0.249860 0.003922 0.000000
0.265733 0.003922 0.000000
0.277684 0.007843 0.000000
0.293557 0.007843 0.000000
0.309430 0.007843 0.000000
0.321382 0.011765 0.000000
0.337255 0.011765 0.000000
0.353128 0.011765 0.000000
0.369001 0.011765 0.000000
0.385434 0.012325 0.000000
0.404669 0.015686 0.000000
0.420542 0.015686 0.000000
0.440336 0.019608 0.000000
0.457516 0.020915 0.000000
0.479925 0.023529 0.000000
0.501401 0.023529 0.000000
0.527358 0.027451 0.000000
0.551074 0.031373 0.000000
0.577031 0.035294 0.000000
0.600934 0.039216 0.000000
0.622222 0.041830 0.000000
0.644818 0.043137 0.000000
0.661811 0.047059 0.000000
0.681606 0.050980 0.000000
0.697479 0.050980 0.000000
0.713352 0.054902 0.000000
0.729225 0.058637 0.000000
0.745098 0.058824 0.000000
0.760971 0.062745 0.000000
0.776844 0.063119 0.000000
0.792717 0.066667 0.000000
0.808590 0.067414 0.000000
0.825397 0.070588 0.000000
0.844258 0.074510 0.000000
0.860131 0.074510 0.000000
0.876004 0.078431 0.000000
0.891877 0.082353 0.000000
0.907750 0.082353 0.000000
0.923623 0.086275 0.000000
0.939496 0.088515 0.000000
0.955369 0.090196 0.000000
0.971242 0.094118 0.000000
0.987115 0.094118 0.000000
0.999066 0.098039 0.000000
1.000000 0.098039 0.000000
1.000000 0.101401 0.000000
1.000000 0.101961 0.000000
1.000000 0.105882 0.000000
1.000000 0.105882 0.000000
0.000000 0.011951 0.000000
0.011951 0.011951 0.000000
0.031746 0.011951 0.000000
0.051354 0.015713 0.000000
0.067414 0.015873 0.000000
0.083287 0.015873 0.000000
0.099160 0.015873 0.000000
0.118768 0.017180 0.000000
0.134712 0.019795 0.000000
0.150700 0.019795 0.000000
0.166573 0.019795 0.000000
0.180303 0.019892 0.000000
0.194398 0.023716 0.000000
0.210271 0.023716 0.000000
0.226144 0.023716 0.000000
0.242017 0.023716 0.000000
0.257703 0.023903 0.000000
0.269841 0.027638 0.000000
0.285714 0.027638 0.000000
0.301418 0.027638 0.000000
0.317274 0.031559 0.000000
0.333147 0.031559 0.000000
0.349020 0.031559 0.000000
0.365079 0.031559 0.000000
0.380952 0.031559 0.000000
0.400596 0.031559 0.000000
0.416620 0.032635 0.000000
0.436415 0.035481 0.000000
0.456209 0.035481 0.000000
0.477498 0.035668 0.000000
0.501401 0.039402 0.000000
0.527260 0.039402 0.000000
0.553030 0.039589 0.000000
0.578631 0.043324 0.000000
0.602356 0.043324 0.000000
0.626082 0.043324 0.000000
0.645938 0.043457 0.000000
0.665733 0.047246 0.000000
0.685341 0.051167 0.000000
0.701401 0.051167 0.000000
0.717274 0.054902 0.000000
0.733147 0.058646 0.000000
0.749020 0.058824 0.000000
0.764893 0.062745 0.000000
0.780766 0.063119 0.000000
0.796639 0.066667 0.000000
0.812512 0.067414 0.000000
0.828385 0.070588 0.000000
0.844258 0.074510 0.000000
0.860317 0.074510 0.000000
0.879925 0.078431 0.000000
0.895798 0.082353 0.000000
0.911671 0.082353 0.000000
0.927544 0.086275 0.000000
0.943417 0.086275 0.000000
0.959290 0.090196 0.000000
0.975163 0.094118 0.000000
0.987115 0.094118 0.000000
0.999066 0.098039 0.000000
1.000000 0.098039 0.000000
1.000000 0.101401 0.000000
1.000000 0.101961 0.000000
1.000000 0.105696 0.000000
1.000000 0.105882 0.000000
0.000373 0.023903 0.000000
0.015704 0.027469 0.000000
0.027824 0.027824 0.000000
0.043697 0.027824 0.000000
0.063190 0.028500 0.000000
0.079365 0.031746 0.000000
0.095238 0.031746 0.000000
0.111111 0.031746 0.000000
0.130532 0.035668 0.000000
0.146405 0.035668 0.000000
0.162278 0.035668 0.000000
0.174603 0.039411 0.000000
0.190476 0.039589 0.000000
0.206349 0.039589 0.000000
0.222222 0.039589 0.000000
0.237828 0.043511 0.000000
0.250047 0.043511 0.000000
0.265920 0.043511 0.000000
0.281793 0.043511 0.000000
0.294082 0.047432 0.000000
0.309617 0.047432 0.000000
0.325490 0.051354 0.000000
0.341363 0.051354 0.000000
0.360784 0.051354 0.000000
0.377031 0.051354 0.000000
0.393580 0.051354 0.000000
0.412698 0.051354 0.000000
0.432226 0.055275 0.000000
0.452039 0.055275 0.000000
0.472082 0.055275 0.000000
0.495798 0.059197 0.000000
0.521382 0.059197 0.000000
0.546974 0.061056 0.000000
0.572896 0.063119 0.000000
0.597012 0.063119 0.000000
0.620666 0.063119 0.000000
0.641910 0.063119 0.000000
0.661722 0.063119 0.000000
0.680557 0.067040 0.000000
0.697479 0.063119 0.000000
0.716900 0.063119 0.000000
0.733147 0.063119 0.000000
0.749020 0.063119 0.000000
0.764893 0.063119 0.000000
0.780766 0.063456 0.000000
0.796639 0.066667 0.000000
0.812512 0.067716 0.000000
0.828758 0.070588 0.000000
0.848179 0.074510 0.000000
0.864052 0.074510 0.000000
0.879925 0.078431 0.000000
0.895798 0.082353 0.000000
0.911671 0.082353 0.000000
0.927544 0.086275 0.000000
0.943417 0.086275 0.000000
0.959290 0.090196 0.000000
0.975163 0.094118 0.000000
0.988235 0.094118 0.000000
0.999066 0.098039 0.000000
1.000000 0.098039 0.000000
1.000000 0.098039 0.000000
1.000000 0.101961 0.000000
1.000000 0.105696 0.000000
1.000000 0.105882 0.000000
0.007843 0.039776 0.000560
0.019608 0.039776 0.000560
0.028331 0.039776 0.000000
0.043697 0.043217 0.000000
0.059570 0.043697 0.000000
0.075444 0.043697 0.000000
0.091317 0.043697 0.000000
0.110551 0.047619 0.000000
0.126984 0.047619 0.000000
0.142857 0.049060 0.000000
0.158463 0.051541 0.000000
0.170682 0.051541 0.000000
0.186555 0.053461 0.000000
0.202428 0.055249 0.000000
0.218301 0.055462 0.000000
0.234174 0.055462 0.000000
0.246125 0.058023 0.000000
0.261998 0.059384 0.000000
0.277871 0.059384 0.000000
0.290143 0.059384 0.000000
0.305696 0.063279 0.000000
0.321569 0.063305 0.000000
0.337442 0.063305 0.000000
0.356676 0.063305 0.000000
0.373109 0.063786 0.000000
0.389623 0.066773 0.000000
0.408777 0.067227 0.000000
0.428171 0.067227 0.000000
0.447993 0.070588 0.000000
0.469441 0.071148 0.000000
0.493317 0.071148 0.000000
0.517460 0.074777 0.000000
0.543231 0.075070 0.000000
0.569188 0.078431 0.000000
0.593091 0.078992 0.000000
0.616620 0.078992 0.000000
0.637935 0.078992 0.000000
0.657756 0.078992 0.000000
0.676484 0.078992 0.000000
0.693557 0.078992 0.000000
0.712472 0.078992 0.000000
0.729198 0.078992 0.000000
0.745098 0.078431 0.000000
0.760971 0.078271 0.000000
0.780205 0.075070 0.000000
0.796639 0.075070 0.000000
0.812512 0.071148 0.000000
0.832306 0.071148 0.000000
0.848179 0.074510 0.000000
0.864052 0.075070 0.000000
0.879925 0.078431 0.000000
0.896038 0.082353 0.000000
0.915593 0.082353 0.000000
0.931466 0.086275 0.000000
0.947339 0.086275 0.000000
0.959851 0.090196 0.000000
0.975163 0.094118 0.000000
0.991036 0.094118 0.000000
0.999200 0.098039 0.000000
1.000000 0.098039 0.000000
1.000000 0.098039 0.000000
1.000000 0.101961 0.000000
1.000000 0.105696 0.000000
1.000000 0.105882 0.000000
0.011765 0.051727 0.003922
0.020506 0.054902 0.003922
0.032422 0.055649 0.003922
0.043697 0.055649 0.003922
0.055649 0.055649 0.003922
0.072278 0.058824 0.003922
0.090783 0.059570 0.003922
0.107190 0.059570 0.003922
0.123063 0.059570 0.003922
0.138936 0.063492 0.003922
0.154809 0.063492 0.003922
0.168272 0.063492 0.003922
0.182633 0.066667 0.003922
0.198506 0.067414 0.003922
0.214379 0.067414 0.003922
0.230252 0.069681 0.003922
0.242204 0.071157 0.000747
0.258077 0.071335 0.000747
0.273950 0.071335 0.000107
0.289147 0.074207 0.000000
0.304949 0.075257 0.000000
0.317647 0.075257 0.000000
0.333671 0.078431 0.000000
0.353315 0.078431 0.000000
0.369188 0.079178 0.000000
0.388378 0.079178 0.000000
0.404855 0.079178 0.000000
0.424650 0.080085 0.000000
0.444444 0.083100 0.000000
0.465733 0.083100 0.000000
0.489636 0.084460 0.000000
0.515202 0.087021 0.000000
0.540972 0.088684 0.000000
0.565266 0.090943 0.000000
0.590378 0.090943 0.000000
0.613072 0.090943 0.000000
0.634174 0.094118 0.000000
0.653968 0.094118 0.000000
0.672411 0.094865 0.000000
0.689636 0.094118 0.000000
0.705509 0.090943 0.000000
0.725268 0.090943 0.000000
0.741176 0.090943 0.000000
0.757049 0.090943 0.000000
0.773225 0.090943 0.000000
0.792717 0.087021 0.000000
0.808590 0.087021 0.000000
0.828385 0.086275 0.000000
0.844258 0.083100 0.000000
0.864052 0.083100 0.000000
0.881135 0.079178 0.000000
0.899720 0.082353 0.000000
0.915593 0.083100 0.000000
0.931466 0.086275 0.000000
0.947339 0.086275 0.000000
0.963212 0.090196 0.000000
0.976969 0.094118 0.000000
0.991036 0.094118 0.000000
1.000000 0.098039 0.000000
1.000000 0.098039 0.000000
1.000000 0.098039 0.000000
1.000000 0.101961 0.000000
1.000000 0.105696 0.000000
1.000000 0.105882 0.000000
0.015686 0.066667 0.007843
0.024605 0.067600 0.007843
0.036512 0.067600 0.004855
0.047619 0.067600 0.004855
0.059570 0.070588 0.004855
0.071522 0.071522 0.003922
0.087395 0.071522 0.003922
0.103268 0.072518 0.003922
0.119141 0.075444 0.003922
0.135014 0.075444 0.003922
0.150887 0.075444 0.003922
0.166271 0.078431 0.003922
0.178711 0.079365 0.003922
0.194585 0.079365 0.003922
0.213445 0.079365 0.003922
0.226331 0.082353 0.003922
0.241270 0.083287 0.003922
0.254155 0.083287 0.003922
0.270028 0.083287 0.003922
0.285901 0.087119 0.003922
0.301774 0.087208 0.003922
0.316713 0.087208 0.003922
0.332631 0.090241 0.003922
0.349393 0.091130 0.003922
0.365266 0.091130 0.003922
0.385061 0.091130 0.003922
0.400934 0.091841 0.003922
0.420728 0.094384 0.003922
0.440523 0.095051 0.003922
0.463661 0.096190 0.002783
0.487422 0.098973 0.000534
0.511671 0.098973 0.000000
0.537442 0.101961 0.000000
0.562625 0.102894 0.000000
0.586741 0.102894 0.000000
0.610146 0.105882 0.000000
0.630252 0.106816 0.000000
0.650047 0.106816 0.000000
0.668908 0.106816 0.000000
0.685714 0.106816 0.000000
0.704291 0.106816 0.000000
0.721382 0.105882 0.000000
0.737255 0.102894 0.000000
0.753128 0.102894 0.000000
0.769285 0.102894 0.000000
0.788796 0.102894 0.000000
0.804669 0.098973 0.000000
0.823752 0.098973 0.000000
0.840336 0.098973 0.000000
0.860131 0.097043 0.000000
0.877142 0.095051 0.000000
0.895798 0.092837 0.000000
0.914659 0.091130 0.000000
0.931466 0.087208 0.000000
0.947339 0.087208 0.000000
0.963212 0.090196 0.000000
0.979085 0.094118 0.000000
0.991036 0.094118 0.000000
1.000000 0.098039 0.000000
1.000000 0.098039 0.000000
1.000000 0.098039 0.000000
1.000000 0.101961 0.000000
1.000000 0.105696 0.000000
1.000000 0.105882 0.000000
0.020728 0.079552 0.011765
0.031426 0.079552 0.011631
0.040603 0.079819 0.008964
0.051541 0.083473 0.008964
0.062745 0.083473 0.008964
0.072376 0.083473 0.007843
0.086595 0.083473 0.007843
0.103268 0.086648 0.007843
0.119141 0.087395 0.007843
0.135014 0.087395 0.007843
0.146965 0.090196 0.007843
0.162838 0.091317 0.007843
0.178711 0.091317 0.007843
0.194158 0.091317 0.007843
0.210458 0.094118 0.007843
0.222409 0.095238 0.007843
0.238282 0.095238 0.007843
0.253035 0.095238 0.007843
0.266106 0.098039 0.007843
0.281979 0.099160 0.007843
0.297852 0.099160 0.007843
0.313725 0.099160 0.007843
0.329599 0.102014 0.005042
0.345472 0.103081 0.003922
0.364146 0.103081 0.003922
0.381139 0.103081 0.003922
0.400080 0.105882 0.003922
0.417607 0.107003 0.003922
0.437908 0.107003 0.003922
0.460317 0.109804 0.003922
0.485234 0.110924 0.003922
0.509617 0.110924 0.003922
0.535387 0.114846 0.003922
0.560704 0.114846 0.003922
0.584554 0.114846 0.001120
0.606536 0.117647 0.001120
0.626331 0.118768 0.000000
0.646125 0.118768 0.000000
0.665920 0.118768 0.000000
0.681793 0.118768 0.000000
0.701481 0.118768 0.000000
0.717460 0.118768 0.000000
0.733333 0.117647 0.000000
0.749206 0.114846 0.000000
0.767880 0.114846 0.000000
0.784874 0.114846 0.000000
0.800747 0.114846 0.000000
0.820542 0.110924 0.000000
0.836415 0.110924 0.000000
0.856209 0.110924 0.000000
0.873149 0.107003 0.000000
0.891877 0.107003 0.000000
0.910551 0.103081 0.000000
0.927544 0.102494 0.000000
0.945018 0.099160 0.000000
0.963212 0.095238 0.000000
0.979085 0.094118 0.000000
0.994158 0.094118 0.000000
1.000000 0.098039 0.000000
1.000000 0.098039 0.000000
1.000000 0.098039 0.000000
1.000000 0.101961 0.000000
1.000000 0.105696 0.000000
1.000000 0.105882 0.000000
0.027451 0.094118 0.015686
0.036726 0.095425 0.015686
0.047183 0.095425 0.015686
0.055462 0.095425 0.013072
0.064550 0.095425 0.013072
0.075444 0.098039 0.013072
0.087395 0.099346 0.011765
0.099346 0.099346 0.011765
0.115219 0.099346 0.011765
0.131092 0.100467 0.011765
0.144413 0.103268 0.011765
0.158917 0.103268 0.011765
0.174790 0.103268 0.011765
0.190663 0.105882 0.011765
0.206536 0.107190 0.011765
0.219234 0.107190 0.011765
0.234360 0.107190 0.011765
0.250233 0.109804 0.011765
0.262558 0.111111 0.011765
0.278058 0.111111 0.011765
0.293931 0.111111 0.011765
0.309804 0.113725 0.011765
0.325677 0.115033 0.009150
0.341550 0.115033 0.007843
0.361345 0.115033 0.007843
0.377218 0.115033 0.007843
0.397012 0.117647 0.007843
0.416807 0.118954 0.007843
0.436601 0.118954 0.007843
0.457890 0.121569 0.007843
0.481793 0.122876 0.007843
0.507750 0.122876 0.005229
0.533520 0.126797 0.003922
0.557423 0.126797 0.003922
0.581326 0.129412 0.003922
0.602614 0.130719 0.003922
0.624276 0.130719 0.003922
0.642204 0.130719 0.003922
0.661998 0.130719 0.003922
0.680112 0.130719 0.003922
0.697666 0.130719 0.001556
0.713539 0.130719 0.001307
0.729412 0.129412 0.000000
0.747899 0.129412 0.000000
0.765079 0.129163 0.000000
0.780952 0.126797 0.000000
0.797323 0.126797 0.000000
0.816620 0.125490 0.000000
0.833240 0.124743 0.000000
0.852288 0.122876 0.000000
0.870775 0.121569 0.000000
0.887955 0.118954 0.000000
0.907065 0.118332 0.000000
0.923623 0.115033 0.000000
0.940990 0.112232 0.000000
0.959290 0.110302 0.000000
0.975163 0.106318 0.000000
0.991036 0.102334 0.000000
1.000000 0.098039 0.000000
1.000000 0.098039 0.000000
1.000000 0.098039 0.000000
1.000000 0.101961 0.000000
1.000000 0.105696 0.000000
1.000000 0.105882 0.000000
0.032866 0.107376 0.021102
0.043208 0.107376 0.021102
0.051354 0.107376 0.021102
0.059384 0.109804 0.019608
0.070588 0.110088 0.019608
0.079365 0.111298 0.019608
0.091317 0.111298 0.019608
0.102459 0.111298 0.019608
0.115219 0.113725 0.017180
0.127171 0.115219 0.017180
0.142332 0.115219 0.017180
0.154995 0.115219 0.017180
0.170868 0.116607 0.017180
0.186741 0.118572 0.017180
0.202614 0.119141 0.017180
0.217420 0.119141 0.017180
0.230439 0.119141 0.017180
0.246312 0.121569 0.015971
0.262185 0.123063 0.015686
0.276564 0.123063 0.015686
0.292437 0.123063 0.015686
0.305882 0.125490 0.015686
0.324183 0.126984 0.015686
0.340198 0.126984 0.013259
0.357423 0.126984 0.013259
0.376008 0.129412 0.013259
0.393091 0.130906 0.012903
0.412885 0.130906 0.011765
0.433489 0.130906 0.011765
0.456396 0.133902 0.011765
0.480112 0.134827 0.011765
0.505696 0.134827 0.009337
0.530755 0.138749 0.008555
0.555182 0.138749 0.007843
0.578898 0.141176 0.007843
0.601307 0.142670 0.007843
0.622409 0.142670 0.007843
0.641848 0.142670 0.005415
0.658077 0.142670 0.003922
0.677871 0.142670 0.003922
0.693744 0.142670 0.003922
0.709617 0.142670 0.003922
0.727918 0.141176 0.003922
0.745285 0.141176 0.003922
0.761158 0.141176 0.003922
0.777031 0.138749 0.003922
0.796825 0.138749 0.003922
0.812698 0.137255 0.003344
0.831426 0.137255 0.000000
0.848366 0.134827 0.000000
0.868161 0.134827 0.000000
0.884034 0.130906 0.000000
0.903828 0.130906 0.000000
0.919701 0.128140 0.000000
0.938856 0.126984 0.000000
0.955369 0.123063 0.000000
0.971242 0.119141 0.000000
0.987115 0.115219 0.000000
0.999066 0.111298 0.000000
1.000000 0.106167 0.000000
1.000000 0.101961 0.000000
1.000000 0.101961 0.000000
1.000000 0.105696 0.000000
1.000000 0.105882 0.000000
0.040896 0.119328 0.029132
0.051060 0.119328 0.029132
0.058984 0.119328 0.027451
0.066667 0.119328 0.027451
0.074830 0.121569 0.027451
0.083287 0.123249 0.027451
0.094598 0.123249 0.025210
0.104388 0.123249 0.025210
0.115219 0.124103 0.025210
0.127171 0.125490 0.023529
0.139122 0.127171 0.023529
0.154995 0.127171 0.023529
0.170868 0.127171 0.023529
0.186741 0.129412 0.023529
0.199440 0.131092 0.023529
0.214566 0.131092 0.023529
0.229158 0.131092 0.023529
0.242817 0.133333 0.023529
0.258263 0.133333 0.023529
0.274136 0.135014 0.023529
0.290009 0.135014 0.023529
0.305882 0.137255 0.021289
0.321755 0.138936 0.021289
0.337628 0.138936 0.019608
0.355742 0.138936 0.019608
0.373296 0.138936 0.019608
0.393091 0.141176 0.019608
0.411685 0.142857 0.018968
0.432680 0.142857 0.017367
0.453968 0.145098 0.017367
0.477871 0.146779 0.016647
0.503828 0.146779 0.014619
0.529599 0.149900 0.013445
0.553501 0.150700 0.011765
0.577404 0.150700 0.011765
0.598693 0.152941 0.011765
0.618487 0.154622 0.011765
0.638282 0.154622 0.009524
0.657756 0.152941 0.008163
0.673950 0.152941 0.009524
0.691850 0.152941 0.007843
0.709617 0.152941 0.007843
0.725490 0.150700 0.007843
0.741363 0.150700 0.007843
0.757236 0.150700 0.007843
0.777031 0.150700 0.007843
0.792904 0.150380 0.005602
0.811418 0.148486 0.003922
0.828571 0.146779 0.003922
0.845191 0.146779 0.003922
0.864239 0.145098 0.003922
0.883073 0.142857 0.003922
0.899907 0.142057 0.001681
0.918021 0.138936 0.001681
0.935574 0.137975 0.000000
0.951447 0.135014 0.000000
0.969561 0.131092 0.000000
0.985434 0.127171 0.000000
0.999066 0.123249 0.000000
1.000000 0.119328 0.000000
1.000000 0.113966 0.000000
1.000000 0.107776 0.000000
1.000000 0.105882 0.000000
1.000000 0.105882 0.000000
0.048926 0.131279 0.037162
0.056867 0.131279 0.037162
0.064808 0.131279 0.037162
0.071148 0.131573 0.037162
0.079178 0.133333 0.037162
0.088631 0.135201 0.035294
0.098573 0.135201 0.035294
0.108434 0.135201 0.034609
0.118358 0.135201 0.033240
0.127171 0.137255 0.033240
0.139122 0.139122 0.031373
0.151074 0.139122 0.031373
0.166947 0.139122 0.031373
0.182820 0.141176 0.031373
0.198693 0.143044 0.031373
0.210644 0.143044 0.031373
0.226517 0.143044 0.031373
0.242390 0.143044 0.031373
0.254635 0.145098 0.031373
0.270215 0.146965 0.031373
0.286088 0.146965 0.031373
0.301961 0.146965 0.029318
0.317932 0.149109 0.029318
0.335939 0.150887 0.027451
0.353501 0.150887 0.025397
0.370121 0.150887 0.025397
0.389169 0.152941 0.025397
0.408964 0.154809 0.025397
0.430065 0.154809 0.025397
0.453257 0.155591 0.024685
0.477871 0.158730 0.023529
0.502850 0.158730 0.021475
0.527544 0.161762 0.019608
0.552434 0.162652 0.019608
0.574977 0.162652 0.018336
0.597386 0.164706 0.017554
0.618487 0.164706 0.017554
0.635925 0.164706 0.015686
0.654155 0.164706 0.013632
0.672082 0.164706 0.013632
0.689823 0.164706 0.013632
0.705696 0.164706 0.013632
0.721569 0.162652 0.011765
0.737539 0.162652 0.011765
0.757236 0.162652 0.011765
0.773109 0.162652 0.011765
0.789374 0.160784 0.009711
0.808777 0.158730 0.009711
0.824650 0.158730 0.007843
0.844444 0.158730 0.007843
0.861100 0.156080 0.007843
0.880112 0.154809 0.005789
0.896963 0.152941 0.003922
0.915780 0.150887 0.003922
0.931653 0.149020 0.003922
0.948797 0.146965 0.003922
0.967320 0.143044 0.003922
0.983193 0.139122 0.002454
0.995634 0.135201 0.000000
1.000000 0.131279 0.000000
1.000000 0.127358 0.000000
1.000000 0.119888 0.000000
1.000000 0.115593 0.000000
1.000000 0.107750 0.000000
0.056956 0.143231 0.045191
0.062843 0.143231 0.045191
0.070784 0.145098 0.045191
0.078431 0.145391 0.045191
0.084763 0.147152 0.044800
0.094118 0.147152 0.043137
0.102548 0.147152 0.043137
0.111111 0.147152 0.043137
0.120413 0.149020 0.043137
0.129412 0.151074 0.041270
0.139122 0.151074 0.041270
0.151074 0.151074 0.041270
0.166947 0.151074 0.041270
0.182820 0.152941 0.041270
0.194771 0.154995 0.041270
0.209177 0.154995 0.039216
0.222596 0.154995 0.039216
0.238469 0.156507 0.039216
0.254342 0.158623 0.039216
0.270215 0.158917 0.039216
0.284034 0.158917 0.039216
0.299907 0.158917 0.037348
0.317834 0.162838 0.037348
0.333707 0.162838 0.035294
0.349847 0.162838 0.035294
0.369374 0.162838 0.034938
0.387604 0.165195 0.033427
0.407496 0.166760 0.033427
0.428758 0.166760 0.031373
0.451203 0.169410 0.031373
0.476190 0.170682 0.030572
0.501774 0.170682 0.027451
0.525677 0.174603 0.026473
0.550380 0.174603 0.025584
0.573483 0.175759 0.023529
0.594771 0.176471 0.023529
0.614566 0.178525 0.023529
0.634360 0.178525 0.021662
0.650233 0.178525 0.019608
0.670028 0.176471 0.019608
0.685901 0.176471 0.019608
0.701774 0.176471 0.019608
0.719514 0.174603 0.017740
0.737442 0.174603 0.015686
0.753315 0.174603 0.015686
0.769188 0.174603 0.015686
0.788982 0.172549 0.013819
0.804855 0.170682 0.013330
0.823183 0.170682 0.011765
0.840523 0.170682 0.011765
0.859046 0.167916 0.011765
0.876190 0.166760 0.009897
0.894909 0.165782 0.007843
0.911858 0.162838 0.007843
0.928798 0.161665 0.007843
0.946743 0.158917 0.005976
0.963399 0.154995 0.003922
0.979272 0.151607 0.003922
0.995145 0.147597 0.003922
1.000000 0.143586 0.003922
1.000000 0.139309 0.003922
1.000000 0.135387 0.000000
1.000000 0.127731 0.000000
1.000000 0.119701 0.000000
0.064986 0.156863 0.053221
0.070695 0.156969 0.053221
0.076911 0.159104 0.050980
0.082673 0.159104 0.050980
0.090196 0.159104 0.050980
0.098039 0.159104 0.050980
0.106523 0.159584 0.050980
0.114472 0.160784 0.050980
0.123063 0.163025 0.049300
0.131092 0.163025 0.049300
0.142244 0.163025 0.049300
0.152141 0.163025 0.047059
0.164706 0.164706 0.047059
0.178898 0.166947 0.047059
0.190850 0.166947 0.047059
0.206723 0.166947 0.047059
0.220888 0.168227 0.047059
0.234547 0.170442 0.045378
0.250420 0.170868 0.045378
0.266293 0.170868 0.045378
0.282166 0.170868 0.045378
0.298039 0.172549 0.045378
0.313912 0.174790 0.043137
0.329785 0.174790 0.043137
0.349580 0.174790 0.041457
0.365453 0.176897 0.041457
0.385247 0.178711 0.039216
0.405042 0.178711 0.039216
0.426144 0.180392 0.039216
0.449193 0.182633 0.037535
0.473950 0.182633 0.037535
0.498733 0.184314 0.035294
0.523623 0.186555 0.032440
0.547339 0.186555 0.031373
0.571055 0.189623 0.031373
0.590850 0.190476 0.029692
0.610644 0.190476 0.027451
0.630439 0.190476 0.027451
0.647672 0.190476 0.025770
0.666106 0.190476 0.023850
0.681979 0.190476 0.023529
0.697852 0.190476 0.023529
0.715406 0.190476 0.023529
0.733520 0.188235 0.019608
0.749393 0.186555 0.019608
0.765266 0.186555 0.019608
0.785061 0.186555 0.019608
0.800934 0.184314 0.019208
0.819128 0.182633 0.015686
0.836601 0.182633 0.015686
0.856396 0.182633 0.015046
0.872269 0.178711 0.013045
0.892063 0.178711 0.011765
0.907937 0.174790 0.011765
0.925490 0.174790 0.011765
0.943604 0.170868 0.007843
0.959477 0.167507 0.007843
0.975350 0.165346 0.007843
0.991223 0.163025 0.006563
1.000000 0.159104 0.003922
1.000000 0.153261 0.003922
1.000000 0.147712 0.003922
1.000000 0.143417 0.003922
1.000000 0.135574 0.003922
0.073016 0.168627 0.058824
0.078431 0.168627 0.058824
0.082584 0.168859 0.058824
0.090196 0.171055 0.058824
0.094865 0.171055 0.058824
0.102539 0.171055 0.057330
0.110498 0.171055 0.057330
0.117647 0.171553 0.057330
0.126415 0.172549 0.057330
0.135014 0.174977 0.056289
0.144316 0.174977 0.054902
0.154995 0.174977 0.054902
0.166947 0.175830 0.054902
0.176471 0.176471 0.053408
0.190850 0.178898 0.053408
0.202801 0.178898 0.053408
0.218674 0.178898 0.053408
0.232582 0.180392 0.053408
0.246499 0.182473 0.053408
0.262372 0.182820 0.050980
0.278245 0.182820 0.050980
0.294118 0.184314 0.050980
0.310062 0.186741 0.050980
0.329785 0.186741 0.049486
0.345658 0.186741 0.049140
0.363488 0.188235 0.047059
0.382260 0.190663 0.047059
0.402241 0.190663 0.045565
0.424837 0.192157 0.044756
0.448553 0.194585 0.043137
0.472269 0.194585 0.043137
0.497852 0.196078 0.041643
0.521755 0.198506 0.039216
0.545658 0.199360 0.037722
0.568058 0.200000 0.035294
0.590040 0.202428 0.035294
0.609951 0.202428 0.034227
0.626517 0.202428 0.031373
0.646312 0.202428 0.031373
0.662185 0.202428 0.029879
0.679410 0.202428 0.027682
0.695425 0.202428 0.027451
0.713725 0.202428 0.027451
0.729599 0.200000 0.025957
0.745472 0.198506 0.023529
0.762838 0.198506 0.023529
0.781139 0.198506 0.023529
0.797368 0.196078 0.023529
0.816807 0.194585 0.021342
0.832680 0.194585 0.019608
0.852474 0.194585 0.019608
0.868988 0.190663 0.018114
