films/kodak_portra_160_nc.cube
# Created by: G'MIC (https://gmic.eu)
TITLE "kodak_portra_160_nc"
# LUT size
LUT_3D_SIZE 7
# Data domain
DOMAIN_MIN 0.0 0.0 0.0
DOMAIN_MAX 1.0 1.0 1.0
# LUT data points
0.023169424384832382 0.029044834896922112 0.030770216137170792
0.11377456039190292 0.044377841055393219 0.02983907051384449
0.29996773600578308 0.061143733561038971 0.025945940986275673
0.51650995016098022 0.066832475364208221 0.0093882689252495766
0.70924663543701172 0.097056999802589417 0.0033284504897892475
0.86690199375152588 0.1531008780002594 0.0026917401701211929
0.99021488428115845 0.2244986891746521 0.017894893884658813
0.001663267845287919 0.13295939564704895 0.05384763702750206
0.097177274525165558 0.1616659015417099 0.030471516773104668
0.34217187762260437 0.18613085150718689 0.013289507478475571
0.55939900875091553 0.19308708608150482 0.0011723537463694811
0.73502284288406372 0.20797146856784821 7.5396369538793806e-06
0.88232427835464478 0.23780032992362976 0
0.99327856302261353 0.29213553667068481 0.0057985042221844196
0 0.32484698295593262 0.10821479558944702
0.0042846677824854851 0.33902150392532349 0.097943685948848724
0.29775366187095642 0.40012732148170471 0.026256397366523743
0.60724842548370361 0.41489017009735107 0
0.76417595148086548 0.37615722417831421 0.00022044462093617767
0.89760762453079224 0.37115186452865601 1.4361213288793806e-05
0.99550336599349976 0.40251913666725159 0.00077809352660551667
0 0.50704872608184814 0.20446595549583435
0 0.51088380813598633 0.20336328446865082
0.14558756351470947 0.53639262914657593 0.16796556115150452
0.49782183766365051 0.58878016471862793 0.074884511530399323
0.76108157634735107 0.59550446271896362 0.00027845794102177024
0.9015313982963562 0.55450201034545898 1.6156365745700896e-05
0.9936785101890564 0.53575229644775391 0.0044087129645049572
0.011791199445724487 0.65559685230255127 0.32199203968048096
0.033404048532247543 0.65953320264816284 0.32542282342910767
0.16664440929889679 0.66593420505523682 0.32351011037826538
0.40051007270812988 0.69309628009796143 0.28276008367538452
0.64954715967178345 0.72334104776382446 0.18418894708156586
0.87884646654129028 0.74490964412689209 0.036964744329452515
0.99189579486846924 0.71336454153060913 0.096436381340026855
0.21836456656455994 0.79184186458587646 0.48099237680435181
0.26485475897789001 0.79399114847183228 0.4885297417640686
0.35058864951133728 0.78993254899978638 0.48780381679534912
0.47378873825073242 0.80422544479370117 0.4840366542339325
0.61265182495117188 0.82261890172958374 0.44866219162940979
0.78088432550430298 0.84240895509719849 0.37803485989570618
0.9653390645980835 0.86834144592285156 0.30272451043128967
0.58031159639358521 0.91390097141265869 0.69975322484970093
0.58972448110580444 0.91223806142807007 0.69721454381942749
0.60202145576477051 0.91207373142242432 0.700339674949646
0.65215450525283813 0.91811186075210571 0.71154266595840454
0.70600032806396484 0.9291951060295105 0.69210535287857056
0.7889859676361084 0.94536381959915161 0.6755644679069519
0.90401273965835571 0.96298271417617798 0.63292914628982544
0.020184116438031197 0.039660077542066574 0.13317093253135681
0.12800918519496918 0.048716407269239426 0.13428947329521179
0.30284887552261353 0.038535352796316147 0.13140633702278137
0.53079211711883545 0.041874319314956665 0.13358026742935181
0.71379935741424561 0.10254118591547012 0.14602695405483246
0.86187303066253662 0.18653276562690735 0.1528620570898056
0.98393267393112183 0.24782669544219971 0.16856476664543152
0.0045166616328060627 0.16127648949623108 0.15824994444847107
0.13463281095027924 0.17075534164905548 0.16288486123085022
0.34951665997505188 0.18663378059864044 0.15800510346889496
0.55797535181045532 0.19930087029933929 0.15659363567829132
0.72902882099151611 0.22158525884151459 0.15280871093273163
0.87360274791717529 0.25405144691467285 0.14583916962146759
0.98795419931411743 0.31100943684577942 0.16812203824520111
0.022924745455384254 0.35548031330108643 0.2283729761838913
0.092586800456047058 0.36263883113861084 0.22543571889400482
0.33584010601043701 0.39994838833808899 0.1899857223033905
0.60289078950881958 0.40031787753105164 0.14223474264144897
0.76194560527801514 0.37571007013320923 0.14137506484985352
0.89081507921218872 0.38581836223602295 0.13920409977436066
0.9932861328125 0.41719484329223633 0.16246406733989716
0.060618054121732712 0.52957981824874878 0.31235823035240173
0.087093859910964966 0.5312875509262085 0.30617910623550415
0.23245535790920258 0.54220080375671387 0.28725600242614746
0.51604962348937988 0.58451837301254272 0.21545687317848206
0.76621919870376587 0.59498304128646851 0.13407951593399048
0.89954656362533569 0.5506519079208374 0.13865680992603302
0.99513882398605347 0.5412675142288208 0.17205846309661865
0.11120844632387161 0.66780620813369751 0.39335286617279053
0.15168584883213043 0.66927456855773926 0.38945683836936951
0.25385436415672302 0.66960006952285767 0.38851946592330933
0.43213963508605957 0.69044274091720581 0.3618672788143158
0.66510093212127686 0.7260470986366272 0.29565471410751343
0.8782048225402832 0.74254941940307617 0.21956850588321686
0.9916616678237915 0.71184235811233521 0.23389898240566254
0.30981960892677307 0.79450386762619019 0.51943707466125488
0.34071800112724304 0.79559743404388428 0.52366077899932861
0.40059575438499451 0.79290831089019775 0.52881491184234619
0.49351251125335693 0.80142813920974731 0.5202937126159668
0.62095040082931519 0.82081907987594604 0.49080288410186768
0.7935250997543335 0.84630495309829712 0.43443256616592407
0.95912134647369385 0.86325651407241821 0.39527660608291626
0.59443008899688721 0.91409063339233398 0.71503573656082153
0.60522246360778809 0.91539639234542847 0.71430665254592896
0.62287300825119019 0.91453999280929565 0.71867990493774414
0.6607367992401123 0.91973781585693359 0.72251033782958984
0.71608471870422363 0.93115460872650146 0.71353626251220703
0.79119569063186646 0.94339466094970703 0.69297516345977783
0.9093163013458252 0.96147865056991577 0.65657263994216919
0.0032958535011857748 0.061717614531517029 0.33786669373512268
0.15700848400592804 0.068958163261413574 0.34229457378387451
0.35504031181335449 0.079486861824989319 0.34058073163032532
0.54750287532806396 0.07159753143787384 0.32310914993286133
0.73235619068145752 0.076217696070671082 0.30346229672431946
0.87160944938659668 0.13800352811813354 0.30453577637672424
0.98031026124954224 0.2814573347568512 0.33722215890884399
0 0.19002905488014221 0.35630378127098083
0.14948998391628265 0.19922800362110138 0.36558371782302856
0.38434281945228577 0.22477123141288757 0.3693748414516449
0.57083702087402344 0.22239895164966583 0.34994709491729736
0.73797309398651123 0.22425977885723114 0.32800388336181641
0.8654358983039856 0.28611192107200623 0.33995199203491211
0.97900283336639404 0.35689195990562439 0.35559013485908508
0.01720162108540535 0.38689810037612915 0.38204747438430786
0.19238211214542389 0.39863747358322144 0.39711976051330566
0.39973911643028259 0.41245251893997192 0.40725511312484741
0.58908271789550781 0.41077658534049988 0.38798102736473083
0.74169117212295532 0.40722700953483582 0.36920219659805298
0.87032574415206909 0.4188215434551239 0.35867279767990112
0.98259037733078003 0.45089685916900635 0.36522939801216125
0.2507457435131073 0.55749338865280151 0.44729524850845337
0.31025832891464233 0.56183207035064697 0.45223775506019592
0.3904779851436615 0.55939942598342896 0.44819933176040649
0.56177389621734619 0.58847719430923462 0.41622745990753174
0.7653505802154541 0.58055788278579712 0.38186919689178467
0.88694554567337036 0.55599784851074219 0.37039539217948914
0.98816871643066406 0.56094503402709961 0.36742886900901794
0.34389743208885193 0.685871422290802 0.51979553699493408
0.38905149698257446 0.68646770715713501 0.52359503507614136
0.40793272852897644 0.68349683284759521 0.5042952299118042
0.50079506635665894 0.69344496726989746 0.48959818482398987
0.68569701910018921 0.72795873880386353 0.45136332511901855
0.87554943561553955 0.73380237817764282 0.41175633668899536
0.99115324020385742 0.70834213495254517 0.40376466512680054
0.47486135363578796 0.80144315958023071 0.61715549230575562
0.48016753792762756 0.80096375942230225 0.60895156860351562
0.49170112609863281 0.79978781938552856 0.59852325916290283
0.54847526550292969 0.80084717273712158 0.59770238399505615
0.64635163545608521 0.81772118806838989 0.57859373092651367
0.80188131332397461 0.84466743469238281 0.53844833374023438
0.96712243556976318 0.86403590440750122 0.5052947998046875
0.63330298662185669 0.91586965322494507 0.74388980865478516
0.63905459642410278 0.91768616437911987 0.74352312088012695
0.65312820672988892 0.91795849800109863 0.74422365427017212
0.68373918533325195 0.91847240924835205 0.74977552890777588
0.72830033302307129 0.92732936143875122 0.74698024988174438
0.80343890190124512 0.94426900148391724 0.73077023029327393
0.91267859935760498 0.96317774057388306 0.69917172193527222
0.014663262292742729 0.097269989550113678 0.55649477243423462
0.17943061888217926 0.1088450700044632 0.56035345792770386
0.41242390871047974 0.13824935257434845 0.56939870119094849
0.60502934455871582 0.17638953030109406 0.56344723701477051
0.74315881729125977 0.20043240487575531 0.5237085223197937
0.88600265979766846 0.25418516993522644 0.50162357091903687
0.98931372165679932 0.29460248351097107 0.48368954658508301
0.0056214723736047745 0.2302972674369812 0.56792807579040527
0.19270049035549164 0.2407669723033905 0.57697498798370361
0.43622791767120361 0.2709805965423584 0.5857619047164917
0.61332958936691284 0.29479917883872986 0.57996034622192383
0.75120127201080322 0.30900716781616211 0.54361021518707275
0.88570332527160645 0.33293184638023376 0.51076751947402954
0.98998552560806274 0.35483032464981079 0.49323919415473938
0.0015391032211482525 0.40791475772857666 0.57103139162063599
0.17861422896385193 0.41823214292526245 0.58003085851669312
0.42494693398475647 0.43227246403694153 0.58947145938873291
0.6132013201713562 0.45933666825294495 0.59186404943466187
0.74179190397262573 0.44998329877853394 0.56241220235824585
0.86967068910598755 0.44960471987724304 0.53350365161895752
0.9730028510093689 0.47957435250282288 0.53014659881591797
0.20158177614212036 0.57331925630569458 0.58005321025848389
0.31809502840042114 0.58200299739837646 0.5840880274772644
0.4563809335231781 0.58574026823043823 0.59486770629882812
0.60366439819335938 0.59547442197799683 0.60214877128601074
0.74630963802337646 0.5878257155418396 0.57999193668365479
0.85909819602966309 0.57589578628540039 0.55678892135620117
0.97066938877105713 0.58022379875183105 0.54122769832611084
0.43740740418434143 0.70441949367523193 0.62599927186965942
0.48643919825553894 0.70535695552825928 0.63440179824829102
0.54504555463790894 0.70544487237930298 0.63769125938415527
0.60921007394790649 0.70710641145706177 0.63413697481155396
0.71925204992294312 0.72665071487426758 0.61070084571838379
0.87014728784561157 0.72547924518585205 0.58463060855865479
0.97870206832885742 0.70612072944641113 0.5713660717010498
0.58050322532653809 0.81045067310333252 0.70490002632141113
0.58868175745010376 0.80873596668243408 0.70352888107299805
0.60781955718994141 0.80778533220291138 0.69751280546188354
0.62324410676956177 0.8054814338684082 0.68390458822250366
0.6876150369644165 0.81757271289825439 0.67910110950469971
0.81384718418121338 0.8450615406036377 0.6564062237739563
0.96793824434280396 0.86235815286636353 0.63316816091537476
0.69143503904342651 0.91739779710769653 0.79573231935501099
0.6974601149559021 0.91876077651977539 0.79308062791824341
0.70277112722396851 0.91828668117523193 0.78885352611541748
0.71502125263214111 0.92032963037490845 0.78681474924087524
0.74721622467041016 0.92712926864624023 0.78681778907775879
0.81135815382003784 0.9427911639213562 0.77400738000869751
0.91682606935501099 0.9616621732711792 0.75393164157867432
0.099384188652038574 0.17210517823696136 0.73416578769683838
0.25912615656852722 0.18478851020336151 0.73372942209243774
0.45364558696746826 0.21544367074966431 0.73463255167007446
0.6416555643081665 0.27906477451324463 0.73841226100921631
0.77704286575317383 0.31998401880264282 0.7248682975769043
0.88402122259140015 0.34590977430343628 0.69922381639480591
0.97931391000747681 0.43104332685470581 0.67553108930587769
0.13005083799362183 0.28694483637809753 0.73690921068191528
0.2873416543006897 0.29857757687568665 0.7412949800491333
0.46903488039970398 0.32125717401504517 0.74235481023788452
0.64760768413543701 0.3705132007598877 0.74522382020950317
0.77999913692474365 0.40447741746902466 0.73619401454925537
0.86934518814086914 0.41484791040420532 0.69673305749893188
0.97476023435592651 0.48197013139724731 0.68402057886123657
0.11259248107671738 0.43401062488555908 0.7327728271484375
0.29437118768692017 0.44561919569969177 0.73766988515853882
0.46299803256988525 0.45986875891685486 0.73827469348907471
0.64283287525177002 0.49928063154220581 0.74494415521621704
0.77108174562454224 0.52793747186660767 0.73891317844390869
0.86652064323425293 0.53200995922088623 0.71754652261734009
0.96331572532653809 0.56068634986877441 0.69858920574188232
0.20679159462451935 0.58160948753356934 0.7234005331993103
0.29999876022338867 0.58560162782669067 0.72520619630813599
0.44870480895042419 0.5912555456161499 0.72707843780517578
0.62134355306625366 0.60979223251342773 0.74041002988815308
0.75573432445526123 0.63771539926528931 0.74272996187210083
0.85281729698181152 0.63509279489517212 0.72655540704727173
0.95569491386413574 0.62851732969284058 0.70226699113845825
0.41507431864738464 0.71291887760162354 0.72695934772491455
0.45232632756233215 0.7138480544090271 0.72946459054946899
0.54029691219329834 0.71766448020935059 0.73367577791213989
0.6406129002571106 0.72334057092666626 0.74171149730682373
0.74674028158187866 0.72998780012130737 0.74729949235916138
0.85476332902908325 0.72670435905456543 0.73163598775863647
0.95627987384796143 0.72044879198074341 0.71518158912658691
0.5809054970741272 0.82104289531707764 0.76540172100067139
0.60433167219161987 0.82182526588439941 0.77041441202163696
0.65025454759597778 0.82142406702041626 0.77572900056838989
0.70687234401702881 0.82124572992324829 0.78120177984237671
0.75885629653930664 0.82861125469207764 0.78061836957931519
0.83588039875030518 0.84421461820602417 0.76534819602966309
0.96121114492416382 0.84867632389068604 0.74793517589569092
0.71605896949768066 0.92211198806762695 0.83694636821746826
0.727702796459198 0.92351686954498291 0.83695656061172485
0.74480205774307251 0.92392146587371826 0.83844184875488281
0.76854962110519409 0.92709624767303467 0.84204083681106567
0.78623497486114502 0.93229275941848755 0.83653038740158081
0.83006197214126587 0.94179010391235352 0.82750910520553589
0.9304729700088501 0.96167123317718506 0.81466019153594971
0.29987934231758118 0.29438024759292603 0.86085361242294312
0.39383378624916077 0.30579304695129395 0.85963737964630127
0.5248064398765564 0.33421683311462402 0.85510003566741943
0.67127805948257446 0.38761284947395325 0.8563351035118103
0.80186694860458374 0.44978457689285278 0.85619968175888062
0.9017786979675293 0.48490950465202332 0.84940099716186523
0.96867793798446655 0.5086093544960022 0.81716471910476685
0.34153604507446289 0.37307295203208923 0.86035454273223877
0.41919904947280884 0.38499224185943604 0.86224699020385742
0.53430342674255371 0.40630653500556946 0.85839271545410156
0.6739429235458374 0.44894757866859436 0.85688215494155884
0.79962158203125 0.50846558809280396 0.8567841649055481
0.88856285810470581 0.53344422578811646 0.84229820966720581
0.96398836374282837 0.5501282811164856 0.82589495182037354
0.36659753322601318 0.48779588937759399 0.85445362329483032
0.42436766624450684 0.49661865830421448 0.8555719256401062
0.54347604513168335 0.51560431718826294 0.8543822169303894
0.67716795206069946 0.54582655429840088 0.85390794277191162
0.79570865631103516 0.59209424257278442 0.85558813810348511
0.88682323694229126 0.61512821912765503 0.84934091567993164
0.95944470167160034 0.6239999532699585 0.83737647533416748
0.35398608446121216 0.60388612747192383 0.84356719255447388
0.39138907194137573 0.60744404792785645 0.84462219476699829
0.52545815706253052 0.61857187747955322 0.84605181217193604
0.65878474712371826 0.63963741064071655 0.85125041007995605
0.78286409378051758 0.67401003837585449 0.85570943355560303
0.87554031610488892 0.69142299890518188 0.85298049449920654
0.95405781269073486 0.70018094778060913 0.84358775615692139
0.4169258177280426 0.7197684645652771 0.83674007654190063
0.44172519445419312 0.72072523832321167 0.83844661712646484
0.52328288555145264 0.72347664833068848 0.83765119314193726
0.64168280363082886 0.73113763332366943 0.84176957607269287
0.76162540912628174 0.74547213315963745 0.84875881671905518
0.86821895837783813 0.77199363708496094 0.85328692197799683
0.94948047399520874 0.76961493492126465 0.84479749202728271
0.5659937858581543 0.83147913217544556 0.84277337789535522
0.58633577823638916 0.83294379711151123 0.8450818657875061
0.63192844390869141 0.83486342430114746 0.84701293706893921
0.69817376136779785 0.8371284008026123 0.85167413949966431
0.77303916215896606 0.83888930082321167 0.85454028844833374
0.86031746864318848 0.84901100397109985 0.86160957813262939
0.95677280426025391 0.8510621190071106 0.85516059398651123
0.72042220830917358 0.93297022581100464 0.88548260927200317
0.72440379858016968 0.93342912197113037 0.88483524322509766
0.74996769428253174 0.93412262201309204 0.88699334859848022
0.79344254732131958 0.93732702732086182 0.89374727010726929
0.83260750770568848 0.93978422880172729 0.89513254165649414
0.87358003854751587 0.94608503580093384 0.89478862285614014
0.95199573040008545 0.96338921785354614 0.88841217756271362
0.53124183416366577 0.47122234106063843 0.95977354049682617
0.56791859865188599 0.47831720113754272 0.95784372091293335
0.63642024993896484 0.49183526635169983 0.95175403356552124
0.73292118310928345 0.53501838445663452 0.95062756538391113
0.83134156465530396 0.5870363712310791 0.94905143976211548
0.91695374250411987 0.64136385917663574 0.94733160734176636
0.98983144760131836 0.66225391626358032 0.94261735677719116
0.5479438304901123 0.51998907327651978 0.95782935619354248
0.5819401741027832 0.52233171463012695 0.95916241407394409
0.64799302816390991 0.54048889875411987 0.95446038246154785
0.74008554220199585 0.57604432106018066 0.95075762271881104
0.83177441358566284 0.61659973859786987 0.94869202375411987
0.91591089963912964 0.67036789655685425 0.94602614641189575
0.98756760358810425 0.68116354942321777 0.9407845139503479
0.55212509632110596 0.59046739339828491 0.95319837331771851
0.59053921699523926 0.59519284963607788 0.95488470792770386
0.65962082147598267 0.61307120323181152 0.95251685380935669
0.74436312913894653 0.63717818260192871 0.94989562034606934
0.83223921060562134 0.6678205132484436 0.94783866405487061
0.91433030366897583 0.70818144083023071 0.94683742523193359
0.98375332355499268 0.71533381938934326 0.9446481466293335
0.54218310117721558 0.66989409923553467 0.95036441087722778
0.57980066537857056 0.67476409673690796 0.95067989826202393
0.64243048429489136 0.68381518125534058 0.95012253522872925
0.72757905721664429 0.69792848825454712 0.95012253522872925
0.82451331615447998 0.72680771350860596 0.9505690336227417
0.90758854150772095 0.76019799709320068 0.95035773515701294
0.97725987434387207 0.76623821258544922 0.94697421789169312
0.510353684425354 0.75385421514511108 0.94564902782440186
0.54053419828414917 0.75667917728424072 0.9463876485824585
0.60635143518447876 0.75744903087615967 0.94793963432312012
0.68907785415649414 0.76238733530044556 0.94851076602935791
0.80119335651397705 0.78089600801467896 0.95085889101028442
0.89611291885375977 0.81277573108673096 0.95506304502487183
0.97289896011352539 0.82951664924621582 0.95239716768264771
0.60864365100860596 0.85950100421905518 0.94698083400726318
0.61733114719390869 0.8570328950881958 0.94295799732208252
0.65370607376098633 0.85835003852844238 0.94799244403839111
0.70196741819381714 0.85646861791610718 0.95046329498291016
0.77427726984024048 0.85660445690155029 0.9514039158821106
0.88075840473175049 0.86913120746612549 0.95695477724075317
0.97165024280548096 0.89650535583496094 0.95834392309188843
0.71462500095367432 0.95359951257705688 0.95509350299835205
0.72504043579101562 0.95213443040847778 0.95546472072601318
0.74035930633544922 0.95157742500305176 0.95354515314102173
0.78018760681152344 0.95489370822906494 0.95963388681411743
0.83330541849136353 0.95721584558486938 0.96021348237991333
0.89839118719100952 0.95786911249160767 0.96763396263122559
0.97230273485183716 0.9657171368598938 0.97205126285552979
