films/kodak_t-max_100.cube
# Created by: G'MIC (https://gmic.eu)
TITLE "kodak_t-max_100"
# LUT size
LUT_3D_SIZE 13
# Data domain
DOMAIN_MIN 0.0 0.0 0.0
DOMAIN_MAX 1.0 1.0 1.0
# LUT data points
0.021254191175103188 0.021254191175103188 0.021254191175103188
0.027078457176685333 0.027078457176685333 0.027078457176685333
0.037456691265106201 0.037456691265106201 0.037456691265106201
0.049084443598985672 0.049084443598985672 0.049084443598985672
0.060293685644865036 0.060293685644865036 0.060293685644865036
0.070805341005325317 0.070805341005325317 0.070805341005325317
0.08257787674665451 0.08257787674665451 0.08257787674665451
0.10206563770771027 0.10206563770771027 0.10206563770771027
0.13190850615501404 0.13190850615501404 0.13190850615501404
0.1658797413110733 0.1658797413110733 0.1658797413110733
0.20204305648803711 0.20204305648803711 0.20204305648803711
0.23965397477149963 0.23965397477149963 0.23965397477149963
0.27745610475540161 0.27745610475540161 0.27745610475540161
0.063538089394569397 0.063538089394569397 0.063538089394569397
0.066875085234642029 0.066875085234642029 0.066875085234642029
0.075614064931869507 0.075614064931869507 0.075614064931869507
0.086668886244297028 0.086668886244297028 0.086668886244297028
0.097725659608840942 0.097725659608840942 0.097725659608840942
0.10861265659332275 0.10861265659332275 0.10861265659332275
0.12172998487949371 0.12172998487949371 0.12172998487949371
0.14077939093112946 0.14077939093112946 0.14077939093112946
0.16754128038883209 0.16754128038883209 0.16754128038883209
0.19940680265426636 0.19940680265426636 0.19940680265426636
0.23438622057437897 0.23438622057437897 0.23438622057437897
0.27113378047943115 0.27113378047943115 0.27113378047943115
0.30851870775222778 0.30851870775222778 0.30851870775222778
0.11276119202375412 0.11276119202375412 0.11276119202375412
0.11432377249002457 0.11432377249002457 0.11432377249002457
0.12137796729803085 0.12137796729803085 0.12137796729803085
0.13111825287342072 0.13111825287342072 0.13111825287342072
0.14197549223899841 0.14197549223899841 0.14197549223899841
0.15325124561786652 0.15325124561786652 0.15325124561786652
0.16679699718952179 0.16679699718952179 0.16679699718952179
0.18500936031341553 0.18500936031341553 0.18500936031341553
0.20933130383491516 0.20933130383491516 0.20933130383491516
0.23907333612442017 0.23907333612442017 0.23907333612442017
0.27255100011825562 0.27255100011825562 0.27255100011825562
0.30785486102104187 0.30785486102104187 0.30785486102104187
0.34449365735054016 0.34449365735054016 0.34449365735054016
0.16607269644737244 0.16607269644737244 0.16607269644737244
0.16719284653663635 0.16719284653663635 0.16719284653663635
0.17320027947425842 0.17320027947425842 0.17320027947425842
0.18206647038459778 0.18206647038459778 0.18206647038459778
0.19212335348129272 0.19212335348129272 0.19212335348129272
0.20320342481136322 0.20320342481136322 0.20320342481136322
0.21619218587875366 0.21619218587875366 0.21619218587875366
0.2330019623041153 0.2330019623041153 0.2330019623041153
0.25534975528717041 0.25534975528717041 0.25534975528717041
0.28368818759918213 0.28368818759918213 0.28368818759918213
0.31572270393371582 0.31572270393371582 0.31572270393371582
0.34993734955787659 0.34993734955787659 0.34993734955787659
0.38495418429374695 0.38495418429374695 0.38495418429374695
0.22335720062255859 0.22335720062255859 0.22335720062255859
0.22453510761260986 0.22453510761260986 0.22453510761260986
0.23030334711074829 0.23030334711074829 0.23030334711074829
0.23859456181526184 0.23859456181526184 0.23859456181526184
0.24798628687858582 0.24798628687858582 0.24798628687858582
0.25830262899398804 0.25830262899398804 0.25830262899398804
0.27042552828788757 0.27042552828788757 0.27042552828788757
0.28513786196708679 0.28513786196708679 0.28513786196708679
0.30539986491203308 0.30539986491203308 0.30539986491203308
0.33295702934265137 0.33295702934265137 0.33295702934265137
0.36410728096961975 0.36410728096961975 0.36410728096961975
0.39689141511917114 0.39689141511917114 0.39689141511917114
0.43009847402572632 0.43009847402572632 0.43009847402572632
0.28405305743217468 0.28405305743217468 0.28405305743217468
0.28671637177467346 0.28671637177467346 0.28671637177467346
0.29287493228912354 0.29287493228912354 0.29287493228912354
0.30070441961288452 0.30070441961288452 0.30070441961288452
0.30950796604156494 0.30950796604156494 0.30950796604156494
0.31910800933837891 0.31910800933837891 0.31910800933837891
0.33010947704315186 0.33010947704315186 0.33010947704315186
0.34348583221435547 0.34348583221435547 0.34348583221435547
0.36218094825744629 0.36218094825744629 0.36218094825744629
0.3882598876953125 0.3882598876953125 0.3882598876953125
0.41767266392707825 0.41767266392707825 0.41767266392707825
0.44847255945205688 0.44847255945205688 0.44847255945205688
0.47971156239509583 0.47971156239509583 0.47971156239509583
0.35188800096511841 0.35188800096511841 0.35188800096511841
0.35568505525588989 0.35568505525588989 0.35568505525588989
0.36157119274139404 0.36157119274139404 0.36157119274139404
0.36838552355766296 0.36838552355766296 0.36838552355766296
0.37608194351196289 0.37608194351196289 0.37608194351196289
0.38507536053657532 0.38507536053657532 0.38507536053657532
0.39545813202857971 0.39545813202857971 0.39545813202857971
0.40883800387382507 0.40883800387382507 0.40883800387382507
0.42665556073188782 0.42665556073188782 0.42665556073188782
0.44972109794616699 0.44972109794616699 0.44972109794616699
0.47620391845703125 0.47620391845703125 0.47620391845703125
0.50439894199371338 0.50439894199371338 0.50439894199371338
0.53310716152191162 0.53310716152191162 0.53310716152191162
0.43030527234077454 0.43030527234077454 0.43030527234077454
0.43169188499450684 0.43169188499450684 0.43169188499450684
0.43570172786712646 0.43570172786712646 0.43570172786712646
0.44076171517372131 0.44076171517372131 0.44076171517372131
0.44695541262626648 0.44695541262626648 0.44695541262626648
0.45471221208572388 0.45471221208572388 0.45471221208572388
0.46455216407775879 0.46455216407775879 0.46455216407775879
0.47739115357398987 0.47739115357398987 0.47739115357398987
0.49409699440002441 0.49409699440002441 0.49409699440002441
0.51466858386993408 0.51466858386993408 0.51466858386993408
0.53838092088699341 0.53838092088699341 0.53838092088699341
0.56370800733566284 0.56370800733566284 0.56370800733566284
0.58961731195449829 0.58961731195449829 0.58961731195449829
0.51242756843566895 0.51242756843566895 0.51242756843566895
0.51218235492706299 0.51218235492706299 0.51218235492706299
0.51343673467636108 0.51343673467636108 0.51343673467636108
0.51619428396224976 0.51619428396224976 0.51619428396224976
0.52039414644241333 0.52039414644241333 0.52039414644241333
0.52683115005493164 0.52683115005493164 0.52683115005493164
0.53548163175582886 0.53548163175582886 0.53548163175582886
0.5473250150680542 0.5473250150680542 0.5473250150680542
0.56250673532485962 0.56250673532485962 0.56250673532485962
0.58111399412155151 0.58111399412155151 0.58111399412155151
0.60254454612731934 0.60254454612731934 0.60254454612731934
0.62534427642822266 0.62534427642822266 0.62534427642822266
0.6488039493560791 0.6488039493560791 0.6488039493560791
0.59555566310882568 0.59555566310882568 0.59555566310882568
0.5939139723777771 0.5939139723777771 0.5939139723777771
0.59282034635543823 0.59282034635543823 0.59282034635543823
0.59318315982818604 0.59318315982818604 0.59318315982818604
0.59478378295898438 0.59478378295898438 0.59478378295898438
0.59923523664474487 0.59923523664474487 0.59923523664474487
0.60661596059799194 0.60661596059799194 0.60661596059799194
0.61704528331756592 0.61704528331756592 0.61704528331756592
0.63100117444992065 0.63100117444992065 0.63100117444992065
0.64809024333953857 0.64809024333953857 0.64809024333953857
0.66758817434310913 0.66758817434310913 0.66758817434310913
0.68848925828933716 0.68848925828933716 0.68848925828933716
0.70936334133148193 0.70936334133148193 0.70936334133148193
0.67841732501983643 0.67841732501983643 0.67841732501983643
0.67502611875534058 0.67502611875534058 0.67502611875534058
0.67110222578048706 0.67110222578048706 0.67110222578048706
0.668212890625 0.668212890625 0.668212890625
0.6680569052696228 0.6680569052696228 0.6680569052696228
0.6706731915473938 0.6706731915473938 0.6706731915473938
0.6763572096824646 0.6763572096824646 0.6763572096824646
0.6855243444442749 0.6855243444442749 0.6855243444442749
0.69809979200363159 0.69809979200363159 0.69809979200363159
0.71398669481277466 0.71398669481277466 0.71398669481277466
0.73226428031921387 0.73226428031921387 0.73226428031921387
0.75189924240112305 0.75189924240112305 0.75189924240112305
0.77088123559951782 0.77088123559951782 0.77088123559951782
0.75879365205764771 0.75879365205764771 0.75879365205764771
0.75290191173553467 0.75290191173553467 0.75290191173553467
0.74565213918685913 0.74565213918685913 0.74565213918685913
0.74046260118484497 0.74046260118484497 0.74046260118484497
0.73811233043670654 0.73811233043670654 0.73811233043670654
0.7391669750213623 0.7391669750213623 0.7391669750213623
0.74358713626861572 0.74358713626861572 0.74358713626861572
0.75147825479507446 0.75147825479507446 0.75147825479507446
0.76293587684631348 0.76293587684631348 0.76293587684631348
0.77762532234191895 0.77762532234191895 0.77762532234191895
0.79487591981887817 0.79487591981887817 0.79487591981887817
0.81369161605834961 0.81369161605834961 0.81369161605834961
0.83195710182189941 0.83195710182189941 0.83195710182189941
0.83154922723770142 0.83154922723770142 0.83154922723770142
0.82292068004608154 0.82292068004608154 0.82292068004608154
0.81390327215194702 0.81390327215194702 0.81390327215194702
0.80752354860305786 0.80752354860305786 0.80752354860305786
0.80408167839050293 0.80408167839050293 0.80408167839050293
0.80400413274765015 0.80400413274765015 0.80400413274765015
0.80711936950683594 0.80711936950683594 0.80711936950683594
0.81399518251419067 0.81399518251419067 0.81399518251419067
0.82414615154266357 0.82414615154266357 0.82414615154266357
0.83753246068954468 0.83753246068954468 0.83753246068954468
0.85378909111022949 0.85378909111022949 0.85378909111022949
0.87170875072479248 0.87170875072479248 0.87170875072479248
0.88905268907546997 0.88905268907546997 0.88905268907546997
0.032263092696666718 0.032263092696666718 0.032263092696666718
0.036784961819648743 0.036784961819648743 0.036784961819648743
0.047670386731624603 0.047670386731624603 0.047670386731624603
0.060546349734067917 0.060546349734067917 0.060546349734067917
0.073045440018177032 0.073045440018177032 0.073045440018177032
0.084443323314189911 0.084443323314189911 0.084443323314189911
0.097286045551300049 0.097286045551300049 0.097286045551300049
0.11629699915647507 0.11629699915647507 0.11629699915647507
0.14270083606243134 0.14270083606243134 0.14270083606243134
0.17450694739818573 0.17450694739818573 0.17450694739818573
0.20943255722522736 0.20943255722522736 0.20943255722522736
0.24640743434429169 0.24640743434429169 0.24640743434429169
0.28373309969902039 0.28373309969902039 0.28373309969902039
0.072333544492721558 0.072333544492721558 0.072333544492721558
0.076202303171157837 0.076202303171157837 0.076202303171157837
0.086121805012226105 0.086121805012226105 0.086121805012226105
0.098687432706356049 0.098687432706356049 0.098687432706356049
0.110906682908535 0.110906682908535 0.110906682908535
0.12207411229610443 0.12207411229610443 0.12207411229610443
0.13502281904220581 0.13502281904220581 0.13502281904220581
0.15304410457611084 0.15304410457611084 0.15304410457611084
0.1776493638753891 0.1776493638753891 0.1776493638753891
0.20788037776947021 0.20788037776947021 0.20788037776947021
0.24180364608764648 0.24180364608764648 0.24180364608764648
0.27788248658180237 0.27788248658180237 0.27788248658180237
0.31495031714439392 0.31495031714439392 0.31495031714439392
0.12009299546480179 0.12009299546480179 0.12009299546480179
0.12293319404125214 0.12293319404125214 0.12293319404125214
0.13119202852249146 0.13119202852249146 0.13119202852249146
0.14250949025154114 0.14250949025154114 0.14250949025154114
0.15408201515674591 0.15408201515674591 0.15408201515674591
0.16552461683750153 0.16552461683750153 0.16552461683750153
0.17860406637191772 0.17860406637191772 0.17860406637191772
0.19578644633293152 0.19578644633293152 0.19578644633293152
0.21882236003875732 0.21882236003875732 0.21882236003875732
0.24743370711803436 0.24743370711803436 0.24743370711803436
0.27993744611740112 0.27993744611740112 0.27993744611740112
0.31483152508735657 0.31483152508735657 0.31483152508735657
0.35077556967735291 0.35077556967735291 0.35077556967735291
0.17314760386943817 0.17314760386943817 0.17314760386943817
0.1751205176115036 0.1751205176115036 0.1751205176115036
0.18219044804573059 0.18219044804573059 0.18219044804573059
0.19202046096324921 0.19202046096324921 0.19202046096324921
0.20274944603443146 0.20274944603443146 0.20274944603443146
0.21396456658840179 0.21396456658840179 0.21396456658840179
0.22687302529811859 0.22687302529811859 0.22687302529811859
0.24330222606658936 0.24330222606658936 0.24330222606658936
0.26486960053443909 0.26486960053443909 0.26486960053443909
0.29213687777519226 0.29213687777519226 0.29213687777519226
0.3231925368309021 0.3231925368309021 0.3231925368309021
0.35663458704948425 0.35663458704948425 0.35663458704948425
0.39118897914886475 0.39118897914886475 0.39118897914886475
0.23054835200309753 0.23054835200309753 0.23054835200309753
0.23229178786277771 0.23229178786277771 0.23229178786277771
0.23853784799575806 0.23853784799575806 0.23853784799575806
0.24760131537914276 0.24760131537914276 0.24760131537914276
0.25732019543647766 0.25732019543647766 0.25732019543647766
0.26788833737373352 0.26788833737373352 0.26788833737373352
0.28007450699806213 0.28007450699806213 0.28007450699806213
0.29535883665084839 0.29535883665084839 0.29535883665084839
0.31554457545280457 0.31554457545280457 0.31554457545280457
0.34157353639602661 0.34157353639602661 0.34157353639602661
0.3713754415512085 0.3713754415512085 0.3713754415512085
0.40332642197608948 0.40332642197608948 0.40332642197608948
0.4362703263759613 0.4362703263759613 0.4362703263759613
0.29249382019042969 0.29249382019042969 0.29249382019042969
0.29468569159507751 0.29468569159507751 0.29468569159507751
0.30081412196159363 0.30081412196159363 0.30081412196159363
0.30878326296806335 0.30878326296806335 0.30878326296806335
0.317678302526474 0.317678302526474 0.317678302526474
0.32767477631568909 0.32767477631568909 0.32767477631568909
0.33902457356452942 0.33902457356452942 0.33902457356452942
0.35326579213142395 0.35326579213142395 0.35326579213142395
0.37217742204666138 0.37217742204666138 0.37217742204666138
0.3965555727481842 0.3965555727481842 0.3965555727481842
0.42467102408409119 0.42467102408409119 0.42467102408409119
0.45456153154373169 0.45456153154373169 0.45456153154373169
0.48537963628768921 0.48537963628768921 0.48537963628768921
0.36116376519203186 0.36116376519203186 0.36116376519203186
0.36348870396614075 0.36348870396614075 0.36348870396614075
0.3688378632068634 0.3688378632068634 0.3688378632068634
0.37575948238372803 0.37575948238372803 0.37575948238372803
0.38360536098480225 0.38360536098480225 0.38360536098480225
0.39307597279548645 0.39307597279548645 0.39307597279548645
0.4033922553062439 0.4033922553062439 0.4033922553062439
0.41688549518585205 0.41688549518585205 0.41688549518585205
0.43466547131538391 0.43466547131538391 0.43466547131538391
0.45685663819313049 0.45685663819313049 0.45685663819313049
0.48237490653991699 0.48237490653991699 0.48237490653991699
0.50985527038574219 0.50985527038574219 0.50985527038574219
0.53814530372619629 0.53814530372619629 0.53814530372619629
0.43757295608520508 0.43757295608520508 0.43757295608520508
0.43868115544319153 0.43868115544319153 0.43868115544319153
0.44242390990257263 0.44242390990257263 0.44242390990257263
0.44752025604248047 0.44752025604248047 0.44752025604248047
0.4538348913192749 0.4538348913192749 0.4538348913192749
0.46155628561973572 0.46155628561973572 0.46155628561973572
0.47149538993835449 0.47149538993835449 0.47149538993835449
0.48414403200149536 0.48414403200149536 0.48414403200149536
0.50048333406448364 0.50048333406448364 0.50048333406448364
0.52064114809036255 0.52064114809036255 0.52064114809036255
0.54362612962722778 0.54362612962722778 0.54362612962722778
0.56844580173492432 0.56844580173492432 0.56844580173492432
0.59410911798477173 0.59410911798477173 0.59410911798477173
0.51828807592391968 0.51828807592391968 0.51828807592391968
0.51805746555328369 0.51805746555328369 0.51805746555328369
0.51952886581420898 0.51952886581420898 0.51952886581420898
0.52237319946289062 0.52237319946289062 0.52237319946289062
0.52670860290527344 0.52670860290527344 0.52670860290527344
0.53301918506622314 0.53301918506622314 0.53301918506622314
0.54162830114364624 0.54162830114364624 0.54162830114364624
0.55321192741394043 0.55321192741394043 0.55321192741394043
0.56813561916351318 0.56813561916351318 0.56813561916351318
0.58624261617660522 0.58624261617660522 0.58624261617660522
0.60705715417861938 0.60705715417861938 0.60705715417861938
0.62939786911010742 0.62939786911010742 0.62939786911010742
0.65247970819473267 0.65247970819473267 0.65247970819473267
0.60013163089752197 0.60013163089752197 0.60013163089752197
0.59874671697616577 0.59874671697616577 0.59874671697616577
0.597972571849823 0.597972571849823 0.597972571849823
0.59823077917098999 0.59823077917098999 0.59823077917098999
0.60058212280273438 0.60058212280273438 0.60058212280273438
0.60480022430419922 0.60480022430419922 0.60480022430419922
0.61212253570556641 0.61212253570556641 0.61212253570556641
0.62241584062576294 0.62241584062576294 0.62241584062576294
0.63593131303787231 0.63593131303787231 0.63593131303787231
0.65238428115844727 0.65238428115844727 0.65238428115844727
0.67129558324813843 0.67129558324813843 0.67129558324813843
0.69171249866485596 0.69171249866485596 0.69171249866485596
0.71244198083877563 0.71244198083877563 0.71244198083877563
0.68100011348724365 0.68100011348724365 0.68100011348724365
0.67842048406600952 0.67842048406600952 0.67842048406600952
0.6752811074256897 0.6752811074256897 0.6752811074256897
0.67330795526504517 0.67330795526504517 0.67330795526504517
0.67329806089401245 0.67329806089401245 0.67329806089401245
0.67587900161743164 0.67587900161743164 0.67587900161743164
0.68151396512985229 0.68151396512985229 0.68151396512985229
0.69044101238250732 0.69044101238250732 0.69044101238250732
0.70268219709396362 0.70268219709396362 0.70268219709396362
0.71781933307647705 0.71781933307647705 0.71781933307647705
0.73525911569595337 0.73525911569595337 0.73525911569595337
0.75425320863723755 0.75425320863723755 0.75425320863723755
0.77262395620346069 0.77262395620346069 0.77262395620346069
0.75825423002243042 0.75825423002243042 0.75825423002243042
0.75456559658050537 0.75456559658050537 0.75456559658050537
0.74912625551223755 0.74912625551223755 0.74912625551223755
0.74498730897903442 0.74498730897903442 0.74498730897903442
0.74316954612731934 0.74316954612731934 0.74316954612731934
0.74430853128433228 0.74430853128433228 0.74430853128433228
0.7486768364906311 0.7486768364906311 0.7486768364906311
0.75623559951782227 0.75623559951782227 0.75623559951782227
0.76713311672210693 0.76713311672210693 0.76713311672210693
0.78101694583892822 0.78101694583892822 0.78101694583892822
0.79761874675750732 0.79761874675750732 0.79761874675750732
0.81484568119049072 0.81484568119049072 0.81484568119049072
0.8321458101272583 0.8321458101272583 0.8321458101272583
0.82845205068588257 0.82845205068588257 0.82845205068588257
0.82367086410522461 0.82367086410522461 0.82367086410522461
0.81698060035705566 0.81698060035705566 0.81698060035705566
0.81177866458892822 0.81177866458892822 0.81177866458892822
0.80884772539138794 0.80884772539138794 0.80884772539138794
0.80897104740142822 0.80897104740142822 0.80897104740142822
0.81210023164749146 0.81210023164749146 0.81210023164749146
0.81869053840637207 0.81869053840637207 0.81869053840637207
0.82830613851547241 0.82830613851547241 0.82830613851547241
0.84088140726089478 0.84088140726089478 0.84088140726089478
0.85591322183609009 0.85591322183609009 0.85591322183609009
0.87223577499389648 0.87223577499389648 0.87223577499389648
0.88771700859069824 0.88771700859069824 0.88771700859069824
0.047593031078577042 0.047593031078577042 0.047593031078577042
0.052575219422578812 0.052575219422578812 0.052575219422578812
0.064023904502391815 0.064023904502391815 0.064023904502391815
0.079060062766075134 0.079060062766075134 0.079060062766075134
0.093214608728885651 0.093214608728885651 0.093214608728885651
0.10470300167798996 0.10470300167798996 0.10470300167798996
0.11735996603965759 0.11735996603965759 0.11735996603965759
0.1352047324180603 0.1352047324180603 0.1352047324180603
0.15878826379776001 0.15878826379776001 0.15878826379776001
0.18808899819850922 0.18808899819850922 0.18808899819850922
0.22132579982280731 0.22132579982280731 0.22132579982280731
0.25712856650352478 0.25712856650352478 0.25712856650352478
0.29407414793968201 0.29407414793968201 0.29407414793968201
0.086747080087661743 0.086747080087661743 0.086747080087661743
0.091462843120098114 0.091462843120098114 0.091462843120098114
0.10266279429197311 0.10266279429197311 0.10266279429197311
0.11770743876695633 0.11770743876695633 0.11770743876695633
0.13162210583686829 0.13162210583686829 0.13162210583686829
0.14243294298648834 0.14243294298648834 0.14243294298648834
0.15434993803501129 0.15434993803501129 0.15434993803501129
0.17084971070289612 0.17084971070289612 0.17084971070289612
0.19355133175849915 0.19355133175849915 0.19355133175849915
0.22153793275356293 0.22153793275356293 0.22153793275356293
0.25383269786834717 0.25383269786834717 0.25383269786834717
0.28877994418144226 0.28877994418144226 0.28877994418144226
0.32515859603881836 0.32515859603881836 0.32515859603881836
0.13364191353321075 0.13364191353321075 0.13364191353321075
0.13738247752189636 0.13738247752189636 0.13738247752189636
0.14701823890209198 0.14701823890209198 0.14701823890209198
0.16006587445735931 0.16006587445735931 0.16006587445735931
0.17260020971298218 0.17260020971298218 0.17260020971298218
0.18397693336009979 0.18397693336009979 0.18397693336009979
0.19611312448978424 0.19611312448978424 0.19611312448978424
0.21255137026309967 0.21255137026309967 0.21255137026309967
0.233997642993927 0.233997642993927 0.233997642993927
0.26082819700241089 0.26082819700241089 0.26082819700241089
0.29192668199539185 0.29192668199539185 0.29192668199539185
0.32558754086494446 0.32558754086494446 0.32558754086494446
0.36080607771873474 0.36080607771873474 0.36080607771873474
0.18621675670146942 0.18621675670146942 0.18621675670146942
0.18912528455257416 0.18912528455257416 0.18912528455257416
0.1968829482793808 0.1968829482793808 0.1968829482793808
0.20759417116641998 0.20759417116641998 0.20759417116641998
0.21887670457363129 0.21887670457363129 0.21887670457363129
0.23034577071666718 0.23034577071666718 0.23034577071666718
0.24295708537101746 0.24295708537101746 0.24295708537101746
0.25893032550811768 0.25893032550811768 0.25893032550811768
0.27957788109779358 0.27957788109779358 0.27957788109779358
0.30536511540412903 0.30536511540412903 0.30536511540412903
0.33480352163314819 0.33480352163314819 0.33480352163314819
0.36712434887886047 0.36712434887886047 0.36712434887886047
0.40094783902168274 0.40094783902168274 0.40094783902168274
0.2439153641462326 0.2439153641462326 0.2439153641462326
0.24596238136291504 0.24596238136291504 0.24596238136291504
0.25239983201026917 0.25239983201026917 0.25239983201026917
0.26147055625915527 0.26147055625915527 0.26147055625915527
0.27156993746757507 0.27156993746757507 0.27156993746757507
0.28254377841949463 0.28254377841949463 0.28254377841949463
0.29500788450241089 0.29500788450241089 0.29500788450241089
