films/kodak_portra_400_vc.cube
# Created by: G'MIC (https://gmic.eu)
TITLE "kodak_portra_400_vc"
# LUT size
LUT_3D_SIZE 7
# Data domain
DOMAIN_MIN 0.0 0.0 0.0
DOMAIN_MAX 1.0 1.0 1.0
# LUT data points
0.026607124134898186 0.047914661467075348 0.055304672569036484
0.13492259383201599 0.061626791954040527 0.050922349095344543
0.33032324910163879 0.072419293224811554 0.03435027226805687
0.56789875030517578 0.064251422882080078 0.0065397224389016628
0.76052600145339966 0.084778755903244019 0
0.89011585712432861 0.13975799083709717 0
0.98701000213623047 0.20135004818439484 0
0.0021794338244944811 0.15258322656154633 0.081916466355323792
0.10527044534683228 0.168021559715271 0.067048855125904083
0.36820253729820251 0.20005573332309723 0.018609648570418358
0.61820715665817261 0.20403294265270233 0.00078914867481216788
0.78860759735107422 0.21238440275192261 0
0.9079398512840271 0.23886187374591827 0
0.99519354104995728 0.27792534232139587 0
0 0.34288802742958069 0.13401947915554047
0.024444565176963806 0.3479180634021759 0.13404877483844757
0.30961212515830994 0.40339186787605286 0.080964811146259308
0.63787657022476196 0.42907387018203735 0.003480574581772089
0.81052190065383911 0.3852066695690155 0
0.92237246036529541 0.37471497058868408 0
0.99859213829040527 0.38617175817489624 0
0.0023611180949956179 0.54003894329071045 0.22120034694671631
0.016740940511226654 0.53679877519607544 0.22075730562210083
0.21462710201740265 0.55208200216293335 0.2024589478969574
0.52955305576324463 0.58787482976913452 0.12122754752635956
0.76824259757995605 0.59932065010070801 0.013310899958014488
0.91585779190063477 0.56076288223266602 0
0.99769830703735352 0.52139222621917725 0
0.12420030683279037 0.67508947849273682 0.33167281746864319
0.16236200928688049 0.67258012294769287 0.32682445645332336
0.29082420468330383 0.67317914962768555 0.32576665282249451
0.4755932092666626 0.6930961012840271 0.30093616247177124
0.67073714733123779 0.71728771924972534 0.24642567336559296
0.86715912818908691 0.7375025749206543 0.15187788009643555
0.99242740869522095 0.70541536808013916 0.046331383287906647
0.3648521900177002 0.79636722803115845 0.48256441950798035
0.38515931367874146 0.7943306565284729 0.47624349594116211
0.44710627198219299 0.7904781699180603 0.48050260543823242
0.54325002431869507 0.80030620098114014 0.48146930336952209
0.65581262111663818 0.81327909231185913 0.46398529410362244
0.79157352447509766 0.83245337009429932 0.42983153462409973
0.94270968437194824 0.84294742345809937 0.36472156643867493
0.6107979416847229 0.9084811806678772 0.68027216196060181
0.62478542327880859 0.907970130443573 0.68382948637008667
0.64286822080612183 0.90264600515365601 0.68249285221099854
0.68950998783111572 0.90861815214157104 0.69541436433792114
0.74198716878890991 0.9177708625793457 0.69037747383117676
0.81561970710754395 0.92835670709609985 0.66906088590621948
0.91550946235656738 0.94483578205108643 0.65692269802093506
0.0083199292421340942 0.057033658027648926 0.1714228093624115
0.12928560376167297 0.058878686279058456 0.17309263348579407
0.33153024315834045 0.033410720527172089 0.15991190075874329
0.57402247190475464 0.025197437033057213 0.14886930584907532
0.76681983470916748 0.045305453240871429 0.11829928308725357
0.89139461517333984 0.11967015266418457 0.089048139750957489
0.99341088533401489 0.19565843045711517 0.050133123993873596
0.00050177483353763819 0.17974428832530975 0.19474875926971436
0.13419494032859802 0.18599618971347809 0.20104365050792694
0.3757040798664093 0.19316504895687103 0.18355566263198853
0.61307418346405029 0.19215169548988342 0.16266871988773346
0.77667742967605591 0.2051595151424408 0.12730047106742859
0.90155249834060669 0.23027688264846802 0.091882742941379547
0.9949575662612915 0.26708763837814331 0.042829118669033051
0.00058620679192245007 0.38500094413757324 0.25320315361022949
0.11701837927103043 0.38510817289352417 0.25826242566108704
0.36629721522331238 0.4183441698551178 0.23140181601047516
0.64812588691711426 0.4174349308013916 0.16522100567817688
0.8037034273147583 0.38554573059082031 0.11114384979009628
0.91853374242782593 0.37559008598327637 0.067424416542053223
0.99930006265640259 0.38469132781028748 0.028144761919975281
0.015077224001288414 0.5635715126991272 0.31085431575775146
0.140109583735466 0.55966615676879883 0.31543219089508057
0.31181854009628296 0.55967813730239868 0.30512785911560059
0.55020773410797119 0.58947932720184326 0.26298654079437256
0.77296078205108643 0.5996817946434021 0.1771073043346405
0.91847950220108032 0.55171936750411987 0.093308798968791962
0.99752426147460938 0.52389037609100342 0.032590873539447784
0.16825693845748901 0.6900520920753479 0.3910558819770813
0.24145655333995819 0.68515563011169434 0.39357677102088928
0.35193350911140442 0.67680031061172485 0.39625099301338196
0.50108671188354492 0.69428396224975586 0.37910890579223633
0.68382030725479126 0.72160106897354126 0.34282425045967102
0.86660337448120117 0.73539954423904419 0.28113290667533875
0.99188357591629028 0.70386523008346558 0.16619616746902466
0.39838966727256775 0.80327373743057251 0.51532113552093506
0.42583173513412476 0.79979002475738525 0.52091926336288452
0.47849088907241821 0.79434657096862793 0.52610880136489868
0.5557742714881897 0.80033165216445923 0.52232718467712402
0.66282492876052856 0.81323772668838501 0.50769418478012085
0.80053585767745972 0.83387058973312378 0.48596769571304321
0.94954842329025269 0.84786027669906616 0.45025089383125305
0.61920428276062012 0.91033589839935303 0.69210779666900635
0.63192296028137207 0.90914905071258545 0.6960567831993103
0.65482199192047119 0.90615451335906982 0.70181310176849365
0.68911278247833252 0.90823233127593994 0.70583117008209229
0.74593424797058105 0.91693782806396484 0.70491242408752441
0.82178598642349243 0.92957240343093872 0.6926581859588623
0.91874903440475464 0.94366711378097534 0.67155206203460693
0 0.075828269124031067 0.37115746736526489
0.10392589122056961 0.08125615119934082 0.37459665536880493
0.35631433129310608 0.062667533755302429 0.37888661026954651
0.60595786571502686 0.018208328634500504 0.35867792367935181
0.79305523633956909 0.0096271289512515068 0.30178573727607727
0.90499007701873779 0.052727613598108292 0.27329915761947632
0.99297767877578735 0.18074247241020203 0.266510009765625
1.5438305126735941e-05 0.21374936401844025 0.38720649480819702
0.1061498299241066 0.21413186192512512 0.39695537090301514
0.3920346200466156 0.22231914103031158 0.40469032526016235
0.63490140438079834 0.20755738019943237 0.38190418481826782
0.78445756435394287 0.16263049840927124 0.32822847366333008
0.89264428615570068 0.2235015332698822 0.30369973182678223
0.99141806364059448 0.28435021638870239 0.28069627285003662
0.0025088142137974501 0.42455568909645081 0.4209829568862915
0.15712541341781616 0.43234297633171082 0.43215808272361755
0.42647090554237366 0.43353912234306335 0.43647921085357666
0.64530038833618164 0.4153037965297699 0.39718717336654663
0.77919936180114746 0.39934435486793518 0.35671159625053406
0.89275729656219482 0.3968452513217926 0.32380467653274536
0.99316072463989258 0.40486624836921692 0.28369268774986267
0.23527996242046356 0.59736377000808716 0.47343313694000244
0.32978406548500061 0.59914374351501465 0.47111514210700989
0.44527432322502136 0.5847783088684082 0.47097915410995483
0.59338486194610596 0.599109947681427 0.4470183253288269
0.77737987041473389 0.59256410598754883 0.40023228526115417
0.90705376863479614 0.55548804998397827 0.34581565856933594
0.99615949392318726 0.53546810150146484 0.29329800605773926
0.39682847261428833 0.70819509029388428 0.51937985420227051
0.42162004113197327 0.70531350374221802 0.52037346363067627
0.46746748685836792 0.69676178693771362 0.51218682527542114
0.56192290782928467 0.70446288585662842 0.50810497999191284
0.70340019464492798 0.72890317440032959 0.48525086045265198
0.86665743589401245 0.72759342193603516 0.43893599510192871
0.99130403995513916 0.70018625259399414 0.37146678566932678
0.48877885937690735 0.80942332744598389 0.59379416704177856
0.50670552253723145 0.80668646097183228 0.59596019983291626
0.54329907894134521 0.80303651094436646 0.59868115186691284
0.6022028923034668 0.80389159917831421 0.60004931688308716
0.68835186958312988 0.81427443027496338 0.5922473669052124
0.80884701013565063 0.83290237188339233 0.57128679752349854
0.94451737403869629 0.84264653921127319 0.53886812925338745
0.63693112134933472 0.90928691625595093 0.72083646059036255
0.64352679252624512 0.90938180685043335 0.71863806247711182
0.67661935091018677 0.91006433963775635 0.72937345504760742
0.71011793613433838 0.90857845544815063 0.73502886295318604
0.76147753000259399 0.91421663761138916 0.7366454005241394
0.82856303453445435 0.92916440963745117 0.72641688585281372
0.92088764905929565 0.9441942572593689 0.71332013607025146
0 0.11605183035135269 0.56780719757080078
0.040322113782167435 0.11948198825120926 0.58239644765853882
0.36592558026313782 0.13078735768795013 0.589458167552948
0.61876988410949707 0.1166740283370018 0.59026384353637695
0.78976058959960938 0.12199343740940094 0.55286091566085815
0.91886311769485474 0.18431311845779419 0.49435955286026001
0.99746447801589966 0.16601859033107758 0.44915801286697388
0 0.24064600467681885 0.58963358402252197
0.092770852148532867 0.246699258685112 0.59570026397705078
0.39835098385810852 0.264497309923172 0.60358375310897827
0.63193273544311523 0.27419981360435486 0.6005483865737915
0.79323887825012207 0.29285389184951782 0.56661218404769897
0.91062021255493164 0.30093306303024292 0.5096248984336853
0.99736744165420532 0.31072673201560974 0.46813157200813293
0.00048065185546875 0.43744885921478271 0.59512937068939209
0.13542374968528748 0.44250959157943726 0.60052752494812012
0.42642325162887573 0.44429275393486023 0.60797774791717529
0.6324152946472168 0.46214810013771057 0.60486233234405518
0.77672684192657471 0.46049812436103821 0.57475179433822632
0.89425885677337646 0.43233680725097656 0.52120685577392578
0.99133479595184326 0.41828355193138123 0.47518938779830933
0.19368648529052734 0.6077386736869812 0.6048961877822876
0.3207550048828125 0.6130974292755127 0.60923671722412109
0.48470526933670044 0.61126536130905151 0.61262023448944092
0.62634509801864624 0.60984188318252563 0.61248058080673218
0.76647031307220459 0.59677582979202271 0.58328509330749512
0.88250482082366943 0.570964515209198 0.54027795791625977
0.98393571376800537 0.55809265375137329 0.49657490849494934
0.44230541586875916 0.72982776165008545 0.63732481002807617
0.49745351076126099 0.73284679651260376 0.6419796347618103
0.57028710842132568 0.726165771484375 0.64677035808563232
0.63747477531433105 0.72010719776153564 0.64215338230133057
0.72600656747817993 0.72769159078598022 0.62511873245239258
0.87061452865600586 0.72080832719802856 0.58694863319396973
0.98806113004684448 0.69798421859741211 0.5360722541809082
0.58211231231689453 0.82088923454284668 0.69438892602920532
0.59370893239974976 0.82068383693695068 0.69438117742538452
0.61962169408798218 0.81477302312850952 0.69022285938262939
0.65038418769836426 0.81049340963363647 0.6806340217590332
0.71494030952453613 0.81443929672241211 0.68091863393783569
0.82272005081176758 0.83455032110214233 0.67333567142486572
0.94846117496490479 0.8385930061340332 0.64051306247711182
0.67977094650268555 0.91241586208343506 0.77133625745773315
0.68693304061889648 0.91306835412979126 0.77073496580123901
0.70615726709365845 0.91187602281570435 0.77117514610290527
0.72729361057281494 0.91181468963623047 0.7693677544593811
0.76585793495178223 0.91210579872131348 0.76948308944702148
0.84086567163467407 0.9291682243347168 0.76990664005279541
0.92599833011627197 0.94212281703948975 0.757976233959198
0 0.17935460805892944 0.72577583789825439
0.087178908288478851 0.18178825080394745 0.73445212841033936
0.35921722650527954 0.20150764286518097 0.73868304491043091
0.60067695379257202 0.23614925146102905 0.74221259355545044
0.7674441933631897 0.25977069139480591 0.73034489154815674
0.89420008659362793 0.30969357490539551 0.70319086313247681
0.99085575342178345 0.38939878344535828 0.67149776220321655
7.1955662861000746e-05 0.27918031811714172 0.74016648530960083
0.096194863319396973 0.28672760725021362 0.74285000562667847
0.39618986845016479 0.30664354562759399 0.74129903316497803
0.61100959777832031 0.34077861905097961 0.74130868911743164
0.77121090888977051 0.37036880850791931 0.73675388097763062
0.88926029205322266 0.39567181468009949 0.70915704965591431
0.98985999822616577 0.46629783511161804 0.68200868368148804
0.076837383210659027 0.46157127618789673 0.73453789949417114
0.23830637335777283 0.46050259470939636 0.73529660701751709
0.42816653847694397 0.45727664232254028 0.73689472675323486
0.61683326959609985 0.4874626100063324 0.74141889810562134
0.76560503244400024 0.50985944271087646 0.73952740430831909
0.88072746992111206 0.525837242603302 0.72308152914047241
0.98173969984054565 0.54050791263580322 0.68472224473953247
0.15000550448894501 0.59803295135498047 0.72337418794631958
0.29517805576324463 0.60100644826889038 0.72430384159088135
0.45229479670524597 0.60209172964096069 0.72671914100646973
0.61497050523757935 0.61362576484680176 0.73549503087997437
0.75234687328338623 0.63166719675064087 0.73844248056411743
0.86447930335998535 0.63179880380630493 0.72169888019561768
0.97300642728805542 0.61184746026992798 0.68153661489486694
0.4120086133480072 0.73308384418487549 0.73480266332626343
0.4626462459564209 0.73576569557189941 0.73687106370925903
0.54491102695465088 0.73473691940307617 0.7400328516960144
0.64449977874755859 0.73409831523895264 0.74110978841781616
0.7512814998626709 0.73480582237243652 0.74383878707885742
0.8612019419670105 0.72926819324493408 0.72414553165435791
0.97217124700546265 0.705424964427948 0.68684870004653931
0.5847848653793335 0.83683234453201294 0.76764553785324097
0.61409574747085571 0.83876192569732666 0.77209204435348511
0.65529292821884155 0.8337702751159668 0.77399086952209473
0.71140027046203613 0.82805383205413818 0.77550864219665527
0.7627374529838562 0.82581478357315063 0.77117139101028442
0.84380316734313965 0.83843690156936646 0.76651489734649658
0.95626157522201538 0.839557945728302 0.74225378036499023
0.70478427410125732 0.9253004789352417 0.82377082109451294
0.72183233499526978 0.92618709802627563 0.82828861474990845
0.7440333366394043 0.92280524969100952 0.82884293794631958
0.76776844263076782 0.92502647638320923 0.82553708553314209
0.7963595986366272 0.92167192697525024 0.82005071640014648
0.84929448366165161 0.92762917280197144 0.81978034973144531
0.94028240442276001 0.94871670007705688 0.81777536869049072
0.04661954939365387 0.27698472142219543 0.85116255283355713
0.21540677547454834 0.28531739115715027 0.85049241781234741
0.41584262251853943 0.30261015892028809 0.85081964731216431
0.59740394353866577 0.34298059344291687 0.84890615940093994
0.75256443023681641 0.40232944488525391 0.84666365385055542
0.8799433708190918 0.43709474802017212 0.84352320432662964
0.98072260618209839 0.46347981691360474 0.82553952932357788
0.13011293113231659 0.35950544476509094 0.85169428586959839
0.23293229937553406 0.36494848132133484 0.85133171081542969
0.44342643022537231 0.3822837769985199 0.84871339797973633
0.60958242416381836 0.41565224528312683 0.84797698259353638
0.75583952665328979 0.47125205397605896 0.84534400701522827
0.87444281578063965 0.49376082420349121 0.83991247415542603
0.97501426935195923 0.51386243104934692 0.82520186901092529
0.2980036735534668 0.49783027172088623 0.84373021125793457
0.34571915864944458 0.4901009202003479 0.84486085176467896
0.47504702210426331 0.49877870082855225 0.84465861320495605
0.62310111522674561 0.52554750442504883 0.8450513482093811
0.75619679689407349 0.56463253498077393 0.84457004070281982
0.86908537149429321 0.58376020193099976 0.84020084142684937
0.96470552682876587 0.59289491176605225 0.8278735876083374
0.29762908816337585 0.6127205491065979 0.83088546991348267
0.37633299827575684 0.61485236883163452 0.83110696077346802
0.50143295526504517 0.62088537216186523 0.83356881141662598
0.62669527530670166 0.62707537412643433 0.83886128664016724
0.75185340642929077 0.65442979335784912 0.84260779619216919
0.86354023218154907 0.67169314622879028 0.84436380863189697
0.96013939380645752 0.68569481372833252 0.83779871463775635
0.38273128867149353 0.72645813226699829 0.8287358283996582
0.42283573746681213 0.72658759355545044 0.82853919267654419
0.50264459848403931 0.72593408823013306 0.82842957973480225
0.61361128091812134 0.72718608379364014 0.82940399646759033
0.74205183982849121 0.73730313777923584 0.83730077743530273
0.85549259185791016 0.75816458463668823 0.84298479557037354
0.95434474945068359 0.76132684946060181 0.83428031206130981
0.55504924058914185 0.84001755714416504 0.84328317642211914
0.58125275373458862 0.84097850322723389 0.84437441825866699
0.62242132425308228 0.84029000997543335 0.84367460012435913
0.6959417462348938 0.84063291549682617 0.85018825531005859
0.77421599626541138 0.83613252639770508 0.85026013851165771
0.85875821113586426 0.84094917774200439 0.85193377733230591
0.95966655015945435 0.83600181341171265 0.83450907468795776
0.70504510402679443 0.9388236403465271 0.87777149677276611
0.71597349643707275 0.93945443630218506 0.87985801696777344
0.73737984895706177 0.93834441900253296 0.88299500942230225
0.78593665361404419 0.9397546648979187 0.88392657041549683
0.83266472816467285 0.94020801782608032 0.88319849967956543
0.87628567218780518 0.93824589252471924 0.88021314144134521
0.95868778228759766 0.95288562774658203 0.88275468349456787
0.41356769204139709 0.46293208003044128 0.94776064157485962
0.47156736254692078 0.47248965501785278 0.9473717212677002
0.555206298828125 0.4818328320980072 0.94485759735107422
0.66488653421401978 0.51610380411148071 0.94214522838592529
0.77637505531311035 0.55337309837341309 0.93774282932281494
0.87999647855758667 0.60555756092071533 0.93542206287384033
0.97475564479827881 0.62223261594772339 0.9344409704208374
0.44114875793457031 0.51133197546005249 0.9457811713218689
0.49563777446746826 0.51926970481872559 0.9468456506729126
0.56797045469284058 0.52509832382202148 0.94317960739135742
0.6703529953956604 0.55378752946853638 0.94049739837646484
0.77824991941452026 0.5856596827507019 0.93794393539428711
0.87950402498245239 0.63218265771865845 0.93589627742767334
0.97326672077178955 0.6454893946647644 0.93112879991531372
0.47573482990264893 0.58527332544326782 0.94066858291625977
0.51064139604568481 0.5898507833480835 0.94163745641708374
0.58288741111755371 0.59958255290985107 0.94036853313446045
0.67855626344680786 0.61725884675979614 0.93830692768096924
0.77929127216339111 0.6402515172958374 0.93548929691314697
0.8806229829788208 0.67509669065475464 0.93515145778656006
0.97226101160049438 0.67971217632293701 0.93135565519332886
0.50880908966064453 0.68341648578643799 0.93638968467712402
0.54334557056427002 0.68347847461700439 0.93783736228942871
0.59490382671356201 0.67886537313461304 0.93769776821136475
0.67713576555252075 0.68382537364959717 0.93679392337799072
0.77891039848327637 0.70322811603546143 0.935882568359375
0.88032174110412598 0.73020857572555542 0.93562042713165283
0.96910291910171509 0.73502582311630249 0.93395006656646729
0.48454728722572327 0.76284271478652954 0.92946547269821167
0.51779466867446899 0.76556742191314697 0.93503469228744507
0.58030670881271362 0.76545840501785278 0.9345201849937439
0.66442960500717163 0.76291489601135254 0.93591195344924927
0.76859468221664429 0.76817542314529419 0.93802058696746826
0.87533384561538696 0.78705471754074097 0.94009494781494141
0.96263021230697632 0.79795271158218384 0.93787425756454468
0.56833857297897339 0.85861635208129883 0.93230569362640381
0.58521854877471924 0.85912877321243286 0.93729567527770996
0.62475699186325073 0.86035782098770142 0.93898957967758179
0.67967730760574341 0.85853117704391479 0.94138211011886597
0.76301419734954834 0.85321670770645142 0.94016879796981812
0.86540800333023071 0.8540990948677063 0.94799309968948364
0.96316128969192505 0.8700336217880249 0.94612938165664673
0.67743450403213501 0.95429307222366333 0.95039945840835571
0.68985378742218018 0.9541812539100647 0.95357894897460938
0.71537142992019653 0.95537483692169189 0.956207275390625
0.76317483186721802 0.95719635486602783 0.9555324912071228
0.81693786382675171 0.95732623338699341 0.95662611722946167
0.88667356967926025 0.95738226175308228 0.96181958913803101
0.96768903732299805 0.96069729328155518 0.96376019716262817
