films/kodak_portra_400_uc.cube
# Created by: G'MIC (https://gmic.eu)
TITLE "kodak_portra_400_uc"
# LUT size
LUT_3D_SIZE 7
# Data domain
DOMAIN_MIN 0.0 0.0 0.0
DOMAIN_MAX 1.0 1.0 1.0
# LUT data points
0.033152531832456589 0.047788642346858978 0.047457467764616013
0.13679599761962891 0.056203655898571014 0.042842626571655273
0.33354905247688293 0.064852893352508545 0.025647960603237152
0.59674596786499023 0.047739814966917038 0.0041249594651162624
0.81873404979705811 0.046006206423044205 0
0.96630942821502686 0.092920415103435516 0
1 0.18240031599998474 0
0.0025262122508138418 0.14984190464019775 0.066841110587120056
0.10287533700466156 0.16208136081695557 0.048678949475288391
0.35157826542854309 0.19415475428104401 0.010193184949457645
0.62822306156158447 0.19598065316677094 0.00010609345918055624
0.83017659187316895 0.19607405364513397 0
0.96088922023773193 0.21928523480892181 0
1 0.27186563611030579 0
0 0.33911976218223572 0.098624259233474731
0.01344273891299963 0.34076717495918274 0.093001767992973328
0.27958256006240845 0.38439661264419556 0.044836860150098801
0.63367825746536255 0.41546827554702759 8.6167283370741643e-06
0.83136337995529175 0.38241156935691833 0
0.95925772190093994 0.37461727857589722 0
1 0.39686229825019836 0
0 0.53208637237548828 0.14750237762928009
0 0.53659462928771973 0.15595774352550507
0.11333936452865601 0.54698413610458374 0.13793888688087463
0.50749248266220093 0.58358615636825562 0.066296026110649109
0.78168201446533203 0.60578590631484985 0.0069016399793326855
0.94181907176971436 0.56695032119750977 0
0.99963581562042236 0.54393947124481201 0.00041967653669416904
0 0.6905866265296936 0.24453045427799225
0 0.69249403476715088 0.2530730664730072
0.026032974943518639 0.69323199987411499 0.2578461766242981
0.38725939393043518 0.7107422947883606 0.23414613306522369
0.66536045074462891 0.73188108205795288 0.18751631677150726
0.87795311212539673 0.75266027450561523 0.10282951593399048
0.99442076683044434 0.73392003774642944 0.023250401020050049
0.070003107190132141 0.8249213695526123 0.39976993203163147
0.087153322994709015 0.82570785284042358 0.41261002421379089
0.24663069844245911 0.82183241844177246 0.42293307185173035
0.44868278503417969 0.82675927877426147 0.43169891834259033
0.62737834453582764 0.83623450994491577 0.4190516471862793
0.79351729154586792 0.84424084424972534 0.39628860354423523
0.95108616352081299 0.86613833904266357 0.37756407260894775
0.48751479387283325 0.92591285705566406 0.62045234441757202
0.5443272590637207 0.93080681562423706 0.65169596672058105
0.57620483636856079 0.92811739444732666 0.65870249271392822
0.6470339298248291 0.9288027286529541 0.68288141489028931
0.71825492382049561 0.93641644716262817 0.68030267953872681
0.80954009294509888 0.94269740581512451 0.67303210496902466
0.90933024883270264 0.95327192544937134 0.66722971200942993
0.016281247138977051 0.054883562028408051 0.15410222113132477
0.13975398242473602 0.054668217897415161 0.15373122692108154
0.32290905714035034 0.041353039443492889 0.15245778858661652
0.600574791431427 0.0098605137318372726 0.14294174313545227
0.82063108682632446 0.027046831324696541 0.1406499445438385
0.95666521787643433 0.10374689847230911 0.11014151573181152
0.99961715936660767 0.19947177171707153 0.087760582566261292
0.0026353274006396532 0.17077037692070007 0.1640344113111496
0.147046759724617 0.17981694638729095 0.17659947276115417
0.37559214234352112 0.18782612681388855 0.15929639339447021
0.64173382520675659 0.19169639050960541 0.1498337984085083
0.82864606380462646 0.19943682849407196 0.12564505636692047
0.95915883779525757 0.22449338436126709 0.099047578871250153
1 0.27841126918792725 0.074966654181480408
0 0.36752846837043762 0.22224950790405273
0.062897838652133942 0.3748224675655365 0.22254647314548492
0.33998742699623108 0.40488356351852417 0.20379945635795593
0.65308481454849243 0.40780988335609436 0.13095299899578094
0.83322852849960327 0.37946623563766479 0.076288960874080658
0.95936566591262817 0.37726444005966187 0.056929182261228561
1 0.40242239832878113 0.053363680839538574
0.0068355933763086796 0.5569387674331665 0.26952454447746277
0.0031771939247846603 0.55920517444610596 0.2601904571056366
0.18961383402347565 0.55956023931503296 0.2605956494808197
0.54065287113189697 0.58831107616424561 0.21922989189624786
0.79231202602386475 0.60178810358047485 0.12722417712211609
0.94061470031738281 0.56405186653137207 0.04185861349105835
0.99968135356903076 0.54757475852966309 0.011623337864875793
0.0032963322009891272 0.70216518640518188 0.33108115196228027
0.018502717837691307 0.70201253890991211 0.32940331101417542
0.1720164567232132 0.69887888431549072 0.33875700831413269
0.44415876269340515 0.71132344007492065 0.33360192179679871
0.67906302213668823 0.73429590463638306 0.30202201008796692
0.878226637840271 0.75090211629867554 0.22672341763973236
0.99086648225784302 0.7280460000038147 0.13470803201198578
0.15835675597190857 0.82559078931808472 0.45852038264274597
0.21315601468086243 0.82573229074478149 0.4621589183807373
0.32789725065231323 0.82184362411499023 0.47723996639251709
0.48259946703910828 0.82637870311737061 0.47781431674957275
0.64066582918167114 0.83420544862747192 0.47263574600219727
0.80305415391921997 0.8447224497795105 0.45573070645332336
0.94333738088607788 0.85807186365127563 0.43395042419433594
0.54829871654510498 0.93060940504074097 0.66592878103256226
0.56323790550231934 0.93198472261428833 0.66977888345718384
0.60060006380081177 0.93051469326019287 0.68379324674606323
0.65403807163238525 0.93062549829483032 0.69413524866104126
0.72067773342132568 0.93427962064743042 0.69252055883407593
0.81062370538711548 0.94106411933898926 0.69098693132400513
0.91169637441635132 0.95139145851135254 0.68037146329879761
0.00012224982492625713 0.070492297410964966 0.33606666326522827
0.11941181123256683 0.070203714072704315 0.3499394953250885
0.35485062003135681 0.060249477624893188 0.35707679390907288
0.5873454213142395 0.0093155801296234131 0.34196221828460693
0.79908186197280884 0.0046571469865739346 0.30901950597763062
0.95449131727218628 0.057747591286897659 0.30399918556213379
1 0.23465634882450104 0.31978896260261536
0 0.19275490939617157 0.34281378984451294
0.10488814115524292 0.19396896660327911 0.36356675624847412
0.38717895746231079 0.21356789767742157 0.38234096765518188
0.62374639511108398 0.17767839133739471 0.35831287503242493
0.81696909666061401 0.14964669942855835 0.32857051491737366
0.95707792043685913 0.22811377048492432 0.32532113790512085
1 0.32849833369255066 0.32909557223320007
0 0.3897610604763031 0.36904805898666382
0.10505823045969009 0.40520414710044861 0.39021521806716919
0.42877304553985596 0.42626923322677612 0.41306337714195251
0.65738862752914429 0.41649630665779114 0.38464608788490295
0.82111632823944092 0.40427765250205994 0.35374048352241516
0.94772350788116455 0.41256600618362427 0.33587425947189331
0.9994354248046875 0.44763657450675964 0.32560700178146362
0.10263936966657639 0.58062529563903809 0.42469871044158936
0.28198793530464172 0.58731824159622192 0.44303497672080994
0.41349372267723083 0.58582401275634766 0.44435885548591614
0.59858804941177368 0.60396856069564819 0.42596825957298279
0.80102193355560303 0.60357034206390381 0.37723341584205627
0.93802541494369507 0.57014352083206177 0.31876638531684875
0.99919956922531128 0.5690314769744873 0.28849765658378601
0.27063599228858948 0.71455889940261841 0.48489820957183838
0.30844935774803162 0.71484428644180298 0.48344603180885315
0.38221088051795959 0.71165817975997925 0.47609281539916992
0.52425432205200195 0.71943908929824829 0.47570937871932983
0.70488518476486206 0.73722320795059204 0.46541985869407654
0.88142073154449463 0.75023376941680908 0.42105060815811157
0.98936945199966431 0.72711288928985596 0.34032928943634033
0.38327103853225708 0.82665342092514038 0.56154036521911621
0.4042716920375824 0.82565873861312866 0.56156367063522339
0.44988217949867249 0.82536280155181885 0.55932450294494629
0.54413759708404541 0.82699638605117798 0.56634867191314697
0.67148232460021973 0.83440548181533813 0.5715327262878418
0.81585979461669922 0.8483089804649353 0.56466448307037354
0.94156992435455322 0.85985559225082397 0.54141527414321899
0.59572607278823853 0.92986142635345459 0.71118056774139404
0.60221749544143677 0.92934119701385498 0.70524680614471436
0.62890541553497314 0.9290962815284729 0.71323734521865845
0.67379122972488403 0.9296683669090271 0.72643721103668213
0.73407107591629028 0.9319719672203064 0.72794908285140991
0.8180534839630127 0.94071125984191895 0.72817879915237427
0.91482102870941162 0.95387858152389526 0.72892642021179199
0 0.09676399827003479 0.53401994705200195
0.060500126332044601 0.096211664378643036 0.54763555526733398
0.38665083050727844 0.093739770352840424 0.58067387342453003
0.63865607976913452 0.069881513714790344 0.58307480812072754
0.78103923797607422 0.031836222857236862 0.53404468297958374
0.9258415699005127 0.06966526061296463 0.48821091651916504
0.99959743022918701 0.18784996867179871 0.47623312473297119
9.6653959190007299e-05 0.20519854128360748 0.54746031761169434
0.067919142544269562 0.21187461912631989 0.5603143572807312
0.41278627514839172 0.23263117671012878 0.59281802177429199
0.65546321868896484 0.24528017640113831 0.5960199236869812
0.79335135221481323 0.23307010531425476 0.55071192979812622
0.92451304197311401 0.24316677451133728 0.50308346748352051
0.99750196933746338 0.30540695786476135 0.49204027652740479
0 0.39029434323310852 0.54881066083908081
0.060842759907245636 0.39530205726623535 0.56208443641662598
0.40617737174034119 0.41429591178894043 0.59034651517868042
0.65651422739028931 0.4498150646686554 0.60426193475723267
0.79074490070343018 0.4337918758392334 0.56746119260787964
0.92061185836791992 0.4321473240852356 0.53445065021514893
0.99878573417663574 0.47128194570541382 0.52496403455734253
0.028834054246544838 0.57733654975891113 0.55619484186172485
0.19943088293075562 0.58535647392272949 0.56481730937957764
0.44831541180610657 0.5964471697807312 0.58545506000518799
0.6451994776725769 0.61818850040435791 0.6123349666595459
0.79188162088394165 0.61050522327423096 0.58881884813308716
0.91147619485855103 0.60610342025756836 0.55904442071914673
0.9958120584487915 0.61506873369216919 0.54271537065505981
0.32823494076728821 0.72644644975662231 0.59639400243759155
0.426573246717453 0.72958290576934814 0.60915964841842651
0.52919352054595947 0.73366290330886841 0.61906790733337402
0.6204841136932373 0.7354702353477478 0.62652444839477539
0.74589747190475464 0.75250148773193359 0.62643879652023315
0.88802707195281982 0.74687254428863525 0.58308869600296021
0.99341386556625366 0.72553855180740356 0.52939814329147339
0.51296424865722656 0.83010202646255493 0.66765123605728149
0.54332035779953003 0.8306700587272644 0.67310053110122681
0.58000296354293823 0.83118742704391479 0.67119216918945312
0.62040138244628906 0.83036679029464722 0.66601043939590454
0.70670104026794434 0.83834820985794067 0.67710936069488525
0.82981729507446289 0.85471606254577637 0.68247336149215698
0.95030701160430908 0.86594492197036743 0.65955078601837158
0.66015034914016724 0.9262349009513855 0.76961988210678101
0.66792756319046021 0.92892599105834961 0.76674282550811768
0.68092304468154907 0.92884957790374756 0.76469618082046509
0.70037275552749634 0.92809414863586426 0.76276618242263794
0.74911653995513916 0.93219977617263794 0.76962745189666748
0.83024072647094727 0.94329214096069336 0.77934712171554565
0.92133837938308716 0.95468509197235107 0.77881407737731934
0 0.14091397821903229 0.71106696128845215
0.080758653581142426 0.1407008022069931 0.7181054949760437
0.36820432543754578 0.14960017800331116 0.73519039154052734
0.63601815700531006 0.18433208763599396 0.75280624628067017
0.81114190816879272 0.22293300926685333 0.74455100297927856
0.91152453422546387 0.23311980068683624 0.70235300064086914
0.99575144052505493 0.34035059809684753 0.67944014072418213
0.00012426936882548034 0.22822102904319763 0.71745419502258301
0.047018520534038544 0.2351963073015213 0.72263038158416748
0.37224557995796204 0.25306251645088196 0.73710626363754272
0.6447175145149231 0.30363872647285461 0.75604403018951416
0.81638866662979126 0.33895725011825562 0.75537914037704468
0.90989059209823608 0.34602788090705872 0.71375221014022827
0.99265342950820923 0.41024559736251831 0.68621313571929932
0.0012156617594882846 0.39324298501014709 0.70174926519393921
0.05228087306022644 0.38893893361091614 0.71133452653884888
0.39101499319076538 0.40549549460411072 0.73043191432952881
0.63865673542022705 0.4554254412651062 0.74965155124664307
0.79758924245834351 0.49736273288726807 0.75053262710571289
0.89850121736526489 0.49150970578193665 0.71970158815383911
0.98621749877929688 0.52225208282470703 0.69442814588546753
6.7856730311177671e-05 0.54535204172134399 0.68454968929290771
0.044153563678264618 0.55020618438720703 0.68873995542526245
0.3568437397480011 0.55889040231704712 0.70080071687698364
0.61036336421966553 0.59592592716217041 0.73262292146682739
0.77918356657028198 0.6362837553024292 0.7494511604309082
0.88335835933685303 0.63030874729156494 0.72886985540390015
0.97458541393280029 0.63738566637039185 0.71150600910186768
0.1898709237575531 0.71366536617279053 0.69963216781616211
0.29827186465263367 0.7195858359336853 0.70818287134170532
0.46009883284568787 0.72181588411331177 0.71449506282806396
0.62330275774002075 0.73215115070343018 0.73295348882675171
0.76846396923065186 0.75501912832260132 0.75690138339996338
0.8794475793838501 0.75454676151275635 0.73920780420303345
0.97393429279327393 0.7491191029548645 0.71974533796310425
0.48087894916534424 0.83430445194244385 0.74029618501663208
0.52522999048233032 0.8375927209854126 0.74595725536346436
0.59946924448013306 0.83902955055236816 0.75382822751998901
0.69225263595581055 0.83934295177459717 0.76627659797668457
0.76481688022613525 0.84456688165664673 0.77598756551742554
0.84863162040710449 0.85830038785934448 0.77914899587631226
0.95922732353210449 0.864815354347229 0.76045405864715576
0.65571975708007812 0.9304315447807312 0.81330186128616333
0.68059861660003662 0.93345493078231812 0.81719255447387695
0.71634316444396973 0.93249809741973877 0.82121962308883667
0.75117701292037964 0.93187981843948364 0.82192260026931763
0.78179723024368286 0.93815886974334717 0.82093971967697144
0.84353864192962646 0.94360405206680298 0.83088350296020508
0.9350048303604126 0.95782470703125 0.83248627185821533
0.030620604753494263 0.22059592604637146 0.85289299488067627
0.19502386450767517 0.22691084444522858 0.85079658031463623
0.42107704281806946 0.24551039934158325 0.85419118404388428
0.63142836093902588 0.28720128536224365 0.85899895429611206
0.80719506740570068 0.37205493450164795 0.86699259281158447
0.91999340057373047 0.41850686073303223 0.85703098773956299
0.99306654930114746 0.43838280439376831 0.83471500873565674
0.049371890723705292 0.29246437549591064 0.8491436243057251
0.17213712632656097 0.30061358213424683 0.85078054666519165
0.42389076948165894 0.31838032603263855 0.85445886850357056
0.63493633270263672 0.36047467589378357 0.85790258646011353
0.80786103010177612 0.44315394759178162 0.86424607038497925
0.91350740194320679 0.4810415506362915 0.85534268617630005
0.98852795362472534 0.48642033338546753 0.83704692125320435
0.035469595342874527 0.41267096996307373 0.83801954984664917
0.18579578399658203 0.41833862662315369 0.84128057956695557
0.42708489298820496 0.43412014842033386 0.84719705581665039
0.63132119178771973 0.47416150569915771 0.85091310739517212
0.79737967252731323 0.54366445541381836 0.85937750339508057
0.90425068140029907 0.58443772792816162 0.85680997371673584
0.97536063194274902 0.57714289426803589 0.83654999732971191
0.017666671425104141 0.54282253980636597 0.81289386749267578
0.14930273592472076 0.55353182554244995 0.81844216585159302
0.36990281939506531 0.55631953477859497 0.82541733980178833
0.60028731822967529 0.58307880163192749 0.8411681056022644
0.77906423807144165 0.65058845281600952 0.85441166162490845
0.88631409406661987 0.68925923109054565 0.85408061742782593
0.96168476343154907 0.67914682626724243 0.83898913860321045
0.013059922493994236 0.68824821710586548 0.8076484203338623
0.1093878373503685 0.69161713123321533 0.81111049652099609
0.30512648820877075 0.68700277805328369 0.80850100517272949
0.5314643383026123 0.69420665502548218 0.8161429762840271
0.74206274747848511 0.73546838760375977 0.84110897779464722
0.87297350168228149 0.78082668781280518 0.85443496704101562
0.95431286096572876 0.77414983510971069 0.84477025270462036
0.35261830687522888 0.83098286390304565 0.82009488344192505
0.40579536557197571 0.83298450708389282 0.82467907667160034
0.5117684006690979 0.8332633376121521 0.82535547018051147
0.6273115873336792 0.83435887098312378 0.83171176910400391
0.74790537357330322 0.8374258279800415 0.84083884954452515
0.86677861213684082 0.86047267913818359 0.86166411638259888
0.95963436365127563 0.86420178413391113 0.85399699211120605
0.612324059009552 0.93943256139755249 0.86259084939956665
0.6441349983215332 0.93949770927429199 0.86080479621887207
0.68465662002563477 0.93874269723892212 0.86495703458786011
0.74143064022064209 0.94212740659713745 0.87077057361602783
0.8099365234375 0.94171428680419922 0.87674117088317871
0.86756819486618042 0.94948458671569824 0.88408964872360229
0.95019745826721191 0.96334540843963623 0.89044612646102905
0.41476631164550781 0.41258245706558228 0.95164448022842407
0.47747042775154114 0.41924318671226501 0.95023864507675171
0.57998770475387573 0.43094882369041443 0.94878298044204712
0.70625388622283936 0.47936677932739258 0.94751930236816406
0.82707220315933228 0.5258481502532959 0.94534313678741455
0.92560809850692749 0.60449814796447754 0.94744777679443359
0.99383848905563354 0.63174957036972046 0.94372725486755371
0.43140688538551331 0.46124079823493958 0.95135998725891113
0.49503350257873535 0.47427642345428467 0.95036953687667847
0.59114646911621094 0.48634433746337891 0.94999635219573975
0.70880627632141113 0.51663243770599365 0.94666868448257446
0.82651269435882568 0.57042264938354492 0.94407415390014648
0.92132842540740967 0.64182454347610474 0.94416451454162598
0.99483644962310791 0.64935463666915894 0.94280898571014404
0.43344023823738098 0.53990989923477173 0.94676542282104492
0.49373814463615417 0.54890161752700806 0.94603955745697021
0.58692926168441772 0.56324988603591919 0.94694238901138306
0.70334458351135254 0.58739376068115234 0.94324022531509399
0.81942099332809448 0.63552826642990112 0.9423297643661499
0.91251522302627563 0.68997901678085327 0.94142937660217285
0.98852312564849854 0.69932770729064941 0.9391295313835144
0.4075959324836731 0.64027398824691772 0.93915331363677979
0.47142082452774048 0.64349108934402466 0.93853604793548584
0.54986429214477539 0.63916349411010742 0.94015133380889893
0.67810899019241333 0.65910685062408447 0.94011837244033813
0.80411726236343384 0.69987183809280396 0.93958723545074463
0.90316730737686157 0.74601155519485474 0.94309407472610474
0.9775698184967041 0.75600087642669678 0.94003063440322876
0.20510593056678772 0.73741239309310913 0.92800384759902954
0.27671769261360168 0.73435795307159424 0.93109750747680664
0.45081490278244019 0.73387038707733154 0.93204337358474731
0.59967666864395142 0.73659485578536987 0.93237036466598511
0.76529383659362793 0.75928968191146851 0.93823069334030151
0.88753557205200195 0.803932785987854 0.94530194997787476
0.97251623868942261 0.82408696413040161 0.94385677576065063
0.41550818085670471 0.86212903261184692 0.93281811475753784
0.44590321183204651 0.85742026567459106 0.93268346786499023
0.50657409429550171 0.85249155759811401 0.93297797441482544
0.58568531274795532 0.84358125925064087 0.92875224351882935
0.70344310998916626 0.84237712621688843 0.93327826261520386
0.85337245464324951 0.85849732160568237 0.94490510225296021
0.97526627779006958 0.89550489187240601 0.94911473989486694
0.59545201063156128 0.96236079931259155 0.9428364634513855
0.62282705307006836 0.96223968267440796 0.94199377298355103
0.64250600337982178 0.96098065376281738 0.94394862651824951
0.69762921333312988 0.96039503812789917 0.94645208120346069
0.77309811115264893 0.95766347646713257 0.94739645719528198
0.8581969141960144 0.9597286581993103 0.95119786262512207
0.96483391523361206 0.97127676010131836 0.96405559778213501
