films/kodak_ektar_100.cube
TITLE "data/luts/rawtherapee/HaldCLUT/Color/Kodak/Kodak Ektar 100.png"
LUT_3D_SIZE 4
DOMAIN_MIN 0 0 0
DOMAIN_MAX 1 1 1
0.000000 0.000000 0.000000
0.337255 0.011765 0.000000
0.745098 0.058824 0.000000
1.000000 0.105882 0.000000
0.090196 0.266667 0.105882
0.278431 0.282353 0.101961
0.686275 0.301961 0.074510
1.000000 0.262745 0.039216
0.000000 0.588235 0.188235
0.247059 0.600000 0.176471
0.588235 0.619608 0.152941
0.898039 0.623529 0.125490
0.070588 0.870588 0.290196
0.254902 0.878431 0.286275
0.525490 0.894118 0.274510
0.854902 0.913725 0.215686
0.000000 0.003922 0.235294
0.372549 0.019608 0.223529
0.788235 0.058824 0.200000
1.000000 0.105882 0.164706
0.101961 0.282353 0.301961
0.298039 0.298039 0.298039
0.709804 0.317647 0.278431
1.000000 0.282353 0.250980
0.015686 0.596078 0.400000
0.286275 0.611765 0.396078
0.619608 0.631373 0.388235
0.929412 0.631373 0.360784
0.137255 0.878431 0.490196
0.305882 0.886275 0.486275
0.552941 0.901961 0.478431
0.890196 0.925490 0.450980
0.007843 0.019608 0.521569
0.392157 0.043137 0.513725
0.831373 0.062745 0.498039
1.000000 0.105882 0.478431
0.066667 0.313725 0.596078
0.305882 0.329412 0.588235
0.737255 0.349020 0.576471
1.000000 0.313725 0.560784
0.011765 0.611765 0.658824
0.313725 0.627451 0.654902
0.647059 0.647059 0.647059
0.964706 0.650980 0.635294
0.184314 0.898039 0.717647
0.341176 0.905882 0.717647
0.580392 0.921569 0.709804
0.937255 0.949020 0.694118
0.015686 0.078431 0.760784
0.372549 0.101961 0.752941
0.835294 0.125490 0.737255
1.000000 0.101961 0.725490
0.000000 0.368627 0.819608
0.235294 0.384314 0.815686
0.725490 0.407843 0.800000
1.000000 0.368627 0.788235
0.000000 0.631373 0.870588
0.258824 0.647059 0.862745
0.643137 0.674510 0.858824
0.980392 0.682353 0.850980
0.121569 0.921569 0.968627
0.309804 0.929412 0.968627
0.584314 0.952941 0.976471
1.000000 0.992157 0.992157
