films/lomography_redscale_100.cube
TITLE "data/luts/rawtherapee/HaldCLUT/Color/Lomography/Lomography Redscale 100.png"
LUT_3D_SIZE 64
DOMAIN_MIN 0 0 0
DOMAIN_MAX 1 1 1
0.000000 0.000000 0.000000
0.003922 0.000000 0.000000
0.009960 0.000000 0.000000
0.015686 0.000000 0.000000
0.023841 0.000000 0.003922
0.032742 0.000000 0.003922
0.045565 0.000000 0.003922
0.054466 0.000000 0.007407
0.063990 0.000000 0.007843
0.076190 0.000000 0.009524
0.085092 0.000000 0.011765
0.093993 0.000000 0.015562
0.102894 0.000000 0.016620
0.113788 0.000000 0.019608
0.124619 0.003050 0.023529
0.137442 0.003922 0.027451
0.146343 0.003922 0.031373
0.155244 0.003922 0.035294
0.168067 0.003922 0.039216
0.177467 0.003922 0.043635
0.189791 0.005478 0.050980
0.202614 0.007843 0.054902
0.215437 0.007843 0.062496
0.229069 0.008652 0.067476
0.245005 0.011765 0.074510
0.260753 0.011765 0.081357
0.274634 0.011827 0.086337
0.288515 0.015686 0.094118
0.304139 0.019608 0.100218
0.320199 0.019608 0.109119
0.338002 0.023529 0.114099
0.354373 0.024961 0.121569
0.369686 0.027451 0.127980
0.387488 0.031373 0.136881
0.405291 0.032057 0.145098
0.423094 0.037037 0.150763
0.440896 0.039216 0.159664
0.454840 0.043137 0.164706
0.472580 0.047059 0.173545
0.488329 0.049113 0.180392
0.504264 0.054093 0.187426
0.518145 0.055151 0.192406
0.534641 0.058824 0.201307
0.549829 0.061189 0.206287
0.563710 0.062745 0.211765
0.577031 0.066667 0.219608
0.589854 0.068285 0.225148
0.602677 0.070588 0.230128
0.615500 0.074510 0.235107
0.628322 0.075381 0.240087
0.641145 0.078431 0.245067
0.653035 0.081419 0.250980
0.662870 0.082353 0.255026
0.675692 0.086275 0.260006
0.684594 0.086275 0.264986
0.697417 0.090196 0.270588
0.706754 0.090632 0.274946
0.719141 0.094118 0.279925
0.728042 0.096670 0.284905
0.736944 0.098039 0.289885
0.749767 0.098786 0.294118
0.758668 0.101961 0.295923
0.767569 0.101961 0.300903
0.776471 0.105882 0.305882
0.000000 0.000000 0.000000
0.001058 0.000000 0.000000
0.006038 0.000000 0.000000
0.011018 0.000000 0.000000
0.015998 0.001058 0.000000
0.024899 0.001058 0.001369
0.032742 0.002831 0.003922
0.042702 0.003922 0.003922
0.054466 0.003922 0.006953
0.063368 0.003922 0.007843
0.073327 0.003922 0.010582
0.082228 0.003922 0.011765
0.093993 0.004980 0.014880
0.102894 0.004980 0.017141
0.115081 0.007843 0.019608
0.124619 0.007843 0.023529
0.133856 0.008179 0.027451
0.145161 0.008901 0.030936
0.156151 0.008901 0.035143
0.168067 0.011765 0.039714
0.179163 0.012185 0.044693
0.190497 0.012823 0.050628
0.203605 0.015504 0.057584
0.219359 0.016744 0.063336
0.232686 0.018108 0.068534
0.247930 0.020397 0.074241
0.261811 0.020711 0.081357
0.276448 0.023832 0.087395
0.293495 0.026178 0.095708
0.307561 0.028509 0.101276
0.325179 0.032431 0.110077
0.342982 0.033862 0.116975
0.360784 0.036352 0.124059
0.378587 0.040274 0.132960
0.396390 0.040959 0.137940
0.414192 0.044195 0.146841
0.431995 0.048117 0.155742
0.446934 0.051976 0.163585
0.464737 0.055171 0.169623
0.481481 0.055960 0.177970
0.496421 0.059663 0.183505
0.512983 0.062812 0.192157
0.527752 0.063803 0.197386
0.541986 0.067305 0.203502
0.556230 0.067725 0.211267
0.569748 0.071646 0.216246
0.583629 0.071646 0.221226
0.597510 0.074510 0.227451
0.611391 0.075568 0.234100
0.623578 0.078431 0.239216
0.635232 0.079490 0.243137
0.646125 0.081671 0.250047
0.658948 0.083411 0.254902
0.671032 0.086275 0.258824
0.680672 0.086879 0.264986
0.693495 0.090196 0.269966
0.702715 0.090314 0.274510
0.715219 0.094118 0.278431
0.724121 0.094118 0.282353
0.735885 0.098039 0.286275
0.745845 0.098039 0.290943
0.754746 0.101961 0.295923
0.763648 0.101961 0.300130
0.772549 0.105882 0.301961
0.000000 0.000000 0.000000
0.001058 0.002116 0.000000
0.003922 0.003091 0.000000
0.009304 0.003922 0.000000
0.015830 0.003922 0.000000
0.020977 0.003922 0.001369
0.029879 0.003922 0.003922
0.038780 0.003922 0.003922
0.049486 0.006038 0.004208
0.059295 0.006038 0.007843
0.069406 0.007843 0.007843
0.078307 0.007843 0.011765
0.087638 0.007843 0.012195
0.097915 0.008918 0.015686
0.108932 0.009960 0.019608
0.119639 0.011765 0.023529
0.130657 0.011765 0.024774
0.140618 0.011765 0.029754
0.152079 0.013881 0.034734
0.161512 0.015686 0.039216
0.174822 0.015686 0.043854
0.186223 0.017803 0.049673
0.199617 0.019608 0.054653
0.212946 0.021724 0.059633
0.227264 0.022584 0.065558
0.241604 0.025108 0.073514
0.256803 0.027451 0.078494
0.272224 0.029567 0.086790
0.287513 0.032548 0.092375
0.304513 0.034979 0.101276
0.320199 0.037582 0.106256
0.338002 0.041332 0.115157
0.355805 0.044481 0.122715
0.373607 0.045254 0.129038
0.391410 0.049175 0.137940
0.409213 0.051921 0.146841
0.428527 0.054386 0.154231
0.444818 0.057018 0.160722
0.460815 0.060940 0.169623
0.478618 0.063854 0.175463
0.496421 0.066294 0.183505
0.510302 0.068783 0.188484
0.526797 0.071294 0.197386
0.541986 0.072705 0.202365
0.555867 0.076357 0.211267
0.569748 0.076884 0.216246
0.583629 0.079305 0.221226
0.597510 0.080548 0.227451
0.611391 0.082353 0.231373
0.621351 0.084469 0.239216
0.635232 0.085358 0.243137
0.646125 0.088391 0.250047
0.658948 0.088448 0.254902
0.671771 0.090834 0.258824
0.680672 0.092312 0.264986
0.693495 0.092312 0.269966
0.702397 0.094118 0.274510
0.715219 0.094118 0.278431
0.724121 0.095495 0.282353
0.733022 0.098039 0.286275
0.745845 0.098039 0.290943
0.754746 0.101961 0.294949
0.763648 0.101961 0.298039
0.772549 0.105882 0.301961
0.000000 0.003922 0.000000
0.001058 0.003922 0.000000
0.003922 0.003922 0.000000
0.007843 0.003922 0.000000
0.012764 0.003922 0.000000
0.020977 0.007096 0.000000
0.027913 0.007096 0.003922
0.035605 0.007843 0.003922
0.047681 0.007843 0.003922
0.056583 0.007843 0.007843
0.065484 0.007843 0.007843
0.074385 0.011018 0.011664
0.084034 0.011765 0.011765
0.096110 0.011765 0.015686
0.105592 0.011765 0.018736
0.117834 0.011916 0.020506
0.126735 0.015176 0.024774
0.138248 0.015686 0.027451
0.148459 0.018407 0.032013
0.158511 0.018956 0.036444
0.171740 0.019608 0.043137
0.183505 0.021724 0.047059
0.195829 0.023482 0.054653
0.209462 0.024184 0.059633
0.223734 0.027060 0.064613
0.238777 0.029819 0.071145
0.254976 0.031373 0.078494
0.268908 0.034547 0.083473
0.283536 0.037058 0.092375
0.300591 0.039085 0.097485
0.318394 0.042461 0.106256
0.336197 0.046312 0.113998
0.353999 0.049074 0.120137
0.371802 0.050909 0.129038
0.389605 0.054285 0.137940
0.407407 0.058077 0.145430
0.425210 0.061091 0.151821
0.443013 0.062733 0.160722
0.460815 0.066109 0.169623
0.478618 0.069841 0.174603
0.492653 0.070588 0.183505
0.510302 0.073810 0.188484
0.524183 0.077684 0.197386
0.540071 0.078431 0.202365
0.555867 0.081606 0.207843
0.569748 0.082353 0.216246
0.583629 0.085528 0.221226
0.597510 0.086037 0.227451
0.611391 0.089449 0.231373
0.623820 0.089615 0.239216
0.635232 0.091758 0.244699
0.646125 0.093371 0.250047
0.658948 0.094118 0.254902
0.671771 0.097292 0.259781
0.682486 0.097292 0.264986
0.693495 0.098039 0.269966
0.702832 0.098039 0.274510
0.715219 0.099249 0.278431
0.724121 0.101214 0.282353
0.733022 0.101214 0.286275
0.745845 0.101961 0.290943
0.754746 0.101961 0.294118
0.763648 0.101961 0.298039
0.772549 0.105882 0.301961
0.000000 0.004233 0.000000
0.003922 0.004233 0.000000
0.003922 0.007843 0.000000
0.007843 0.007843 0.000000
0.012076 0.007843 0.000000
0.019608 0.007843 0.000000
0.025957 0.008036 0.003922
0.034858 0.008154 0.003922
0.043760 0.011765 0.003922
0.054208 0.011765 0.007843
0.065173 0.011765 0.007843
0.074074 0.012066 0.011640
0.083287 0.012076 0.011765
0.092188 0.015686 0.013757
0.104942 0.015686 0.018736
0.113912 0.015998 0.019795
0.123960 0.019608 0.023529
0.135636 0.019608 0.027451
0.147632 0.019919 0.031373
0.157361 0.023529 0.035792
0.169996 0.023653 0.040772
0.181492 0.023841 0.045752
0.195289 0.027451 0.050980
0.208405 0.028507 0.058824
0.221312 0.031521 0.064613
0.236992 0.034377 0.069592
0.251100 0.035605 0.078125
0.264986 0.039305 0.083473
0.282616 0.041533 0.090196
0.297300 0.043448 0.097354
0.314472 0.047370 0.106226
0.332275 0.051094 0.111236
0.350078 0.053584 0.120137
0.367880 0.058480 0.129038
0.389293 0.059135 0.137885
0.407234 0.062883 0.142919
0.425210 0.065635 0.151821
0.443013 0.066978 0.160722
0.460815 0.070899 0.168627
0.476416 0.074673 0.174603
0.492499 0.077686 0.183505
0.510282 0.078743 0.188484
0.524183 0.082457 0.197386
0.539620 0.082664 0.202365
0.555867 0.086546 0.207843
0.569748 0.087102 0.216246
0.583629 0.090325 0.221226
0.597510 0.090507 0.227451
0.611391 0.094118 0.235107
0.624401 0.094429 0.239216
0.635232 0.098039 0.245067
0.649113 0.098350 0.250047
0.659073 0.098465 0.255026
0.671771 0.101961 0.260006
0.683047 0.102272 0.264986
0.693495 0.102272 0.269966
0.706318 0.105882 0.274510
0.715219 0.105882 0.278431
0.724323 0.106194 0.282353
0.736944 0.106194 0.286275
0.745845 0.106194 0.290943
0.754746 0.106194 0.295923
0.763648 0.106194 0.298039
0.772549 0.106194 0.301961
0.000000 0.007843 0.000000
0.003922 0.007843 0.000000
0.006038 0.008582 0.000000
0.007843 0.009213 0.000000
0.012076 0.009415 0.000000
0.017056 0.011765 0.000478
0.025957 0.011765 0.003922
0.034858 0.011765 0.003922
0.043760 0.013134 0.003922
0.052661 0.013134 0.007843
0.061562 0.015686 0.007843
0.070464 0.015686 0.007843
0.079365 0.017056 0.011765
0.092188 0.018352 0.013757
0.101089 0.019608 0.017671
0.112608 0.020977 0.019608
0.122814 0.021787 0.023529
0.133214 0.023529 0.027451
0.144538 0.024703 0.031177
0.156165 0.025223 0.035792
0.167275 0.027451 0.040772
0.179085 0.028820 0.045752
0.191821 0.031373 0.050731
0.205257 0.033269 0.055711
0.219421 0.035946 0.062745
0.233302 0.038568 0.069592
0.247183 0.040626 0.074572
0.264595 0.043529 0.083473
0.278867 0.045925 0.088453
0.296670 0.048428 0.097354
0.314472 0.052593 0.104643
0.330906 0.055402 0.111236
0.350078 0.058824 0.120137
0.367880 0.062502 0.129038
0.385683 0.064115 0.134018
0.403486 0.067275 0.142919
0.423111 0.069859 0.151821
0.441643 0.071958 0.160722
0.456894 0.075879 0.168627
0.474697 0.079149 0.174603
0.492499 0.081826 0.183505
0.510053 0.083884 0.188484
0.524183 0.086731 0.197386
0.539620 0.089183 0.202365
0.555867 0.091566 0.207843
0.569748 0.094118 0.216246
0.583629 0.095487 0.221226
0.597510 0.097229 0.227451
0.611391 0.099343 0.235107
0.624401 0.099976 0.239216
0.637224 0.102635 0.245067
0.649113 0.103330 0.250047
0.660398 0.105882 0.255026
0.671771 0.107252 0.260006
0.684594 0.107252 0.264986
0.694647 0.109804 0.269966
0.706318 0.109804 0.274662
0.715741 0.111173 0.278953
0.728042 0.111173 0.284905
0.736944 0.111173 0.287535
0.745845 0.111173 0.290943
0.754746 0.111173 0.295923
0.763648 0.111173 0.300903
0.772549 0.111173 0.301961
0.000000 0.011765 0.000000
0.003922 0.011765 0.000000
0.007155 0.011765 0.000000
0.009808 0.011765 0.000000
0.012076 0.011957 0.000000
0.017056 0.014192 0.001369
0.025957 0.015117 0.003922
0.031103 0.015686 0.003922
0.043760 0.016072 0.003922
0.052661 0.018114 0.007843
0.061562 0.019157 0.007843
0.070464 0.019608 0.007843
0.079365 0.020186 0.011765
0.089025 0.022035 0.013757
0.101089 0.023529 0.015686
0.109991 0.023645 0.019608
0.120137 0.025957 0.023529
0.131715 0.027451 0.025833
0.141897 0.029532 0.030812
0.153629 0.030068 0.035484
0.166262 0.032336 0.040772
0.178276 0.034796 0.045752
0.191659 0.037568 0.050731
0.202804 0.038030 0.055711
0.216282 0.040372 0.061473
0.231491 0.042758 0.069592
0.247145 0.045589 0.074572
0.261064 0.049486 0.082353
0.278867 0.052329 0.088453
0.294242 0.054641 0.097354
0.310551 0.057472 0.102334
0.328354 0.061251 0.111236
0.346156 0.064286 0.120137
0.365453 0.066524 0.129038
0.385683 0.069355 0.134018
0.403486 0.073016 0.142919
0.421289 0.076244 0.151821
0.439091 0.078408 0.160722
0.456894 0.081238 0.165702
0.474697 0.083625 0.174603
0.492499 0.086275 0.183505
0.510053 0.088797 0.188484
0.524183 0.092624 0.197386
0.539620 0.094118 0.202365
0.555867 0.096545 0.207843
0.569748 0.098386 0.216246
0.583629 0.100467 0.221226
0.597510 0.101961 0.227451
0.611391 0.104388 0.235107
0.624401 0.105882 0.239755
0.637224 0.108310 0.245067
0.649691 0.109448 0.250047
0.662870 0.112232 0.255026
0.672954 0.112232 0.260006
0.684594 0.113085 0.264986
0.697180 0.113725 0.270351
0.706318 0.116153 0.274946
0.719141 0.116153 0.279925
0.728042 0.116153 0.284905
0.736944 0.117528 0.289885
0.748273 0.117647 0.294118
0.758668 0.117647 0.295923
0.766075 0.117647 0.300903
0.774977 0.117647 0.305882
0.003922 0.015251 0.000000
0.003922 0.015251 0.000000
0.007843 0.015686 0.000000
0.011018 0.015686 0.000000
0.012076 0.015963 0.000000
0.017056 0.019172 0.001369
0.025957 0.019172 0.003922
0.030937 0.019608 0.003922
0.039838 0.019608 0.003922
0.048739 0.023094 0.007843
0.057641 0.023094 0.007843
0.066542 0.023516 0.007843
0.076709 0.023529 0.011765
0.088266 0.027015 0.013757
0.100315 0.027354 0.015686
0.109991 0.027617 0.019608
0.118892 0.030937 0.023529
0.130276 0.031373 0.025833
0.140616 0.034858 0.030812
0.153439 0.035294 0.035294
0.164159 0.038780 0.039216
0.175454 0.039070 0.043428
0.187986 0.042480 0.050731
0.201618 0.042791 0.055711
0.215500 0.046623 0.060691
0.229491 0.047059 0.066992
0.243691 0.050980 0.074572
0.261064 0.054466 0.079552
0.275139 0.056839 0.088453
0.292748 0.058747 0.094477
0.310551 0.062351 0.102334
0.328354 0.066231 0.111236
0.346156 0.068880 0.120137
0.363959 0.070588 0.125158
0.382806 0.074150 0.134018
0.403486 0.077996 0.142919
0.421289 0.080921 0.151821
0.439091 0.082346 0.160722
0.456894 0.085949 0.165702
0.474697 0.089760 0.174603
0.492499 0.092963 0.183505
0.510053 0.094339 0.188484
0.524183 0.097749 0.197386
0.539620 0.100142 0.202365
0.555867 0.101905 0.207843
0.569748 0.105447 0.216246
0.583629 0.105626 0.221226
0.598617 0.108262 0.227451
0.611578 0.109368 0.235107
0.625176 0.110579 0.240087
0.637224 0.113290 0.245067
0.650047 0.113725 0.250047
0.662870 0.117211 0.255026
0.675388 0.117343 0.260006
0.684594 0.117647 0.266480
0.697417 0.120580 0.270588
0.709852 0.121133 0.274946
0.719141 0.121133 0.279925
0.728042 0.121569 0.284905
0.740831 0.121569 0.289885
0.749767 0.121569 0.294118
0.758668 0.123173 0.298039
0.767569 0.125054 0.301843
0.776471 0.125054 0.305882
0.003922 0.019608 0.000000
0.007843 0.019608 0.000000
0.008179 0.020230 0.000000
0.011765 0.020230 0.000622
0.015736 0.020230 0.000884
0.019825 0.023529 0.003922
0.025957 0.023529 0.003922
0.031006 0.024083 0.003922
0.039838 0.024152 0.003922
0.048739 0.025566 0.007843
0.057641 0.027451 0.007843
0.066542 0.028054 0.008446
0.075444 0.028859 0.011765
0.088266 0.031689 0.013757
0.097168 0.031995 0.015686
0.106256 0.035294 0.019608
0.118892 0.035917 0.023529
0.129731 0.037854 0.025833
0.140616 0.039749 0.030812
0.150016 0.040257 0.035294
0.163650 0.043384 0.039216
0.175163 0.043760 0.043137
0.187986 0.047642 0.050731
0.200809 0.048362 0.055711
0.213632 0.051277 0.060691
0.229381 0.054064 0.066667
0.243262 0.055577 0.074572
0.259499 0.059001 0.079552
0.274946 0.062745 0.088453
0.292748 0.066091 0.094118
0.310551 0.067603 0.102334
0.328354 0.070815 0.111236
0.346156 0.074510 0.117647
0.363959 0.078117 0.125117
0.381762 0.079630 0.134018
0.403486 0.082630 0.142919
0.421289 0.086719 0.151821
0.439091 0.090144 0.160722
0.456894 0.091656 0.165702
0.474697 0.094444 0.174603
0.492499 0.098039 0.183505
0.510053 0.098871 0.188484
0.524183 0.102583 0.197386
0.539996 0.105882 0.202365
0.555867 0.106505 0.211267
0.569748 0.109893 0.216246
0.585932 0.110426 0.221226
0.598755 0.113725 0.227876
0.611578 0.114348 0.235107
0.625272 0.117647 0.240087
0.639153 0.118270 0.245067
0.650521 0.120783 0.250980
0.662889 0.121588 0.255026
0.675692 0.122191 0.260441
0.687102 0.124076 0.266667
0.697417 0.125490 0.270588
0.710240 0.126113 0.274946
0.719378 0.126113 0.280311
0.731964 0.126113 0.285122
0.740865 0.129412 0.289934
0.749767 0.129412 0.294118
0.759290 0.129412 0.298039
0.768192 0.129412 0.301961
0.776471 0.129412 0.305882
0.005602 0.023529 0.001681
0.008297 0.023529 0.002285
0.011765 0.025210 0.003922
0.013125 0.025210 0.003922
0.017545 0.025210 0.003922
0.020977 0.027451 0.003922
0.025957 0.027451 0.003922
0.034858 0.029132 0.003922
0.041252 0.029132 0.004188
0.048739 0.031373 0.007843
0.057641 0.032546 0.007843
0.066542 0.033053 0.011640
0.075844 0.035294 0.011765
0.088266 0.036975 0.013757
0.097168 0.036975 0.015686
0.106176 0.039296 0.019608
0.118892 0.040896 0.023529
0.127793 0.043137 0.025833
0.140616 0.044578 0.030812
0.150016 0.045102 0.035294
0.162340 0.048739 0.039216
0.175163 0.050233 0.044258
0.187986 0.052661 0.050731
0.200809 0.054902 0.055711
0.213632 0.056583 0.060691
0.229381 0.058824 0.066667
0.243262 0.060540 0.074572
0.257143 0.064426 0.079552
0.274946 0.067600 0.088453
0.292748 0.070197 0.094118
0.310551 0.072482 0.102334
0.328354 0.076190 0.111236
0.346156 0.079498 0.117647
0.363959 0.082140 0.125117
0.382055 0.084425 0.134018
0.403486 0.087955 0.142919
0.421289 0.091397 0.151821
0.439091 0.094082 0.160722
0.456894 0.096367 0.165702
0.474697 0.099720 0.174603
0.492499 0.103295 0.183505
0.510302 0.105882 0.188484
0.524183 0.107563 0.197386
0.541986 0.110818 0.202365
0.555867 0.111485 0.211267
0.573109 0.115406 0.216246
0.585932 0.116331 0.223529
0.601432 0.118794 0.230128
0.615313 0.119328 0.235107
0.628322 0.121942 0.240087
0.640007 0.123249 0.245067
0.653035 0.125490 0.250980
0.664621 0.127171 0.256654
0.676199 0.127171 0.262745
0.688515 0.129412 0.266667
0.700716 0.129412 0.272002
0.710426 0.131092 0.278431
0.723063 0.131092 0.282353
0.731964 0.132551 0.286275
0.742413 0.133333 0.290196
0.753688 0.133333 0.294865
0.762589 0.133333 0.298039
0.771491 0.134560 0.301961
0.780392 0.135014 0.305882
0.007843 0.027451 0.003922
0.011765 0.030190 0.003922
0.013243 0.030190 0.003922
0.015686 0.030190 0.003922
0.019608 0.031373 0.003922
0.023529 0.032329 0.003922
0.027451 0.034111 0.003922
0.034858 0.034111 0.003922
0.043137 0.035294 0.006848
0.048739 0.036468 0.007843
0.057641 0.038033 0.007843
0.066542 0.038033 0.011640
0.076377 0.039868 0.011765
0.088266 0.041955 0.015686
0.097168 0.042874 0.015686
0.106069 0.045876 0.019608
0.118892 0.046252 0.023529
0.127793 0.048667 0.026963
0.140616 0.049798 0.030812
0.150016 0.051328 0.035294
0.162340 0.053719 0.040303
0.175163 0.056728 0.045752
0.187986 0.057641 0.050731
0.200809 0.059389 0.055711
0.213632 0.061562 0.060691
0.227337 0.064788 0.066667
0.243262 0.066710 0.074529
0.257143 0.069743 0.079552
0.274946 0.073327 0.088453
0.292748 0.076770 0.094118
0.310551 0.078692 0.102334
0.328354 0.081602 0.111236
0.346156 0.084092 0.117647
0.363959 0.088753 0.125117
0.382446 0.090674 0.134018
0.403486 0.093461 0.142919
0.421289 0.096857 0.151821
0.439091 0.100735 0.160722
0.456894 0.101961 0.167745
0.474697 0.105319 0.174603
0.492499 0.108056 0.183505
0.510302 0.109978 0.188484
0.526009 0.112937 0.197386
0.541986 0.115378 0.203452
0.556365 0.117497 0.211267
0.573109 0.120386 0.216246
0.587551 0.121569 0.223529
0.601432 0.124308 0.230128
0.615313 0.124308 0.235107
0.628322 0.128229 0.240087
0.641145 0.128811 0.247059
0.653968 0.131499 0.253067
0.666791 0.132151 0.258824
0.678788 0.132507 0.262745
0.690080 0.134898 0.268908
0.701338 0.136072 0.273887
0.713110 0.136072 0.278431
0.723063 0.136523 0.282353
0.733746 0.137255 0.286275
0.744787 0.137255 0.290196
0.753688 0.139994 0.294865
0.762589 0.139994 0.299844
0.771491 0.139994 0.303961
0.780392 0.139994 0.305882
0.011640 0.035170 0.003922
0.011765 0.035170 0.003922
0.015686 0.035294 0.003922
0.018861 0.035294 0.003922
0.019919 0.039091 0.003922
0.024899 0.039091 0.003922
0.029879 0.039091 0.007719
0.035280 0.039216 0.007829
0.039943 0.043013 0.007843
0.048739 0.043013 0.007843
0.057641 0.043013 0.007843
0.066542 0.043137 0.011761
0.076377 0.046934 0.011765
0.088266 0.047059 0.015686
0.097168 0.050856 0.018640
0.106069 0.050862 0.019608
0.118892 0.052186 0.023529
0.127793 0.054777 0.027451
0.140056 0.054902 0.030812
0.150016 0.058699 0.035294
0.162340 0.058824 0.040772
0.175163 0.062621 0.045752
0.187737 0.062737 0.050731
0.200809 0.066542 0.055711
0.213632 0.066667 0.060691
0.226455 0.070464 0.066667
0.243200 0.074385 0.074510
0.257143 0.075595 0.079552
0.274946 0.078376 0.088453
0.289614 0.081565 0.093433
0.306629 0.082715 0.102334
0.324477 0.087661 0.111236
0.346156 0.090151 0.117647
0.363959 0.093993 0.125117
0.382446 0.097915 0.134018
0.403486 0.098039 0.142919
0.421289 0.101925 0.151821
0.439091 0.105698 0.160722
0.456894 0.109679 0.168627
0.474697 0.109745 0.174603
0.492499 0.113601 0.183505
0.510302 0.117523 0.188484
0.528063 0.117647 0.197386
0.541986 0.121444 0.203922
0.559680 0.124884 0.211267
0.573669 0.125383 0.216246
0.587551 0.127057 0.223529
0.601432 0.129287 0.230128
0.615494 0.129412 0.235288
0.629166 0.133209 0.240087
0.643014 0.133333 0.247059
0.653968 0.137130 0.253968
0.666791 0.137134 0.258824
0.679614 0.137255 0.263890
0.692384 0.141052 0.268908
0.701338 0.141052 0.273887
0.714161 0.141066 0.278431
0.724509 0.141176 0.283799
0.735885 0.144974 0.288746
0.744787 0.144974 0.290196
0.754411 0.144974 0.294865
0.766387 0.144974 0.299844
0.775288 0.144974 0.304824
0.784189 0.144974 0.309679
0.011765 0.040149 0.003922
0.015686 0.043137 0.004174
0.018232 0.044071 0.004855
0.019608 0.044071 0.007274
0.023604 0.044071 0.007843
0.027451 0.044071 0.007843
0.031951 0.045921 0.007843
0.036124 0.047889 0.007843
0.043137 0.047993 0.007843
0.048739 0.047993 0.007843
0.057641 0.050980 0.008495
0.066542 0.051914 0.011765
0.075444 0.052625 0.011765
0.084345 0.055376 0.015686
0.095570 0.055836 0.018736
0.106069 0.058824 0.019608
0.114970 0.059757 0.023529
0.127793 0.059757 0.027451
0.136695 0.062745 0.030812
0.149518 0.063679 0.035294
0.161777 0.066667 0.039216
0.173856 0.067600 0.045752
0.186863 0.070399 0.050731
0.197697 0.071522 0.055711
0.211578 0.074510 0.060691
0.225459 0.075444 0.066667
0.239340 0.079365 0.074510
0.256876 0.082620 0.079552
0.271024 0.083287 0.086275
0.288827 0.087045 0.093433
0.306629 0.091130 0.102334
0.324432 0.094118 0.111236
0.342235 0.096948 0.116215
0.363870 0.098884 0.125117
0.381762 0.102124 0.134018
0.401307 0.104222 0.142919
0.421289 0.108950 0.151821
0.439091 0.110738 0.160722
0.456894 0.113963 0.166398
0.474697 0.116224 0.174603
0.492499 0.118581 0.183505
0.510302 0.122502 0.189359
0.528105 0.125490 0.197386
0.541986 0.126424 0.203922
0.559788 0.129412 0.211267
0.573669 0.130345 0.216246
0.587551 0.133719 0.225148
0.602677 0.134267 0.230128
0.615500 0.137113 0.235294
0.629194 0.138189 0.243137
0.643075 0.141176 0.247518
0.656956 0.142110 0.253968
0.666916 0.142205 0.258853
0.679896 0.145098 0.263928
0.692437 0.146032 0.268908
0.704786 0.146032 0.273887
0.714265 0.146364 0.278867
0.726984 0.149020 0.283847
0.735885 0.149020 0.288827
0.748471 0.149953 0.293806
0.757610 0.149953 0.298039
0.766511 0.149953 0.301961
0.775412 0.149953 0.305076
0.784314 0.149953 0.309804
0.015686 0.049051 0.007843
0.018199 0.049051 0.007843
0.019608 0.049051 0.007843
0.023162 0.049051 0.007843
0.025674 0.050980 0.007843
0.028820 0.052972 0.007843
0.033800 0.052972 0.007843
0.038780 0.052972 0.007843
0.043760 0.053279 0.007843
0.048739 0.055756 0.009835
0.057641 0.056894 0.011765
0.066542 0.056894 0.011765
0.075444 0.059298 0.011765
0.084345 0.060815 0.015686
0.093246 0.060815 0.018736
0.106069 0.062840 0.019795
0.114970 0.064737 0.023529
0.126175 0.066667 0.027451
0.136695 0.068659 0.030812
0.149518 0.070588 0.035294
0.159975 0.072580 0.039216
0.171242 0.073867 0.045752
0.184065 0.076375 0.050731
0.197697 0.076900 0.055711
0.211578 0.080423 0.060691
0.225459 0.081863 0.066667
0.239340 0.084375 0.074510
0.254600 0.088266 0.079552
0.271024 0.089338 0.086275
0.288827 0.092188 0.093433
0.306629 0.096110 0.102334
0.324432 0.098766 0.110508
0.342235 0.101256 0.116215
0.363585 0.103953 0.125117
0.381762 0.107874 0.134018
0.401307 0.110689 0.142919
0.421289 0.113174 0.151821
0.439091 0.115717 0.160722
0.456894 0.119639 0.168627
0.474697 0.122612 0.174603
0.492499 0.125092 0.183505
0.510302 0.127605 0.192157
0.528105 0.130076 0.197386
0.542776 0.132568 0.203922
0.559788 0.135072 0.211267
0.573669 0.135601 0.217954
0.589854 0.139247 0.225148
0.604036 0.140564 0.230128
0.617397 0.143074 0.235294
0.632244 0.143597 0.243137
0.644087 0.146078 0.248988
