films/lomography_redscale_100.cube
TITLE "data/luts/rawtherapee/HaldCLUT/Color/Lomography/Lomography Redscale 100.png"
LUT_3D_SIZE 4
DOMAIN_MIN 0 0 0
DOMAIN_MAX 1 1 1
0.000000 0.000000 0.000000
0.202614 0.007843 0.054902
0.534641 0.058824 0.201307
0.776471 0.105882 0.305882
0.035294 0.112418 0.018301
0.163399 0.135948 0.047059
0.532026 0.190850 0.201307
0.803922 0.210458 0.317647
0.000000 0.430065 0.078431
0.000000 0.430065 0.058388
0.512418 0.490196 0.197386
0.894118 0.528105 0.360784
0.000000 0.788235 0.129412
0.000000 0.792157 0.074510
0.000000 0.792157 0.039216
0.933333 0.909804 0.388235
0.023529 0.011765 0.100654
0.283660 0.047059 0.124183
0.582571 0.094118 0.220915
0.788235 0.109804 0.309804
0.092810 0.163399 0.143791
0.225708 0.186928 0.154248
0.586202 0.238780 0.224401
0.827451 0.253595 0.329412
0.000000 0.461438 0.191721
0.024401 0.474365 0.174728
0.573566 0.535657 0.224837
0.915033 0.571242 0.369935
0.000000 0.800000 0.316340
0.000000 0.800000 0.269281
0.000000 0.803922 0.056645
0.952941 0.925490 0.396078
0.122876 0.075817 0.324183
0.378214 0.118954 0.359477
0.640523 0.161220 0.311983
0.820915 0.169935 0.325490
0.177778 0.274510 0.413943
0.351634 0.300944 0.444735
0.659550 0.344808 0.435294
0.874510 0.352941 0.349020
0.000000 0.540741 0.469281
0.171823 0.561511 0.500218
0.658388 0.617720 0.546841
0.953377 0.648802 0.388235
0.000000 0.820915 0.534641
0.000000 0.823529 0.518954
0.000000 0.823529 0.448366
0.996078 0.956863 0.415686
0.325490 0.239216 0.588235
0.532026 0.278431 0.647059
0.715033 0.305882 0.665359
0.878431 0.309804 0.419608
0.443137 0.469281 0.696732
0.563399 0.488889 0.731155
0.756863 0.520261 0.771242
0.917647 0.530719 0.661438
0.430065 0.691503 0.776471
0.559477 0.711111 0.810893
0.785621 0.742919 0.864924
0.964706 0.766013 0.823529
0.000000 0.854902 0.662745
0.000000 0.854902 0.666667
0.277124 0.911111 0.797386
1.000000 1.000000 0.984314
