films/lomography_redscale_100.cube
TITLE "data/luts/rawtherapee/HaldCLUT/Color/Lomography/Lomography Redscale 100.png"
LUT_3D_SIZE 8
DOMAIN_MIN 0 0 0
DOMAIN_MAX 1 1 1
0.000000 0.000000 0.000000
0.076190 0.000000 0.009524
0.168067 0.003922 0.039216
0.288515 0.015686 0.094118
0.440896 0.039216 0.159664
0.577031 0.066667 0.219608
0.684594 0.086275 0.264986
0.776471 0.105882 0.305882
0.005602 0.023529 0.001681
0.048739 0.031373 0.007843
0.140616 0.044578 0.030812
0.257143 0.064426 0.079552
0.421289 0.091397 0.151821
0.573109 0.115406 0.216246
0.688515 0.129412 0.266667
0.780392 0.135014 0.305882
0.027451 0.085714 0.011765
0.060264 0.093557 0.015686
0.132773 0.104842 0.031373
0.249700 0.121008 0.079552
0.421289 0.148459 0.151821
0.577591 0.171989 0.220168
0.702201 0.183754 0.272829
0.796078 0.187675 0.313725
0.052101 0.178711 0.027451
0.076190 0.182633 0.032493
0.135574 0.193277 0.043137
0.237215 0.209284 0.082353
0.420168 0.235614 0.155742
0.593277 0.259944 0.227611
0.723810 0.272349 0.284594
0.823529 0.275630 0.325490
0.023529 0.316527 0.054902
0.023529 0.316527 0.047059
0.044258 0.324210 0.050980
0.172309 0.340856 0.079552
0.392717 0.367187 0.149020
0.597759 0.393998 0.231933
0.752861 0.413445 0.297559
0.865546 0.417367 0.345098
0.000000 0.479552 0.086275
0.000000 0.479552 0.082353
0.000000 0.479552 0.066667
0.003361 0.488355 0.063866
0.287955 0.514846 0.127891
0.573669 0.550140 0.224570
0.773109 0.573669 0.308123
0.906443 0.585434 0.368627
0.000000 0.628011 0.105882
0.000000 0.628011 0.098039
0.000000 0.628011 0.082673
0.000000 0.628011 0.060424
0.000000 0.637055 0.072269
0.417927 0.677071 0.169188
0.749580 0.718207 0.304202
0.937255 0.741737 0.384314
0.000000 0.788235 0.129412
0.000000 0.788235 0.113725
0.000000 0.792157 0.082353
0.000000 0.792157 0.058824
0.000000 0.792157 0.039216
0.000000 0.792157 0.039216
0.384314 0.841457 0.168067
0.933333 0.909804 0.388235
0.003922 0.000000 0.019608
0.115406 0.007843 0.035294
0.206963 0.015686 0.058263
0.328932 0.035294 0.110924
0.470028 0.056102 0.171909
0.596639 0.074510 0.227451
0.696359 0.090196 0.270588
0.780392 0.105882 0.305882
0.022249 0.041857 0.031373
0.079152 0.051289 0.039216
0.170743 0.065249 0.054582
0.292163 0.085360 0.095238
0.448739 0.111004 0.163585
0.590796 0.131230 0.224090
0.702830 0.145098 0.272829
0.788235 0.149020 0.309804
0.047059 0.105322 0.044818
0.080112 0.109244 0.050797
0.154130 0.121008 0.062699
0.276751 0.140616 0.091317
0.444818 0.164317 0.163585
0.596364 0.186029 0.228011
0.712868 0.199440 0.278431
0.803922 0.199680 0.317647
0.067867 0.195598 0.061144
0.090070 0.198834 0.064426
0.143989 0.209375 0.072269
0.257143 0.225656 0.091317
0.440256 0.251644 0.163585
0.605454 0.274258 0.231933
0.734374 0.287395 0.288515
0.831373 0.287875 0.329412
0.023529 0.327651 0.081713
0.023529 0.327651 0.074510
0.049117 0.337335 0.080112
0.193060 0.354759 0.096439
0.411319 0.381616 0.156222
0.612885 0.408152 0.237295
0.760979 0.425210 0.301686
0.870588 0.429132 0.349020
0.000000 0.487395 0.111805
0.000000 0.487395 0.105059
0.000000 0.487395 0.084662
0.003361 0.499160 0.086686
0.311725 0.525673 0.132213
0.587435 0.559778 0.231933
0.780952 0.585297 0.312045
0.913725 0.593277 0.368868
0.000000 0.631933 0.129412
0.000000 0.631933 0.122529
0.000000 0.631933 0.103962
0.000000 0.631933 0.075710
0.000000 0.644898 0.076190
0.438838 0.685017 0.177168
0.757423 0.725502 0.308123
0.941176 0.745658 0.384314
0.000000 0.792157 0.182073
0.000000 0.792157 0.166387
0.000000 0.792157 0.129172
0.000000 0.793838 0.073870
0.000000 0.796078 0.040336
0.000000 0.796078 0.035294
0.403361 0.848339 0.175910
0.937255 0.913725 0.388235
0.019608 0.007843 0.078431
0.142537 0.019608 0.085954
0.234734 0.034254 0.100920
0.358944 0.054502 0.125090
0.492997 0.074510 0.183193
0.612325 0.093637 0.235294
0.708123 0.103882 0.276751
0.784314 0.105882 0.309804
0.044578 0.062425 0.093557
0.106385 0.072132 0.097479
0.197165 0.085954 0.105322
0.323478 0.107392 0.124999
0.476190 0.131024 0.175350
0.610198 0.150460 0.234814
0.715966 0.161608 0.280352
0.800000 0.164386 0.313725
0.073950 0.128371 0.109724
0.107277 0.132773 0.113165
0.183262 0.144538 0.117087
0.308123 0.164283 0.134099
0.475630 0.188018 0.175350
0.616795 0.207763 0.235854
0.729377 0.219048 0.285829
0.815686 0.219048 0.321569
0.073389 0.221849 0.129972
0.096919 0.226799 0.132773
0.159104 0.237375 0.136695
0.290916 0.253907 0.144584
0.473984 0.280123 0.178757
0.629395 0.300143 0.243697
0.751261 0.311885 0.296359
0.843137 0.310924 0.337255
0.016807 0.350300 0.140616
0.019928 0.354222 0.140616
0.038518 0.362465 0.144538
0.227565 0.379843 0.148459
0.447608 0.408003 0.174950
0.636415 0.432710 0.247619
0.778060 0.448568 0.309324
0.882353 0.452261 0.352941
0.000000 0.502041 0.171509
0.000000 0.502041 0.160750
0.000000 0.502452 0.140628
0.003361 0.518710 0.140616
0.354622 0.546058 0.158703
0.615904 0.580609 0.243697
0.796639 0.602767 0.319888
0.922129 0.612885 0.375990
0.000000 0.643377 0.213125
0.000000 0.643377 0.202504
0.000000 0.643697 0.170514
0.000000 0.643697 0.123810
0.001200 0.660584 0.110513
0.483268 0.702761 0.194958
0.776894 0.740673 0.315966
0.952701 0.761024 0.390476
0.000000 0.799440 0.281232
0.000000 0.799440 0.270028
0.000000 0.800000 0.242097
0.000000 0.800000 0.181913
0.000000 0.800000 0.074110
0.000000 0.803361 0.035294
0.444018 0.857143 0.189356
0.949020 0.921569 0.395518
0.043137 0.020728 0.157983
0.170788 0.039216 0.159664
0.269628 0.054902 0.169748
0.389676 0.074830 0.177591
0.521248 0.098039 0.194958
0.632093 0.113725 0.243137
0.723810 0.125490 0.282353
0.796078 0.125490 0.313725
0.076831 0.090676 0.179272
0.138421 0.099720 0.181513
0.231361 0.113908 0.185434
0.359104 0.134339 0.194100
0.507883 0.157343 0.205042
0.633453 0.174870 0.243697
0.734888 0.184794 0.286915
0.811765 0.184794 0.321569
0.107003 0.160224 0.202081
0.139987 0.165266 0.205454
0.218705 0.176894 0.208563
0.348185 0.196753 0.216807
0.508683 0.220168 0.220728
0.643858 0.238678 0.248442
0.749763 0.247619 0.294118
0.830972 0.247619 0.329412
0.098039 0.257943 0.230492
0.118127 0.264186 0.232813
0.191482 0.273629 0.236689
0.332773 0.293237 0.240428
0.511485 0.318425 0.244578
0.660218 0.338695 0.256423
0.773932 0.348139 0.306065
0.859944 0.346539 0.343097
0.000000 0.387115 0.253221
0.000000 0.391036 0.256022
0.084034 0.401395 0.258858
0.274727 0.418716 0.263294
0.489419 0.445710 0.268679
0.668908 0.469468 0.264380
0.800903 0.484034 0.319888
0.898039 0.485154 0.360784
0.000000 0.522289 0.281072
0.000000 0.522289 0.273229
0.000000 0.527571 0.268908
0.098439 0.546207 0.272829
0.408083 0.576345 0.278466
0.651895 0.606368 0.279552
0.818567 0.628400 0.331653
0.937255 0.637375 0.380392
0.000000 0.657783 0.327251
0.000000 0.657783 0.319408
0.000000 0.657783 0.298771
0.000000 0.659384 0.256022
0.045675 0.684251 0.247699
0.538044 0.726794 0.260596
0.802607 0.760659 0.327731
0.964706 0.778151 0.396078
0.000000 0.805042 0.385434
0.000000 0.805042 0.378231
0.000000 0.807843 0.361905
0.000000 0.807843 0.323489
0.000000 0.807843 0.244498
0.000000 0.811765 0.072269
0.499640 0.872829 0.212885
0.964706 0.933333 0.400000
0.081232 0.047059 0.252661
0.208884 0.067867 0.261625
0.307723 0.085154 0.269468
0.423850 0.105082 0.269468
0.547579 0.125170 0.257703
0.655862 0.140216 0.253942
0.743417 0.149020 0.290196
0.810644 0.149020 0.321569
0.118848 0.128772 0.287955
0.180952 0.137815 0.294198
0.276751 0.153330 0.303641
0.401921 0.173292 0.311485
0.542057 0.193700 0.298714
0.663305 0.209752 0.270497
0.757983 0.218282 0.297765
0.827451 0.216887 0.329412
0.151821 0.203361 0.322849
0.181593 0.210084 0.326942
0.268908 0.221849 0.338032
0.397199 0.241777 0.347053
0.545933 0.264186 0.338535
0.674933 0.280672 0.300817
0.774790 0.289636 0.305882
0.850820 0.285714 0.337255
0.115406 0.306202 0.355742
0.152381 0.310467 0.360464
0.247779 0.321889 0.370628
0.388555 0.341954 0.385994
0.550700 0.364935 0.382393
0.690871 0.384359 0.342457
0.801898 0.394078 0.319431
0.881553 0.393277 0.352941
0.009844 0.435854 0.382073
0.068347 0.439776 0.385994
0.153501 0.449311 0.396959
0.340616 0.468004 0.414246
0.537243 0.494106 0.424090
0.699160 0.514835 0.385434
0.829555 0.529972 0.333196
0.917647 0.529972 0.372229
0.000000 0.548619 0.389916
0.000000 0.552541 0.394958
0.000000 0.561745 0.406563
0.184028 0.581067 0.425530
0.469022 0.610633 0.448739
0.682970 0.638953 0.425050
0.843697 0.659201 0.349671
0.952941 0.667627 0.388235
0.000000 0.676271 0.426331
0.000000 0.676271 0.422203
0.000000 0.676271 0.409135
0.000000 0.684251 0.403361
0.143120 0.713188 0.430675
0.587195 0.754770 0.441765
0.830972 0.785560 0.364146
0.980392 0.801761 0.403922
0.000000 0.815686 0.477311
0.000000 0.815686 0.473389
0.000000 0.815686 0.464586
0.000000 0.815686 0.442017
0.000000 0.815686 0.399680
0.000000 0.819608 0.306843
0.560224 0.891317 0.294678
0.983193 0.945098 0.407843
0.137815 0.090756 0.361345
0.266427 0.113725 0.385114
0.360784 0.129892 0.401040
0.465386 0.146619 0.408964
0.578311 0.165106 0.390476
0.682913 0.177511 0.337815
0.767187 0.184874 0.301961
0.827451 0.184314 0.329412
0.180952 0.182633 0.404722
0.245378 0.191299 0.416624
0.341176 0.207809 0.436369
0.456182 0.225770 0.452512
0.578311 0.244635 0.448179
0.689110 0.257417 0.398319
0.785731 0.266907 0.319888
0.850980 0.261064 0.337255
0.204482 0.266106 0.440336
0.249300 0.270588 0.451060
0.340765 0.286263 0.470245
0.457703 0.303058 0.488218
0.586497 0.321569 0.494335
0.702109 0.337255 0.454902
0.802515 0.345098 0.359309
0.874030 0.341096 0.349020
0.193117 0.363425 0.475230
0.236415 0.368536 0.483073
0.328086 0.381330 0.500120
0.455496 0.398765 0.524381
0.594398 0.418442 0.535574
0.715326 0.434517 0.510661
0.824741 0.445778 0.413034
0.903481 0.445778 0.364706
0.081793 0.488115 0.502521
0.134454 0.492208 0.507003
0.260904 0.503459 0.525913
0.424616 0.521694 0.553947
0.587515 0.544492 0.576070
0.726130 0.563986 0.564306
0.847070 0.578311 0.470588
0.940216 0.582233 0.380392
0.000000 0.589836 0.510364
0.000000 0.593758 0.516287
0.055531 0.605042 0.534374
0.319968 0.624787 0.566787
0.541680 0.651598 0.601463
0.714777 0.675150 0.605522
0.857143 0.693443 0.530532
0.969188 0.702601 0.396078
0.000000 0.698840 0.514286
0.000000 0.698840 0.510364
0.000000 0.702761 0.510604
0.000000 0.720997 0.542548
0.330452 0.751661 0.592568
0.642817 0.786909 0.632493
0.845378 0.813388 0.580792
0.996078 0.830012 0.411765
0.000000 0.824090 0.561345
0.000000 0.824090 0.557423
0.000000 0.827451 0.553501
0.000000 0.827451 0.540776
0.000000 0.827451 0.518207
0.000000 0.835374 0.488035
0.606723 0.908363 0.566387
1.000000 0.960784 0.419608
0.220168 0.155182 0.472829
0.342137 0.174790 0.505162
0.429132 0.190476 0.525730
0.517567 0.206162 0.539496
0.614566 0.221849 0.538295
0.704762 0.231693 0.502281
0.790476 0.237535 0.399280
0.850980 0.233613 0.337255
0.271869 0.254902 0.520848
0.333333 0.265706 0.537083
0.421289 0.279529 0.559790
0.520094 0.295238 0.580244
0.623095 0.309804 0.589516
0.717384 0.321706 0.570628
0.805202 0.329412 0.485863
0.877471 0.325490 0.349980
0.303962 0.338936 0.558864
0.348162 0.346779 0.570628
0.429132 0.358543 0.592088
0.528852 0.374230 0.614383
0.636323 0.389916 0.629452
0.732419 0.405602 0.619814
0.821746 0.413445 0.555765
0.901961 0.410964 0.374550
0.313645 0.442577 0.597119
0.349934 0.447619 0.604962
0.429063 0.459384 0.624570
0.536695 0.475870 0.650397
0.648522 0.493214 0.669548
0.749671 0.506443 0.668347
0.841457 0.514286 0.621803
0.926611 0.514286 0.431373
0.263225 0.550140 0.621849
0.304602 0.554062 0.630378
0.394306 0.565826 0.651220
0.522586 0.583308 0.681130
0.648522 0.601120 0.705802
0.760933 0.616978 0.713645
0.860859 0.629257 0.682273
0.952941 0.635774 0.501961
0.069148 0.645938 0.631933
0.138478 0.649860 0.641457
0.290676 0.661625 0.663305
0.464986 0.681232 0.699891
0.623061 0.701012 0.735163
0.757537 0.720482 0.753536
0.872109 0.735311 0.735894
0.972789 0.744218 0.568627
0.000000 0.736535 0.614966
0.000000 0.741005 0.623358
0.000000 0.751020 0.645138
0.159024 0.771509 0.685234
0.501755 0.799920 0.739702
0.711164 0.827188 0.780952
0.866678 0.847756 0.781913
0.995118 0.862345 0.620008
0.000000 0.837535 0.637535
0.000000 0.837535 0.637535
0.000000 0.839216 0.633613
0.000000 0.839216 0.629212
0.000000 0.839216 0.616727
0.000000 0.865546 0.656022
0.676190 0.932613 0.774390
1.000000 0.976471 0.593838
0.325490 0.239216 0.588235
0.436975 0.258824 0.621289
0.509244 0.274510 0.639216
0.581513 0.286275 0.658824
0.661625 0.298039 0.666667
0.737815 0.309804 0.658824
0.807843 0.313725 0.609524
0.878431 0.309804 0.419608
0.389916 0.346779 0.639216
0.443858 0.358543 0.655622
0.515166 0.370308 0.678111
0.593277 0.385994 0.698039
0.677311 0.397759 0.713725
0.757423 0.409524 0.713725
0.828411 0.415686 0.684034
0.894118 0.413445 0.542857
0.431373 0.434734 0.681793
0.468107 0.442257 0.691637
0.532773 0.453782 0.709804
0.608964 0.466106 0.732773
0.696759 0.481633 0.749020
0.775990 0.492997 0.756303
0.845378 0.497479 0.736935
0.909804 0.496919 0.634734
0.458824 0.534454 0.725490
0.487955 0.538856 0.731733
0.548459 0.550140 0.749020
0.624970 0.562225 0.769748
0.712605 0.577591 0.789036
0.793838 0.589356 0.800000
0.867307 0.597199 0.788715
0.933333 0.601120 0.710924
0.454902 0.630252 0.756863
0.482353 0.634174 0.764706
0.544538 0.642017 0.782793
0.629692 0.657703 0.804722
0.720448 0.669468 0.827451
0.808403 0.684194 0.842017
0.884594 0.692997 0.838095
0.951821 0.699720 0.779272
0.407283 0.722689 0.784314
0.440336 0.728051 0.792157
0.516527 0.737815 0.811765
0.616807 0.753501 0.839216
0.720288 0.768227 0.865706
0.816246 0.781032 0.883393
0.900280 0.793277 0.886835
0.972549 0.800560 0.843697
0.158543 0.810084 0.760784
0.233053 0.814006 0.770308
0.378151 0.825450 0.797519
0.532773 0.841457 0.837615
0.677871 0.861064 0.881232
0.800800 0.880672 0.921889
0.904202 0.893717 0.941176
0.988235 0.904202 0.905882
0.000000 0.854902 0.662745
0.000000 0.854902 0.662745
0.000000 0.854902 0.662745
0.000000 0.854902 0.666667
0.000000 0.881232 0.720448
0.485714 0.929972 0.839776
0.810644 0.970868 0.935574
1.000000 1.000000 0.984314
