films/lomography_x-pro_slide_200.cube
# Created by: G'MIC (https://gmic.eu)
TITLE "lomography_x-pro_slide_200"
# LUT size
LUT_3D_SIZE 5
# Data domain
DOMAIN_MIN 0.0 0.0 0.0
DOMAIN_MAX 1.0 1.0 1.0
# LUT data points
0.027399742975831032 0.028474410995841026 0.025182552635669708
0.18972091376781464 0.036876033991575241 0.03026001900434494
0.45124426484107971 0.057985074818134308 0.040137123316526413
0.77306795120239258 0.10949829965829849 0.047085527330636978
0.99152678251266479 0.20830264687538147 0.030714761465787888
0.095986761152744293 0.22510825097560883 0.087025061249732971
0.2202417254447937 0.23680755496025085 0.09323553740978241
0.49158570170402527 0.26641702651977539 0.098896190524101257
0.79627180099487305 0.3149840235710144 0.10066944360733032
0.98688340187072754 0.40672728419303894 0.076968610286712646
0.036109820008277893 0.54017949104309082 0.15411925315856934
0.2240586131811142 0.54628908634185791 0.15442267060279846
0.5359463095664978 0.56216102838516235 0.16326798498630524
0.81248092651367188 0.59882724285125732 0.15294529497623444
0.9668310284614563 0.65620416402816772 0.11770696938037872
0.25516116619110107 0.81846201419830322 0.27861770987510681
0.4019315242767334 0.81823217868804932 0.28805595636367798
0.64099782705307007 0.8126370906829834 0.2919158935546875
0.82575207948684692 0.81856697797775269 0.28589639067649841
0.9531862735748291 0.83644402027130127 0.27204728126525879
0.62935745716094971 0.94288480281829834 0.49116206169128418
0.72067826986312866 0.94877928495407104 0.52259558439254761
0.79144001007080078 0.94889676570892334 0.52428466081619263
0.87682610750198364 0.9463341236114502 0.50616633892059326
0.96725201606750488 0.95547598600387573 0.49950796365737915
0.033354353159666061 0.02223530225455761 0.15248093008995056
0.18946348130702972 0.025582587346434593 0.16435384750366211
0.45402464270591736 0.045615103095769882 0.17701660096645355
0.78987652063369751 0.093449339270591736 0.1811058521270752
0.9905434250831604 0.2143203467130661 0.16277459263801575
0.10314657539129257 0.21159869432449341 0.22106648981571198
0.22774568200111389 0.22597967088222504 0.22426843643188477
0.49323952198028564 0.25504264235496521 0.23523016273975372
0.8081669807434082 0.30938708782196045 0.23657722771167755
0.99107450246810913 0.41047912836074829 0.21688465774059296
0.041232645511627197 0.53502124547958374 0.29752969741821289
0.24210478365421295 0.53836899995803833 0.29915633797645569
0.53880804777145386 0.56128162145614624 0.31091895699501038
0.81521433591842651 0.59631842374801636 0.31188631057739258
0.97043693065643311 0.65774130821228027 0.29023489356040955
0.24400459229946136 0.81955945491790771 0.42482689023017883
0.40743821859359741 0.81866085529327393 0.4275754988193512
0.64374077320098877 0.81804752349853516 0.43805325031280518
0.82538896799087524 0.82697898149490356 0.43916213512420654
0.95321953296661377 0.84126514196395874 0.42109829187393188
0.67450153827667236 0.95291274785995483 0.6228681206703186
0.72144925594329834 0.95309948921203613 0.62682652473449707
0.7936396598815918 0.9531862735748291 0.63655596971511841
0.87254554033279419 0.95333623886108398 0.6338120698928833
0.965648353099823 0.95853120088577271 0.6164582371711731
0.031202981248497963 0.019351750612258911 0.34473103284835815
0.1868651807308197 0.018433380872011185 0.3620985746383667
0.46109804511070251 0.035495802760124207 0.37723866105079651
0.80204778909683228 0.074728257954120636 0.38232553005218506
0.99205493927001953 0.20253551006317139 0.37260574102401733
0.10395579785108566 0.19548907876014709 0.43419057130813599
0.23388464748859406 0.20623520016670227 0.44332888722419739
0.50462561845779419 0.23477074503898621 0.46138948202133179
0.80976283550262451 0.29063963890075684 0.46737557649612427
0.99204736948013306 0.39858773350715637 0.45686212182044983
0.049963798373937607 0.52088886499404907 0.52636736631393433
0.24813981354236603 0.5264662504196167 0.53539347648620605
0.54657673835754395 0.54892253875732422 0.54897218942642212
0.82122147083282471 0.58622616529464722 0.55752527713775635
0.97045636177062988 0.65317326784133911 0.54624348878860474
0.2453438937664032 0.81355279684066772 0.63956922292709351
0.40527138113975525 0.82160764932632446 0.64440125226974487
0.64148825407028198 0.82089674472808838 0.65244901180267334
0.82793092727661133 0.83063966035842896 0.66058266162872314
0.95309638977050781 0.84750223159790039 0.65540742874145508
0.67284291982650757 0.95947539806365967 0.76894426345825195
0.71985244750976562 0.96055728197097778 0.77173066139221191
0.78890442848205566 0.9602242112159729 0.77640277147293091
0.87032675743103027 0.96187585592269897 0.78055912256240845
0.96724516153335571 0.96352481842041016 0.77588117122650146
0.030838506296277046 0.00037716137012466788 0.5878673791885376
0.17818523943424225 0.002274681581184268 0.6101880669593811
0.45262870192527771 0.018648648634552956 0.63593053817749023
0.79868161678314209 0.045286785811185837 0.65204036235809326
0.99418854713439941 0.15604157745838165 0.64266872406005859
0.094355866312980652 0.14768664538860321 0.6857985258102417
0.22814537584781647 0.15536074340343475 0.69323408603668213
0.49724873900413513 0.18211448192596436 0.70826476812362671
0.80623674392700195 0.24137137830257416 0.72492468357086182
0.99222952127456665 0.35646283626556396 0.72604578733444214
0.073356255888938904 0.48317229747772217 0.75490003824234009
0.25677430629730225 0.48713350296020508 0.75960415601730347
0.54891258478164673 0.50949299335479736 0.77096748352050781
0.82097154855728149 0.54914242029190063 0.78245323896408081
0.97429615259170532 0.63291537761688232 0.78087097406387329
0.22088788449764252 0.8120691180229187 0.80235624313354492
0.39896407723426819 0.81637328863143921 0.8077995777130127
0.64134705066680908 0.82021719217300415 0.81877231597900391
0.83015567064285278 0.82673972845077515 0.82795411348342896
0.95421844720840454 0.84873312711715698 0.82948487997055054
0.6824684739112854 0.96472102403640747 0.86735129356384277
0.71909481287002563 0.96468597650527954 0.86922401189804077
0.7888946533203125 0.96484494209289551 0.87308031320571899
0.86893290281295776 0.9692341685295105 0.87922793626785278
0.96931195259094238 0.97062033414840698 0.87924253940582275
0.066838972270488739 0 0.77529031038284302
0.19552230834960938 0 0.80514281988143921
0.46162697672843933 0 0.83354628086090088
0.79570692777633667 0.0055028880015015602 0.86572492122650146
0.99221932888031006 0.10387573391199112 0.84587019681930542
0.10838428884744644 0.077390618622303009 0.85260361433029175
0.22033071517944336 0.075508370995521545 0.86740881204605103
0.48874109983444214 0.10000089555978775 0.88264530897140503
0.80572909116744995 0.16561391949653625 0.90250611305236816
0.99518740177154541 0.27881553769111633 0.8991052508354187
0.11157196760177612 0.39261189103126526 0.88690531253814697
0.28235551714897156 0.39830848574638367 0.89194267988204956
0.56407696008682251 0.42816311120986938 0.90467733144760132
0.83673310279846191 0.46349295973777771 0.91663074493408203
0.98769521713256836 0.55327862501144409 0.91922497749328613
0.19982026517391205 0.78070688247680664 0.90623313188552856
0.38544133305549622 0.78461408615112305 0.90876114368438721
0.64088279008865356 0.78865933418273926 0.91906654834747314
0.83000284433364868 0.79758065938949585 0.92955827713012695
0.96345645189285278 0.82280641794204712 0.935741126537323
0.66278737783432007 0.96662682294845581 0.95144498348236084
0.69243407249450684 0.96263581514358521 0.95241659879684448
0.77922844886779785 0.96314162015914917 0.95356559753417969
0.86545068025588989 0.96733605861663818 0.96529000997543335
0.97780966758728027 0.9743574857711792 0.97585946321487427
