films/lomography_x-pro_slide_200.cube
# Created by: G'MIC (https://gmic.eu)
TITLE "lomography_x-pro_slide_200"
# LUT size
LUT_3D_SIZE 7
# Data domain
DOMAIN_MIN 0.0 0.0 0.0
DOMAIN_MAX 1.0 1.0 1.0
# LUT data points
0.027399742975831032 0.028474410995841026 0.025182552635669708
0.12661801278591156 0.034919291734695435 0.028601597994565964
0.26207107305526733 0.0396614670753479 0.031753629446029663
0.45124426484107971 0.057985074818134308 0.040137123316526413
0.67063957452774048 0.08835311233997345 0.047828149050474167
0.86158734560012817 0.13783153891563416 0.041846569627523422
0.99152678251266479 0.20830264687538147 0.030714761465787888
0.083514794707298279 0.15073387324810028 0.065918862819671631
0.14831829071044922 0.15741066634654999 0.066511549055576324
0.28788068890571594 0.1668832004070282 0.073831789195537567
0.47677499055862427 0.18843938410282135 0.0774812251329422
0.69103914499282837 0.21929948031902313 0.081384219229221344
0.87124484777450562 0.26822498440742493 0.073346741497516632
0.98960602283477783 0.33581480383872986 0.0593707375228405
0.076566211879253387 0.31721282005310059 0.11033477634191513
0.15056709945201874 0.319833904504776 0.11107520014047623
0.30966892838478088 0.33194395899772644 0.11770689487457275
0.50635701417922974 0.3553892970085144 0.12021227180957794
0.71385383605957031 0.37921109795570374 0.1238025575876236
0.87863266468048096 0.42262580990791321 0.11607369780540466
0.98366743326187134 0.48354426026344299 0.094472624361515045
0.036109820008277893 0.54017949104309082 0.15411925315856934
0.13381332159042358 0.5438237190246582 0.15195171535015106
0.32539427280426025 0.5505528450012207 0.1578325629234314
0.5359463095664978 0.56216102838516235 0.16326798498630524
0.73308718204498291 0.58405721187591553 0.15934060513973236
0.87474596500396729 0.61418247222900391 0.14358620345592499
0.9668310284614563 0.65620416402816772 0.11770696938037872
0.12742604315280914 0.74587255716323853 0.22296702861785889
0.21526788175106049 0.75041210651397705 0.22497713565826416
0.40098118782043457 0.75143647193908691 0.23135015368461609
0.59349256753921509 0.74665099382400513 0.23687830567359924
0.75472915172576904 0.75419533252716064 0.23406034708023071
0.87033098936080933 0.76995855569839478 0.2178751528263092
0.95471245050430298 0.78917747735977173 0.20446360111236572
0.39496737718582153 0.8682977557182312 0.34676375985145569
0.46335479617118835 0.87092936038970947 0.35786280035972595
0.57325464487075806 0.86761051416397095 0.36005666851997375
0.6948428750038147 0.86452072858810425 0.36022657155990601
0.79400640726089478 0.86427503824234009 0.36195039749145508
0.87916845083236694 0.86834883689880371 0.34764516353607178
0.95383274555206299 0.87829327583312988 0.34608957171440125
0.62935745716094971 0.94288480281829834 0.49116206169128418
0.69538432359695435 0.94866007566452026 0.52036291360855103
0.7419465184211731 0.94889813661575317 0.51854020357131958
0.79144001007080078 0.94889676570892334 0.52428466081619263
0.84677523374557495 0.94744813442230225 0.51871472597122192
0.90658396482467651 0.9486391544342041 0.49866160750389099
0.96725201606750488 0.95547598600387573 0.49950796365737915
0.034460913389921188 0.023819329217076302 0.10723099112510681
0.12767574191093445 0.025935782119631767 0.11258161813020706
0.26338386535644531 0.032123848795890808 0.1174870952963829
0.4510226845741272 0.048410035669803619 0.12617278099060059
0.68264347314834595 0.073376595973968506 0.13302859663963318
0.87783515453338623 0.12510150671005249 0.12673264741897583
0.9922606348991394 0.2097356915473938 0.11316961795091629
0.086423002183437347 0.13972257077693939 0.14585791528224945
0.15346531569957733 0.148016557097435 0.1488492488861084
0.28640693426132202 0.15915217995643616 0.15364794433116913
0.4746188223361969 0.18133910000324249 0.15845100581645966
0.70092517137527466 0.21401692926883698 0.16239082813262939
0.88301700353622437 0.26470521092414856 0.15371564030647278
0.99247932434082031 0.34016728401184082 0.13831469416618347
0.088025175034999847 0.30908071994781494 0.19149252772331238
0.17020796239376068 0.31368961930274963 0.1893409788608551
0.31560936570167542 0.32549795508384705 0.19260016083717346
0.50651794672012329 0.34827125072479248 0.20141503214836121
0.71947574615478516 0.37476310133934021 0.20550137758255005
0.88502311706542969 0.41994205117225647 0.19726322591304779
0.98599779605865479 0.48730349540710449 0.17769582569599152
0.033171813935041428 0.53691142797470093 0.23792417347431183
0.15525250136852264 0.53650081157684326 0.23705416917800903
0.33408147096633911 0.54426556825637817 0.24187712371349335
0.53774839639663696 0.56122797727584839 0.25017538666725159
0.73413217067718506 0.57918423414230347 0.25253736972808838
0.87711429595947266 0.61594116687774658 0.23964644968509674
0.97077494859695435 0.65617579221725464 0.22380605340003967
0.10712844133377075 0.74821358919143677 0.30804738402366638
0.22820332646369934 0.74871301651000977 0.31110581755638123
0.40901806950569153 0.74609589576721191 0.31776481866836548
0.59594249725341797 0.75199764966964722 0.32406225800514221
0.75409555435180664 0.76093012094497681 0.32662609219551086
0.87082648277282715 0.77698498964309692 0.31427532434463501
0.95730149745941162 0.79236483573913574 0.30350896716117859
0.41588741540908813 0.86911690235137939 0.42659357190132141
0.4714294970035553 0.8717883825302124 0.4300399124622345
0.5792536735534668 0.86673080921173096 0.43308940529823303
0.69776636362075806 0.8681408166885376 0.44093847274780273
0.79533082246780396 0.86957937479019165 0.44469749927520752
0.87808740139007568 0.87165313959121704 0.43155643343925476
0.95414602756500244 0.87918496131896973 0.42212226986885071
0.66581708192825317 0.94982361793518066 0.56883382797241211
0.70453876256942749 0.95261913537979126 0.57745957374572754
0.74593359231948853 0.94954413175582886 0.5828707218170166
0.79625391960144043 0.95315611362457275 0.59027326107025146
0.84849518537521362 0.95155906677246094 0.58824557065963745
0.90295642614364624 0.95148950815200806 0.57654821872711182
0.96699637174606323 0.95712649822235107 0.56717967987060547
0.031810417771339417 0.021458255127072334 0.20604021847248077
0.12543532252311707 0.020716886967420578 0.21638834476470947
0.26405629515647888 0.028351549059152603 0.22495517134666443
0.45781928300857544 0.042417772114276886 0.23438569903373718
0.68733698129653931 0.067216552793979645 0.24023814499378204
0.87640011310577393 0.12561443448066711 0.23241215944290161
0.99016648530960083 0.2143566757440567 0.22292383015155792
0.091083437204360962 0.13219316303730011 0.25610345602035522
0.15742021799087524 0.13884088397026062 0.26070621609687805
0.2906593382358551 0.15125280618667603 0.26857614517211914
0.4838099479675293 0.17108626663684845 0.27728164196014404
0.70507299900054932 0.20305761694908142 0.28091126680374146
0.88384360074996948 0.26086091995239258 0.27212542295455933
0.99239540100097656 0.34269812703132629 0.26039588451385498
0.097149461507797241 0.30059316754341125 0.30960452556610107
0.17199867963790894 0.30712258815765381 0.30937004089355469
0.31664472818374634 0.31784668564796448 0.31874048709869385
0.51300889253616333 0.33832272887229919 0.32891115546226501
0.72563129663467407 0.36898797750473022 0.33223417401313782
0.88719075918197632 0.41615036129951477 0.32550972700119019
0.98819893598556519 0.4842742383480072 0.31430518627166748
0.045224595814943314 0.53190052509307861 0.36641043424606323
0.16099844872951508 0.53460144996643066 0.36743906140327454
0.33627024292945862 0.54027938842773438 0.37510383129119873
0.54142987728118896 0.55764269828796387 0.38347664475440979
0.74076777696609497 0.57726359367370605 0.38797116279602051
0.87921142578125 0.6129879355430603 0.38055813312530518
0.96988540887832642 0.65767854452133179 0.36666339635848999
0.10499323159456253 0.75054198503494263 0.44118747115135193
0.22718127071857452 0.752666175365448 0.44445610046386719
0.41004243493080139 0.7462841272354126 0.45064821839332581
0.59720462560653687 0.75275766849517822 0.45765852928161621
0.75510573387145996 0.7631758451461792 0.46319729089736938
0.86984544992446899 0.78035944700241089 0.45671206712722778
0.95518273115158081 0.79759788513183594 0.44594961404800415
0.39969351887702942 0.87255609035491943 0.55592173337936401
0.46770501136779785 0.87587177753448486 0.55511850118637085
0.57567524909973145 0.86968255043029785 0.55706650018692017
0.69460970163345337 0.86917650699615479 0.56380271911621094
0.79322576522827148 0.87231671810150146 0.56909304857254028
0.87751728296279907 0.87522643804550171 0.56310945749282837
0.95318770408630371 0.88378500938415527 0.55166780948638916
0.68006402254104614 0.95597350597381592 0.68163710832595825
0.70409280061721802 0.95827567577362061 0.67753297090530396
0.73686027526855469 0.95562666654586792 0.68593078851699829
0.79055070877075195 0.95428311824798584 0.68657016754150391
0.84384775161743164 0.95436453819274902 0.68770360946655273
0.89687365293502808 0.95756345987319946 0.68877708911895752
0.96479755640029907 0.96098345518112183 0.67187851667404175
0.031202981248497963 0.019351750612258911 0.34473103284835815
0.12365896254777908 0.016138413920998573 0.35612645745277405
0.26264047622680664 0.023465445265173912 0.36637446284294128
0.46109804511070251 0.035495802760124207 0.37723866105079651
0.69473707675933838 0.054723866283893585 0.38509538769721985
0.88504421710968018 0.1102820485830307 0.3788808286190033
0.99205493927001953 0.20253551006317139 0.37260574102401733
0.084291450679302216 0.12380661070346832 0.40391883254051208
0.15865333378314972 0.12649422883987427 0.40988782048225403
0.29383322596549988 0.13882452249526978 0.4205394983291626
0.48910900950431824 0.1572672575712204 0.43179166316986084
0.70810019969940186 0.18723952770233154 0.43810096383094788
0.88483959436416626 0.24672903120517731 0.4332338273525238
0.99375051259994507 0.32989397644996643 0.42509591579437256
0.1046307161450386 0.28541556000709534 0.46376359462738037
0.18078956007957458 0.29073360562324524 0.46733564138412476
0.32399642467498779 0.30524787306785583 0.4786418080329895
0.51913321018218994 0.32692047953605652 0.49104949831962585
0.72710061073303223 0.3569757342338562 0.49791461229324341
0.8875153660774231 0.40491381287574768 0.49604403972625732
0.98882025480270386 0.47503125667572021 0.48774102330207825
0.049963798373937607 0.52088886499404907 0.52636736631393433
0.16719220578670502 0.52241998910903931 0.53179097175598145
0.34055209159851074 0.53195309638977051 0.53955775499343872
0.54657673835754395 0.54892253875732422 0.54897218942642212
0.74287587404251099 0.57205724716186523 0.55665880441665649
0.88170117139816284 0.6043241024017334 0.55619961023330688
0.97045636177062988 0.65317326784133911 0.54624348878860474
0.11701401323080063 0.74083191156387329 0.59747672080993652
0.23742567002773285 0.74428564310073853 0.60294198989868164
0.40592861175537109 0.74836307764053345 0.60784941911697388
0.59848451614379883 0.75106525421142578 0.61492544412612915
0.7594791054725647 0.76458120346069336 0.6220390796661377
0.87183469533920288 0.7785525918006897 0.62426048517227173
0.95382058620452881 0.8004763126373291 0.61562418937683105
0.39819410443305969 0.87011969089508057 0.68447315692901611
0.46950435638427734 0.87516146898269653 0.68649661540985107
0.56934285163879395 0.87452429533004761 0.68656724691390991
0.68994873762130737 0.8741309642791748 0.69287985563278198
0.79402172565460205 0.87663418054580688 0.69954824447631836
0.87763434648513794 0.87987464666366577 0.70101606845855713
0.95320475101470947 0.88788747787475586 0.69643384218215942
0.67284291982650757 0.95947539806365967 0.76894426345825195
0.70477843284606934 0.96103173494338989 0.77145117521286011
0.7392268180847168 0.96035373210906982 0.77248406410217285
0.78890442848205566 0.9602242112159729 0.77640277147293091
0.8427162766456604 0.96041727066040039 0.780487060546875
0.89959454536437988 0.96267086267471313 0.78072714805603027
0.96724516153335571 0.96352481842041016 0.77588117122650146
0.026409687474370003 0.0065919766202569008 0.50462299585342407
0.1187329888343811 0.0049437875859439373 0.52067714929580688
0.25848856568336487 0.014498332515358925 0.53630423545837402
0.45840752124786377 0.026150617748498917 0.5509258508682251
0.69153094291687012 0.040302500128746033 0.56047165393829346
0.8815453052520752 0.092211611568927765 0.56112867593765259
0.9933241605758667 0.17522616684436798 0.55277764797210693
0.07433667778968811 0.097448073327541351 0.57614564895629883
0.15381288528442383 0.10009321570396423 0.58209747076034546
0.28897920250892639 0.11473074555397034 0.59151774644851685
0.48476839065551758 0.13224790990352631 0.60383546352386475
0.70479851961135864 0.16067002713680267 0.61400485038757324
0.88425391912460327 0.22105121612548828 0.61739653348922729
0.99366581439971924 0.30402150750160217 0.61189407110214233
0.11413517594337463 0.25992324948310852 0.63425630331039429
0.18819719552993774 0.26267918944358826 0.64089334011077881
0.32633426785469055 0.27576789259910583 0.64727991819381714
0.51855671405792236 0.29568859934806824 0.65887737274169922
0.72431045770645142 0.32709559798240662 0.6689751148223877
0.88672655820846558 0.38237190246582031 0.67354732751846313
0.98915040493011475 0.45534998178482056 0.66867977380752563
0.067127838730812073 0.49947008490562439 0.68813914060592651
0.17364950478076935 0.50005513429641724 0.69435155391693115
0.34516870975494385 0.50978946685791016 0.69919455051422119
0.54784590005874634 0.5278705358505249 0.70914000272750854
0.74158722162246704 0.55094730854034424 0.71666234731674194
0.88373512029647827 0.5867002010345459 0.72100579738616943
0.97234946489334106 0.64350515604019165 0.71399956941604614
0.10815659910440445 0.73240077495574951 0.73198986053466797
0.23263208568096161 0.73650848865509033 0.73872959613800049
0.40440201759338379 0.74302190542221069 0.74422484636306763
0.59964913129806519 0.74846535921096802 0.75303995609283447
0.76315605640411377 0.75748264789581299 0.75932949781417847
0.87404727935791016 0.77221524715423584 0.7642364501953125
0.95493489503860474 0.79924935102462769 0.75943922996520996
0.39443334937095642 0.87119174003601074 0.78245842456817627
0.46537497639656067 0.87496912479400635 0.78701227903366089
0.56670153141021729 0.8770405650138855 0.78948915004730225
0.69057440757751465 0.8764958381652832 0.79679900407791138
0.79712909460067749 0.87831377983093262 0.80301737785339355
0.87745267152786255 0.88287335634231567 0.80717563629150391
0.95413398742675781 0.88921618461608887 0.80644106864929199
0.68538415431976318 0.96182972192764282 0.83666080236434937
0.7078176736831665 0.96402913331985474 0.84073030948638916
0.73849678039550781 0.96408259868621826 0.84005916118621826
0.78952223062515259 0.96467119455337524 0.84483844041824341
0.84398764371871948 0.96649003028869629 0.84937590360641479
0.8964306116104126 0.96953636407852173 0.84909290075302124
0.96941846609115601 0.96758186817169189 0.84899473190307617
0.037732023745775223 0 0.66153734922409058
0.11714600026607513 0 0.67652386426925659
0.25048103928565979 0.0013370439410209656 0.69479972124099731
0.44940745830535889 0.0064646252430975437 0.71265965700149536
0.69053906202316284 0.012160671874880791 0.72800207138061523
0.88772130012512207 0.057389665395021439 0.73644435405731201
0.99478065967559814 0.1365438848733902 0.7230217456817627
0.066331140697002411 0.05393524095416069 0.72981232404708862
0.13823840022087097 0.055550757795572281 0.73550045490264893
0.27483764290809631 0.069513402879238129 0.74346315860748291
0.47224912047386169 0.086219280958175659 0.75658506155014038
0.69917887449264526 0.1161205843091011 0.77123391628265381
0.88446110486984253 0.17734335362911224 0.78191226720809937
0.9939081072807312 0.26335260272026062 0.78059107065200806
0.10870648920536041 0.21200868487358093 0.77400875091552734
0.18251551687717438 0.21510331332683563 0.77913129329681396
0.31929260492324829 0.22189973294734955 0.78299909830093384
0.51350849866867065 0.24384474754333496 0.79341274499893188
0.72362542152404785 0.27672874927520752 0.80520796775817871
0.88943672180175781 0.33471491932868958 0.8141593337059021
0.99243831634521484 0.41185790300369263 0.81100732088088989
0.074984215199947357 0.45846393704414368 0.80662333965301514
0.18048326671123505 0.461841881275177 0.80898195505142212
0.34832695126533508 0.46747285127639771 0.81290185451507568
0.55172401666641235 0.48532456159591675 0.82183581590652466
0.74691736698150635 0.50808757543563843 0.83077466487884521
0.88673883676528931 0.55169463157653809 0.83741766214370728
0.97870397567749023 0.61261534690856934 0.83507460355758667
0.083091095089912415 0.720195472240448 0.82780700922012329
0.22231648862361908 0.7224239706993103 0.82977384328842163
0.40576064586639404 0.72604632377624512 0.83543920516967773
0.60048633813858032 0.73229968547821045 0.84344840049743652
0.76465708017349243 0.74242699146270752 0.85048818588256836
0.87528413534164429 0.7611350417137146 0.85652565956115723
0.95950543880462646 0.7915644645690918 0.85632246732711792
0.39003893733024597 0.86956912279129028 0.85798472166061401
0.45494204759597778 0.87188643217086792 0.8594670295715332
0.56592589616775513 0.87201213836669922 0.86270773410797119
0.69059538841247559 0.87103664875030518 0.86843454837799072
0.79524940252304077 0.87205958366394043 0.87457394599914551
0.87851697206497192 0.87789237499237061 0.87911331653594971
0.95768588781356812 0.88764709234237671 0.87967479228973389
0.67471253871917725 0.96809870004653931 0.89638984203338623
0.70184087753295898 0.96605128049850464 0.89834308624267578
0.73441863059997559 0.96649181842803955 0.8964201807975769
0.78752619028091431 0.96566402912139893 0.89942967891693115
0.84166955947875977 0.96665126085281372 0.90466117858886719
0.89691245555877686 0.97215765714645386 0.90792763233184814
0.96802598237991333 0.97509187459945679 0.90764325857162476
0.066838972270488739 0 0.77529031038284302
0.13616405427455902 0 0.79624432325363159
0.27085405588150024 0 0.81419068574905396
0.46162697672843933 0 0.83354628086090088
0.68781489133834839 0.00012153176794527099 0.8553653359413147
0.88410216569900513 0.027998890727758408 0.86875611543655396
0.99221932888031006 0.10387573391199112 0.84587019681930542
0.083336986601352692 0.020904136821627617 0.83130156993865967
0.13134540617465973 0.014240114949643612 0.84835296869277954
0.27782553434371948 0.02092406339943409 0.85653519630432129
0.46656441688537598 0.032196059823036194 0.87045180797576904
0.69387829303741455 0.072537459433078766 0.88718557357788086
0.88178569078445435 0.13433754444122314 0.89683401584625244
0.99451470375061035 0.21495842933654785 0.88616007566452026
0.13463851809501648 0.14949603378772736 0.86923283338546753
0.19082778692245483 0.1569189727306366 0.87639337778091431
0.32466393709182739 0.15744173526763916 0.88020068407058716
0.51595419645309448 0.18921872973442078 0.89188981056213379
0.72764134407043457 0.22129601240158081 0.90352123975753784
0.895061194896698 0.27539175748825073 0.91203653812408447
0.99594354629516602 0.35082703828811646 0.90829348564147949
0.11157196760177612 0.39261189103126526 0.88690531253814697
0.21383421123027802 0.39499428868293762 0.89033716917037964
0.36588230729103088 0.4038938581943512 0.89477497339248657
0.56407696008682251 0.42816311120986938 0.90467733144760132
0.75987100601196289 0.4479290246963501 0.91351425647735596
0.89640074968338013 0.49111580848693848 0.91987723112106323
0.98769521713256836 0.55327862501144409 0.91922497749328613
0.095748066902160645 0.6784631609916687 0.8966715931892395
0.23973388969898224 0.67780482769012451 0.89937287569046021
0.41608208417892456 0.67891472578048706 0.90499591827392578
0.60854083299636841 0.68762898445129395 0.91337090730667114
0.77021747827529907 0.69750082492828369 0.92121005058288574
0.8790363073348999 0.72545450925827026 0.92662650346755981
0.96724915504455566 0.75841033458709717 0.92793959379196167
0.35975784063339233 0.85431915521621704 0.91962701082229614
0.43255263566970825 0.86040192842483521 0.92027419805526733
0.54875200986862183 0.85817438364028931 0.92282307147979736
0.68396079540252686 0.8585517406463623 0.92860996723175049
0.79150295257568359 0.86025494337081909 0.93487280607223511
0.87939196825027466 0.8650127649307251 0.94174587726593018
0.96403783559799194 0.87386101484298706 0.94563090801239014
0.66278737783432007 0.96662682294845581 0.95144498348236084
0.67560094594955444 0.96454393863677979 0.9523475170135498
0.71803766489028931 0.96184974908828735 0.95275980234146118
0.77922844886779785 0.96314162015914917 0.95356559753417969
0.83805429935455322 0.96345794200897217 0.96102029085159302
0.89864563941955566 0.9699244499206543 0.96843034029006958
0.97780966758728027 0.9743574857711792 0.97585946321487427
