films/lomography_x-pro_slide_200.cube
# Created by: G'MIC (https://gmic.eu)
TITLE "lomography_x-pro_slide_200"
# LUT size
LUT_3D_SIZE 13
# Data domain
DOMAIN_MIN 0.0 0.0 0.0
DOMAIN_MAX 1.0 1.0 1.0
# LUT data points
0.027399742975831032 0.028474410995841026 0.025182552635669708
0.07197144627571106 0.031628374010324478 0.026983747258782387
0.12661801278591156 0.034919291734695435 0.028601597994565964
0.18972091376781464 0.036876033991575241 0.03026001900434494
0.26207107305526733 0.0396614670753479 0.031753629446029663
0.34858247637748718 0.046218454837799072 0.034930091351270676
0.45124426484107971 0.057985074818134308 0.040137123316526413
0.56095641851425171 0.0720076784491539 0.044796708971261978
0.67063957452774048 0.08835311233997345 0.047828149050474167
0.77306795120239258 0.10949829965829849 0.047085527330636978
0.86158734560012817 0.13783153891563416 0.041846569627523422
0.93570822477340698 0.1720166802406311 0.03464367613196373
0.99152678251266479 0.20830264687538147 0.030714761465787888
0.05202045664191246 0.087244428694248199 0.045514125376939774
0.085976347327232361 0.089800767600536346 0.043688487261533737
0.13474152982234955 0.092964023351669312 0.044619303196668625
0.19833353161811829 0.095391653478145599 0.047963295131921768
0.27339819073677063 0.09951433539390564 0.050937637686729431
0.36152991652488708 0.10751289129257202 0.053794577717781067
0.46269369125366211 0.11924742162227631 0.057231694459915161
0.57166612148284912 0.13328631222248077 0.0607314333319664
0.68060868978500366 0.15040752291679382 0.06226043775677681
0.7812228798866272 0.17211678624153137 0.060877270996570587
0.86773163080215454 0.20025275647640228 0.055215258151292801
0.93856114149093628 0.23401686549186707 0.047757212072610855
0.99142473936080933 0.26964998245239258 0.043475326150655746
0.083514794707298279 0.15073387324810028 0.065918862819671631
0.10622088611125946 0.15329673886299133 0.0653853639960289
0.14831829071044922 0.15741066634654999 0.066511549055576324
0.21128624677658081 0.16117392480373383 0.07103150337934494
0.28788068890571594 0.1668832004070282 0.073831789195537567
0.37653470039367676 0.17634660005569458 0.075263500213623047
0.47677499055862427 0.18843938410282135 0.0774812251329422
0.5843692421913147 0.20251181721687317 0.07976900041103363
0.69103914499282837 0.21929948031902313 0.081384219229221344
0.78834426403045654 0.24098539352416992 0.079031758010387421
0.87124484777450562 0.26822498440742493 0.073346741497516632
0.93855166435241699 0.30071347951889038 0.065258987247943878
0.98960602283477783 0.33581480383872986 0.0593707375228405
0.095986761152744293 0.22510825097560883 0.087025061249732971
0.11425580829381943 0.22666896879673004 0.087346605956554413
0.15530496835708618 0.23166963458061218 0.089325383305549622
0.2202417254447937 0.23680755496025085 0.09323553740978241
0.30037567019462585 0.24299097061157227 0.096908137202262878
0.39128783345222473 0.25357279181480408 0.098248109221458435
0.49158570170402527 0.26641702651977539 0.098896190524101257
0.59801203012466431 0.27933427691459656 0.1012062206864357
0.70262676477432251 0.29384717345237732 0.10278446227312088
0.79627180099487305 0.3149840235710144 0.10066944360733032
0.87519121170043945 0.34114059805870056 0.095169514417648315
0.9384954571723938 0.3720402717590332 0.086300686001777649
0.98688340187072754 0.40672728419303894 0.076968610286712646
0.076566211879253387 0.31721282005310059 0.11033477634191513
0.1013634204864502 0.31484499573707581 0.110704205930233
0.15056709945201874 0.319833904504776 0.11107520014047623
0.22330754995346069 0.32601898908615112 0.11300647258758545
0.30966892838478088 0.33194395899772644 0.11770689487457275
0.40438178181648254 0.34268441796302795 0.11931390315294266
0.50635701417922974 0.3553892970085144 0.12021227180957794
0.61181789636611938 0.36672648787498474 0.12193890661001205
0.71385383605957031 0.37921109795570374 0.1238025575876236
0.80343985557556152 0.39889901876449585 0.12093070894479752
0.87863266468048096 0.42262580990791321 0.11607369780540466
0.93875646591186523 0.44993996620178223 0.10783902555704117
0.98366743326187134 0.48354426026344299 0.094472624361515045
0.051476646214723587 0.42456156015396118 0.13207249343395233
0.083223037421703339 0.42265141010284424 0.1307024210691452
0.14104163646697998 0.42610666155815125 0.13069853186607361
0.22214490175247192 0.43144381046295166 0.13191860914230347
0.31610402464866638 0.43735086917877197 0.13555389642715454
0.41629108786582947 0.44603517651557922 0.13864594697952271
0.52012825012207031 0.45609831809997559 0.14023889601230621
0.62461364269256592 0.46660348773002625 0.14095664024353027
0.7229653000831604 0.47932031750679016 0.14023594558238983
0.80806362628936768 0.49645715951919556 0.13609649240970612
0.87790983915328979 0.51682621240615845 0.12957224249839783
0.93346774578094482 0.5405852198600769 0.11907157301902771
0.97680568695068359 0.56845033168792725 0.10689777880907059
0.036109820008277893 0.54017949104309082 0.15411925315856934
0.069876261055469513 0.54149711132049561 0.1513092964887619
0.13381332159042358 0.5438237190246582 0.15195171535015106
0.2240586131811142 0.54628908634185791 0.15442267060279846
0.32539427280426025 0.5505528450012207 0.1578325629234314
0.43043738603591919 0.55585747957229614 0.16122786700725555
0.5359463095664978 0.56216102838516235 0.16326798498630524
0.63865238428115845 0.57107436656951904 0.16296291351318359
0.73308718204498291 0.58405721187591553 0.15934060513973236
0.81248092651367188 0.59882724285125732 0.15294529497623444
0.87474596500396729 0.61418247222900391 0.14358620345592499
0.92486089468002319 0.6347154974937439 0.12879583239555359
0.9668310284614563 0.65620416402816772 0.11770696938037872
0.051438603550195694 0.65082597732543945 0.18211530148983002
0.081013955175876617 0.65578818321228027 0.17924077808856964
0.14673452079296112 0.65741264820098877 0.18099197745323181
0.24491667747497559 0.65730923414230347 0.18497498333454132
0.34951314330101013 0.66010749340057373 0.1884227991104126
0.45542812347412109 0.66139686107635498 0.19180157780647278
0.55852735042572021 0.66234695911407471 0.19418630003929138
0.65613138675689697 0.66785818338394165 0.19376091659069061
0.74353796243667603 0.67856091260910034 0.18940126895904541
0.81587803363800049 0.6898006796836853 0.18177418410778046
0.87177765369415283 0.70117384195327759 0.17142553627490997
0.91807311773300171 0.71627169847488403 0.15692675113677979
0.95878159999847412 0.73204880952835083 0.14723320305347443
0.12742604315280914 0.74587255716323853 0.22296702861785889
0.15470185875892639 0.75060051679611206 0.22194693982601166
0.21526788175106049 0.75041210651397705 0.22497713565826416
0.30498635768890381 0.74980121850967407 0.22897197306156158
0.40098118782043457 0.75143647193908691 0.23135015368461609
0.49897325038909912 0.74944764375686646 0.23408389091491699
0.59349256753921509 0.74665099382400513 0.23687830567359924
0.67919075489044189 0.7485039234161377 0.23751582205295563
0.75472915172576904 0.75419533252716064 0.23406034708023071
0.81868654489517212 0.76165568828582764 0.22718852758407593
0.87033098936080933 0.76995855569839478 0.2178751528263092
0.9146532416343689 0.77999049425125122 0.20780177414417267
0.95471245050430298 0.78917747735977173 0.20446360111236572
0.25516116619110107 0.81846201419830322 0.27861770987510681
0.28225839138031006 0.82081913948059082 0.28088429570198059
0.33237308263778687 0.81956791877746582 0.28504195809364319
0.4019315242767334 0.81823217868804932 0.28805595636367798
0.48073527216911316 0.81770884990692139 0.28948211669921875
0.56273478269577026 0.81504678726196289 0.29010722041130066
0.64099782705307007 0.8126370906829834 0.2919158935546875
0.71068269014358521 0.81250870227813721 0.29388540983200073
0.77214312553405762 0.81464838981628418 0.29213690757751465
0.82575207948684692 0.81856697797775269 0.28589639067649841
0.87256360054016113 0.82383930683135986 0.2782827615737915
0.91451704502105713 0.83046698570251465 0.27238321304321289
0.9531862735748291 0.83644402027130127 0.27204728126525879
0.39496737718582153 0.8682977557182312 0.34676375985145569
0.42310535907745361 0.87192797660827637 0.35209396481513977
0.46335479617118835 0.87092936038970947 0.35786280035972595
0.51492446660995483 0.86926424503326416 0.36037233471870422
0.57325464487075806 0.86761051416397095 0.36005666851997375
0.63537722826004028 0.86600148677825928 0.35883969068527222
0.6948428750038147 0.86452072858810425 0.36022657155990601
0.74674135446548462 0.8640286922454834 0.36388164758682251
0.79400640726089478 0.86427503824234009 0.36195039749145508
0.83855628967285156 0.86539226770401001 0.35469302535057068
0.87916845083236694 0.86834883689880371 0.34764516353607178
0.91687142848968506 0.87354260683059692 0.34511402249336243
0.95383274555206299 0.87829327583312988 0.34608957171440125
0.52344554662704468 0.90754765272140503 0.42023050785064697
0.55395472049713135 0.91213566064834595 0.43018975853919983
0.58887195587158203 0.91199612617492676 0.43972525000572205
0.62550729513168335 0.91066175699234009 0.44178971648216248
0.66324251890182495 0.91049098968505859 0.43960621953010559
0.70436084270477295 0.90977531671524048 0.43902504444122314
0.7447887659072876 0.90880340337753296 0.44238555431365967
0.7820708155632019 0.9081803560256958 0.44617167115211487
0.8190227746963501 0.90726083517074585 0.44072994589805603
0.85508590936660767 0.90674179792404175 0.42999842762947083
0.88993364572525024 0.90870827436447144 0.42302197217941284
0.92378050088882446 0.91310906410217285 0.42246350646018982
0.95839661359786987 0.91786932945251465 0.42429932951927185
0.62935745716094971 0.94288480281829834 0.49116206169128418
0.66200917959213257 0.94749182462692261 0.50542867183685303
0.69538432359695435 0.94866007566452026 0.52036291360855103
0.72067826986312866 0.94877928495407104 0.52259558439254761
0.7419465184211731 0.94889813661575317 0.51854020357131958
0.76610767841339111 0.94894111156463623 0.51877439022064209
0.79144001007080078 0.94889676570892334 0.52428466081619263
0.81750994920730591 0.94844633340835571 0.52818608283996582
0.84677523374557495 0.94744813442230225 0.51871472597122192
0.87682610750198364 0.9463341236114502 0.50616633892059326
0.90658396482467651 0.9486391544342041 0.49866160750389099
0.93595969676971436 0.95170754194259644 0.49810737371444702
0.96725201606750488 0.95547598600387573 0.49950796365737915
0.030977077782154083 0.025522120296955109 0.065728463232517242
0.073874935507774353 0.027623195201158524 0.067367076873779297
0.12780874967575073 0.029833611100912094 0.069458663463592529
0.18898199498653412 0.031410936266183853 0.070466957986354828
0.26200458407402039 0.034590955823659897 0.072249561548233032
0.34891033172607422 0.041489049792289734 0.07566910982131958
0.45084598660469055 0.051664300262928009 0.080382764339447021
0.5632556676864624 0.063892260193824768 0.084906995296478271
0.67835545539855957 0.078348465263843536 0.088140688836574554
0.78583675622940063 0.097501210868358612 0.088433250784873962
0.87349575757980347 0.12821279466152191 0.082505211234092712
0.94251996278762817 0.16736756265163422 0.073668822646141052
0.99293285608291626 0.20762452483177185 0.069533571600914001
0.054053273051977158 0.082356922328472137 0.084971815347671509
0.08798738569021225 0.084303773939609528 0.08496633917093277
0.13648535311222076 0.086978703737258911 0.085520125925540924
0.19802694022655487 0.089646309614181519 0.08789023756980896
0.27205917239189148 0.09408443421125412 0.089737698435783386
0.35996812582015991 0.10217536240816116 0.092647776007652283
0.46201890707015991 0.11348456889390945 0.096002466976642609
0.57397449016571045 0.12700676918029785 0.099581971764564514
0.68752950429916382 0.14352598786354065 0.10157499462366104
0.79134374856948853 0.16489574313163757 0.099869564175605774
0.87728250026702881 0.1944471001625061 0.093546546995639801
0.94541078805923462 0.23141518235206604 0.084748029708862305
0.99384361505508423 0.2699858546257019 0.07953103631734848
0.086525708436965942 0.14414140582084656 0.10407684743404388
0.10955251008272171 0.14740262925624847 0.10427838563919067
0.15005627274513245 0.15202024579048157 0.10467211902141571
0.21098451316356659 0.15618975460529327 0.10819590091705322
0.28640636801719666 0.16196322441101074 0.11098252981901169
0.37394621968269348 0.17168588936328888 0.11213061958551407
0.47487768530845642 0.18396022915840149 0.11429328471422195
0.58603227138519287 0.19807711243629456 0.11672143638134003
0.69695866107940674 0.21537025272846222 0.11854065209627151
0.79676979780197144 0.23778536915779114 0.1158917173743248
0.87898927927017212 0.26528093218803406 0.10969803482294083
0.94429630041122437 0.29974439740180969 0.10061295330524445
0.99190670251846313 0.33705887198448181 0.09419192373752594
0.1002880334854126 0.21861036121845245 0.12385661154985428
0.12026704102754593 0.22174730896949768 0.12359540164470673
0.15853212773799896 0.22821353375911713 0.12397730350494385
0.22137586772441864 0.23313246667385101 0.12769009172916412
0.30006811022758484 0.23919162154197693 0.13107791543006897
0.38903287053108215 0.24981185793876648 0.13217528164386749
0.4896666407585144 0.26270771026611328 0.13494178652763367
0.59919899702072144 0.27590683102607727 0.13751436769962311
0.70695197582244873 0.291969895362854 0.13922756910324097
0.8026307225227356 0.31334736943244934 0.13660664856433868
0.88117945194244385 0.33929765224456787 0.13034841418266296
0.94223976135253906 0.37276443839073181 0.11978357285261154
0.98845559358596802 0.40897414088249207 0.1095166951417923
0.081885546445846558 0.31245386600494385 0.14627566933631897
0.11194109171628952 0.31193819642066956 0.14551141858100891
0.15904960036277771 0.3166346549987793 0.14485913515090942
0.2287655770778656 0.32160398364067078 0.14610587060451508
0.31288278102874756 0.32826563715934753 0.14924207329750061
0.40470930933952332 0.33921664953231812 0.15327692031860352
0.50606876611709595 0.35147112607955933 0.15570342540740967
0.61312943696975708 0.36316061019897461 0.15866455435752869
0.71675044298171997 0.37744584679603577 0.15907788276672363
0.80776083469390869 0.39735409617424011 0.157170370221138
0.88237404823303223 0.42203137278556824 0.15065646171569824
0.94012582302093506 0.45249956846237183 0.13957591354846954
0.98439514636993408 0.48663720488548279 0.12777118384838104
0.052418965846300125 0.42129164934158325 0.16769745945930481
0.092319265007972717 0.41974964737892151 0.16633224487304688
0.15112084150314331 0.42201501131057739 0.16613154113292694
0.23015321791172028 0.42615920305252075 0.16589142382144928
0.32131275534629822 0.43249934911727905 0.16873277723789215
0.41796311736106873 0.44250202178955078 0.17376387119293213
0.52108234167098999 0.45281252264976501 0.17730033397674561
0.62631434202194214 0.46274980902671814 0.17908899486064911
0.72556036710739136 0.47561576962471008 0.17897376418113708
0.81127029657363892 0.49435228109359741 0.17506645619869232
0.88067281246185303 0.51658439636230469 0.16746401786804199
0.93514704704284668 0.54256337881088257 0.15601220726966858
0.97852396965026855 0.57053542137145996 0.14649954438209534
0.025927674025297165 0.53960561752319336 0.18951216340065002
0.071911849081516266 0.53927123546600342 0.18765221536159515
0.14140556752681732 0.54011553525924683 0.18831467628479004
0.22994032502174377 0.54251819849014282 0.19034369289875031
0.32914483547210693 0.54711097478866577 0.19375129044055939
0.43226641416549683 0.5538443922996521 0.19805718958377838
0.53695464134216309 0.56118899583816528 0.20134358108043671
0.63930761814117432 0.56950867176055908 0.20249529182910919
0.73348677158355713 0.58140099048614502 0.20066250860691071
0.81337302923202515 0.59731554985046387 0.19502188265323639
0.87663209438323975 0.61449873447418213 0.18558172881603241
0.92732757329940796 0.63566893339157104 0.17348715662956238
0.96980082988739014 0.65610945224761963 0.16558177769184113
0.027856055647134781 0.65444493293762207 0.21640282869338989
0.079532027244567871 0.65535253286361694 0.21612103283405304
0.15524230897426605 0.65481078624725342 0.21874231100082397
0.24989096820354462 0.65487056970596313 0.22226007282733917
0.35283586382865906 0.65696394443511963 0.22579999268054962
0.45737084746360779 0.66015225648880005 0.22960343956947327
0.55985957384109497 0.66393548250198364 0.23247656226158142
0.65633988380432129 0.6698492169380188 0.23355622589588165
0.74270260334014893 0.67899465560913086 0.23127970099449158
0.81499367952346802 0.69085752964019775 0.22491294145584106
0.87280339002609253 0.70369458198547363 0.21504151821136475
0.92018860578536987 0.71793568134307861 0.20347213745117188
0.96171450614929199 0.73168396949768066 0.19831940531730652
0.10525886714458466 0.7491641640663147 0.25777009129524231
0.15116387605667114 0.75178879499435425 0.25821474194526672
0.22049872577190399 0.74993455410003662 0.26180964708328247
0.30843603610992432 0.74879682064056396 0.26539713144302368
0.40459978580474854 0.74853909015655518 0.26851415634155273
0.50210636854171753 0.74905455112457275 0.2712673544883728
0.59505122900009155 0.74963730573654175 0.27425909042358398
0.68009573221206665 0.75218707323074341 0.27586790919303894
0.75504404306411743 0.75773012638092041 0.27423298358917236
0.81889957189559937 0.7652897834777832 0.26840326189994812
0.87129080295562744 0.77364456653594971 0.25942495465278625
0.91581577062606812 0.7828909158706665 0.2507355809211731
0.95666861534118652 0.79134511947631836 0.2481180876493454
0.24739670753479004 0.81920403242111206 0.31424099206924438
0.2806573212146759 0.82218724489212036 0.3156110942363739
0.33407101035118103 0.82087588310241699 0.31886440515518188
0.4044988751411438 0.81831896305084229 0.32151153683662415
0.48411610722541809 0.81692636013031006 0.3234717845916748
0.56639814376831055 0.81520074605941772 0.32458677887916565
0.64446496963500977 0.81490647792816162 0.32684004306793213
0.71297943592071533 0.81614667177200317 0.33031070232391357
0.77351731061935425 0.81851977109909058 0.32997807860374451
0.82649129629135132 0.82198655605316162 0.32440921664237976
0.8731071949005127 0.82680106163024902 0.31663033366203308
0.91458332538604736 0.83303916454315186 0.31073978543281555
0.95322483777999878 0.83874177932739258 0.31000462174415588
0.40528044104576111 0.8696402907371521 0.38062262535095215
0.43023419380187988 0.87383753061294556 0.38445118069648743
0.46807262301445007 0.87195783853530884 0.38793447613716125
0.51878005266189575 0.86892020702362061 0.38892394304275513
0.57736039161682129 0.8673587441444397 0.38991552591323853
0.64010626077651978 0.86684787273406982 0.39053520560264587
0.70028907060623169 0.86661303043365479 0.39159303903579712
0.75005680322647095 0.86677443981170654 0.39758756756782532
0.79600989818572998 0.86695617437362671 0.39715293049812317
0.83890050649642944 0.8674628734588623 0.38985922932624817
0.87898373603820801 0.86936217546463013 0.38228526711463928
0.91677576303482056 0.87448137998580933 0.37949812412261963
0.95375651121139526 0.87948405742645264 0.37986305356025696
0.54347646236419678 0.91025745868682861 0.45346793532371521
0.56681710481643677 0.91452032327651978 0.46042272448539734
0.59549814462661743 0.9133879542350769 0.465709388256073
0.63037067651748657 0.9102475643157959 0.46586364507675171
0.66822695732116699 0.91026067733764648 0.466898113489151
0.70919406414031982 0.91066062450408936 0.46898841857910156
0.74983745813369751 0.91053241491317749 0.47224840521812439
0.78615307807922363 0.91047310829162598 0.47615692019462585
0.82084965705871582 0.90973657369613647 0.47322967648506165
0.85533297061920166 0.90731275081634521 0.46309003233909607
0.88908225297927856 0.90816384553909302 0.45475238561630249
0.92307031154632568 0.9133760929107666 0.45536094903945923
0.95830351114273071 0.91850489377975464 0.45562869310379028
0.64955312013626099 0.94695556163787842 0.52582597732543945
0.6758652925491333 0.95084834098815918 0.53567922115325928
0.70092695951461792 0.95055699348449707 0.54375338554382324
0.72383242845535278 0.94926470518112183 0.54606121778488159
0.74636280536651611 0.94926470518112183 0.54643023014068604
0.77071517705917358 0.94929462671279907 0.54904049634933472
0.79600238800048828 0.95004451274871826 0.55300891399383545
0.82169753313064575 0.94967758655548096 0.5548967719078064
0.84857606887817383 0.94926470518112183 0.5494193434715271
0.87649476528167725 0.94894367456436157 0.53954434394836426
0.90503829717636108 0.94913864135742188 0.53247112035751343
0.93495833873748779 0.9527205228805542 0.53073424100875854
0.96736359596252441 0.95666813850402832 0.52886676788330078
0.034460913389921188 0.023819329217076302 0.10723099112510681
0.075344398617744446 0.024345742538571358 0.10950067639350891
0.12767574191093445 0.025935782119631767 0.11258161813020706
0.18958950042724609 0.02805938757956028 0.11492876708507538
0.26338386535644531 0.032123848795890808 0.1174870952963829
0.35033240914344788 0.038885213434696198 0.12135917693376541
0.4510226845741272 0.048410035669803619 0.12617278099060059
0.56491976976394653 0.059599872678518295 0.13029754161834717
0.68264347314834595 0.073376595973968506 0.13302859663963318
0.79108792543411255 0.092810057103633881 0.13294102251529694
0.87783515453338623 0.12510150671005249 0.12673264741897583
0.94368058443069458 0.16760215163230896 0.11755944043397903
0.9922606348991394 0.2097356915473938 0.11316961795091629
0.057766005396842957 0.077907174825668335 0.12536677718162537
0.091006048023700714 0.079504363238811493 0.12684075534343719
0.13866190612316132 0.082457192242145538 0.12955009937286377
0.19933025538921356 0.085970573127269745 0.13182781636714935
0.27307233214378357 0.091264419257640839 0.13448008894920349
0.36067932844161987 0.099434748291969299 0.13746590912342072
0.46255168318748474 0.11031553894281387 0.14105720818042755
0.57622867822647095 0.12337125837802887 0.1445508599281311
0.69168198108673096 0.1397930383682251 0.14595800638198853
0.79639428853988647 0.16206474602222443 0.1440410315990448
0.88104277849197388 0.19310775399208069 0.13739307224750519
0.94637042284011841 0.23272870481014252 0.12813161313533783
0.99365693330764771 0.2741028368473053 0.12282861769199371
0.086423002183437347 0.13972257077693939 0.14585791528224945
0.11215513944625854 0.14276431500911713 0.14665010571479797
0.15346531569957733 0.148016557097435 0.1488492488861084
0.21222017705440521 0.15297167003154755 0.1511240154504776
0.28640693426132202 0.15915217995643616 0.15364794433116913
0.37359932065010071 0.16898031532764435 0.15585587918758392
0.4746188223361969 0.18133910000324249 0.15845100581645966
0.58779186010360718 0.19542816281318665 0.16160205006599426
0.70092517137527466 0.21401692926883698 0.16239082813262939
0.80154609680175781 0.23695321381092072 0.16007010638713837
0.88301700353622437 0.26470521092414856 0.15371564030647278
0.94619017839431763 0.30085569620132446 0.14467364549636841
0.99247932434082031 0.34016728401184082 0.13831469416618347
0.099760688841342926 0.21573495864868164 0.16818836331367493
0.12566237151622772 0.218356654047966 0.16797621548175812
0.16459979116916656 0.22515067458152771 0.16875052452087402
0.22437620162963867 0.23044238984584808 0.17017513513565063
0.30093497037887573 0.23660922050476074 0.17315216362476349
0.38830295205116272 0.24732428789138794 0.17593477666378021
0.48847535252571106 0.26036298274993896 0.17860385775566101
0.60054761171340942 0.27368667721748352 0.18213917315006256
0.71027880907058716 0.29123350977897644 0.18318063020706177
0.80652832984924316 0.31272411346435547 0.18090969324111938
0.88454866409301758 0.33817645907402039 0.17516434192657471
0.94485181570053101 0.37239351868629456 0.16522844135761261
0.99002987146377563 0.41053357720375061 0.1567239910364151
0.088025175034999847 0.30908071994781494 0.19149252772331238
0.124106265604496 0.30870181322097778 0.19010187685489655
0.17020796239376068 0.31368961930274963 0.1893409788608551
0.23519603908061981 0.31882008910179138 0.18951410055160522
0.31560936570167542 0.32549795508384705 0.19260016083717346
0.40566277503967285 0.33629792928695679 0.1974194198846817
