films/polaroid_px-680_warm.cube
# Created by: G'MIC (https://gmic.eu)
TITLE "polaroid_px-680_warm"
# LUT size
LUT_3D_SIZE 13
# Data domain
DOMAIN_MIN 0.0 0.0 0.0
DOMAIN_MAX 1.0 1.0 1.0
# LUT data points
0.25225242972373962 0.20708934962749481 0.082345552742481232
0.25512385368347168 0.20641432702541351 0.081554040312767029
0.26211410760879517 0.20720541477203369 0.081854261457920074
0.28073480725288391 0.21043644845485687 0.082209400832653046
0.33334168791770935 0.21286691725254059 0.079404570162296295
0.42968544363975525 0.21306261420249939 0.073235757648944855
0.55575507879257202 0.21133604645729065 0.065273329615592957
0.6782497763633728 0.22456707060337067 0.056303720921278
0.78127795457839966 0.25967815518379211 0.04976927861571312
0.86206156015396118 0.30579087138175964 0.059218388050794601
0.91469717025756836 0.36029723286628723 0.096630960702896118
0.95188558101654053 0.41573241353034973 0.14539423584938049
0.98109245300292969 0.4680292010307312 0.19660761952400208
0.25295057892799377 0.21174776554107666 0.083018407225608826
0.25575157999992371 0.21181266009807587 0.083340451121330261
0.2643965482711792 0.21281497180461884 0.083405651152133942
0.29046690464019775 0.21577595174312592 0.08225744217634201
0.3497922420501709 0.2194589376449585 0.078698195517063141
0.45089733600616455 0.22269664704799652 0.069717153906822205
0.57281672954559326 0.22847747802734375 0.05650666356086731
0.68868660926818848 0.24589255452156067 0.043993514031171799
0.78679352998733521 0.28088676929473877 0.041027426719665527
0.86302125453948975 0.32723215222358704 0.056847963482141495
0.91716617345809937 0.37988826632499695 0.093639060854911804
0.95573884248733521 0.43385356664657593 0.14283378422260284
0.98491251468658447 0.48556578159332275 0.19624258577823639
0.25405386090278625 0.22154422104358673 0.08358842134475708
0.25740706920623779 0.22281722724437714 0.083829768002033234
0.27017822861671448 0.22700585424900055 0.083117209374904633
0.30559015274047852 0.23329876363277435 0.079943746328353882
0.3747883141040802 0.23984985053539276 0.074434541165828705
0.47963765263557434 0.24590487778186798 0.062210455536842346
0.5945013165473938 0.25767719745635986 0.044118501245975494
0.70024263858795166 0.28184366226196289 0.029313884675502777
0.79074651002883911 0.31704741716384888 0.029036996886134148
0.86187410354614258 0.3607909083366394 0.050937488675117493
0.91548442840576172 0.40926423668861389 0.09214966744184494
0.95511668920516968 0.45994439721107483 0.14587254822254181
0.98506671190261841 0.50892376899719238 0.20214460790157318
0.24877379834651947 0.25356212258338928 0.079915501177310944
0.25610938668251038 0.25625401735305786 0.080374456942081451
0.27424225211143494 0.26303741335868835 0.078748457133769989
0.32049500942230225 0.27435114979743958 0.071599923074245453
0.40530568361282349 0.29012775421142578 0.056545346975326538
0.51270079612731934 0.30086424946784973 0.039180170744657516
0.61610656976699829 0.31203994154930115 0.022062981501221657
0.70889312028884888 0.33275380730628967 0.011749536730349064
0.79096060991287231 0.36213341355323792 0.016385097056627274
0.85948348045349121 0.40217307209968567 0.038345996290445328
0.91176658868789673 0.44445452094078064 0.085141502320766449
0.95184916257858276 0.49117428064346313 0.14859841763973236
0.98247122764587402 0.5374138355255127 0.21000489592552185
0.23653796315193176 0.31793293356895447 0.071254432201385498
0.24754601716995239 0.32095077633857727 0.069887854158878326
0.27466759085655212 0.32679972052574158 0.068725481629371643
0.32882562279701233 0.33897224068641663 0.060027867555618286
0.41929087042808533 0.36035007238388062 0.040353603661060333
0.53097814321517944 0.38324594497680664 0.015178036876022816
0.62791907787322998 0.3944944441318512 0.0043003903701901436
0.71098369359970093 0.40401771664619446 0.0018314137123525143
0.78473013639450073 0.41518127918243408 0.008777872659265995
0.85109323263168335 0.44412907958030701 0.023474689573049545
0.90382003784179688 0.47870185971260071 0.068364627659320831
0.94583308696746826 0.52136743068695068 0.14144125580787659
0.97710305452346802 0.56215536594390869 0.20326073467731476
0.22523033618927002 0.40123561024665833 0.063966952264308929
0.24104820191860199 0.40202727913856506 0.062582693994045258
0.2759455144405365 0.40240246057510376 0.064294479787349701
0.3296377956867218 0.40971505641937256 0.060287073254585266
0.41006559133529663 0.42590224742889404 0.047390207648277283
0.51515680551528931 0.44920235872268677 0.030325945466756821
0.61564821004867554 0.46980166435241699 0.015085571445524693
0.70202916860580444 0.48350444436073303 0.0072399214841425419
0.77678024768829346 0.49214890599250793 0.011451287195086479
0.84096324443817139 0.5035209059715271 0.018638266250491142
0.8922419548034668 0.51933157444000244 0.052376437932252884
0.9358178973197937 0.55090445280075073 0.12008824199438095
0.96866768598556519 0.5829465389251709 0.1807263046503067
0.23202642798423767 0.47710630297660828 0.072188735008239746
0.24993929266929626 0.47701707482337952 0.070988014340400696
0.28615781664848328 0.47499093413352966 0.075269617140293121
0.33693107962608337 0.4783778190612793 0.075998969376087189
0.40713214874267578 0.48915150761604309 0.072450272738933563
0.4966985285282135 0.5073358416557312 0.066827945411205292
0.59169584512710571 0.52932631969451904 0.05911935493350029
0.68143898248672485 0.55124032497406006 0.05324123427271843
0.76314669847488403 0.57224535942077637 0.056020893156528473
0.83120465278625488 0.58500975370407104 0.067418672144412994
0.88284355401992798 0.58998948335647583 0.093875184655189514
0.92499732971191406 0.5984114408493042 0.13110759854316711
0.95870119333267212 0.61499327421188354 0.17772349715232849
0.25881481170654297 0.54291993379592896 0.096913464367389679
0.27526101469993591 0.54304617643356323 0.095369301736354828
0.30779555439949036 0.54184752702713013 0.10030577331781387
0.35347571969032288 0.54414790868759155 0.10358420014381409
0.41448575258255005 0.55270755290985107 0.105788454413414
0.4913332462310791 0.56793135404586792 0.10914555191993713
0.57614004611968994 0.58734399080276489 0.11257009953260422
0.66070395708084106 0.60967099666595459 0.11648084223270416
0.74308902025222778 0.63623738288879395 0.12930756807327271
0.81613028049468994 0.65899831056594849 0.15164773166179657
0.87023437023162842 0.66490495204925537 0.17167778313159943
0.91263318061828613 0.6656913161277771 0.19297800958156586
0.94628351926803589 0.672202467918396 0.22594538331031799
0.2955772876739502 0.6075901985168457 0.13113370537757874
0.30855989456176758 0.60745227336883545 0.1294943243265152
0.33591613173484802 0.60624903440475464 0.13471032679080963
0.37469285726547241 0.60755211114883423 0.13983730971813202
0.42615211009979248 0.61435514688491821 0.14519821107387543
0.49293631315231323 0.62759172916412354 0.15500210225582123
0.56818854808807373 0.64378118515014648 0.16644348204135895
0.64391118288040161 0.66031867265701294 0.17817385494709015
0.72129255533218384 0.68342858552932739 0.19680465757846832
0.79386806488037109 0.7062949538230896 0.22142459452152252
0.8531603217124939 0.71940422058105469 0.24567379057407379
0.89931482076644897 0.72735035419464111 0.27061846852302551
0.93409299850463867 0.73278385400772095 0.2999473512172699
0.33828133344650269 0.67112725973129272 0.17417274415493011
0.34798184037208557 0.67107069492340088 0.17267510294914246
0.36905241012573242 0.66956824064254761 0.17685835063457489
0.40185061097145081 0.66925889253616333 0.18394182622432709
0.44520413875579834 0.67313891649246216 0.19317035377025604
0.50246506929397583 0.68369394540786743 0.2071881890296936
0.56837886571884155 0.69726252555847168 0.2230437695980072
0.6374925971031189 0.7103310227394104 0.24025304615497589
0.70855081081390381 0.72641044855117798 0.26138478517532349
0.77647203207015991 0.74308663606643677 0.286264568567276
0.83714932203292847 0.75839990377426147 0.31502959132194519
0.88738453388214111 0.77164852619171143 0.34534293413162231
0.92385321855545044 0.77541667222976685 0.37165144085884094
0.39418530464172363 0.73102134466171265 0.23204588890075684
0.40342426300048828 0.73195922374725342 0.2331186830997467
0.41847726702690125 0.73079228401184082 0.23658342659473419
0.44882011413574219 0.72935956716537476 0.24726967513561249
0.48773643374443054 0.73028236627578735 0.26071736216545105
0.53576689958572388 0.73826390504837036 0.27657997608184814
0.58925503492355347 0.74995213747024536 0.292368084192276
0.65119743347167969 0.75981885194778442 0.31275066733360291
0.71462392807006836 0.76916873455047607 0.33491489291191101
0.7730218768119812 0.77948063611984253 0.35700869560241699
0.82856017351150513 0.79005652666091919 0.38466432690620422
0.87648844718933105 0.79870325326919556 0.41259950399398804
0.91489583253860474 0.8034699559211731 0.43980598449707031
0.47818896174430847 0.78381228446960449 0.31447473168373108
0.49260371923446655 0.78621608018875122 0.32192841172218323
0.50384634733200073 0.7866593599319458 0.32569533586502075
0.53161299228668213 0.78498882055282593 0.33857685327529907
0.56851047277450562 0.78515881299972534 0.35567328333854675
0.60458648204803467 0.78958553075790405 0.36880004405975342
0.64339607954025269 0.79715651273727417 0.38233330845832825
0.69430863857269287 0.80302608013153076 0.40367773175239563
0.74686920642852783 0.80802679061889648 0.42531344294548035
0.79222553968429565 0.81386715173721313 0.44203749299049377
0.8364485502243042 0.81932908296585083 0.46440514922142029
0.87656915187835693 0.82405149936676025 0.49037572741508484
0.91260093450546265 0.82914954423904419 0.518280029296875
0.57725709676742554 0.82811492681503296 0.40817481279373169
0.60643869638442993 0.83160442113876343 0.42858773469924927
0.62442421913146973 0.83292526006698608 0.43989762663841248
0.63956749439239502 0.83231192827224731 0.44647577404975891
0.6675410270690918 0.83258801698684692 0.46160069108009338
0.68950212001800537 0.83382290601730347 0.46850588917732239
0.7173457145690918 0.83668726682662964 0.47990909218788147
0.75666743516921997 0.8396003246307373 0.50124126672744751
0.7972140908241272 0.84205818176269531 0.52220743894577026
0.82767301797866821 0.84526902437210083 0.53215146064758301
0.85826671123504639 0.84859955310821533 0.54823982715606689
0.88963234424591064 0.852294921875 0.57350510358810425
0.92049187421798706 0.85725533962249756 0.6012808084487915
0.25108811259269714 0.20641180872917175 0.085350930690765381
0.25488868355751038 0.20624999701976776 0.084814511239528656
0.26424118876457214 0.20686547458171844 0.08778071403503418
0.28518065810203552 0.208470419049263 0.089564286172389984
0.34220436215400696 0.20869565010070801 0.090041980147361755
0.44649761915206909 0.20907554030418396 0.090027406811714172
0.57445400953292847 0.21115770936012268 0.090983614325523376
0.69293308258056641 0.2343481183052063 0.095723189413547516
0.79063302278518677 0.27972197532653809 0.10644979774951935
0.86603057384490967 0.32902947068214417 0.12636509537696838
0.91826683282852173 0.38370108604431152 0.15920837223529816
0.9558597207069397 0.43866625428199768 0.20055954158306122
0.98420888185501099 0.49037414789199829 0.24677814543247223
0.25245934724807739 0.21266466379165649 0.087008021771907806
0.25682714581489563 0.21213690936565399 0.087334878742694855
0.26689699292182922 0.21352052688598633 0.089086689054965973
0.29522189497947693 0.21658675372600555 0.09037519246339798
0.36134454607963562 0.22058270871639252 0.090660974383354187
0.46892380714416504 0.22544369101524353 0.090250156819820404
0.59191215038299561 0.2335391640663147 0.089129820466041565
0.7037588357925415 0.25683915615081787 0.090772874653339386
0.79601567983627319 0.298015296459198 0.10035503655672073
0.86881911754608154 0.34598729014396667 0.121271051466465
0.92140036821365356 0.39888486266136169 0.15450313687324524
0.95967334508895874 0.45252099633216858 0.19614633917808533
0.98726350069046021 0.50449854135513306 0.24441663920879364
0.25243952870368958 0.22502286732196808 0.088789723813533783
0.25939241051673889 0.22579479217529297 0.089865699410438538
0.27562430500984192 0.23019254207611084 0.091270998120307922
0.31575858592987061 0.2376386970281601 0.090918488800525665
0.39335763454437256 0.24615074694156647 0.08903038501739502
0.50032418966293335 0.25355333089828491 0.085411727428436279
0.61179822683334351 0.26493158936500549 0.080260902643203735
0.71270763874053955 0.29051658511161804 0.079543963074684143
0.79738610982894897 0.32796183228492737 0.089296035468578339
0.86639624834060669 0.3749144971370697 0.11482596397399902
0.9192691445350647 0.42501711845397949 0.15274615585803986
0.95777750015258789 0.47471290826797485 0.19792333245277405
0.98629164695739746 0.52358734607696533 0.24713198840618134
0.24995324015617371 0.26074111461639404 0.08883330225944519
0.25920414924621582 0.26362913846969604 0.089932657778263092
0.28249123692512512 0.27144107222557068 0.090794503688812256
0.33582529425621033 0.28390887379646301 0.08820699155330658
0.42739766836166382 0.30021750926971436 0.079240314662456512
0.53195369243621826 0.30820992588996887 0.069428674876689911
0.62923502922058105 0.31358581781387329 0.06158098578453064
0.71904075145721436 0.3370940089225769 0.061532802879810333
0.79753923416137695 0.37095803022384644 0.076182149350643158
0.86432892084121704 0.41426560282707214 0.10659221559762955
0.91545641422271729 0.45792296528816223 0.14751236140727997
0.95384520292282104 0.50245332717895508 0.1978374570608139
0.98261725902557373 0.5468173623085022 0.24844326078891754
0.24476553499698639 0.32661384344100952 0.087722539901733398
0.25610646605491638 0.33112847805023193 0.087257161736488342
0.28496712446212769 0.33858883380889893 0.088335625827312469
0.34306958317756653 0.35064592957496643 0.085464701056480408
0.43691626191139221 0.37024500966072083 0.073908880352973938
0.54525268077850342 0.38713034987449646 0.059933263808488846
0.64252424240112305 0.39827534556388855 0.048153433948755264
0.72187328338623047 0.40811565518379211 0.045578528195619583
0.79321157932281494 0.42612528800964355 0.062108311802148819
0.85657370090484619 0.45608574151992798 0.09074796736240387
0.90730506181716919 0.49175655841827393 0.13340306282043457
0.94669073820114136 0.53172492980957031 0.18926770985126495
0.9766046404838562 0.57049405574798584 0.2408691793680191
0.24114932119846344 0.40872302651405334 0.087619543075561523
0.25861328840255737 0.41091093420982361 0.088970378041267395
0.29091927409172058 0.41305363178253174 0.091987535357475281
0.34460341930389404 0.41990965604782104 0.091996587812900543
0.42522320151329041 0.43426191806793213 0.087777309119701385
0.52706271409988403 0.45488196611404419 0.080754987895488739
0.63174211978912354 0.48117190599441528 0.066528171300888062
0.71389776468276978 0.49157962203025818 0.056965742260217667
0.78418064117431641 0.49673336744308472 0.06507379561662674
0.84555542469024658 0.50846970081329346 0.083458855748176575
0.89671319723129272 0.53189826011657715 0.1208660826086998
0.93703818321228027 0.56130021810531616 0.17180201411247253
0.96814447641372681 0.5920708179473877 0.22276493906974792
0.24930216372013092 0.48271647095680237 0.097347065806388855
0.26953557133674622 0.48329463601112366 0.099532738327980042
0.30244305729866028 0.48248296976089478 0.10463249683380127
0.35139602422714233 0.48586863279342651 0.10818705707788467
0.42032879590988159 0.49589911103248596 0.11076612025499344
0.50762510299682617 0.51342952251434326 0.11214101314544678
0.60154992341995239 0.53673046827316284 0.10963227599859238
0.69092965126037598 0.55863982439041138 0.10450529307126999
0.76938211917877197 0.57373648881912231 0.10727672278881073
0.83504682779312134 0.58434003591537476 0.12041240185499191
0.88665890693664551 0.59383642673492432 0.144717738032341
0.92656117677688599 0.6034705638885498 0.17522628605365753
0.9580194354057312 0.62188035249710083 0.21739579737186432
0.27255547046661377 0.54672157764434814 0.11904217302799225
0.29019021987915039 0.54747277498245239 0.12011273205280304
0.32043781876564026 0.54673755168914795 0.12593249976634979
0.36513650417327881 0.54912984371185303 0.1320762038230896
0.42541468143463135 0.55734515190124512 0.13887311518192291
0.50084567070007324 0.57221835851669312 0.14691494405269623
0.58414977788925171 0.59281903505325317 0.15478147566318512
0.66830569505691528 0.61622816324234009 0.15937028825283051
0.74926024675369263 0.64030998945236206 0.16969123482704163
0.81988608837127686 0.65889191627502441 0.18709589540958405
0.87382775545120239 0.66624277830123901 0.20529979467391968
0.91421699523925781 0.66752809286117554 0.22403952479362488
0.94620078802108765 0.67633843421936035 0.25686687231063843
0.30979573726654053 0.61116480827331543 0.15168605744838715
0.32084524631500244 0.61052316427230835 0.15011687576770782
0.34587624669075012 0.60955941677093506 0.15525372326374054
0.38530004024505615 0.61108100414276123 0.1628914475440979
0.43689250946044922 0.61814779043197632 0.17250232398509979
0.50266367197036743 0.63171648979187012 0.18600399792194366
0.57715141773223877 0.64963763952255249 0.19997188448905945
0.65135252475738525 0.66785329580307007 0.21135522425174713
0.72727227210998535 0.68969833850860596 0.22782956063747406
0.79786860942840576 0.70987510681152344 0.2494066059589386
0.85560762882232666 0.72177714109420776 0.27065125107765198
0.89976519346237183 0.72819244861602783 0.29227420687675476
0.93366420269012451 0.73501193523406982 0.32176387310028076
0.35237306356430054 0.67518442869186401 0.19302836060523987
0.35950320959091187 0.67420846223831177 0.19063554704189301
0.37909701466560364 0.67216545343399048 0.19468209147453308
0.41307637095451355 0.67236125469207764 0.20322480797767639
0.45739477872848511 0.67728453874588013 0.2158953845500946
0.51314622163772583 0.68806856870651245 0.23186154663562775
0.57687777280807495 0.70191991329193115 0.24828389286994934
0.64389252662658691 0.71591335535049438 0.26441377401351929
0.712993323802948 0.73112112283706665 0.28410258889198303
0.77938640117645264 0.74510675668716431 0.30682781338691711
0.83752089738845825 0.7571147084236145 0.33093729615211487
0.88511615991592407 0.76899904012680054 0.35719412565231323
0.92264765501022339 0.7764701247215271 0.38564872741699219
0.40651169419288635 0.73525595664978027 0.2491564154624939
0.41488730907440186 0.73545902967453003 0.24983857572078705
0.4298546314239502 0.73334580659866333 0.25291013717651367
0.45736634731292725 0.7318006157875061 0.26171168684959412
0.49799782037734985 0.73486840724945068 0.2775266170501709
0.54662477970123291 0.74228113889694214 0.2956027090549469
0.59926825761795044 0.75251930952072144 0.3119257390499115
0.65665185451507568 0.76248437166213989 0.32914647459983826
0.71776682138442993 0.77172797918319702 0.34987756609916687
0.77642512321472168 0.78009825944900513 0.37227293848991394
0.82930916547775269 0.78864026069641113 0.39559859037399292
0.8754119873046875 0.79739499092102051 0.42061108350753784
0.91405904293060303 0.80453073978424072 0.44843468070030212
0.48950847983360291 0.78930515050888062 0.33024078607559204
0.50298500061035156 0.79020911455154419 0.33612975478172302
0.51380407810211182 0.78890138864517212 0.33901122212409973
0.53245729207992554 0.78791278600692749 0.34509971737861633
0.5702812671661377 0.7886238694190979 0.36364570260047913
0.61203694343566895 0.7925257682800293 0.38208103179931641
0.65255230665206909 0.79868900775909424 0.39673516154289246
0.69821596145629883 0.80475121736526489 0.41371747851371765
0.74779504537582397 0.80970197916030884 0.43350604176521301
0.79425644874572754 0.8140748143196106 0.45198085904121399
0.83740425109863281 0.81883609294891357 0.47147774696350098
0.87682235240936279 0.82390135526657104 0.49412348866462708
0.91287702322006226 0.8300672173500061 0.52044272422790527
0.5916818380355835 0.83436650037765503 0.42477837204933167
0.61176431179046631 0.83634275197982788 0.43770569562911987
0.62371665239334106 0.83628755807876587 0.4435420036315918
0.63621830940246582 0.83525878190994263 0.44831395149230957
0.66506403684616089 0.83506894111633301 0.46411710977554321
0.69549310207366943 0.8358420729637146 0.47859302163124084
0.72386640310287476 0.83911937475204468 0.49074047803878784
0.75788033008575439 0.84133815765380859 0.50723034143447876
0.79511922597885132 0.84355509281158447 0.52482587099075317
0.82808297872543335 0.84593385457992554 0.537861168384552
0.85934931039810181 0.84875625371932983 0.55303066968917847
0.89036309719085693 0.85242092609405518 0.57365536689758301
0.9217832088470459 0.8575400710105896 0.59642511606216431
0.25115558505058289 0.20629861950874329 0.092911019921302795
0.25590240955352783 0.20598523318767548 0.09195631742477417
0.26567730307579041 0.2078671008348465 0.095133520662784576
0.28841286897659302 0.20841437578201294 0.098763421177864075
0.3485378623008728 0.20448550581932068 0.1043233647942543
0.45894342660903931 0.1987537145614624 0.11259390413761139
0.59286618232727051 0.19905091822147369 0.12353815138339996
0.70771867036819458 0.23878085613250732 0.14607143402099609
0.79818046092987061 0.30299821496009827 0.17475344240665436
0.86674511432647705 0.36352679133415222 0.20623587071895599
0.91667121648788452 0.41959947347640991 0.2385130375623703
0.95502477884292603 0.47244164347648621 0.27322056889533997
0.98246234655380249 0.52175134420394897 0.31191056966781616
0.25239217281341553 0.21363756060600281 0.097100771963596344
0.25911751389503479 0.213088259100914 0.097402371466159821
0.27098345756530762 0.21578609943389893 0.099859125912189484
0.29987853765487671 0.21857674419879913 0.10301785916090012
0.37185603380203247 0.21834281086921692 0.11093057692050934
0.48491227626800537 0.21975550055503845 0.12081831693649292
0.60961592197418213 0.23288010060787201 0.13266827166080475
0.71735680103302002 0.27474740147590637 0.1547621488571167
0.80202996730804443 0.33061400055885315 0.17941083014011383
0.86859261989593506 0.38181951642036438 0.20523636043071747
0.91868466138839722 0.43026897311210632 0.23399627208709717
0.95712143182754517 0.48295432329177856 0.26919952034950256
0.98386693000793457 0.53269654512405396 0.30896049737930298
0.25433877110481262 0.22900320589542389 0.10317297279834747
0.26501032710075378 0.22941131889820099 0.10563472658395767
0.28488960862159729 0.23414108157157898 0.10981294512748718
0.32736918330192566 0.24050241708755493 0.11337017267942429
0.4097248911857605 0.24793373048305511 0.11978288739919662
0.51970994472503662 0.26000872254371643 0.12833744287490845
0.62997782230377197 0.27686735987663269 0.13677218556404114
0.72421872615814209 0.31169888377189636 0.15244986116886139
0.8005872368812561 0.35355859994888306 0.17141479253768921
0.86577051877975464 0.4034920334815979 0.19933660328388214
0.91757988929748535 0.45241320133209229 0.23164185881614685
0.95464283227920532 0.49959170818328857 0.26720839738845825
0.98152995109558105 0.5455009937286377 0.3067762553691864
0.25828886032104492 0.26546737551689148 0.10933110862970352
0.27051445841789246 0.26982370018959045 0.11254872381687164
0.29807180166244507 0.27826467156410217 0.11794508248567581
0.35306420922279358 0.28986287117004395 0.12179360538721085
0.44579198956489563 0.30286049842834473 0.12340542674064636
0.5490233302116394 0.31513282656669617 0.12576207518577576
0.6440809965133667 0.3253956139087677 0.12866002321243286
0.72648626565933228 0.35219424962997437 0.14040510356426239
0.79952472448348999 0.38836273550987244 0.16048197448253632
0.86342096328735352 0.43393254280090332 0.19216981530189514
0.91335427761077881 0.47792184352874756 0.22545464336872101
0.94989585876464844 0.5213245153427124 0.26229193806648254
0.97736436128616333 0.56406432390213013 0.30247420072555542
0.2679276168346405 0.33287569880485535 0.12154868990182877
0.28017982840538025 0.34051245450973511 0.12209043651819229
0.30977427959442139 0.34979212284088135 0.12600681185722351
0.36515319347381592 0.36025199294090271 0.12999783456325531
0.45226398110389709 0.37560257315635681 0.12918496131896973
0.55858594179153442 0.39057454466819763 0.126048743724823
0.65121877193450928 0.39729371666908264 0.12234347313642502
