films/polaroid_px-680_warm.cube
# Created by: G'MIC (https://gmic.eu)
TITLE "polaroid_px-680_warm"
# LUT size
LUT_3D_SIZE 7
# Data domain
DOMAIN_MIN 0.0 0.0 0.0
DOMAIN_MAX 1.0 1.0 1.0
# LUT data points
0.25225242972373962 0.20708934962749481 0.082345552742481232
0.26211410760879517 0.20720541477203369 0.081854261457920074
0.33334168791770935 0.21286691725254059 0.079404570162296295
0.55575507879257202 0.21133604645729065 0.065273329615592957
0.78127795457839966 0.25967815518379211 0.04976927861571312
0.91469717025756836 0.36029723286628723 0.096630960702896118
0.98109245300292969 0.4680292010307312 0.19660761952400208
0.25405386090278625 0.22154422104358673 0.08358842134475708
0.27017822861671448 0.22700585424900055 0.083117209374904633
0.3747883141040802 0.23984985053539276 0.074434541165828705
0.5945013165473938 0.25767719745635986 0.044118501245975494
0.79074651002883911 0.31704741716384888 0.029036996886134148
0.91548442840576172 0.40926423668861389 0.09214966744184494
0.98506671190261841 0.50892376899719238 0.20214460790157318
0.23653796315193176 0.31793293356895447 0.071254432201385498
0.27466759085655212 0.32679972052574158 0.068725481629371643
0.41929087042808533 0.36035007238388062 0.040353603661060333
0.62791907787322998 0.3944944441318512 0.0043003903701901436
0.78473013639450073 0.41518127918243408 0.008777872659265995
0.90382003784179688 0.47870185971260071 0.068364627659320831
0.97710305452346802 0.56215536594390869 0.20326073467731476
0.23202642798423767 0.47710630297660828 0.072188735008239746
0.28615781664848328 0.47499093413352966 0.075269617140293121
0.40713214874267578 0.48915150761604309 0.072450272738933563
0.59169584512710571 0.52932631969451904 0.05911935493350029
0.76314669847488403 0.57224535942077637 0.056020893156528473
0.88284355401992798 0.58998948335647583 0.093875184655189514
0.95870119333267212 0.61499327421188354 0.17772349715232849
0.2955772876739502 0.6075901985168457 0.13113370537757874
0.33591613173484802 0.60624903440475464 0.13471032679080963
0.42615211009979248 0.61435514688491821 0.14519821107387543
0.56818854808807373 0.64378118515014648 0.16644348204135895
0.72129255533218384 0.68342858552932739 0.19680465757846832
0.8531603217124939 0.71940422058105469 0.24567379057407379
0.93409299850463867 0.73278385400772095 0.2999473512172699
0.39418530464172363 0.73102134466171265 0.23204588890075684
0.41847726702690125 0.73079228401184082 0.23658342659473419
0.48773643374443054 0.73028236627578735 0.26071736216545105
0.58925503492355347 0.74995213747024536 0.292368084192276
0.71462392807006836 0.76916873455047607 0.33491489291191101
0.82856017351150513 0.79005652666091919 0.38466432690620422
0.91489583253860474 0.8034699559211731 0.43980598449707031
0.57725709676742554 0.82811492681503296 0.40817481279373169
0.62442421913146973 0.83292526006698608 0.43989762663841248
0.6675410270690918 0.83258801698684692 0.46160069108009338
0.7173457145690918 0.83668726682662964 0.47990909218788147
0.7972140908241272 0.84205818176269531 0.52220743894577026
0.85826671123504639 0.84859955310821533 0.54823982715606689
0.92049187421798706 0.85725533962249756 0.6012808084487915
0.25115558505058289 0.20629861950874329 0.092911019921302795
0.26567730307579041 0.2078671008348465 0.095133520662784576
0.3485378623008728 0.20448550581932068 0.1043233647942543
0.59286618232727051 0.19905091822147369 0.12353815138339996
0.79818046092987061 0.30299821496009827 0.17475344240665436
0.91667121648788452 0.41959947347640991 0.2385130375623703
0.98246234655380249 0.52175134420394897 0.31191056966781616
0.25433877110481262 0.22900320589542389 0.10317297279834747
0.28488960862159729 0.23414108157157898 0.10981294512748718
0.4097248911857605 0.24793373048305511 0.11978288739919662
0.62997782230377197 0.27686735987663269 0.13677218556404114
0.8005872368812561 0.35355859994888306 0.17141479253768921
0.91757988929748535 0.45241320133209229 0.23164185881614685
0.98152995109558105 0.5455009937286377 0.3067762553691864
0.2679276168346405 0.33287569880485535 0.12154868990182877
0.30977427959442139 0.34979212284088135 0.12600681185722351
0.45226398110389709 0.37560257315635681 0.12918496131896973
0.65121877193450928 0.39729371666908264 0.12234347313642502
0.79425740242004395 0.4342333972454071 0.14493082463741302
0.90510714054107666 0.50746637582778931 0.21244020760059357
0.9712836742401123 0.58658736944198608 0.29539674520492554
0.29920905828475952 0.48707824945449829 0.14945890009403229
0.33957085013389587 0.48981913924217224 0.15208789706230164
0.44365429878234863 0.50447314977645874 0.16197921335697174
0.61763101816177368 0.54892867803573608 0.17256329953670502
0.77516311407089233 0.5766112208366394 0.17472445964813232
0.88752692937850952 0.59452241659164429 0.20504210889339447
0.95553278923034668 0.63683849573135376 0.27678301930427551
0.3380182683467865 0.6124686598777771 0.18695580959320068
0.36928167939186096 0.61193263530731201 0.18914943933486938
0.45562407374382019 0.6220516562461853 0.20923703908920288
0.5840144157409668 0.65071374177932739 0.23751610517501831
0.73172950744628906 0.69095396995544434 0.26699364185333252
0.85795938968658447 0.72516697645187378 0.30593544244766235
0.93376332521438599 0.73720318078994751 0.35356736183166504
0.42044311761856079 0.73553919792175293 0.26976096630096436
0.44297266006469727 0.73527795076370239 0.27359175682067871
0.51054960489273071 0.73777985572814941 0.2989637553691864
0.6080327033996582 0.75307786464691162 0.33334344625473022
0.7211955189704895 0.77226316928863525 0.36895918846130371
0.83179783821105957 0.78999674320220947 0.41468051075935364
0.91501861810684204 0.80745059251785278 0.46629410982131958
0.61246395111083984 0.83706218004226685 0.44623267650604248
0.62320441007614136 0.83759969472885132 0.44846415519714355
0.66437256336212158 0.83586043119430542 0.46757259964942932
0.72698050737380981 0.83939182758331299 0.49791976809501648
0.79318583011627197 0.84342306852340698 0.52792823314666748
0.86072057485580444 0.84850984811782837 0.5586850643157959
0.92371761798858643 0.85864865779876709 0.59751182794570923
0.26522523164749146 0.21218235790729523 0.15760044753551483
0.30359005928039551 0.21717289090156555 0.1687324047088623
0.38935288786888123 0.23729681968688965 0.18773558735847473
0.58897882699966431 0.21871545910835266 0.23650738596916199
0.79820865392684937 0.26821008324623108 0.2838192880153656
0.92101973295211792 0.43013665080070496 0.35892176628112793
0.97166615724563599 0.57862305641174316 0.43949627876281738
0.26454722881317139 0.24872879683971405 0.1980731338262558
0.32487118244171143 0.25612223148345947 0.21246333420276642
0.45959687232971191 0.29803836345672607 0.23093622922897339
0.63112431764602661 0.30172765254974365 0.26988795399665833
0.80655723810195923 0.37585070729255676 0.32180988788604736
0.91637641191482544 0.4971676766872406 0.38142359256744385
0.96260899305343628 0.6167721152305603 0.45186102390289307
0.28682130575180054 0.35274618864059448 0.22757114470005035
0.35941994190216064 0.37094631791114807 0.25118941068649292
0.51246523857116699 0.39856937527656555 0.27799853682518005
0.67127871513366699 0.42978388071060181 0.30067199468612671
0.80203825235366821 0.49604082107543945 0.33983388543128967
0.8999098539352417 0.56844484806060791 0.38765144348144531
0.95488655567169189 0.6457410454750061 0.44179075956344604
0.3858916163444519 0.49409064650535583 0.26834285259246826
0.43381103873252869 0.50226306915283203 0.27386212348937988
0.52124971151351929 0.5256650447845459 0.29794719815254211
0.65392327308654785 0.5660322904586792 0.3146759569644928
0.78900587558746338 0.5896984338760376 0.32577911019325256
0.8845183253288269 0.61283761262893677 0.34840244054794312
0.94609665870666504 0.67308133840560913 0.41493427753448486
0.45017057657241821 0.62410140037536621 0.30761215090751648
0.4715123176574707 0.62620759010314941 0.3068024218082428
0.51567673683166504 0.63884228467941284 0.31288757920265198
0.61240023374557495 0.66091227531433105 0.33711576461791992
0.74780941009521484 0.69618076086044312 0.36600252985954285
0.86052519083023071 0.72503507137298584 0.39342227578163147
0.93306779861450195 0.74500995874404907 0.43875995278358459
0.47915560007095337 0.73743551969528198 0.34409117698669434
0.49570831656455994 0.73895871639251709 0.34643220901489258
0.54515951871871948 0.74521517753601074 0.36251243948936462
0.62755841016769409 0.75666695833206177 0.39147117733955383
0.73705732822418213 0.77226805686950684 0.43194445967674255
0.83859872817993164 0.79179024696350098 0.47006264328956604
0.9171326756477356 0.80870294570922852 0.51358747482299805
0.61299210786819458 0.83614873886108398 0.46645435690879822
0.63575530052185059 0.83713233470916748 0.47670239210128784
0.67732411623001099 0.83692640066146851 0.49423500895500183
0.72953951358795166 0.83819437026977539 0.51783484220504761
0.8018418550491333 0.84123343229293823 0.55732083320617676
0.86369818449020386 0.84756088256835938 0.58044236898422241
0.92482572793960571 0.85816574096679688 0.61641699075698853
0.31494686007499695 0.22989560663700104 0.33253180980682373
0.38064000010490417 0.23790165781974792 0.34125113487243652
0.53496211767196655 0.29979494214057922 0.36677491664886475
0.65713226795196533 0.37888988852500916 0.39494195580482483
0.77703368663787842 0.36283588409423828 0.42749163508415222
0.90554368495941162 0.42679673433303833 0.45906248688697815
0.96975117921829224 0.555866539478302 0.50788712501525879
0.31950333714485168 0.28104251623153687 0.36854580044746399
0.40704146027565002 0.2967974841594696 0.37629830837249756
0.56956952810287476 0.36075359582901001 0.3987099826335907
0.67792677879333496 0.43532544374465942 0.42221218347549438
0.78970861434936523 0.42601731419563293 0.44778776168823242
0.90162080526351929 0.49221664667129517 0.47713091969490051
0.9644237756729126 0.59796547889709473 0.51820158958435059
0.32677146792411804 0.39726167917251587 0.37949001789093018
0.40261220932006836 0.40518039464950562 0.39321964979171753
0.56756019592285156 0.44090694189071655 0.41765803098678589
0.69546103477478027 0.51898753643035889 0.44486704468727112
0.79415160417556763 0.52222931385040283 0.46615946292877197
0.88897597789764404 0.59489595890045166 0.50516778230667114
0.94884389638900757 0.67139363288879395 0.54254788160324097
0.39086693525314331 0.5074230432510376 0.37530297040939331
0.44301688671112061 0.51262372732162476 0.38130876421928406
0.55471169948577881 0.53963828086853027 0.41590544581413269
0.68969011306762695 0.58869653940200806 0.45360252261161804
0.79910016059875488 0.62608063220977783 0.47849622368812561
0.88178026676177979 0.66928470134735107 0.50819200277328491
0.93664336204528809 0.72477430105209351 0.54682594537734985
0.46318820118904114 0.61680144071578979 0.3863849937915802
0.50101500749588013 0.62061566114425659 0.39312770962715149
0.58033156394958496 0.64572668075561523 0.42239782214164734
0.66374903917312622 0.67582088708877563 0.44848498702049255
0.77348923683166504 0.7100793719291687 0.47430679202079773
0.8692891001701355 0.72878074645996094 0.49172118306159973
0.93181419372558594 0.74814021587371826 0.51940798759460449
0.51933890581130981 0.72674930095672607 0.42210465669631958
0.54807764291763306 0.73167163133621216 0.42911750078201294
0.5929572582244873 0.74488282203674316 0.43939727544784546
0.66521376371383667 0.76300507783889771 0.46539968252182007
0.75437629222869873 0.7796747088432312 0.49918141961097717
0.84832251071929932 0.79802113771438599 0.53508895635604858
0.92075902223587036 0.80707496404647827 0.56879234313964844
0.63968217372894287 0.832256019115448 0.51479983329772949
0.65501528978347778 0.83395344018936157 0.51750326156616211
0.68803614377975464 0.83585190773010254 0.52646553516387939
0.73946964740753174 0.83829629421234131 0.54906672239303589
0.8021848201751709 0.84238517284393311 0.57944005727767944
0.86446118354797363 0.84794646501541138 0.60992574691772461
0.92700964212417603 0.85750490427017212 0.65585589408874512
0.43751811981201172 0.2913869321346283 0.5135837197303772
0.50161653757095337 0.30766052007675171 0.52097189426422119
0.63535076379776001 0.37090644240379333 0.53470444679260254
0.75012147426605225 0.50120127201080322 0.54985266923904419
0.81302082538604736 0.57379621267318726 0.562583327293396
0.8813021183013916 0.55561619997024536 0.57193857431411743
0.94754993915557861 0.59730571508407593 0.59060859680175781
0.44966274499893188 0.35257580876350403 0.52994900941848755
0.51990169286727905 0.36647030711174011 0.53511142730712891
0.64672237634658813 0.42471528053283691 0.54549390077590942
0.75445640087127686 0.54324567317962646 0.55732125043869019
0.8167191743850708 0.61244487762451172 0.57175743579864502
0.87800502777099609 0.59024894237518311 0.57729923725128174
0.93970233201980591 0.63307410478591919 0.59700208902359009
0.44267928600311279 0.45103120803833008 0.52674722671508789
0.51146650314331055 0.45728275179862976 0.53356689214706421
0.62959015369415283 0.49421525001525879 0.54701846837997437
0.75525647401809692 0.59658855199813843 0.5647428035736084
0.81660312414169312 0.65894657373428345 0.5790400505065918
0.87357020378112793 0.64345407485961914 0.5836646556854248
0.93292105197906494 0.68026942014694214 0.60498267412185669
0.41415530443191528 0.54515290260314941 0.5059514045715332
0.46298816800117493 0.54771727323532104 0.50930202007293701
0.56800258159637451 0.56516039371490479 0.52519339323043823
0.72093325853347778 0.62693190574645996 0.56006884574890137
0.81840848922729492 0.70430994033813477 0.58790063858032227
0.87240839004516602 0.70030844211578369 0.597969651222229
0.93020612001419067 0.73287761211395264 0.62100744247436523
0.45823794603347778 0.63158327341079712 0.48529934883117676
0.49344542622566223 0.63482087850570679 0.48899468779563904
0.56408470869064331 0.64818716049194336 0.5025513768196106
0.67697006464004517 0.68112599849700928 0.53760141134262085
0.79979407787322998 0.73026293516159058 0.57779628038406372
0.87024408578872681 0.75143426656723022 0.59673225879669189
0.92658466100692749 0.77816855907440186 0.62343162298202515
0.4793037474155426 0.7166716456413269 0.47707927227020264
0.51250070333480835 0.72126269340515137 0.48415154218673706
0.57916641235351562 0.73107641935348511 0.49852043390274048
0.68171507120132446 0.75674629211425781 0.53229957818984985
0.78645861148834229 0.78121525049209595 0.57361465692520142
0.86007797718048096 0.79955726861953735 0.60326564311981201
0.92625594139099121 0.81262516975402832 0.62917095422744751
0.62513273954391479 0.83021628856658936 0.56195849180221558
0.6368182897567749 0.82865989208221436 0.56104308366775513
0.68754732608795166 0.83223742246627808 0.57129329442977905
0.73708796501159668 0.83590376377105713 0.5831189751625061
0.8060460090637207 0.84391117095947266 0.61248981952667236
0.86855864524841309 0.84905010461807251 0.64589101076126099
0.93294566869735718 0.85817009210586548 0.68427801132202148
0.60166275501251221 0.4200764000415802 0.65766537189483643
0.64402109384536743 0.44558563828468323 0.65691769123077393
0.72427856922149658 0.51049298048019409 0.65487015247344971
0.80667555332183838 0.6001707911491394 0.65860080718994141
0.85727381706237793 0.70291543006896973 0.66234749555587769
0.88744664192199707 0.72839510440826416 0.66698604822158813
0.93411052227020264 0.71425879001617432 0.6736188530921936
0.60504442453384399 0.46909630298614502 0.65979093313217163
0.64452093839645386 0.48710951209068298 0.6561090350151062
0.72341287136077881 0.5395691990852356 0.65675216913223267
0.80635875463485718 0.62626785039901733 0.65912532806396484
0.86064428091049194 0.71938848495483398 0.66571331024169922
0.88644421100616455 0.742046058177948 0.67258483171463013
0.92386883497238159 0.73053562641143799 0.67781245708465576
0.58445501327514648 0.53308641910552979 0.64998000860214233
0.6205604076385498 0.54197365045547485 0.64839798212051392
0.70564782619476318 0.58312582969665527 0.65289682149887085
0.80020880699157715 0.6596570611000061 0.65907615423202515
0.85804754495620728 0.73668116331100464 0.67017501592636108
0.88560634851455688 0.76124101877212524 0.67635905742645264
0.92002284526824951 0.74957370758056641 0.68032771348953247
0.49969816207885742 0.60217559337615967 0.62576627731323242
0.5515209436416626 0.60628515481948853 0.63012194633483887
0.64840430021286011 0.62523031234741211 0.63971245288848877
0.76848524808883667 0.6783759593963623 0.65597343444824219
0.85343581438064575 0.75273126363754272 0.67243415117263794
0.88411140441894531 0.77651077508926392 0.6787225604057312
0.91824591159820557 0.77147877216339111 0.68464797735214233
0.46943268179893494 0.67675739526748657 0.60586035251617432
0.49068215489387512 0.67483389377593994 0.6057317852973938
0.55935251712799072 0.67907619476318359 0.61206150054931641
0.68273133039474487 0.70083016157150269 0.62979942560195923
0.81997025012969971 0.75380408763885498 0.66222578287124634
0.88750910758972168 0.7983253002166748 0.69055145978927612
0.92176347970962524 0.79553955793380737 0.69587600231170654
0.48034882545471191 0.74547344446182251 0.58302557468414307
0.51289170980453491 0.74622201919555664 0.58562082052230835
0.57397377490997314 0.74910014867782593 0.59067660570144653
0.67308741807937622 0.76212108135223389 0.60913598537445068
0.77810704708099365 0.78087699413299561 0.63617950677871704
0.87598884105682373 0.81096851825714111 0.6855844259262085
0.93486392498016357 0.82279407978057861 0.70380192995071411
0.53724920749664307 0.83042234182357788 0.60650664567947388
0.5498625636100769 0.82921707630157471 0.60412168502807617
0.60420858860015869 0.82950413227081299 0.60925018787384033
0.694102942943573 0.83182144165039062 0.62644672393798828
0.79491865634918213 0.8391796350479126 0.65980827808380127
0.87109529972076416 0.84877049922943115 0.69401174783706665
0.93794924020767212 0.85944706201553345 0.72819358110427856
0.75968450307846069 0.64152175188064575 0.75646263360977173
0.77681297063827515 0.65386521816253662 0.75188684463500977
0.81169390678405762 0.67974853515625 0.74637150764465332
0.85462093353271484 0.72671830654144287 0.74300408363342285
0.89099377393722534 0.76875287294387817 0.74333912134170532
0.91537332534790039 0.80363327264785767 0.74534314870834351
0.94832617044448853 0.80609971284866333 0.75074928998947144
0.75958657264709473 0.66431665420532227 0.75555574893951416
0.77384710311889648 0.66725867986679077 0.75133395195007324
0.81106305122375488 0.69324856996536255 0.74747085571289062
0.85518813133239746 0.7340397834777832 0.74518698453903198
0.89173358678817749 0.77738445997238159 0.74531382322311401
0.91452658176422119 0.80998635292053223 0.74754875898361206
0.93644285202026367 0.8117867112159729 0.75351274013519287
0.73207247257232666 0.67683678865432739 0.75119626522064209
0.7542608380317688 0.68645173311233521 0.74981880187988281
0.8006058931350708 0.71299946308135986 0.74825167655944824
0.84814208745956421 0.75090086460113525 0.74654984474182129
0.88893246650695801 0.78560364246368408 0.74676132202148438
0.91636693477630615 0.81516164541244507 0.75191384553909302
0.93544411659240723 0.8184363842010498 0.75739657878875732
0.69630986452102661 0.71760272979736328 0.74630880355834961
0.71902847290039062 0.71772551536560059 0.74782460927963257
0.76876235008239746 0.72901719808578491 0.74863314628601074
0.83192628622055054 0.75742596387863159 0.74993664026260376
0.88295471668243408 0.79301846027374268 0.75050640106201172
0.91713923215866089 0.82025408744812012 0.75689619779586792
0.93837064504623413 0.82720804214477539 0.76182264089584351
0.58439046144485474 0.75244617462158203 0.73311692476272583
0.61435580253601074 0.75242096185684204 0.73613029718399048
0.66972833871841431 0.7551007866859436 0.7376861572265625
0.7670409083366394 0.76492524147033691 0.74313545227050781
0.86190420389175415 0.79620599746704102 0.75279891490936279
0.9168967604637146 0.8266635537147522 0.76480358839035034
0.94312828779220581 0.83933800458908081 0.77126586437225342
0.59972178936004639 0.80525320768356323 0.72658967971801758
0.62223035097122192 0.80971318483352661 0.73248070478439331
0.65109097957611084 0.80650025606155396 0.73357629776000977
0.71055871248245239 0.80456292629241943 0.73951375484466553
0.79901325702667236 0.80862462520599365 0.74613493680953979
0.8971250057220459 0.83328855037689209 0.76774531602859497
0.94825208187103271 0.85642647743225098 0.78156358003616333
0.66552555561065674 0.86050307750701904 0.74434608221054077
0.67510747909545898 0.85807257890701294 0.74533236026763916
0.69780248403549194 0.85773414373397827 0.74553471803665161
0.74553722143173218 0.85604298114776611 0.75073111057281494
0.79790520668029785 0.85330361127853394 0.75080180168151855
0.8728669285774231 0.85873979330062866 0.76570796966552734
0.95117902755737305 0.87125355005264282 0.79722344875335693
