films/polaroid_665.cube
# Created by: G'MIC (https://gmic.eu)
TITLE "polaroid_665"
# LUT size
LUT_3D_SIZE 5
# Data domain
DOMAIN_MIN 0.0 0.0 0.0
DOMAIN_MAX 1.0 1.0 1.0
# LUT data points
0.058134865015745163 0.058134865015745163 0.058134865015745163
0.093787729740142822 0.093787729740142822 0.093787729740142822
0.18545584380626678 0.18545584380626678 0.18545584380626678
0.30953752994537354 0.30953752994537354 0.30953752994537354
0.4587458074092865 0.4587458074092865 0.4587458074092865
0.14467594027519226 0.14467594027519226 0.14467594027519226
0.14750699698925018 0.14750699698925018 0.14750699698925018
0.23099276423454285 0.23099276423454285 0.23099276423454285
0.36061659455299377 0.36061659455299377 0.36061659455299377
0.52506041526794434 0.52506041526794434 0.52506041526794434
0.30456185340881348 0.30456185340881348 0.30456185340881348
0.31377840042114258 0.31377840042114258 0.31377840042114258
0.33930090069770813 0.33930090069770813 0.33930090069770813
0.43051663041114807 0.43051663041114807 0.43051663041114807
0.63375109434127808 0.63375109434127808 0.63375109434127808
0.5491558313369751 0.5491558313369751 0.5491558313369751
0.5488770604133606 0.5488770604133606 0.5488770604133606
0.55486017465591431 0.55486017465591431 0.55486017465591431
0.57092666625976562 0.57092666625976562 0.57092666625976562
0.70725089311599731 0.70725089311599731 0.70725089311599731
0.84627330303192139 0.84627330303192139 0.84627330303192139
0.83767455816268921 0.83767455816268921 0.83767455816268921
0.86489087343215942 0.86489087343215942 0.86489087343215942
0.86548256874084473 0.86548256874084473 0.86548256874084473
0.87934786081314087 0.87934786081314087 0.87934786081314087
0.14937059581279755 0.14937059581279755 0.14937059581279755
0.18248748779296875 0.18248748779296875 0.18248748779296875
0.25723361968994141 0.25723361968994141 0.25723361968994141
0.36109676957130432 0.36109676957130432 0.36109676957130432
0.50607967376708984 0.50607967376708984 0.50607967376708984
0.19851614534854889 0.19851614534854889 0.19851614534854889
0.2432817816734314 0.2432817816734314 0.2432817816734314
0.30772107839584351 0.30772107839584351 0.30772107839584351
0.4072297215461731 0.4072297215461731 0.4072297215461731
0.55597037076950073 0.55597037076950073 0.55597037076950073
0.36867806315422058 0.36867806315422058 0.36867806315422058
0.38653343915939331 0.38653343915939331 0.38653343915939331
0.40253093838691711 0.40253093838691711 0.40253093838691711
0.47983503341674805 0.47983503341674805 0.47983503341674805
0.66618019342422485 0.66618019342422485 0.66618019342422485
0.5851481556892395 0.5851481556892395 0.5851481556892395
0.59403705596923828 0.59403705596923828 0.59403705596923828
0.59850978851318359 0.59850978851318359 0.59850978851318359
0.61775964498519897 0.61775964498519897 0.61775964498519897
0.74516606330871582 0.74516606330871582 0.74516606330871582
0.84683692455291748 0.84683692455291748 0.84683692455291748
0.85289549827575684 0.85289549827575684 0.85289549827575684
0.86846393346786499 0.86846393346786499 0.86846393346786499
0.885009765625 0.885009765625 0.885009765625
0.90385276079177856 0.90385276079177856 0.90385276079177856
0.33149552345275879 0.33149552345275879 0.33149552345275879
0.35954150557518005 0.35954150557518005 0.35954150557518005
0.38150513172149658 0.38150513172149658 0.38150513172149658
0.47136270999908447 0.47136270999908447 0.47136270999908447
0.64365965127944946 0.64365965127944946 0.64365965127944946
0.38915753364562988 0.38915753364562988 0.38915753364562988
0.41875609755516052 0.41875609755516052 0.41875609755516052
0.43059420585632324 0.43059420585632324 0.43059420585632324
0.52257794141769409 0.52257794141769409 0.52257794141769409
0.66582614183425903 0.66582614183425903 0.66582614183425903
0.43091776967048645 0.43091776967048645 0.43091776967048645
0.474957674741745 0.474957674741745 0.474957674741745
0.52348524332046509 0.52348524332046509 0.52348524332046509
0.60242068767547607 0.60242068767547607 0.60242068767547607
0.73085963726043701 0.73085963726043701 0.73085963726043701
0.62506377696990967 0.62506377696990967 0.62506377696990967
0.65093660354614258 0.65093660354614258 0.65093660354614258
0.68718504905700684 0.68718504905700684 0.68718504905700684
0.70686304569244385 0.70686304569244385 0.70686304569244385
0.81881225109100342 0.81881225109100342 0.81881225109100342
0.88122236728668213 0.88122236728668213 0.88122236728668213
0.87771332263946533 0.87771332263946533 0.87771332263946533
0.8952338695526123 0.8952338695526123 0.8952338695526123
0.90798389911651611 0.90798389911651611 0.90798389911651611
0.92095386981964111 0.92095386981964111 0.92095386981964111
0.61090660095214844 0.61090660095214844 0.61090660095214844
0.61066991090774536 0.61066991090774536 0.61066991090774536
0.61424893140792847 0.61424893140792847 0.61424893140792847
0.63053518533706665 0.63053518533706665 0.63053518533706665
0.73738259077072144 0.73738259077072144 0.73738259077072144
0.65615439414978027 0.65615439414978027 0.65615439414978027
0.65306472778320312 0.65306472778320312 0.65306472778320312
0.65515470504760742 0.65515470504760742 0.65515470504760742
0.68193763494491577 0.68193763494491577 0.68193763494491577
0.76997834444046021 0.76997834444046021 0.76997834444046021
0.66116070747375488 0.66116070747375488 0.66116070747375488
0.68578612804412842 0.68578612804412842 0.68578612804412842
0.72190994024276733 0.72190994024276733 0.72190994024276733
0.74287444353103638 0.74287444353103638 0.74287444353103638
0.81762135028839111 0.81762135028839111 0.81762135028839111
0.69945740699768066 0.69945740699768066 0.69945740699768066
0.72954219579696655 0.72954219579696655 0.72954219579696655
0.7676730751991272 0.7676730751991272 0.7676730751991272
0.82380509376525879 0.82380509376525879 0.82380509376525879
0.8891223669052124 0.8891223669052124 0.8891223669052124
0.88344073295593262 0.88344073295593262 0.88344073295593262
0.88422495126724243 0.88422495126724243 0.88422495126724243
0.91890519857406616 0.91890519857406616 0.91890519857406616
0.93898612260818481 0.93898612260818481 0.93898612260818481
0.95635879039764404 0.95635879039764404 0.95635879039764404
0.88704031705856323 0.88704031705856323 0.88704031705856323
0.86146754026412964 0.86146754026412964 0.86146754026412964
0.86302286386489868 0.86302286386489868 0.86302286386489868
0.88054341077804565 0.88054341077804565 0.88054341077804565
0.91009658575057983 0.91009658575057983 0.91009658575057983
0.88120609521865845 0.88120609521865845 0.88120609521865845
0.88548958301544189 0.88548958301544189 0.88548958301544189
0.88953149318695068 0.88953149318695068 0.88953149318695068
0.90084397792816162 0.90084397792816162 0.90084397792816162
0.90051412582397461 0.90051412582397461 0.90051412582397461
0.88131725788116455 0.88131725788116455 0.88131725788116455
0.90396177768707275 0.90396177768707275 0.90396177768707275
0.91072267293930054 0.91072267293930054 0.91072267293930054
0.90953958034515381 0.90953958034515381 0.90953958034515381
0.93087661266326904 0.93087661266326904 0.93087661266326904
0.90204685926437378 0.90204685926437378 0.90204685926437378
0.92719227075576782 0.92719227075576782 0.92719227075576782
0.93854284286499023 0.93854284286499023 0.93854284286499023
0.95224779844284058 0.95224779844284058 0.95224779844284058
0.96823990345001221 0.96823990345001221 0.96823990345001221
0.96783214807510376 0.96783214807510376 0.96783214807510376
0.94805729389190674 0.94805729389190674 0.94805729389190674
0.98256450891494751 0.98256450891494751 0.98256450891494751
0.9947020411491394 0.9947020411491394 0.9947020411491394
0.99462306499481201 0.99462306499481201 0.99462306499481201
