films/polaroid_669.cube
# Created by: G'MIC (https://gmic.eu)
TITLE "polaroid_669"
# LUT size
LUT_3D_SIZE 13
# Data domain
DOMAIN_MIN 0.0 0.0 0.0
DOMAIN_MAX 1.0 1.0 1.0
# LUT data points
0.02591247484087944 0.15484641492366791 0.11905793100595474
0.062613591551780701 0.15293784439563751 0.11752666532993317
0.10876822471618652 0.15481078624725342 0.12000047415494919
0.16277599334716797 0.15857656300067902 0.12499011307954788
0.23152169585227966 0.16257824003696442 0.12923488020896912
0.31687036156654358 0.16469359397888184 0.13368093967437744
0.40814357995986938 0.16502761840820312 0.13905413448810577
0.50256723165512085 0.15892009437084198 0.14607073366641998
0.59593135118484497 0.150328129529953 0.15341164171695709
0.68379020690917969 0.14644803106784821 0.16041313111782074
0.76465427875518799 0.15408086776733398 0.16677550971508026
0.84112405776977539 0.16911293566226959 0.17679771780967712
0.91182494163513184 0.19210883975028992 0.19240228831768036
0.019934516400098801 0.17375306785106659 0.12379860877990723
0.063070483505725861 0.17393951117992401 0.12166966497898102
0.11569332331418991 0.17624469101428986 0.12392091751098633
0.17520058155059814 0.17787489295005798 0.12985078990459442
0.25023481249809265 0.18195942044258118 0.13481670618057251
0.33725467324256897 0.18516539037227631 0.13936090469360352
0.42886155843734741 0.18494358658790588 0.14446377754211426
0.52124541997909546 0.18207590281963348 0.14997206628322601
0.61155813932418823 0.17785926163196564 0.15608718991279602
0.69643580913543701 0.17545698583126068 0.16222620010375977
0.77580082416534424 0.18079164624214172 0.16943764686584473
0.850594162940979 0.1962355375289917 0.17992798984050751
0.91976320743560791 0.22142700850963593 0.19638487696647644
0.021019401028752327 0.20371602475643158 0.13065198063850403
0.06450188159942627 0.20397084951400757 0.13014672696590424
0.12131301313638687 0.20706069469451904 0.12907734513282776
0.18962535262107849 0.21084208786487579 0.13132332265377045
0.27175745368003845 0.21528810262680054 0.13924591243267059
0.3633730411529541 0.21933607757091522 0.14657776057720184
0.45456382632255554 0.21979370713233948 0.15247860550880432
0.54486888647079468 0.2207719087600708 0.15788157284259796
0.63098794221878052 0.22035546600818634 0.16283091902732849
0.71122884750366211 0.21856464445590973 0.16794873774051666
0.78788644075393677 0.22037622332572937 0.17572766542434692
0.86014419794082642 0.23435619473457336 0.18685956299304962
0.92718219757080078 0.26135894656181335 0.20329411327838898
0.031252872198820114 0.24939513206481934 0.14069987833499908
0.070190340280532837 0.24569420516490936 0.14168916642665863
0.12810428440570831 0.24842588603496552 0.13895198702812195
0.20016065239906311 0.25436487793922424 0.13727554678916931
0.28590893745422363 0.26077678799629211 0.14189667999744415
0.3811643123626709 0.26691913604736328 0.14877495169639587
0.47528722882270813 0.2705848217010498 0.15682300925254822
0.56763213872909546 0.27489280700683594 0.16565112769603729
0.65172970294952393 0.27711865305900574 0.17215752601623535
0.727944016456604 0.27718111872673035 0.17757180333137512
0.800434410572052 0.27832302451133728 0.18496489524841309
0.86955726146697998 0.28925147652626038 0.19525817036628723
0.93490391969680786 0.3145068883895874 0.2125915139913559
0.049551315605640411 0.30567482113838196 0.1491444855928421
0.087230786681175232 0.29955258965492249 0.14968377351760864
0.14004218578338623 0.29923185706138611 0.14802101254463196
0.20688080787658691 0.30404400825500488 0.14540071785449982
0.28769323229789734 0.31088358163833618 0.14413918554782867
0.3798181414604187 0.31756946444511414 0.14448601007461548
0.47632315754890442 0.32405310869216919 0.15203306078910828
0.57439708709716797 0.33211046457290649 0.16516651213169098
0.66300827264785767 0.3402935266494751 0.17710642516613007
0.74389767646789551 0.34819856286048889 0.18944551050662994
0.81490647792816162 0.35305574536323547 0.19866140186786652
0.87996214628219604 0.36141133308410645 0.20771299302577972
0.94405299425125122 0.3832184374332428 0.22543440759181976
0.071077056229114532 0.36261075735092163 0.15629935264587402
0.10698530822992325 0.3560062050819397 0.15606442093849182
0.15328019857406616 0.35268551111221313 0.15466545522212982
0.21141074597835541 0.35507380962371826 0.15134972333908081
0.28392279148101807 0.36096867918968201 0.14648951590061188
0.36888140439987183 0.36787828803062439 0.14137053489685059
0.45807698369026184 0.37333190441131592 0.14147277176380157
0.55232739448547363 0.38058298826217651 0.14957281947135925
0.64975732564926147 0.39475193619728088 0.16733896732330322
0.7431681752204895 0.4152049720287323 0.19084879755973816
0.82118713855743408 0.43144658207893372 0.20933406054973602
0.88912117481231689 0.44577589631080627 0.22576592862606049
0.95429223775863647 0.4661458432674408 0.24643155932426453
0.089580997824668884 0.41544577479362488 0.16379337012767792
0.12228319048881531 0.41042664647102356 0.16321463882923126
0.16387893259525299 0.4057350754737854 0.1601090133190155
0.21602253615856171 0.40503025054931641 0.15543891489505768
0.28039270639419556 0.40889698266983032 0.14980664849281311
0.3558080792427063 0.41595539450645447 0.14350683987140656
0.43678686022758484 0.42199280858039856 0.13758143782615662
0.52289611101150513 0.42667433619499207 0.13509093225002289
0.61517977714538574 0.43648993968963623 0.14182671904563904
0.71279937028884888 0.46172216534614563 0.16525444388389587
0.80339854955673218 0.49270761013031006 0.19628132879734039
0.88442039489746094 0.52222901582717896 0.2315841019153595
0.95778095722198486 0.55081582069396973 0.26889440417289734
0.10317528247833252 0.46840783953666687 0.16814233362674713
0.13219225406646729 0.46487289667129517 0.16674520075321198
0.17072740197181702 0.46000540256500244 0.16290856897830963
0.21817874908447266 0.45709702372550964 0.15783824026584625
0.27631902694702148 0.45809820294380188 0.15283858776092529
0.34500613808631897 0.46412557363510132 0.14742051064968109
0.42092236876487732 0.47357332706451416 0.1405731737613678
0.50158810615539551 0.47976014018058777 0.1301804780960083
0.58513939380645752 0.48416653275489807 0.11907589435577393
0.67707675695419312 0.5054314136505127 0.12704457342624664
0.77066665887832642 0.5383681058883667 0.15562489628791809
0.86183053255081177 0.57775652408599854 0.20318485796451569
0.94523400068283081 0.61663204431533813 0.25625860691070557
0.11016170680522919 0.5312609076499939 0.16358108818531036
0.13813471794128418 0.52628141641616821 0.16380193829536438
0.1748652309179306 0.5215180516242981 0.16173231601715088
0.21902701258659363 0.5170479416847229 0.1562245786190033
0.27368339896202087 0.51372635364532471 0.15267010033130646
0.33827349543571472 0.51701837778091431 0.14737579226493835
0.41172802448272705 0.52866494655609131 0.13805639743804932
0.49188053607940674 0.54102092981338501 0.12611755728721619
0.57355815172195435 0.55153107643127441 0.1058521494269371
0.65446913242340088 0.56412523984909058 0.088002808392047882
0.73877662420272827 0.58468687534332275 0.093072064220905304
0.83283901214599609 0.62314391136169434 0.1376500129699707
0.92486238479614258 0.66946154832839966 0.2052558958530426
0.11187833547592163 0.61052066087722778 0.15534023940563202
0.14075982570648193 0.60552459955215454 0.15656870603561401
0.17864696681499481 0.60080111026763916 0.15587331354618073
0.22154431045055389 0.59431451559066772 0.14951290190219879
0.27441960573196411 0.5843539834022522 0.14846056699752808
0.33750250935554504 0.58309030532836914 0.14313217997550964
0.40841236710548401 0.59795510768890381 0.12772151827812195
0.48842665553092957 0.61495763063430786 0.11633094400167465
0.56854093074798584 0.62931263446807861 0.089330114424228668
0.64413684606552124 0.63962149620056152 0.04839031770825386
0.72255796194076538 0.65246045589447021 0.024274609982967377
0.81086325645446777 0.67682445049285889 0.045804746448993683
0.9044528603553772 0.72187113761901855 0.11450085788965225
0.12166429311037064 0.7065538763999939 0.14939343929290771
0.15039798617362976 0.7072564959526062 0.14871533215045929
0.19284139573574066 0.70434713363647461 0.15112306177616119
0.23495833575725555 0.69632518291473389 0.14405588805675507
0.28668469190597534 0.6845126748085022 0.14204899966716766
0.34918728470802307 0.68051618337631226 0.13805587589740753
0.41572943329811096 0.69070976972579956 0.11689367890357971
0.49116814136505127 0.70633459091186523 0.09823087602853775
0.57302200794219971 0.72188997268676758 0.077089853584766388
0.65111041069030762 0.73578369617462158 0.032908540219068527
0.72963154315948486 0.74880069494247437 0.0016051348065957427
0.81070959568023682 0.76337516307830811 0.00044395597069524229
0.89784586429595947 0.79420691728591919 0.029352106153964996
0.16599488258361816 0.81332319974899292 0.17033596336841583
0.19924493134021759 0.82150906324386597 0.17517335712909698
0.24723486602306366 0.82337003946304321 0.1836373507976532
0.27912053465843201 0.81636881828308105 0.16618318855762482
0.3255494236946106 0.80787855386734009 0.16147515177726746
0.39111831784248352 0.8057674765586853 0.16978597640991211
0.45354738831520081 0.80887758731842041 0.15149214863777161
0.52398145198822021 0.81863164901733398 0.13501138985157013
0.60656106472015381 0.83458495140075684 0.127293661236763
0.68168050050735474 0.84825807809829712 0.085067376494407654
0.76071274280548096 0.85857534408569336 0.0539981909096241
0.83710604906082153 0.87007486820220947 0.022408189252018929
0.91415423154830933 0.88605457544326782 0.04320201650261879
0.25659221410751343 0.91381078958511353 0.23536595702171326
0.3006289005279541 0.92938035726547241 0.25246092677116394
0.34721651673316956 0.93878716230392456 0.26626196503639221
0.36679902672767639 0.9335060715675354 0.24217404425144196
0.40439131855964661 0.92970037460327148 0.23704183101654053
0.46764987707138062 0.93343311548233032 0.25641107559204102
0.52940642833709717 0.9355313777923584 0.25626093149185181
0.59563761949539185 0.9395720362663269 0.25523117184638977
0.67077189683914185 0.94957226514816284 0.25940197706222534
0.73908412456512451 0.95544970035552979 0.23522365093231201
0.81652569770812988 0.96037822961807251 0.25025463104248047
0.888663649559021 0.96703422069549561 0.24353799223899841
0.95406639575958252 0.97379106283187866 0.26085945963859558
0.015323773957788944 0.15615306794643402 0.14008435606956482
0.053011786192655563 0.15525186061859131 0.13991411030292511
0.10370150953531265 0.15917700529098511 0.14399968087673187
0.16362650692462921 0.164102703332901 0.15023921430110931
0.2381955087184906 0.1664392352104187 0.15572910010814667
0.32466605305671692 0.1655852198600769 0.15924908220767975
0.41619005799293518 0.16480416059494019 0.16597113013267517
0.50973784923553467 0.15885980427265167 0.17391596734523773
0.60109412670135498 0.15054126083850861 0.18008264899253845
0.68653213977813721 0.14728467166423798 0.18421496450901031
0.76800739765167236 0.15063504874706268 0.18863596022129059
0.84770447015762329 0.16039583086967468 0.19727927446365356
0.92167776823043823 0.1812504380941391 0.21304966509342194
0.013021910563111305 0.17822182178497314 0.14892658591270447
0.057211603969335556 0.17724639177322388 0.14741256833076477
0.11377517133951187 0.1798861175775528 0.15035295486450195
0.17800243198871613 0.18309730291366577 0.15559455752372742
0.2550569474697113 0.18613968789577484 0.16164673864841461
0.34350663423538208 0.18613289296627045 0.1664620041847229
0.43628168106079102 0.18452037870883942 0.17112037539482117
0.52775317430496216 0.18159952759742737 0.17643751204013824
0.61571258306503296 0.17672631144523621 0.18155069649219513
0.69851124286651611 0.17337052524089813 0.18621082603931427
0.77797085046768188 0.17757599055767059 0.19219318032264709
0.85478401184082031 0.19052320718765259 0.20204028487205505
0.92668610811233521 0.21398390829563141 0.21864327788352966
0.020037243142724037 0.21269749104976654 0.15773215889930725
0.064987629652023315 0.20992946624755859 0.15684662759304047
0.12550154328346252 0.21118582785129547 0.15776398777961731
0.19521093368530273 0.21478079259395599 0.16002918779850006
0.27719935774803162 0.21960577368736267 0.16717277467250824
0.36994084715843201 0.2219388484954834 0.17461958527565002
0.46194365620613098 0.22117333114147186 0.17954787611961365
0.55033665895462036 0.22178082168102264 0.18389427661895752
0.63436406850814819 0.2199508398771286 0.18822188675403595
0.71256923675537109 0.21691310405731201 0.19264514744281769
0.78826278448104858 0.21960391104221344 0.19917935132980347
0.86251121759414673 0.23248185217380524 0.21007576584815979
0.93211978673934937 0.25659474730491638 0.22703635692596436
0.031770952045917511 0.25965288281440735 0.16836665570735931
0.076203003525733948 0.25568515062332153 0.16762220859527588
0.13699351251125336 0.25604540109634399 0.16721071302890778
0.20965304970741272 0.25978490710258484 0.1670089066028595
0.2947482168674469 0.26534685492515564 0.17062123119831085
0.38917708396911621 0.27057096362113953 0.17698052525520325
0.48207181692123413 0.27381214499473572 0.1847413033246994
0.57147514820098877 0.2772001326084137 0.19262617826461792
0.65492552518844604 0.27842032909393311 0.19886107742786407
0.72883278131484985 0.27673092484474182 0.20262165367603302
0.8004530668258667 0.27837890386581421 0.20883500576019287
0.87163686752319336 0.28969085216522217 0.2195838987827301
0.93918037414550781 0.31246188282966614 0.2370903342962265
0.054611686617136002 0.31693458557128906 0.17779074609279633
0.09672623872756958 0.31152066588401794 0.17690472304821014
0.15099668502807617 0.30887803435325623 0.17620888352394104
0.21765492856502533 0.31074172258377075 0.173310786485672
0.29771316051483154 0.31634065508842468 0.16978417336940765
0.38772925734519958 0.32225054502487183 0.1687999814748764
0.48244842886924744 0.32769614458084106 0.17851732671260834
0.57746702432632446 0.33526629209518433 0.19220949709415436
0.66883599758148193 0.34517940878868103 0.20685753226280212
0.74764764308929443 0.35144183039665222 0.21731336414813995
0.81544500589370728 0.35412746667861938 0.22385711967945099
0.88306719064712524 0.36397874355316162 0.23350068926811218
0.94829368591308594 0.38349321484565735 0.25013634562492371
0.081491880118846893 0.37522000074386597 0.18517255783081055
0.12041624635457993 0.36837777495384216 0.18441896140575409
0.16528987884521484 0.36226093769073486 0.18280917406082153
0.22132627665996552 0.36131906509399414 0.17822793126106262
0.29234692454338074 0.36580660939216614 0.1712416410446167
0.37446027994155884 0.37156903743743896 0.16505725681781769
0.46243813633918762 0.37607520818710327 0.16479828953742981
0.55746185779571533 0.38478571176528931 0.17502212524414062
0.6589055061340332 0.40310588479042053 0.19806385040283203
0.74987435340881348 0.42234396934509277 0.22173529863357544
0.82457607984542847 0.43703866004943848 0.23868630826473236
0.89323520660400391 0.45060274004936218 0.25276252627372742
0.95717942714691162 0.46623936295509338 0.26847308874130249
0.09930150955915451 0.42960169911384583 0.18955190479755402
0.13508418202400208 0.42259851098060608 0.18893559277057648
0.17559017241001129 0.41545510292053223 0.18729943037033081
0.2242904007434845 0.41198468208312988 0.18251292407512665
0.28617075085639954 0.4140988290309906 0.17621426284313202
0.35973039269447327 0.41982343792915344 0.16896536946296692
0.44106912612915039 0.42548874020576477 0.16037110984325409
0.53057444095611572 0.43295899033546448 0.15863193571567535
0.62513589859008789 0.44563019275665283 0.1716187596321106
0.72140789031982422 0.47142526507377625 0.19858548045158386
0.81148028373718262 0.50390076637268066 0.23175321519374847
0.89035391807556152 0.53069382905960083 0.26301747560501099
0.95916235446929932 0.55194699764251709 0.29239949584007263
0.11183497309684753 0.48376131057739258 0.19009210169315338
0.14291571080684662 0.47694563865661621 0.18928037583827972
0.18021492660045624 0.47013413906097412 0.1874600350856781
0.22533512115478516 0.46493810415267944 0.18363398313522339
0.28078833222389221 0.46447500586509705 0.17972125113010406
0.34785011410713196 0.46976765990257263 0.17465037107467651
0.42583635449409485 0.4785691499710083 0.16420798003673553
0.50968772172927856 0.48633557558059692 0.15241728723049164
0.59253644943237305 0.49109238386154175 0.14517588913440704
0.68515878915786743 0.51358193159103394 0.15898779034614563
0.77892887592315674 0.54751479625701904 0.19084660708904266
0.86777526140213013 0.58564424514770508 0.23755018413066864
0.94758301973342896 0.6209409236907959 0.28762936592102051
0.11728335916996002 0.54549956321716309 0.18572105467319489
0.14459028840065002 0.53846102952957153 0.18425361812114716
0.17974458634853363 0.53191840648651123 0.18249878287315369
0.22296881675720215 0.52536743879318237 0.17878612875938416
0.27563387155532837 0.52098965644836426 0.17563368380069733
0.33928161859512329 0.5232243537902832 0.17082430422306061
0.41358748078346252 0.53362941741943359 0.16125515103340149
0.49516704678535461 0.54596346616744995 0.14868983626365662
0.57893627882003784 0.55805659294128418 0.13317012786865234
0.66260898113250732 0.57179909944534302 0.12050396949052811
0.7462659478187561 0.59097385406494141 0.12560470402240753
0.8385624885559082 0.62948602437973022 0.17230328917503357
0.92772203683853149 0.67383760213851929 0.23943045735359192
0.11457088589668274 0.62326538562774658 0.17645248770713806
0.14181724190711975 0.61671435832977295 0.1752016544342041
0.17789724469184875 0.61045783758163452 0.17322361469268799
0.2208649218082428 0.60212248563766479 0.16847683489322662
0.27276778221130371 0.59295046329498291 0.16532760858535767
0.3351837694644928 0.59081804752349854 0.1598389595746994
0.40755543112754822 0.60154944658279419 0.14908823370933533
0.48786270618438721 0.61849242448806763 0.13785657286643982
0.57121908664703369 0.63446235656738281 0.11834817379713058
0.65037769079208374 0.64628142118453979 0.085272155702114105
0.72941416501998901 0.65920811891555786 0.058929324150085449
0.81760764122009277 0.68660193681716919 0.080142751336097717
0.90912371873855591 0.72647374868392944 0.15076451003551483
0.1210782378911972 0.71918290853500366 0.17045837640762329
0.15299348533153534 0.71649003028869629 0.17279137670993805
0.19008518755435944 0.7114679217338562 0.17037446796894073
0.23044513165950775 0.70204633474349976 0.16222922503948212
0.28268253803253174 0.69010889530181885 0.15914258360862732
0.34435683488845825 0.68371927738189697 0.15318833291530609
0.41409295797348022 0.69322371482849121 0.13955420255661011
0.49130290746688843 0.70971500873565674 0.12508012354373932
0.57346731424331665 0.7255740761756897 0.1079639196395874
0.65382027626037598 0.74035459756851196 0.072879448533058167
0.73410367965698242 0.75529557466506958 0.03115692175924778
0.81560850143432617 0.76967018842697144 0.0088149877265095711
0.90003311634063721 0.79483652114868164 0.038637556135654449
0.1688007265329361 0.82682651281356812 0.19446404278278351
0.21049818396568298 0.8311913013458252 0.2060701996088028
0.24233973026275635 0.8286857008934021 0.20086745917797089
0.27201095223426819 0.81950592994689941 0.18462936580181122
0.32335251569747925 0.80999773740768433 0.18488572537899017
0.38625842332839966 0.80487370491027832 0.18577946722507477
0.4521300196647644 0.81092041730880737 0.17256437242031097
0.5235755443572998 0.82260990142822266 0.15579348802566528
0.60331237316131592 0.83621442317962646 0.14879228174686432
0.68205523490905762 0.84914994239807129 0.12499243021011353
0.76210123300552368 0.8608245849609375 0.094476349651813507
0.83922415971755981 0.87047147750854492 0.04902985692024231
0.91465884447097778 0.88448268175125122 0.038519121706485748
0.26774674654006958 0.92892658710479736 0.26571828126907349
0.31340304017066956 0.94125813245773315 0.28171315789222717
0.34012919664382935 0.9432218074798584 0.278097003698349
0.35997149348258972 0.93714302778244019 0.25965026021003723
0.40272378921508789 0.93268305063247681 0.25959563255310059
0.46274515986442566 0.93301671743392944 0.26934143900871277
0.52432215213775635 0.9356691837310791 0.26617550849914551
0.58999514579772949 0.94123983383178711 0.26127859950065613
0.66320657730102539 0.94953209161758423 0.2648625373840332
0.7363935112953186 0.95615732669830322 0.25985521078109741
0.81304889917373657 0.96232026815414429 0.26586878299713135
0.88630306720733643 0.96757644414901733 0.26033362746238708
0.95395010709762573 0.97344011068344116 0.26708105206489563
0.0065929340198636055 0.16299340128898621 0.17093990743160248
0.041999980807304382 0.16212603449821472 0.1739736795425415
0.10099541395902634 0.16725243628025055 0.18067705631256104
0.16471381485462189 0.17471805214881897 0.18730457127094269
0.24252571165561676 0.17561966180801392 0.19544099271297455
0.33491772413253784 0.17050379514694214 0.201478511095047
0.43074670433998108 0.16707390546798706 0.21011875569820404
0.52422952651977539 0.16188360750675201 0.21833154559135437
0.61211365461349487 0.1527022123336792 0.22231021523475647
0.69349831342697144 0.14434316754341125 0.22169946134090424
0.77268880605697632 0.14104604721069336 0.22217521071434021
0.8529655933380127 0.14618903398513794 0.22856342792510986
0.92854076623916626 0.1668030321598053 0.24440978467464447
0.0078457100316882133 0.18882371485233307 0.18313513696193695
0.049364667385816574 0.18575218319892883 0.18484319746494293
0.11294453591108322 0.18795739114284515 0.19181892275810242
0.1793743222951889 0.19329121708869934 0.19744695723056793
0.25892525911331177 0.19368058443069458 0.20391887426376343
0.35162940621376038 0.18942524492740631 0.20974378287792206
0.44748574495315552 0.18537969887256622 0.21333244442939758
0.53874665498733521 0.18236605823040009 0.21828202903270721
0.62375944852828979 0.17682662606239319 0.22259457409381866
0.70316630601882935 0.17218349874019623 0.22493109107017517
0.78028947114944458 0.17299982905387878 0.22817002236843109
0.8581274151802063 0.1824319064617157 0.23567794263362885
0.93166261911392212 0.20556138455867767 0.2518552839756012
0.011596754193305969 0.22261442244052887 0.19722893834114075
0.058730553835630417 0.21990552544593811 0.19822268187999725
0.12880304455757141 0.2197115570306778 0.20425803959369659
0.2024139016866684 0.22298115491867065 0.20821216702461243
0.28463253378868103 0.22586928308010101 0.21299043297767639
0.37708568572998047 0.22635321319103241 0.22002376616001129
0.47040998935699463 0.22324655950069427 0.22270059585571289
0.55782496929168701 0.2223835289478302 0.22546781599521637
0.63889580965042114 0.21916210651397705 0.22862702608108521
0.71536427736282349 0.21581140160560608 0.23215353488922119
0.78966373205184937 0.21939836442470551 0.2372121661901474
0.86406594514846802 0.2297510951757431 0.24549977481365204
0.93539601564407349 0.25131475925445557 0.26083630323410034
0.019955219700932503 0.27075201272964478 0.21108205616474152
0.07248300313949585 0.26952898502349854 0.21080620586872101
0.14523822069168091 0.26915529370307922 0.21503572165966034
0.22396090626716614 0.27137881517410278 0.21873381733894348
0.30876868963241577 0.2752174437046051 0.22109343111515045
0.40025755763053894 0.27806743979454041 0.22688001394271851
0.49159413576126099 0.27965566515922546 0.23358181118965149
0.57818871736526489 0.28050771355628967 0.23846855759620667
0.65762901306152344 0.27875301241874695 0.24064409732818604
0.73119521141052246 0.27684995532035828 0.24342462420463562
0.80190438032150269 0.27953162789344788 0.24762554466724396
0.87295615673065186 0.28969511389732361 0.25619658827781677
0.94157654047012329 0.31034514307975769 0.27243310213088989
0.044930987060070038 0.33478578925132751 0.22206652164459229
0.098102763295173645 0.33112001419067383 0.22138597071170807
0.16276761889457703 0.32645207643508911 0.22313044965267181
0.23404055833816528 0.32532161474227905 0.22181667387485504
0.31556117534637451 0.32925373315811157 0.2181113213300705
0.40536424517631531 0.33307257294654846 0.22148454189300537
0.49798199534416199 0.33835825324058533 0.23310214281082153
0.58858966827392578 0.34427773952484131 0.2447090744972229
