films/polaroid_px-100uv+_warm.cube
# Created by: G'MIC (https://gmic.eu)
TITLE "polaroid_px-100uv+_warm"
# LUT size
LUT_3D_SIZE 5
# Data domain
DOMAIN_MIN 0.0 0.0 0.0
DOMAIN_MAX 1.0 1.0 1.0
# LUT data points
0.27882769703865051 0.25674790143966675 0.25937911868095398
0.3101780116558075 0.29119396209716797 0.29341796040534973
0.3977319598197937 0.38612055778503418 0.38963460922241211
0.50269222259521484 0.4915967583656311 0.49457955360412598
0.62955504655838013 0.61380362510681152 0.60422301292419434
0.32749944925308228 0.31171414256095886 0.31322792172431946
0.3491036593914032 0.33488988876342773 0.33784511685371399
0.41059094667434692 0.40077963471412659 0.40270385146141052
0.50575751066207886 0.49514585733413696 0.49757015705108643
0.6416161060333252 0.62486934661865234 0.61558181047439575
0.43661457300186157 0.42790040373802185 0.42877143621444702
0.43628174066543579 0.42712366580963135 0.42843860387802124
0.47275793552398682 0.46397441625595093 0.46492880582809448
0.5422743558883667 0.5325741171836853 0.53096145391464233
0.65861296653747559 0.63994622230529785 0.62726306915283203
0.56095945835113525 0.54786008596420288 0.54685550928115845
0.55373883247375488 0.54249042272567749 0.54055279493331909
0.57645297050476074 0.56377023458480835 0.56085515022277832
0.63804078102111816 0.62038165330886841 0.61127716302871704
0.72309696674346924 0.70173990726470947 0.68171203136444092
0.76787978410720825 0.74491202831268311 0.72093367576599121
0.76603966951370239 0.74299532175064087 0.71824824810028076
0.77464085817337036 0.75089317560195923 0.72545337677001953
0.80923879146575928 0.78608179092407227 0.75695538520812988
0.84581989049911499 0.82548725605010986 0.79496598243713379
0.34444716572761536 0.32917061448097229 0.3317929208278656
0.37368246912956238 0.36108872294425964 0.36353743076324463
0.45031678676605225 0.44037127494812012 0.44278481602668762
0.54833722114562988 0.5365099310874939 0.53576374053955078
0.67298638820648193 0.65371745824813843 0.63939344882965088
0.38657292723655701 0.3738635778427124 0.37705162167549133
0.41263777017593384 0.4026438295841217 0.40506231784820557
0.47466108202934265 0.46625712513923645 0.46655112504959106
0.55895203351974487 0.54759615659713745 0.54499369859695435
0.6821599006652832 0.66176849603652954 0.64822107553482056
0.48950368165969849 0.4804728627204895 0.48216086626052856
0.49055361747741699 0.48157563805580139 0.48263171315193176
0.51286989450454712 0.50399744510650635 0.50436991453170776
0.57982546091079712 0.56661021709442139 0.56317263841629028
0.69373959302902222 0.67253971099853516 0.65743356943130493
0.60528302192687988 0.59053260087966919 0.58462262153625488
0.59907656908035278 0.58570921421051025 0.57911878824234009
0.61193794012069702 0.59602290391921997 0.58917099237442017
0.6621253490447998 0.64263069629669189 0.63133722543716431
0.75722998380661011 0.73399126529693604 0.71087491512298584
0.7856677770614624 0.76213347911834717 0.7368585467338562
0.78598374128341675 0.7618299126625061 0.73662251234054565
0.78978967666625977 0.76601994037628174 0.74008256196975708
0.81979119777679443 0.79545384645462036 0.7662431001663208
0.84516757726669312 0.82224923372268677 0.79321473836898804
0.47959050536155701 0.47034046053886414 0.47048652172088623
0.49626737833023071 0.48709538578987122 0.48826456069946289
0.53263401985168457 0.52325868606567383 0.52202999591827393
0.60590869188308716 0.59068512916564941 0.58556580543518066
0.73008269071578979 0.70763444900512695 0.68692272901535034
0.50194311141967773 0.49143463373184204 0.49203670024871826
0.51939105987548828 0.50804948806762695 0.51013863086700439
0.55106645822525024 0.53867077827453613 0.53816109895706177
0.62935644388198853 0.61223453283309937 0.60394477844238281
0.74364662170410156 0.72047489881515503 0.6982225775718689
0.53961819410324097 0.52967768907546997 0.52854353189468384
0.5572582483291626 0.54588615894317627 0.54371172189712524
0.59388065338134766 0.58099287748336792 0.57565212249755859
0.66262245178222656 0.64333194494247437 0.63177132606506348
0.7607617974281311 0.73667412996292114 0.71285820007324219
0.66728669404983521 0.64771449565887451 0.63604944944381714
0.67563486099243164 0.65588438510894775 0.6417311429977417
0.6833338737487793 0.66277861595153809 0.64919072389602661
0.71641284227371216 0.69530242681503296 0.67598807811737061
0.792461097240448 0.76874488592147827 0.74161714315414429
0.82211208343505859 0.79870057106018066 0.76873183250427246
0.82046937942504883 0.79707431793212891 0.76653224229812622
0.81768500804901123 0.79394817352294922 0.76488983631134033
0.83384829759597778 0.81139791011810303 0.78103291988372803
0.86502951383590698 0.84175282716751099 0.81056755781173706
0.65138745307922363 0.63217031955718994 0.62285423278808594
0.65871942043304443 0.64059126377105713 0.62948143482208252
0.69228059053421021 0.67121273279190063 0.65693205595016479
0.71999382972717285 0.69816172122955322 0.68092328310012817
0.78243762254714966 0.75890821218490601 0.73251760005950928
0.6672326922416687 0.64749372005462646 0.63611853122711182
0.67528319358825684 0.65562897920608521 0.64226812124252319
0.70373421907424927 0.68366289138793945 0.66622555255889893
0.73154056072235107 0.70984488725662231 0.68945729732513428
0.79311853647232056 0.76934480667114258 0.74277788400650024
0.67855411767959595 0.65768522024154663 0.64542841911315918
0.69116669893264771 0.67129135131835938 0.65537917613983154
0.72414946556091309 0.70117437839508057 0.68217021226882935
0.75863516330718994 0.73523640632629395 0.71225070953369141
0.81655192375183105 0.79291778802871704 0.76425737142562866
0.72575980424880981 0.70378202199935913 0.6848607063293457
0.7346646785736084 0.71104937791824341 0.69201648235321045
0.75915223360061646 0.73558980226516724 0.71144652366638184
0.79710453748703003 0.77296888828277588 0.74540907144546509
0.83743369579315186 0.81525313854217529 0.78471416234970093
0.84212225675582886 0.81934994459152222 0.79027122259140015
0.84568232297897339 0.82478708028793335 0.79390329122543335
0.85830730199813843 0.8371586799621582 0.80436497926712036
0.86616736650466919 0.84467810392379761 0.81349474191665649
0.88499617576599121 0.86204344034194946 0.83041197061538696
0.8421664834022522 0.81901884078979492 0.78934252262115479
0.84537744522094727 0.82224255800247192 0.79204821586608887
0.85127073526382446 0.83029228448867798 0.79965770244598389
0.8667980432510376 0.84576189517974854 0.81440013647079468
0.87418955564498901 0.8536980152130127 0.81984704732894897
0.84107422828674316 0.81984508037567139 0.78997290134429932
0.84853214025497437 0.82782787084579468 0.79670405387878418
0.85439151525497437 0.833099365234375 0.80220687389373779
0.86813902854919434 0.84802150726318359 0.81407791376113892
0.87518751621246338 0.85481542348861694 0.82225042581558228
0.84796762466430664 0.82461625337600708 0.79387515783309937
0.85167616605758667 0.8299902081489563 0.8001444935798645
0.86026620864868164 0.83953970670700073 0.80636429786682129
0.8741338849067688 0.85267895460128784 0.81968390941619873
0.8739551305770874 0.85088247060775757 0.8200831413269043
0.85191375017166138 0.83003067970275879 0.79940617084503174
0.85165280103683472 0.83086609840393066 0.79984927177429199
0.86523532867431641 0.84447222948074341 0.81226015090942383
0.88023388385772705 0.8583369255065918 0.82589417695999146
0.89051473140716553 0.86915445327758789 0.83583790063858032
0.87025237083435059 0.84762626886367798 0.81564110517501831
0.87637472152709961 0.85635864734649658 0.82176214456558228
0.88353109359741211 0.86326140165328979 0.83093762397766113
0.89507943391799927 0.8740118145942688 0.84018504619598389
0.89803922176361084 0.87658405303955078 0.84313726425170898
