films/polaroid_px-680.cube
# Created by: G'MIC (https://gmic.eu)
TITLE "polaroid_px-680"
# LUT size
LUT_3D_SIZE 13
# Data domain
DOMAIN_MIN 0.0 0.0 0.0
DOMAIN_MAX 1.0 1.0 1.0
# LUT data points
0.025685537606477737 0.18039216101169586 0.20784313976764679
0.029505381360650063 0.18134897947311401 0.20784313976764679
0.043777406215667725 0.18360210955142975 0.20784313976764679
0.10243097692728043 0.18489630520343781 0.20784313976764679
0.20684981346130371 0.18644994497299194 0.20569729804992676
0.36661118268966675 0.1870349794626236 0.20499894022941589
0.54170966148376465 0.18708591163158417 0.20071302354335785
0.69388210773468018 0.20854918658733368 0.19772230088710785
0.80945098400115967 0.27061939239501953 0.1993754506111145
0.87871110439300537 0.35249155759811401 0.20645821094512939
0.92287248373031616 0.42808130383491516 0.22314533591270447
0.95327472686767578 0.4962313175201416 0.25231581926345825
0.97669470310211182 0.55531787872314453 0.2912631630897522
0.023469723761081696 0.18181490898132324 0.20784313976764679
0.029606418684124947 0.18348751962184906 0.20784313976764679
0.056003451347351074 0.18536923825740814 0.20784313976764679
0.12727586925029755 0.1909203827381134 0.20670177042484283
0.23895938694477081 0.19590428471565247 0.20503589510917664
0.39428824186325073 0.20155788958072662 0.20369789004325867
0.56141388416290283 0.21111844480037689 0.19967475533485413
0.71210134029388428 0.24029380083084106 0.19884848594665527
0.81226778030395508 0.29967543482780457 0.1980840265750885
0.87882661819458008 0.37512615323066711 0.20568236708641052
0.91881817579269409 0.44418883323669434 0.22310779988765717
0.95118552446365356 0.50945734977722168 0.2540440559387207
0.97843694686889648 0.56340795755386353 0.2910836935043335
0.012787583284080029 0.1955876499414444 0.20788981020450592
0.020368224009871483 0.19659869372844696 0.20769533514976501
0.063601687550544739 0.20571900904178619 0.20739234983921051
0.15776261687278748 0.21646592020988464 0.20434373617172241
0.28216239809989929 0.22940538823604584 0.20127618312835693
0.42897224426269531 0.23806233704090118 0.19820553064346313
0.58589106798171997 0.2568933367729187 0.1939907968044281
0.72129380702972412 0.29268690943717957 0.19279694557189941
0.81440508365631104 0.34905293583869934 0.19253967702388763
0.87513715028762817 0.41490885615348816 0.20149992406368256
0.91437065601348877 0.4750983715057373 0.22239835560321808
0.94790124893188477 0.53462177515029907 0.25603964924812317
0.97508829832077026 0.57823961973190308 0.29017543792724609
0.0024191015399992466 0.25048282742500305 0.20681573450565338
0.0068971221335232258 0.25191304087638855 0.2057875394821167
0.049633100628852844 0.25687837600708008 0.20517492294311523
0.17743802070617676 0.2780558168888092 0.20179684460163116
0.33182090520858765 0.30554389953613281 0.19555725157260895
0.47863733768463135 0.31864997744560242 0.19084550440311432
0.61201953887939453 0.32921311259269714 0.18555749952793121
0.72689998149871826 0.35712751746177673 0.1819978654384613
0.80772030353546143 0.40609940886497498 0.18404974043369293
0.86668103933334351 0.46230301260948181 0.19727243483066559
0.90633928775787354 0.51500290632247925 0.22204691171646118
0.93986451625823975 0.56311076879501343 0.2574838399887085
0.96891850233078003 0.60125440359115601 0.29358300566673279
4.5955883251735941e-05 0.33991608023643494 0.20517688989639282
0.0043697729706764221 0.34051558375358582 0.20530679821968079
0.031130965799093246 0.341319739818573 0.20479939877986908
0.16978278756141663 0.36292794346809387 0.20117326080799103
0.33469715714454651 0.38809031248092651 0.19480644166469574
0.49935254454612732 0.41683715581893921 0.18615017831325531
0.62631529569625854 0.43253454566001892 0.18015852570533752
0.72658461332321167 0.44352376461029053 0.17574374377727509
0.80213272571563721 0.46491724252700806 0.17731387913227081
0.85554641485214233 0.50790154933929443 0.19267052412033081
0.89695334434509277 0.5469927191734314 0.21609489619731903
0.93139922618865967 0.59043776988983154 0.25482416152954102
0.96263396739959717 0.62463885545730591 0.29491659998893738
0.00062281289137899876 0.43074047565460205 0.20441873371601105
0.0024231406860053539 0.43263536691665649 0.20664644241333008
0.02706451341509819 0.43632465600967407 0.20908090472221375
0.1462310254573822 0.45100563764572144 0.20691312849521637
0.32226890325546265 0.47064089775085449 0.20185516774654388
0.48303714394569397 0.49460265040397644 0.19510160386562347
0.61866885423660278 0.51925164461135864 0.18897078931331635
0.72411948442459106 0.5389067530632019 0.18542106449604034
0.7950248122215271 0.55008602142333984 0.1869349479675293
0.84512150287628174 0.56391942501068115 0.19551025331020355
0.88670432567596436 0.5807875394821167 0.20896576344966888
0.92284232378005981 0.61724317073822021 0.25019046664237976
0.95515543222427368 0.64638060331344604 0.29339438676834106
0.0018823063001036644 0.51504343748092651 0.21010679006576538
0.0023519478272646666 0.51517468690872192 0.21108928322792053
0.02729480154812336 0.51818335056304932 0.21447691321372986
0.14675793051719666 0.52628958225250244 0.21604630351066589
0.31902748346328735 0.54092377424240112 0.21430815756320953
0.46297398209571838 0.55756849050521851 0.21171145141124725
0.59535938501358032 0.57993990182876587 0.21096129715442657
0.71164631843566895 0.60466849803924561 0.21105070412158966
0.78480148315429688 0.62177538871765137 0.21699447929859161
0.83434885740280151 0.62977820634841919 0.22100326418876648
0.87297314405441284 0.63637244701385498 0.22924162447452545
0.91096639633178711 0.65246832370758057 0.25571140646934509
0.94421696662902832 0.67067521810531616 0.29565918445587158
0.01798643171787262 0.58896523714065552 0.2242933064699173
0.026380755007266998 0.58692258596420288 0.2239173948764801
0.05779532715678215 0.58725833892822266 0.22499006986618042
0.18938162922859192 0.59192132949829102 0.23026001453399658
0.33836400508880615 0.60108774900436401 0.232840895652771
0.47009655833244324 0.61774027347564697 0.23744781315326691
0.5853075385093689 0.63337171077728271 0.24252642691135406
0.6893918514251709 0.65067523717880249 0.24512279033660889
0.77171909809112549 0.67424535751342773 0.25498184561729431
0.82283413410186768 0.69045478105545044 0.26823049783706665
0.8624451756477356 0.69736677408218384 0.27839210629463196
0.90156739950180054 0.70291316509246826 0.29451891779899597
0.93568903207778931 0.71267014741897583 0.32314059138298035
0.083434402942657471 0.65252912044525146 0.25190657377243042
0.11607784032821655 0.65091633796691895 0.2507861852645874
0.18793189525604248 0.65106606483459473 0.24975621700286865
0.28360536694526672 0.65116608142852783 0.25562316179275513
0.39192190766334534 0.65775042772293091 0.26079583168029785
0.48694708943367004 0.67081326246261597 0.26613068580627441
0.58236908912658691 0.68089509010314941 0.2738073468208313
0.67136555910110474 0.69388705492019653 0.28283810615539551
0.7470247745513916 0.71252971887588501 0.29856595396995544
0.8088153600692749 0.73402553796768188 0.31754103302955627
0.85351485013961792 0.74640512466430664 0.33037477731704712
0.89329022169113159 0.75261944532394409 0.34628400206565857
0.92864298820495605 0.76008623838424683 0.36631187796592712
0.22605288028717041 0.70458453893661499 0.27781975269317627
0.24896197021007538 0.70218098163604736 0.27654632925987244
0.29320433735847473 0.70053911209106445 0.27598553895950317
0.36320370435714722 0.70360511541366577 0.2834530770778656
0.43664076924324036 0.70614206790924072 0.29173699021339417
0.51425015926361084 0.7131119966506958 0.30029818415641785
0.59614640474319458 0.72192353010177612 0.31054317951202393
0.6689760684967041 0.73319768905639648 0.32418400049209595
0.73810058832168579 0.74824106693267822 0.34201493859291077
0.79442989826202393 0.76350730657577515 0.35848134756088257
0.83936059474945068 0.77718913555145264 0.37417638301849365
0.88335013389587402 0.79199790954589844 0.39434832334518433
0.91890400648117065 0.8016124963760376 0.41307532787322998
0.37027335166931152 0.75509274005889893 0.32225176692008972
0.37647527456283569 0.75055718421936035 0.31541898846626282
0.40383347868919373 0.74825942516326904 0.31684786081314087
0.44892627000808716 0.74951815605163574 0.32384878396987915
0.50286173820495605 0.7526557445526123 0.33353111147880554
0.56008434295654297 0.75747257471084595 0.34584429860115051
0.62619191408157349 0.76496249437332153 0.35884153842926025
0.68850266933441162 0.77496057748794556 0.37465795874595642
0.74132645130157471 0.78720653057098389 0.39203754067420959
0.78506118059158325 0.79832029342651367 0.40545296669006348
0.82619732618331909 0.81094110012054443 0.42159798741340637
0.86922162771224976 0.82832479476928711 0.44363024830818176
0.90371519327163696 0.84405303001403809 0.46355468034744263
0.50389784574508667 0.80948209762573242 0.38594013452529907
0.50581151247024536 0.80670583248138428 0.38163727521896362
0.52227258682250977 0.80268508195877075 0.37812435626983643
0.55256181955337524 0.80401903390884399 0.38608646392822266
0.58630681037902832 0.80694061517715454 0.39682689309120178
0.62575191259384155 0.80942434072494507 0.40689235925674438
0.66759306192398071 0.81543493270874023 0.41755133867263794
0.70983797311782837 0.82290118932723999 0.43084436655044556
0.75096404552459717 0.83561849594116211 0.45060113072395325
0.78865188360214233 0.84838712215423584 0.46861502528190613
0.82352578639984131 0.85863500833511353 0.48415043950080872
0.85855436325073242 0.87301689386367798 0.50480353832244873
0.88204771280288696 0.88390344381332397 0.51804429292678833
0.61145269870758057 0.86292761564254761 0.4517359733581543
0.61890244483947754 0.86462342739105225 0.45449930429458618
0.62764012813568115 0.8637041449546814 0.45596271753311157
0.64371484518051147 0.86480545997619629 0.46200102567672729
0.66132783889770508 0.86656272411346436 0.46808966994285583
0.68390268087387085 0.87149554491043091 0.47805893421173096
0.70919442176818848 0.87683892250061035 0.48963227868080139
0.7371208667755127 0.8786967396736145 0.4973849356174469
0.76693820953369141 0.88345462083816528 0.50791651010513306
0.79789155721664429 0.89519572257995605 0.52634423971176147
0.82595616579055786 0.90529108047485352 0.54408079385757446
0.8505089282989502 0.91397213935852051 0.56136202812194824
0.86164921522140503 0.91478967666625977 0.56437456607818604
0.024163413792848587 0.18044349551200867 0.20784313976764679
0.029013466089963913 0.18039216101169586 0.20784313976764679
0.044777948409318924 0.18083979189395905 0.20799979567527771
0.11334218084812164 0.18203368782997131 0.20860137045383453
0.23441289365291595 0.18204548954963684 0.21102792024612427
0.39484915137290955 0.17996552586555481 0.21331772208213806
0.55998963117599487 0.18623177707195282 0.21519869565963745
0.71741116046905518 0.22590288519859314 0.22001926600933075
0.81875181198120117 0.29507690668106079 0.22840328514575958
0.87784713506698608 0.37098407745361328 0.24118597805500031
0.92083710432052612 0.44620731472969055 0.25988197326660156
0.95158833265304565 0.51411867141723633 0.28821882605552673
0.97761952877044678 0.56883114576339722 0.32260575890541077
0.021305443719029427 0.18484009802341461 0.20945294201374054
0.02971324510872364 0.1838563084602356 0.20907877385616302
0.065559044480323792 0.18593090772628784 0.20964635908603668
0.14297637343406677 0.18948008120059967 0.2102152556180954
0.26990857720375061 0.19532275199890137 0.21322134137153625
0.4269985556602478 0.20244506001472473 0.21604441106319427
0.58387869596481323 0.21742701530456543 0.21744732558727264
0.7225528359413147 0.25739762187004089 0.22176791727542877
0.81892716884613037 0.32107752561569214 0.22683560848236084
0.8786311149597168 0.39569291472434998 0.24116957187652588
0.91649824380874634 0.46376058459281921 0.25942867994308472
0.9491041898727417 0.52593570947647095 0.28789928555488586
0.97798407077789307 0.57707303762435913 0.32390642166137695
0.011756028980016708 0.19979888200759888 0.21209481358528137
0.025492141023278236 0.2020731121301651 0.21144081652164459
0.075441144406795502 0.20547851920127869 0.21090227365493774
0.17676424980163574 0.21655218303203583 0.2103981077671051
0.30786588788032532 0.23072579503059387 0.21021574735641479
0.45211103558540344 0.23943793773651123 0.21044181287288666
0.60393983125686646 0.26428067684173584 0.21239636838436127
0.7285117506980896 0.30922240018844604 0.21597506105899811
0.81804639101028442 0.36506563425064087 0.22124835848808289
0.87543046474456787 0.4321574866771698 0.2361002117395401
0.9134058952331543 0.49221041798591614 0.25726073980331421
0.94459050893783569 0.54563605785369873 0.28683722019195557
0.97365099191665649 0.5892835259437561 0.32210540771484375
0.0049412744119763374 0.25773733854293823 0.21425525844097137
0.014334166422486305 0.26151379942893982 0.21327470242977142
0.068327538669109344 0.26538252830505371 0.21271581947803497
0.20124396681785583 0.28598880767822266 0.21131943166255951
0.35046470165252686 0.30973553657531738 0.20761311054229736
0.49218824505805969 0.32007911801338196 0.20479632914066315
0.62241214513778687 0.334066241979599 0.20291659235954285
0.73385584354400635 0.36727717518806458 0.20513734221458435
0.81143200397491455 0.41950953006744385 0.21480461955070496
0.86667746305465698 0.47505247592926025 0.23262862861156464
0.90565770864486694 0.52543544769287109 0.25576883554458618
0.93876367807388306 0.57118982076644897 0.28687062859535217
0.96731775999069214 0.60825902223587036 0.32142263650894165
0.0021439646370708942 0.34518760442733765 0.21513138711452484
0.017474934458732605 0.34888729453086853 0.21573932468891144
0.063598975539207458 0.3558402955532074 0.21710707247257233
0.1989552229642868 0.37277987599372864 0.21581932902336121
0.36100456118583679 0.39871549606323242 0.21147012710571289
0.51280182600021362 0.42140790820121765 0.20466719567775726
0.63614577054977417 0.4363689124584198 0.20119050145149231
0.73230952024459839 0.44821825623512268 0.20013272762298584
0.80619531869888306 0.47429671883583069 0.20652367174625397
0.85839414596557617 0.51357614994049072 0.22428655624389648
0.89573466777801514 0.55544406175613403 0.2486451268196106
0.93107438087463379 0.59708702564239502 0.28347876667976379
0.96145039796829224 0.63043731451034546 0.32048279047012329
0.0034317614044994116 0.43966484069824219 0.22182779014110565
0.0076542873866856098 0.43945163488388062 0.21995866298675537
0.03247293084859848 0.44044098258018494 0.2211354523897171
0.17063240706920624 0.4547121524810791 0.22172018885612488
0.34522980451583862 0.47647592425346375 0.21987555921077728
0.50071275234222412 0.50174558162689209 0.21618333458900452
0.63173824548721313 0.52527308464050293 0.21165652573108673
0.72942084074020386 0.54168367385864258 0.21121533215045929
0.79607361555099487 0.55265635251998901 0.21696287393569946
0.84663766622543335 0.56584960222244263 0.2255144864320755
0.88737589120864868 0.58688044548034668 0.24003033339977264
0.9227791428565979 0.6211734414100647 0.27657708525657654
0.95546793937683105 0.65151935815811157 0.31555086374282837
0.0092018879950046539 0.52444815635681152 0.22980204224586487
0.0088879754766821861 0.52107620239257812 0.22639898955821991
0.042624037712812424 0.52060842514038086 0.228571817278862
0.18485654890537262 0.52976328134536743 0.23220640420913696
0.34405449032783508 0.54498684406280518 0.23325048387050629
0.48038783669471741 0.56362283229827881 0.23467478156089783
0.60963898897171021 0.58543962240219116 0.23403182625770569
0.71720784902572632 0.6091042160987854 0.23516935110092163
0.78686141967773438 0.62327802181243896 0.24076594412326813
0.83251768350601196 0.63280606269836426 0.24798829853534698
0.87391000986099243 0.64099323749542236 0.25577864050865173
0.91174197196960449 0.65406376123428345 0.27812895178794861
0.94802796840667725 0.67193931341171265 0.30834713578224182
0.032383713871240616 0.5946584939956665 0.24092601239681244
0.041887275874614716 0.59187370538711548 0.2379564642906189
0.091908551752567291 0.59069710969924927 0.24139522016048431
0.22436423599720001 0.5960584282875061 0.24713167548179626
0.35988748073577881 0.60597604513168335 0.25266483426094055
0.48393762111663818 0.62010663747787476 0.25598150491714478
0.591968834400177 0.63539600372314453 0.25913012027740479
0.69401931762695312 0.65644311904907227 0.2674042284488678
0.77147972583770752 0.67566746473312378 0.28123235702514648
0.82108598947525024 0.69160938262939453 0.29074797034263611
0.86260616779327393 0.69913989305496216 0.29753828048706055
0.90232670307159424 0.70394545793533325 0.31052833795547485
0.93813812732696533 0.71139067411422729 0.332448810338974
0.098488830029964447 0.65705114603042603 0.26206284761428833
0.13613714277744293 0.65536659955978394 0.26138126850128174
0.21913100779056549 0.65366441011428833 0.26322782039642334
0.30560997128486633 0.65280932188034058 0.26942378282546997
0.40555879473686218 0.66088807582855225 0.27547773718833923
0.49777591228485107 0.67196542024612427 0.28249606490135193
0.59229665994644165 0.68358564376831055 0.2903444766998291
0.67554646730422974 0.69716483354568481 0.30301094055175781
0.75166797637939453 0.71402382850646973 0.31826266646385193
0.81028836965560913 0.73351651430130005 0.33379212021827698
0.85507631301879883 0.74619674682617188 0.34758767485618591
0.89421623945236206 0.7518686056137085 0.36052462458610535
0.92867070436477661 0.75761246681213379 0.37670442461967468
0.25264617800712585 0.70569300651550293 0.29043304920196533
0.27306690812110901 0.70503658056259155 0.28904315829277039
0.31670430302619934 0.70484018325805664 0.28914958238601685
0.38244056701660156 0.70567971467971802 0.29623556137084961
0.45828342437744141 0.70874661207199097 0.30565682053565979
0.52994543313980103 0.71505081653594971 0.31675788760185242
0.60448694229125977 0.72420531511306763 0.32593202590942383
0.67593091726303101 0.73530572652816772 0.33845323324203491
0.74418288469314575 0.74996393918991089 0.3558599054813385
0.79827511310577393 0.76584905385971069 0.37165209650993347
0.84355181455612183 0.78107684850692749 0.3904750645160675
0.88646310567855835 0.79647797346115112 0.40822675824165344
0.91877293586730957 0.80292081832885742 0.42526921629905701
0.3823913037776947 0.75460708141326904 0.3281976580619812
0.39427974820137024 0.75216430425643921 0.32958835363388062
0.42086601257324219 0.75106334686279297 0.33167651295661926
0.46470296382904053 0.75212377309799194 0.33672332763671875
0.5159650444984436 0.75424754619598389 0.3451198935508728
0.57521408796310425 0.759543776512146 0.3574245274066925
0.63520616292953491 0.76743710041046143 0.36876824498176575
0.68863844871520996 0.77605336904525757 0.38149756193161011
0.74373650550842285 0.78887933492660522 0.39840477705001831
0.7874642014503479 0.79997718334197998 0.4139619767665863
0.8299974799156189 0.81259691715240479 0.43181702494621277
0.8712162971496582 0.8302198052406311 0.45102331042289734
0.90550518035888672 0.84724599123001099 0.47059330344200134
0.50550675392150879 0.80554366111755371 0.38470029830932617
0.51401174068450928 0.80464261770248413 0.38562014698982239
0.53124839067459106 0.80364686250686646 0.38798689842224121
0.55930012464523315 0.80459076166152954 0.3934711217880249
0.59372979402542114 0.80714982748031616 0.40298798680305481
0.63061678409576416 0.81266754865646362 0.41514262557029724
0.67407804727554321 0.81882321834564209 0.42770481109619141
0.71307432651519775 0.82396966218948364 0.43811255693435669
0.7543342113494873 0.83641040325164795 0.45480230450630188
0.79012233018875122 0.84860342741012573 0.47263339161872864
0.8265565037727356 0.85876131057739258 0.48867493867874146
0.85991203784942627 0.87078464031219482 0.50472033023834229
0.88775056600570679 0.88578587770462036 0.52263927459716797
0.61908870935440063 0.86612546443939209 0.45772424340248108
0.62201720476150513 0.86587268114089966 0.45798230171203613
0.63093167543411255 0.86614078283309937 0.46164390444755554
0.64496034383773804 0.86574733257293701 0.46560418605804443
0.66339850425720215 0.86691147089004517 0.47166556119918823
0.68501430749893188 0.87148147821426392 0.48190614581108093
0.71195495128631592 0.87628459930419922 0.49255150556564331
0.73882132768630981 0.87805461883544922 0.49943891167640686
0.76798492670059204 0.88316404819488525 0.51038724184036255
0.79781830310821533 0.89405620098114014 0.52763259410858154
0.82771939039230347 0.90557730197906494 0.54601424932479858
0.85340875387191772 0.913260817527771 0.56083375215530396
0.8733285665512085 0.92230528593063354 0.57794672250747681
0.02371571771800518 0.18153892457485199 0.21171873807907104
0.0351078100502491 0.18217769265174866 0.21211148798465729
0.055942118167877197 0.18385984003543854 0.21350483596324921
0.11971124261617661 0.1825854629278183 0.21705727279186249
0.24211254715919495 0.17754131555557251 0.22426709532737732
0.40025001764297485 0.16599152982234955 0.23159144818782806
0.57581615447998047 0.16672289371490479 0.24118974804878235
0.72545826435089111 0.23077571392059326 0.25871291756629944
0.82386362552642822 0.32619026303291321 0.28321677446365356
0.87913185358047485 0.40638718008995056 0.29947856068611145
0.91834753751754761 0.47609031200408936 0.31591150164604187
0.94826358556747437 0.53831356763839722 0.3443872332572937
0.97167289257049561 0.58204942941665649 0.36831536889076233
0.019233973696827888 0.1883971244096756 0.21771962940692902
0.038093835115432739 0.18766190111637115 0.21741713583469391
0.074524551630020142 0.18900930881500244 0.21722260117530823
0.15118519961833954 0.1911262720823288 0.22182519733905792
0.28041106462478638 0.19109784066677094 0.23021748661994934
0.43647527694702148 0.19479537010192871 0.23852922022342682
0.60047566890716553 0.217985600233078 0.24869005382061005
0.73928093910217285 0.28123313188552856 0.26674801111221313
0.82435160875320435 0.35492423176765442 0.28380855917930603
0.87820231914520264 0.42909026145935059 0.30210509896278381
0.9141918420791626 0.49417945742607117 0.31919968128204346
0.94442832469940186 0.54978883266448975 0.34573072195053101
0.97184836864471436 0.59653079509735107 0.37468183040618896
0.01001269742846489 0.21009096503257751 0.22649665176868439
0.031156068667769432 0.20783336460590363 0.22335557639598846
0.096711881458759308 0.21258749067783356 0.22569051384925842
0.19871293008327484 0.22208555042743683 0.22930480539798737
0.33178958296775818 0.23462897539138794 0.23486164212226868
0.48004153370857239 0.25058475136756897 0.2431720644235611
0.62248396873474121 0.27999117970466614 0.25072884559631348
0.74203318357467651 0.33370473980903625 0.26367637515068054
0.82231700420379639 0.39691871404647827 0.28033196926116943
0.87386107444763184 0.46098324656486511 0.29754370450973511
0.90971559286117554 0.51791262626647949 0.31732413172721863
0.93974393606185913 0.56575602293014526 0.34056591987609863
0.96971827745437622 0.60673874616622925 0.36885780096054077
0.010925667360424995 0.27258127927780151 0.23703049123287201
0.037451844662427902 0.27141574025154114 0.23347675800323486
0.10646028816699982 0.27834832668304443 0.23564697802066803
0.23279954493045807 0.295166015625 0.2378673255443573
0.37536776065826416 0.31195273995399475 0.2372683584690094
0.51491016149520874 0.32568943500518799 0.24065779149532318
0.63863092660903931 0.34662070870399475 0.2415761798620224
0.73840528726577759 0.38627153635025024 0.25232937932014465
0.81505274772644043 0.4437846839427948 0.27208161354064941
0.86798739433288574 0.49721121788024902 0.2909107506275177
0.90316963195800781 0.54357790946960449 0.31119737029075623
0.93492764234542847 0.58598703145980835 0.33444890379905701
0.96234023571014404 0.62052148580551147 0.36440551280975342
0.0080406786873936653 0.3591671884059906 0.24264273047447205
0.049264900386333466 0.36189219355583191 0.24312108755111694
0.115520179271698 0.36865222454071045 0.24427101016044617
0.23965273797512054 0.38472804427146912 0.24694335460662842
0.38891309499740601 0.40607598423957825 0.24636086821556091
0.53463035821914673 0.42501479387283325 0.24604037404060364
0.64796406030654907 0.43574100732803345 0.24146068096160889
0.73669260740280151 0.45243540406227112 0.24259603023529053
