films/polaroid_time_zero_expired.cube
# Created by: G'MIC (https://gmic.eu)
TITLE "polaroid_time_zero_expired"
# LUT size
LUT_3D_SIZE 13
# Data domain
DOMAIN_MIN 0.0 0.0 0.0
DOMAIN_MAX 1.0 1.0 1.0
# LUT data points
0.61433660984039307 0.34721297025680542 0.13208812475204468
0.6162523627281189 0.34587395191192627 0.12890496850013733
0.62155693769454956 0.34643813967704773 0.12845708429813385
0.63044768571853638 0.3476005494594574 0.12985335290431976
0.64345425367355347 0.3494899570941925 0.13109181821346283
0.66506350040435791 0.34987857937812805 0.13146054744720459
0.69337683916091919 0.34979653358459473 0.13178201019763947
0.72603726387023926 0.3503379225730896 0.13250097632408142
0.763450026512146 0.35125240683555603 0.13317269086837769
0.80421352386474609 0.35532623529434204 0.13209453225135803
0.84902673959732056 0.3619745671749115 0.13118594884872437
0.89300704002380371 0.37193667888641357 0.13284561038017273
0.93220293521881104 0.38604456186294556 0.1398678719997406
0.61531108617782593 0.35103431344032288 0.13066321611404419
0.61760646104812622 0.3516690731048584 0.1274934709072113
0.62384140491485596 0.35346853733062744 0.12717686593532562
0.63382279872894287 0.35549816489219666 0.12839479744434357
0.64837771654129028 0.35653799772262573 0.12961302697658539
0.66973906755447388 0.35750487446784973 0.12970171868801117
0.69707459211349487 0.3581794798374176 0.12943315505981445
0.7286030650138855 0.35844683647155762 0.12954790890216827
0.76437222957611084 0.35977119207382202 0.12990301847457886
0.8057938814163208 0.36346504092216492 0.12815099954605103
0.85060065984725952 0.37038376927375793 0.12679764628410339
0.89426273107528687 0.38092908263206482 0.1290154904127121
0.93263310194015503 0.39608052372932434 0.13639357686042786
0.61901426315307617 0.36136332154273987 0.12879745662212372
0.62251889705657959 0.36404469609260559 0.12529399991035461
0.62969917058944702 0.36721646785736084 0.12459602952003479
0.64072239398956299 0.36829483509063721 0.12635537981987
0.656421959400177 0.36913564801216125 0.12795634567737579
0.67749184370040894 0.3710038959980011 0.12773542106151581
0.70397305488586426 0.37235048413276672 0.12624955177307129
0.73510855436325073 0.37473964691162109 0.12467401474714279
0.77005743980407715 0.3759513795375824 0.12334732711315155
0.80985414981842041 0.37935361266136169 0.12217019498348236
0.85289806127548218 0.38593336939811707 0.12219557166099548
0.89555811882019043 0.39650985598564148 0.12557367980480194
0.93378514051437378 0.41160953044891357 0.13385786116123199
0.62609940767288208 0.3835887610912323 0.12226806581020355
0.63030987977981567 0.38557955622673035 0.11895226687192917
0.63848060369491577 0.38844627141952515 0.11846180260181427
0.65035444498062134 0.38868072628974915 0.12104611843824387
0.66625624895095825 0.38868421316146851 0.12461233884096146
0.68781000375747681 0.39130273461341858 0.12432628124952316
0.71408599615097046 0.39481130242347717 0.12142585217952728
0.74391859769821167 0.39790484309196472 0.11833503842353821
0.77731937170028687 0.40050706267356873 0.11579860746860504
0.81485110521316528 0.40343430638313293 0.11476582288742065
0.85555672645568848 0.4094637930393219 0.11537191271781921
0.89761698246002197 0.42011222243309021 0.11899553239345551
0.93583047389984131 0.43516173958778381 0.1283162534236908
0.63575559854507446 0.41396361589431763 0.11052549630403519
0.64107120037078857 0.41620004177093506 0.106339231133461
0.65047067403793335 0.41864338517189026 0.10538630932569504
0.6630476713180542 0.4191109836101532 0.10789954662322998
0.67949777841567993 0.41791707277297974 0.11328663676977158
0.7013782262802124 0.42102760076522827 0.11433002352714539
0.72746717929840088 0.42621931433677673 0.11320241540670395
0.7555391788482666 0.43072906136512756 0.11141283810138702
0.78639680147171021 0.43395280838012695 0.10829894244670868
0.8209071159362793 0.43717113137245178 0.10600651800632477
0.85892659425735474 0.44291362166404724 0.10468263924121857
0.89884203672409058 0.45382881164550781 0.10643286257982254
0.93561375141143799 0.46834471821784973 0.11530275642871857
0.6488681435585022 0.45423421263694763 0.089829400181770325
0.65447890758514404 0.45558243989944458 0.085363857448101044
0.66431552171707153 0.45790272951126099 0.083016850054264069
0.67780226469039917 0.45935419201850891 0.082810871303081512
0.69530296325683594 0.45951896905899048 0.084879733622074127
0.7182391881942749 0.46218159794807434 0.089799575507640839
0.74395471811294556 0.46695277094841003 0.097833417356014252
0.77122664451599121 0.47222882509231567 0.10506624728441238
0.79981237649917603 0.47667530179023743 0.10453634709119797
0.83087241649627686 0.48076280951499939 0.098134644329547882
0.86515438556671143 0.48662540316581726 0.091831579804420471
0.90120130777359009 0.49620130658149719 0.09017404168844223
0.93528389930725098 0.50913196802139282 0.097900688648223877
0.66472357511520386 0.50202196836471558 0.062546432018280029
0.66970312595367432 0.50182980298995972 0.058120802044868469
0.67906463146209717 0.50334751605987549 0.054412003606557846
0.69301199913024902 0.50514644384384155 0.050538681447505951
0.71214425563812256 0.50714623928070068 0.046823583543300629
0.73524373769760132 0.51042312383651733 0.052824415266513824
0.76086634397506714 0.51465708017349243 0.072642505168914795
0.78848552703857422 0.52000528573989868 0.094536229968070984
0.81562930345535278 0.52547621726989746 0.1011384129524231
0.84324997663497925 0.53060078620910645 0.095342062413692474
0.87340402603149414 0.53639209270477295 0.088474616408348083
0.90515226125717163 0.54422163963317871 0.08200499415397644
0.93574309349060059 0.55432844161987305 0.08392971009016037
0.68233418464660645 0.55295926332473755 0.033359408378601074
0.68648421764373779 0.55208581686019897 0.028972087427973747
0.69447571039199829 0.55253499746322632 0.025776971131563187
0.70747214555740356 0.55413711071014404 0.021132765337824821
0.72636878490447998 0.55700069665908813 0.014203674159944057
0.74974936246871948 0.5608331561088562 0.017464835196733475
0.77543330192565918 0.56504362821578979 0.039358805865049362
0.80285000801086426 0.57087820768356323 0.065779171884059906
0.82919168472290039 0.57692044973373413 0.083795405924320221
0.85550445318222046 0.58314675092697144 0.094316087663173676
0.88292831182479858 0.58974152803421021 0.10171566903591156
0.91060793399810791 0.59659945964813232 0.10213731974363327
0.93772470951080322 0.60424089431762695 0.10342118144035339
0.70215463638305664 0.60627138614654541 0.006497611291706562
0.70516574382781982 0.60493606328964233 0.0043774023652076721
0.71105527877807617 0.60446780920028687 0.0039471792988479137
0.72154802083969116 0.60522949695587158 0.0027260275091975927
0.73887157440185547 0.60726845264434814 0.00042241413029842079
0.7622067928314209 0.61127054691314697 0.00070945889456197619
0.78806406259536743 0.61607104539871216 0.007983907125890255
0.81496220827102661 0.62203282117843628 0.027904825285077095
0.84104675054550171 0.62860137224197388 0.055096317082643509
0.86657321453094482 0.63584083318710327 0.08977942168712616
0.89196455478668213 0.64391183853149414 0.12861908972263336
0.9172360897064209 0.65144771337509155 0.15478083491325378
0.94120109081268311 0.65713739395141602 0.16613686084747314
0.72504770755767822 0.66111207008361816 0
0.72702997922897339 0.65925055742263794 0
0.73078852891921997 0.65797156095504761 0
0.7376595139503479 0.65724331140518188 0
0.75303453207015991 0.65892493724822998 0
0.77642077207565308 0.66262847185134888 0
0.80202168226242065 0.66772139072418213 0
0.82785886526107788 0.67329233884811401 0.0026424482930451632
0.85286444425582886 0.67927539348602295 0.026348158717155457
0.87730288505554199 0.68681049346923828 0.082055754959583282
0.90127885341644287 0.6959795355796814 0.15667267143726349
0.92414504289627075 0.70409786701202393 0.21389140188694
0.94611936807632446 0.70789968967437744 0.23509635031223297
0.75149655342102051 0.71587187051773071 0
0.75300651788711548 0.71451437473297119 0
0.75552380084991455 0.71214789152145386 0
0.76125729084014893 0.71096450090408325 0
0.77462303638458252 0.71171277761459351 0
0.7955659031867981 0.71506625413894653 0
0.81932967901229858 0.71965700387954712 0
0.84334659576416016 0.72458356618881226 0.00027636360027827322
0.86678177118301392 0.72950661182403564 0.024004528298974037
0.88977730274200439 0.73589080572128296 0.094483815133571625
0.91150879859924316 0.74355798959732056 0.18542388081550598
0.93181127309799194 0.75010091066360474 0.25509268045425415
0.9516034722328186 0.75387930870056152 0.29476693272590637
0.78075754642486572 0.77014654874801636 1.6350839359802194e-05
0.78192949295043945 0.76799005270004272 1.6156365745700896e-05
0.78432333469390869 0.76518076658248901 2.8602749807760119e-05
0.78995412588119507 0.76348310708999634 1.0651233424141537e-05
0.8017076849937439 0.76374715566635132 0
0.81911462545394897 0.76652806997299194 0
0.83985024690628052 0.7707751989364624 2.3336972390097799e-06
0.8615109920501709 0.77519941329956055 0.0087067699059844017
0.88416266441345215 0.77925950288772583 0.066661179065704346
0.90498417615890503 0.78394931554794312 0.15119668841362
0.92404168844223022 0.78881651163101196 0.23514547944068909
0.94139808416366577 0.79311800003051758 0.30447530746459961
0.95873326063156128 0.796622633934021 0.354990154504776
0.80949932336807251 0.82024544477462769 0.012176827527582645
0.81045490503311157 0.81726604700088501 0.013441497460007668
0.81289499998092651 0.81414633989334106 0.014654436148703098
0.81848937273025513 0.81222379207611084 0.013314759358763695
0.82835066318511963 0.812366783618927 0.0089874565601348877
0.84308552742004395 0.81460553407669067 0.0056222653947770596
0.86090683937072754 0.81844973564147949 0.0089415609836578369
0.88027840852737427 0.82222133874893188 0.043888553977012634
0.90169388055801392 0.82540935277938843 0.12512634694576263
0.92123967409133911 0.82874536514282227 0.21898117661476135
0.93701177835464478 0.83121079206466675 0.2933599054813385
0.95180225372314453 0.83419507741928101 0.35892963409423828
0.96700292825698853 0.83626753091812134 0.41351026296615601
0.61360424757003784 0.3468533456325531 0.13717630505561829
0.61569613218307495 0.3461824357509613 0.13402950763702393
0.62143170833587646 0.34640958905220032 0.13493138551712036
0.63093632459640503 0.34680765867233276 0.13733172416687012
0.64516854286193848 0.34758132696151733 0.13882042467594147
0.66600942611694336 0.34884247183799744 0.14005623757839203
0.69421327114105225 0.34973892569541931 0.14044421911239624
0.7276160717010498 0.35132232308387756 0.14106984436511993
0.76509451866149902 0.35372593998908997 0.141291543841362
0.80703580379486084 0.35698866844177246 0.14130282402038574
0.85101824998855591 0.36207878589630127 0.14224296808242798
0.8942226767539978 0.37187603116035461 0.14573624730110168
0.93213719129562378 0.38674211502075195 0.15425965189933777
0.6149706244468689 0.35147634148597717 0.13556624948978424
0.61706745624542236 0.3519129753112793 0.133024662733078
0.62387293577194214 0.35336139798164368 0.13400042057037354
0.63456827402114868 0.35456272959709167 0.13688561320304871
0.64947682619094849 0.35582292079925537 0.13796503841876984
0.67061859369277954 0.35647255182266235 0.13826926052570343
0.6983952522277832 0.3580748438835144 0.13800457119941711
0.73127597570419312 0.35968506336212158 0.1379077136516571
0.76807790994644165 0.36142125725746155 0.13778460025787354
0.80943381786346436 0.36412692070007324 0.13712573051452637
0.85347908735275269 0.36920249462127686 0.13757230341434479
0.89644867181777954 0.37951114773750305 0.14109121263027191
0.93452274799346924 0.39541622996330261 0.14954350888729095
0.61824542284011841 0.36330646276473999 0.13397723436355591
0.62175488471984863 0.36458635330200195 0.1313105970621109
0.62937080860137939 0.36762717366218567 0.13214676082134247
0.64087826013565063 0.36799439787864685 0.13439673185348511
0.65669554471969604 0.36867800354957581 0.13577495515346527
0.67820006608963013 0.37100568413734436 0.13570746779441833
0.70567035675048828 0.37203815579414368 0.13487909734249115
0.7375684380531311 0.37456062436103821 0.13341414928436279
0.773384690284729 0.37587067484855652 0.13226881623268127
0.81321758031845093 0.37893322110176086 0.13183064758777618
0.85594785213470459 0.38468837738037109 0.13253267109394073
0.89839380979537964 0.39493674039840698 0.13690401613712311
0.93612682819366455 0.41115197539329529 0.14591014385223389
0.62479889392852783 0.38449043035507202 0.12919974327087402
0.62896323204040527 0.38650667667388916 0.12652984261512756
0.63765168190002441 0.38884302973747253 0.12672333419322968
0.65007638931274414 0.38978597521781921 0.12880900502204895
0.66647034883499146 0.39054900407791138 0.1300572007894516
0.68819528818130493 0.39235019683837891 0.13026358187198639
0.71503716707229614 0.39451077580451965 0.12994940578937531
0.74525696039199829 0.39713415503501892 0.12715359032154083
0.77912992238998413 0.39920726418495178 0.12419977784156799
0.81727230548858643 0.40258112549781799 0.12327283620834351
0.85848689079284668 0.408631831407547 0.1244005560874939
0.89967942237854004 0.41925722360610962 0.12956814467906952
0.93710488080978394 0.43465113639831543 0.13974513113498688
0.63407337665557861 0.4150431752204895 0.11895569413900375
0.63937240839004517 0.41689860820770264 0.11602336168289185
0.64954394102096558 0.42002898454666138 0.11554095894098282
0.66265642642974854 0.42106476426124573 0.11705426871776581
0.67981261014938354 0.42125460505485535 0.11965059489011765
0.70202827453613281 0.42248517274856567 0.12250536680221558
0.7279508113861084 0.42581871151924133 0.12339752912521362
0.75533604621887207 0.42983952164649963 0.11998294293880463
0.7860410213470459 0.43299403786659241 0.11490824073553085
0.82233017683029175 0.4367557168006897 0.11275213211774826
0.86124992370605469 0.44274225831031799 0.11224062740802765
0.9016270637512207 0.45327812433242798 0.11756999045610428
0.93794453144073486 0.46807575225830078 0.12950614094734192
0.64646953344345093 0.45496562123298645 0.10106510668992996
0.65234124660491943 0.45600095391273499 0.097345761954784393
0.66290563344955444 0.45923173427581787 0.095421344041824341
0.67704188823699951 0.46078670024871826 0.094550266861915588
0.6952054500579834 0.46114867925643921 0.096660822629928589
0.71874380111694336 0.46252256631851196 0.10373189300298691
0.74417531490325928 0.46645644307136536 0.11139240860939026
0.77063119411468506 0.47204768657684326 0.11481604725122452
0.79894614219665527 0.47684884071350098 0.11255188286304474
0.83065003156661987 0.48091477155685425 0.10518266260623932
0.86556583642959595 0.48662933707237244 0.09911365807056427
0.90310591459274292 0.49611830711364746 0.10360348224639893
0.93859750032424927 0.50958764553070068 0.11689451336860657
0.6618807315826416 0.50164228677749634 0.076134651899337769
0.66720056533813477 0.50174248218536377 0.07130470871925354
0.67705225944519043 0.50369173288345337 0.067472763359546661
0.69123965501785278 0.50575399398803711 0.063376858830451965
0.71057707071304321 0.50751280784606934 0.062166791409254074
0.73452591896057129 0.51004630327224731 0.069396346807479858
0.76055097579956055 0.51457047462463379 0.086784079670906067
0.78780984878540039 0.52130663394927979 0.10483919084072113
0.81536585092544556 0.52723842859268188 0.11308149248361588
0.8430941104888916 0.5318000316619873 0.10806085914373398
0.87342584133148193 0.53731662034988403 0.10049968212842941
0.90645092725753784 0.54517072439193726 0.098866239190101624
0.93799692392349243 0.55588096380233765 0.10597870498895645
0.6800275444984436 0.5523676872253418 0.04599081352353096
0.68367809057235718 0.55208331346511841 0.040967561304569244
0.69207775592803955 0.55254495143890381 0.036775417625904083
0.7054935097694397 0.55428272485733032 0.030806537717580795
0.72450625896453857 0.55669105052947998 0.025006163865327835
0.74827784299850464 0.56015968322753906 0.029348157346248627
0.77477359771728516 0.56586301326751709 0.051027663052082062
0.8027452826499939 0.57300955057144165 0.080058664083480835
0.82994771003723145 0.57982707023620605 0.10353236645460129
0.85632598400115967 0.58525758981704712 0.11666233092546463
0.88341552019119263 0.59112036228179932 0.12216777354478836
0.91158843040466309 0.59826081991195679 0.12042427808046341
0.93891620635986328 0.60652458667755127 0.12305447459220886
0.69915270805358887 0.6057201623916626 0.014036021195352077
0.70193415880203247 0.60473638772964478 0.010481949895620346
0.70889627933502197 0.60476011037826538 0.0084930118173360825
0.72044521570205688 0.60552150011062622 0.0050132451578974724
0.73811244964599609 0.60746371746063232 0.00167146569583565
0.76088613271713257 0.61120402812957764 0.002215022686868906
0.78758621215820312 0.61725896596908569 0.013856431469321251
0.81512463092803955 0.62430852651596069 0.043395426124334335
0.84205174446105957 0.63153737783432007 0.080588549375534058
0.86781889200210571 0.63843673467636108 0.12019447237253189
0.89312136173248291 0.64569675922393799 0.15381400287151337
0.91787993907928467 0.65289843082427979 0.16909162700176239
0.94197255373001099 0.65932643413543701 0.17697426676750183
0.72087830305099487 0.66063934564590454 6.1259546782821417e-05
0.72380912303924561 0.65942823886871338 0
0.72897064685821533 0.6585700511932373 0
0.73831826448440552 0.6586117148399353 0
0.7533189058303833 0.65999680757522583 0
0.77613675594329834 0.66368973255157471 0
0.80144953727722168 0.66906869411468506 0.00018126543727703393
0.82784289121627808 0.67568475008010864 0.012450064532458782
0.85376471281051636 0.68237709999084473 0.056380882859230042
0.87862861156463623 0.68974584341049194 0.11774542182683945
0.90214544534683228 0.69768399000167847 0.17945021390914917
0.92438751459121704 0.70478451251983643 0.22032223641872406
0.94608044624328613 0.70977675914764404 0.24092386662960052
0.74729496240615845 0.71584749221801758 0
0.7499886155128479 0.71547126770019531 0
0.75426793098449707 0.71385526657104492 0
0.76168650388717651 0.71301537752151489 0
0.77561074495315552 0.71391433477401733 0
0.79520046710968018 0.71693766117095947 0
0.81866240501403809 0.72167354822158813 0
0.84331399202346802 0.72723573446273804 0.0037019317969679832
0.86774259805679321 0.73268145322799683 0.051533643156290054
0.89075750112533569 0.73874926567077637 0.1274246871471405
0.91168689727783203 0.74532502889633179 0.20383669435977936
0.93135660886764526 0.75063163042068481 0.25988766551017761
0.95072168111801147 0.75510650873184204 0.29671317338943481
0.77747023105621338 0.76975810527801514 0.0047839446924626827
0.78012681007385254 0.76891165971755981 0.0041205314919352531
0.78347474336624146 0.76757806539535522 0.0027917299885302782
0.78973543643951416 0.76632887125015259 0.00098227709531784058
0.80189061164855957 0.76680010557174683 9.4230505055747926e-05
0.81874543428421021 0.76928424835205078 0
0.83891212940216064 0.77350151538848877 0
0.86138248443603516 0.77789187431335449 0.0099051976576447487
0.88433659076690674 0.78185588121414185 0.078605502843856812
0.90558397769927979 0.78599733114242554 0.16760256886482239
0.92371636629104614 0.7897639274597168 0.24565954506397247
0.93986529111862183 0.79301297664642334 0.30475622415542603
0.95699292421340942 0.79657554626464844 0.35189005732536316
0.80705803632736206 0.81970691680908203 0.041470129042863846
0.80985540151596069 0.81912887096405029 0.039614897221326828
0.81284952163696289 0.81702560186386108 0.035148933529853821
0.81870871782302856 0.81568187475204468 0.02850106917321682
0.82890546321868896 0.81586360931396484 0.019118709489703178
0.84319734573364258 0.81796813011169434 0.0097391018643975258
0.86090683937072754 0.82199794054031372 0.0075802374631166458
0.88025790452957153 0.82573312520980835 0.04059479758143425
0.90170049667358398 0.82742059230804443 0.12843874096870422
0.92102688550949097 0.83030170202255249 0.22378471493721008
0.93664729595184326 0.83161765336990356 0.29941257834434509
0.950725257396698 0.83423978090286255 0.35943207144737244
0.96570652723312378 0.83580696582794189 0.40803879499435425
0.61719417572021484 0.34885606169700623 0.14507542550563812
0.61888819932937622 0.34866926074028015 0.14126080274581909
0.62499797344207764 0.34793809056282043 0.14391888678073883
0.63495051860809326 0.34792816638946533 0.14760567247867584
0.64859992265701294 0.34880214929580688 0.14952155947685242
0.66897773742675781 0.34993571043014526 0.1506684422492981
0.69719606637954712 0.35153090953826904 0.15302224457263947
0.73136752843856812 0.35468563437461853 0.15520201623439789
0.76924335956573486 0.35883805155754089 0.15578362345695496
0.81061029434204102 0.36216384172439575 0.15678399801254272
0.85389411449432373 0.36548987030982971 0.15942636132240295
0.89576119184494019 0.37524136900901794 0.16399399936199188
0.93279057741165161 0.39142271876335144 0.17337651550769806
0.61817348003387451 0.35275775194168091 0.14351651072502136
0.62068110704421997 0.35362890362739563 0.14101596176624298
0.62772154808044434 0.35500523447990417 0.14368201792240143
0.63897246122360229 0.35586255788803101 0.14829003810882568
0.65346932411193848 0.35624432563781738 0.15018419921398163
0.6743323802947998 0.35719436407089233 0.15182185173034668
0.70283901691436768 0.35970866680145264 0.1522345095872879
0.73690974712371826 0.36296316981315613 0.15193453431129456
0.77384322881698608 0.36557656526565552 0.15238325297832489
0.81422573328018188 0.367921382188797 0.15313199162483215
0.85700714588165283 0.37155067920684814 0.15517204999923706
0.89876359701156616 0.38181474804878235 0.15953764319419861
0.93588703870773315 0.39917626976966858 0.16864341497421265
0.62201994657516479 0.36421704292297363 0.1427781879901886
0.6250615119934082 0.36531168222427368 0.14088204503059387
0.63282853364944458 0.3680376410484314 0.14272688329219818
0.64457589387893677 0.36895757913589478 0.14587998390197754
0.66030734777450562 0.37074992060661316 0.14805063605308533
0.68199282884597778 0.37181738018989563 0.149479940533638
0.71023881435394287 0.37355828285217285 0.14929677546024323
0.74343782663345337 0.37659436464309692 0.14815741777420044
0.77929878234863281 0.37872925400733948 0.14798067510128021
0.81838810443878174 0.38163071870803833 0.14830681681632996
0.85987633466720581 0.38708695769309998 0.15021677315235138
0.90104955434799194 0.39744457602500916 0.15515227615833282
0.93770378828048706 0.4136371910572052 0.16484341025352478
0.6273423433303833 0.38494700193405151 0.13971903920173645
0.63174617290496826 0.38640624284744263 0.13773378729820251
0.64042603969573975 0.38877585530281067 0.13895554840564728
0.65300720930099487 0.39076310396194458 0.14076240360736847
0.66947531700134277 0.39285209774971008 0.14201352000236511
0.69144982099533081 0.3940671980381012 0.14318571984767914
0.71876466274261475 0.3958016037940979 0.14446112513542175
0.75007659196853638 0.39785528182983398 0.14295811951160431
0.78484809398651123 0.4001433253288269 0.14160983264446259
0.82258588075637817 0.40427476167678833 0.14095620810985565
0.86268836259841919 0.41100376844406128 0.14224852621555328
0.90291833877563477 0.42120248079299927 0.14801409840583801
0.93941622972488403 0.43673238158226013 0.15885387361049652
0.63503968715667725 0.41691321134567261 0.13211001455783844
0.640644371509552 0.41713175177574158 0.13005349040031433
0.6506732702255249 0.41936281323432922 0.12988026440143585
0.66421091556549072 0.42178365588188171 0.13104018568992615
0.68188965320587158 0.42410588264465332 0.13299226760864258
0.70458745956420898 0.42502173781394958 0.13724495470523834
0.73070967197418213 0.42693868279457092 0.13882414996623993
0.7592969536781311 0.43007475137710571 0.13640180230140686
0.79157614707946777 0.43310663104057312 0.1335877925157547
0.82742249965667725 0.43770113587379456 0.13097603619098663
0.86564284563064575 0.44431796669960022 0.13079918920993805
0.90439009666442871 0.45452457666397095 0.1372382789850235
0.93985390663146973 0.46904850006103516 0.14960458874702454
0.64669698476791382 0.45608013868331909 0.11834130436182022
0.65265095233917236 0.45607158541679382 0.11489130556583405
