films/polaroid_px-100uv+_warm.cube
# Created by: G'MIC (https://gmic.eu)
TITLE "polaroid_px-100uv+_warm"
# LUT size
LUT_3D_SIZE 13
# Data domain
DOMAIN_MIN 0.0 0.0 0.0
DOMAIN_MAX 1.0 1.0 1.0
# LUT data points
0.27882769703865051 0.25674790143966675 0.25937911868095398
0.28067046403884888 0.25900956988334656 0.26159337162971497
0.29212647676467896 0.27015417814254761 0.27355045080184937
0.3101780116558075 0.29119396209716797 0.29341796040534973
0.33628293871879578 0.32082587480545044 0.32338699698448181
0.36554056406021118 0.35252100229263306 0.35578683018684387
0.3977319598197937 0.38612055778503418 0.38963460922241211
0.43485262989997864 0.42361307144165039 0.42696395516395569
0.46983838081359863 0.45912355184555054 0.46190923452377319
0.50269222259521484 0.4915967583656311 0.49457955360412598
0.53624880313873291 0.52572798728942871 0.52631509304046631
0.57959723472595215 0.56623589992523193 0.56334072351455688
0.62955504655838013 0.61380362510681152 0.60422301292419434
0.28539973497390747 0.26364564895629883 0.26662886142730713
0.28762847185134888 0.26567915081977844 0.26881623268127441
0.29832455515861511 0.27768716216087341 0.28069332242012024
0.31267783045768738 0.29458001255989075 0.29680308699607849
0.33578616380691528 0.3217616081237793 0.32360959053039551
0.36506566405296326 0.35270845890045166 0.35522633790969849
0.39780834317207336 0.38752135634422302 0.38984948396682739
0.43544340133666992 0.42455297708511353 0.42760026454925537
0.46887692809104919 0.45914080739021301 0.46086904406547546
0.50191670656204224 0.4929279088973999 0.49379989504814148
0.53695851564407349 0.52784830331802368 0.5267486572265625
0.58263665437698364 0.56883126497268677 0.5660821795463562
0.63288015127182007 0.61616414785385132 0.60705268383026123
0.29894366860389709 0.27982041239738464 0.28161275386810303
0.30049178004264832 0.28188562393188477 0.28375723958015442
0.30956578254699707 0.29247555136680603 0.29415345191955566
0.32441145181655884 0.30823442339897156 0.31042009592056274
0.34391948580741882 0.32983464002609253 0.33236581087112427
0.37241420149803162 0.36134696006774902 0.36306828260421753
0.40167990326881409 0.39192751049995422 0.39373445510864258
0.43843227624893188 0.42781358957290649 0.43058016896247864
0.47081473469734192 0.4617493748664856 0.46295255422592163
0.50317978858947754 0.49343296885490417 0.49514931440353394
0.53945016860961914 0.52922976016998291 0.52872973680496216
0.58587777614593506 0.57179117202758789 0.56894159317016602
0.63740032911300659 0.62059170007705688 0.61157006025314331
0.32749944925308228 0.31171414256095886 0.31322792172431946
0.3270900547504425 0.31112304329872131 0.31287628412246704
0.33430907130241394 0.31922522187232971 0.32147988677024841
0.3491036593914032 0.33488988876342773 0.33784511685371399
0.36598935723304749 0.35313627123832703 0.35600364208221436
0.38835451006889343 0.37749180197715759 0.37991631031036377
0.41059094667434692 0.40077963471412659 0.40270385146141052
0.444366455078125 0.43400394916534424 0.43652063608169556
0.47447893023490906 0.46506717801094055 0.46661049127578735
0.50575751066207886 0.49514585733413696 0.49757015705108643
0.54265475273132324 0.5320732593536377 0.53127098083496094
0.59035998582839966 0.57652741670608521 0.57220947742462158
0.6416161060333252 0.62486934661865234 0.61558181047439575
0.36209771037101746 0.34820035099983215 0.35127538442611694
0.35849764943122864 0.34652727842330933 0.34835648536682129
0.36440163850784302 0.35121351480484009 0.35416972637176514
0.37556445598602295 0.36273810267448425 0.36635860800743103
0.38872155547142029 0.37711739540100098 0.38048651814460754
0.409231036901474 0.39831268787384033 0.40118503570556641
0.43030473589897156 0.41915073990821838 0.42246159911155701
0.45562440156936646 0.44470500946044922 0.4477812647819519
0.4804789125919342 0.4712689220905304 0.4726264476776123
0.51064997911453247 0.50027847290039062 0.50233036279678345
0.5474202036857605 0.5362250804901123 0.5357736349105835
0.59275352954864502 0.57890850305557251 0.57430338859558105
0.64272010326385498 0.62722676992416382 0.6164742112159729
0.3975311815738678 0.38775953650474548 0.38916853070259094
0.3963412344455719 0.38618648052215576 0.38827395439147949
0.39797255396842957 0.38670608401298523 0.3899083137512207
0.40614497661590576 0.39537248015403748 0.3982483446598053
0.41660201549530029 0.40614825487136841 0.40912625193595886
0.43261384963989258 0.42230132222175598 0.42527046799659729
0.45238557457923889 0.44255036115646362 0.44454243779182434
0.47499334812164307 0.46570578217506409 0.46715021133422852
0.49535354971885681 0.48673912882804871 0.4874388575553894
0.52117210626602173 0.51235967874526978 0.51206886768341064
0.55551612377166748 0.54413962364196777 0.54262369871139526
0.60023331642150879 0.58491021394729614 0.58049577474594116
0.64872771501541138 0.63179433345794678 0.62044566869735718
0.43661457300186157 0.42790040373802185 0.42877143621444702
0.43464007973670959 0.42597278952598572 0.42678293585777283
0.43411791324615479 0.42396765947341919 0.42627477645874023
0.43628174066543579 0.42712366580963135 0.42843860387802124
0.44375425577163696 0.43493944406509399 0.43686696887016296
0.45569106936454773 0.446920245885849 0.44931682944297791
0.47275793552398682 0.46397441625595093 0.46492880582809448
0.49518349766731262 0.48635885119438171 0.48723161220550537
0.51641559600830078 0.50716596841812134 0.50767934322357178
0.5422743558883667 0.5325741171836853 0.53096145391464233
0.57235324382781982 0.5598456859588623 0.55712640285491943
0.61357724666595459 0.59699368476867676 0.59191930294036865
0.65861296653747559 0.63994622230529785 0.62726306915283203
0.47527956962585449 0.46727463603019714 0.46743643283843994
0.47346377372741699 0.46453449130058289 0.46565350890159607
0.47128739953041077 0.46202495694160461 0.46344426274299622
0.47121664881706238 0.46071901917457581 0.46336084604263306
0.47569453716278076 0.46744602918624878 0.46834886074066162
0.48667138814926147 0.47808820009231567 0.47969910502433777
0.50162732601165771 0.49272850155830383 0.49384453892707825
0.51854366064071655 0.5082705020904541 0.51007908582687378
0.54044586420059204 0.53013139963150024 0.52939039468765259
0.56810510158538818 0.55521875619888306 0.55297166109085083
0.60033619403839111 0.58508288860321045 0.58011776208877563
0.63807660341262817 0.619800865650177 0.61199802160263062
0.67672890424728394 0.65722864866256714 0.64218807220458984
0.5140073299407959 0.50395315885543823 0.50554853677749634
0.51280969381332397 0.50400704145431519 0.50427532196044922
0.51032567024230957 0.50148129463195801 0.50145053863525391
0.50798368453979492 0.49806302785873413 0.49906766414642334
0.51182764768600464 0.50190025568008423 0.50297403335571289
0.5218280553817749 0.5132027268409729 0.51218384504318237
0.53370130062103271 0.52468419075012207 0.52431309223175049
0.55089300870895386 0.53953629732131958 0.53972095251083374
0.5720335841178894 0.55823862552642822 0.55707448720932007
0.59698837995529175 0.58100253343582153 0.57730633020401001
0.62981665134429932 0.61303812265396118 0.60427677631378174
0.66696876287460327 0.64750915765762329 0.63538157939910889
0.70237272977828979 0.6824982762336731 0.66418731212615967
0.56095945835113525 0.54786008596420288 0.54685550928115845
0.55790340900421143 0.54622429609298706 0.54457449913024902
0.55498433113098145 0.54374676942825317 0.54183280467987061
0.55373883247375488 0.54249042272567749 0.54055279493331909
0.55665856599807739 0.54519367218017578 0.54305791854858398
0.56372189521789551 0.5525248646736145 0.54926389455795288
0.57645297050476074 0.56377023458480835 0.56085515022277832
0.59420192241668701 0.57929009199142456 0.57659357786178589
0.6153443455696106 0.60067790746688843 0.59323430061340332
0.63804078102111816 0.62038165330886841 0.61127716302871704
0.66241186857223511 0.64279729127883911 0.63180923461914062
0.6965489387512207 0.67498040199279785 0.65966004133224487
0.72309696674346924 0.70173990726470947 0.68171203136444092
0.61911565065383911 0.60349553823471069 0.59540683031082153
0.61500602960586548 0.59969735145568848 0.59263896942138672
0.61335784196853638 0.59695792198181152 0.59186452627182007
0.61260497570037842 0.59678047895431519 0.5910528302192688
0.61196440458297729 0.59791016578674316 0.59013926982879639
0.61819863319396973 0.60270977020263672 0.59553247690200806
0.63132584095001221 0.61395502090454102 0.60667449235916138
0.64734399318695068 0.63070565462112427 0.62015587091445923
0.66678303480148315 0.64878922700881958 0.63584250211715698
0.68692874908447266 0.66650891304016113 0.65200430154800415
0.70582860708236694 0.68458831310272217 0.66780281066894531
0.73204070329666138 0.70872819423675537 0.689544677734375
0.767200767993927 0.74188005924224854 0.71919494867324829
0.69002169370651245 0.66981816291809082 0.65509802103042603
0.68768340349197388 0.66788047552108765 0.65388423204421997
0.68841356039047241 0.66797161102294922 0.65450698137283325
0.68526375293731689 0.66597068309783936 0.65203452110290527
0.68412810564041138 0.66502124071121216 0.65038603544235229
0.6887708306312561 0.66896337270736694 0.65413475036621094
0.70372945070266724 0.6823762059211731 0.66645890474319458
0.71266710758209229 0.69262063503265381 0.67404508590698242
0.72843641042709351 0.70671951770782471 0.68757158517837524
0.74490189552307129 0.72370749711990356 0.70142710208892822
0.76239097118377686 0.73883754014968872 0.71670651435852051
0.77918720245361328 0.7563970685005188 0.73123812675476074
0.80029815435409546 0.77665406465530396 0.7497938871383667
0.76787978410720825 0.74491202831268311 0.72093367576599121
0.76852989196777344 0.74479168653488159 0.72104030847549438
0.7683146595954895 0.74388635158538818 0.72009813785552979
0.76603966951370239 0.74299532175064087 0.71824824810028076
0.76684874296188354 0.74389010667800903 0.71845352649688721
0.76323813199996948 0.73933809995651245 0.7156292200088501
0.77464085817337036 0.75089317560195923 0.72545337677001953
0.78500241041183472 0.7605627179145813 0.73563456535339355
0.79519987106323242 0.77095520496368408 0.74510294198989868
0.80923879146575928 0.78608179092407227 0.75695538520812988
0.82248371839523315 0.80013811588287354 0.7711482048034668
0.83251237869262695 0.81144458055496216 0.78186440467834473
0.84581989049911499 0.82548725605010986 0.79496598243713379
0.28471028804779053 0.26368659734725952 0.26622858643531799
0.29310929775238037 0.27371600270271301 0.27583456039428711
0.30625316500663757 0.286855548620224 0.28982532024383545
0.32519829273223877 0.30945119261741638 0.31150093674659729
0.35278064012527466 0.34054464101791382 0.34217676520347595
0.38283467292785645 0.37082773447036743 0.37402915954589844
0.41152840852737427 0.39992988109588623 0.40358784794807434
0.44480010867118835 0.4342157244682312 0.4369569718837738
0.47888800501823425 0.46883976459503174 0.47095966339111328
0.51117491722106934 0.50025743246078491 0.50276583433151245
0.54634928703308105 0.53468233346939087 0.53435617685317993
0.58976072072982788 0.57633751630783081 0.5715758204460144
0.63894248008728027 0.62340849637985229 0.61284095048904419
0.29360094666481018 0.27452456951141357 0.27664089202880859
0.29927098751068115 0.28080150485038757 0.28288573026657104
0.31287643313407898 0.29425013065338135 0.29726004600524902
0.33013862371444702 0.31395372748374939 0.31621336936950684
0.35486775636672974 0.34166198968887329 0.3438049852848053
0.38419672846794128 0.37230518460273743 0.37489846348762512
0.41384515166282654 0.40255993604660034 0.4057219922542572
0.4480363130569458 0.43847560882568359 0.44018051028251648
0.48074960708618164 0.47197803854942322 0.47269022464752197
0.51390552520751953 0.5040745735168457 0.50505822896957397
0.54816156625747681 0.53843432664871216 0.53623563051223755
0.5927126407623291 0.57891929149627686 0.57440054416656494
0.6408698558807373 0.62485283613204956 0.614784836769104
0.31210491061210632 0.29535198211669922 0.29723575711250305
0.3165019154548645 0.29981225728988647 0.30171018838882446
0.32674509286880493 0.30995142459869385 0.3131357729434967
0.34086444973945618 0.32512015104293823 0.32784470915794373
0.36011427640914917 0.34656882286071777 0.34913933277130127
0.38735979795455933 0.37579962611198425 0.37838685512542725
0.41701853275299072 0.40638542175292969 0.40904492139816284
0.45047858357429504 0.44171017408370972 0.44263246655464172
0.48205900192260742 0.47350168228149414 0.47412401437759399
0.5151594877243042 0.50588864088058472 0.50624459981918335
0.55095887184143066 0.53994083404541016 0.53877931833267212
0.59617793560028076 0.58138167858123779 0.57727783918380737
0.64562767744064331 0.62786459922790527 0.61860901117324829
0.34383431077003479 0.33059969544410706 0.33192366361618042
0.34476324915885925 0.33076196908950806 0.33256542682647705
0.34959015250205994 0.33524599671363831 0.33828046917915344
0.36190310120582581 0.34823423624038696 0.35151982307434082
0.37790912389755249 0.36566886305809021 0.36882120370864868
0.39921995997428894 0.38781926035881042 0.3907795250415802
0.42369547486305237 0.41362333297729492 0.41584473848342896
0.45425248146057129 0.44538715481758118 0.44638130068778992
0.48499846458435059 0.47568559646606445 0.47713378071784973
0.51709413528442383 0.50633317232131958 0.50860154628753662
0.55345630645751953 0.54112035036087036 0.54122412204742432
0.59905505180358887 0.58456182479858398 0.57900846004486084
0.64929890632629395 0.63138788938522339 0.62175291776657104
0.37935617566108704 0.36695787310600281 0.36954778432846069
0.37728002667427063 0.36458560824394226 0.36707454919815063
0.38166815042495728 0.36957171559333801 0.37235257029533386
0.38908755779266357 0.37732487916946411 0.38072168827056885
0.39956578612327576 0.38822045922279358 0.39158403873443604
0.41837009787559509 0.40864253044128418 0.41045928001403809
0.44066956639289856 0.43005865812301636 0.43279862403869629
0.46409356594085693 0.45419210195541382 0.45625042915344238
0.49085944890975952 0.48102438449859619 0.48296946287155151
0.52041399478912354 0.50960063934326172 0.51173210144042969
0.55603295564651489 0.54552316665649414 0.54332703351974487
0.60215771198272705 0.58816647529602051 0.58133870363235474
0.65152949094772339 0.63445091247558594 0.62291967868804932
0.41251838207244873 0.4015318751335144 0.40440034866333008
0.41292545199394226 0.40372535586357117 0.40486475825309753
0.41403362154960632 0.40424859523773193 0.40594488382339478
0.41996634006500244 0.40967383980751038 0.41204988956451416
0.42928415536880493 0.41874992847442627 0.42144101858139038
0.44158616662025452 0.43151137232780457 0.43374302983283997
0.46076515316963196 0.45034533739089966 0.45292201638221741
0.48228904604911804 0.47223755717277527 0.47443225979804993
0.50338035821914673 0.49391886591911316 0.49531760811805725
0.52944302558898926 0.51949918270111084 0.51987111568450928
0.56289350986480713 0.55179733037948608 0.54896038770675659
0.6064571738243103 0.5930105447769165 0.58554971218109131
0.65674155950546265 0.63881170749664307 0.62576383352279663
0.44720786809921265 0.43826830387115479 0.4393647313117981
0.44849297404289246 0.43923547863960266 0.44059225916862488
0.44704574346542358 0.43768942356109619 0.43913257122039795
0.45087528228759766 0.44188562035560608 0.44299924373626709
0.45618736743927002 0.44693505764007568 0.44851464033126831
0.46532514691352844 0.45517340302467346 0.4575076699256897
0.4834296703338623 0.47308176755905151 0.47559353709220886
0.50438731908798218 0.494151771068573 0.49653249979019165
0.52404588460922241 0.51311248540878296 0.51565563678741455
0.54884576797485352 0.5368468165397644 0.53683161735534668
0.58002036809921265 0.56597691774368286 0.56274348497390747
0.62342214584350586 0.60763847827911377 0.59855204820632935
0.66700506210327148 0.64786922931671143 0.63354438543319702
0.48474904894828796 0.47606852650642395 0.47688063979148865
0.48302856087684631 0.47406426072120667 0.47512918710708618
0.48033586144447327 0.4715726375579834 0.47248008847236633
0.48242238163948059 0.47319179773330688 0.47447150945663452
0.48546093702316284 0.47697544097900391 0.47756937146186829
0.49378296732902527 0.48482003808021545 0.48556032776832581
0.50844627618789673 0.49780309200286865 0.50011980533599854
0.52583193778991699 0.51514327526092529 0.5168609619140625
0.54695004224777222 0.53694266080856323 0.53585165739059448
0.57382088899612427 0.5606074333190918 0.55804294347763062
0.60607969760894775 0.5908738374710083 0.58395552635192871
0.64421123266220093 0.62664699554443359 0.61568999290466309
0.68153446912765503 0.66207659244537354 0.646842360496521
0.52199745178222656 0.51278448104858398 0.51243293285369873
0.51998770236968994 0.50965708494186401 0.51100707054138184
0.51863390207290649 0.50856727361679077 0.50954651832580566
0.51747864484786987 0.50753825902938843 0.50834834575653076
0.51948374509811401 0.50927889347076416 0.5105472207069397
0.52780705690383911 0.51828241348266602 0.5178946852684021
0.5416257381439209 0.5313759446144104 0.53045755624771118
0.55891108512878418 0.54675394296646118 0.54599922895431519
0.57628607749938965 0.5641133189201355 0.56173789501190186
0.60025507211685181 0.58558207750320435 0.5810476541519165
0.63267844915390015 0.61569702625274658 0.60696518421173096
0.67069345712661743 0.6507076621055603 0.63799327611923218
0.70759695768356323 0.68776965141296387 0.66870206594467163
0.56756514310836792 0.55447721481323242 0.55283600091934204
0.56564539670944214 0.5537264347076416 0.5516236424446106
0.56420892477035522 0.55173557996749878 0.55031633377075195
0.56252032518386841 0.55032598972320557 0.54817777872085571
0.5634152889251709 0.55088573694229126 0.54944401979446411
0.56969839334487915 0.55714207887649536 0.55499845743179321
0.58263307809829712 0.5709991455078125 0.56577193737030029
0.60034823417663574 0.58606427907943726 0.581074059009552
0.61785399913787842 0.60365021228790283 0.5959542989730835
0.63799053430557251 0.62120974063873291 0.61231338977813721
0.66405183076858521 0.64461427927017212 0.63382935523986816
0.70213091373443604 0.68115359544754028 0.6643749475479126
0.736622154712677 0.71483558416366577 0.69280833005905151
0.6248328685760498 0.60900908708572388 0.6001734733581543
0.62210911512374878 0.60650730133056641 0.59898090362548828
0.62074083089828491 0.60403501987457275 0.5978739857673645
0.61857587099075317 0.60289549827575684 0.59614866971969604
0.61866044998168945 0.6045035719871521 0.59583753347396851
0.62432384490966797 0.60806435346603394 0.60035502910614014
0.63583463430404663 0.61916100978851318 0.60999166965484619
0.65121811628341675 0.63451105356216431 0.62299549579620361
0.66936331987380981 0.65085750818252563 0.63820511102676392
0.68847113847732544 0.66797500848770142 0.65356701612472534
0.70746099948883057 0.68730080127716064 0.66952180862426758
0.73521596193313599 0.71259331703186035 0.6922374963760376
0.76958400011062622 0.74465322494506836 0.72103387117385864
0.69653958082199097 0.6767154335975647 0.66030848026275635
0.69296407699584961 0.67292815446853638 0.65838813781738281
0.69229882955551147 0.67136114835739136 0.6577954888343811
0.6926959753036499 0.67247074842453003 0.65727919340133667
0.69216442108154297 0.67258024215698242 0.65693151950836182
0.6951596736907959 0.67504256963729858 0.65915501117706299
0.70488762855529785 0.68409472703933716 0.66711747646331787
0.71569228172302246 0.69473147392272949 0.67652285099029541
0.73230874538421631 0.70987939834594727 0.69114226102828979
0.74979943037033081 0.72785437107086182 0.70595401525497437
0.76546621322631836 0.74416911602020264 0.72021943330764771
0.78120243549346924 0.75960469245910645 0.73371964693069458
0.80413228273391724 0.78067129850387573 0.75317609310150146
0.77232658863067627 0.74912667274475098 0.72371959686279297
0.7718273401260376 0.74759089946746826 0.72366529703140259
0.7707366943359375 0.74610888957977295 0.72247099876403809
0.77040988206863403 0.74711340665817261 0.72192049026489258
0.7714768648147583 0.74788367748260498 0.72292178869247437
0.77168101072311401 0.74679619073867798 0.72316944599151611
0.77764058113098145 0.75251948833465576 0.72837322950363159
0.78736644983291626 0.76180505752563477 0.73787879943847656
0.79880613088607788 0.77491843700408936 0.74841326475143433
0.81291204690933228 0.78948402404785156 0.76040512323379517
0.82283538579940796 0.80080574750900269 0.7723926305770874
0.83426821231842041 0.81394451856613159 0.7835853099822998
0.84879380464553833 0.8283882737159729 0.79778313636779785
0.30693233013153076 0.28880837559700012 0.29105958342552185
0.31435504555702209 0.29831597208976746 0.29984119534492493
0.32461261749267578 0.30747511982917786 0.31040799617767334
0.34512791037559509 0.33005249500274658 0.33273783326148987
0.37303397059440613 0.361197829246521 0.36403518915176392
0.40206232666969299 0.39071923494338989 0.39396208524703979
0.43149974942207336 0.42142978310585022 0.42365661263465881
0.46377161145210266 0.45435437560081482 0.45592847466468811
0.4953569769859314 0.48665949702262878 0.48711869120597839
0.5271793007850647 0.51616460084915161 0.51763546466827393
0.56498342752456665 0.5509028434753418 0.5506664514541626
0.60826069116592407 0.59387874603271484 0.5866273045539856
0.65557289123535156 0.63858276605606079 0.62544369697570801
0.31444647908210754 0.29641050100326538 0.2993198037147522
0.32207182049751282 0.30549481511116028 0.30804598331451416
0.3360823392868042 0.32075488567352295 0.32273393869400024
0.35180795192718506 0.33765974640846252 0.33976274728775024
0.37660786509513855 0.36496436595916748 0.36724033951759338
0.40477800369262695 0.394635409116745 0.39682868123054504
0.43654254078865051 0.42595270276069641 0.42857858538627625
0.46956893801689148 0.46071940660476685 0.46172353625297546
0.49970048666000366 0.49036401510238647 0.49150827527046204
0.53116363286972046 0.51966565847396851 0.5212438702583313
0.5676567554473877 0.55493992567062378 0.55251955986022949
0.61022508144378662 0.59578055143356323 0.58809733390808105
0.65782713890075684 0.63953304290771484 0.62694543600082397
0.33061617612838745 0.31523364782333374 0.31721383333206177
0.33804106712341309 0.32247456908226013 0.32543501257896423
0.34914249181747437 0.33385804295539856 0.33694693446159363
0.36219000816345215 0.34830969572067261 0.35096246004104614
0.38518297672271729 0.37302288413047791 0.37578281760215759
0.4116988480091095 0.40133431553840637 0.4036901593208313
0.44159698486328125 0.43083038926124573 0.43374839425086975
0.47232872247695923 0.46362394094467163 0.46446570754051208
0.50075554847717285 0.49193495512008667 0.49264675378799438
0.53313177824020386 0.52233552932739258 0.52286404371261597
0.57009148597717285 0.55759286880493164 0.55512291193008423
0.61565119028091431 0.59960544109344482 0.59303766489028931
0.66118162870407104 0.64278453588485718 0.63092446327209473
0.36479607224464417 0.35075342655181885 0.3534371554851532
0.36743280291557312 0.35529062151908875 0.35706555843353271
0.3738342821598053 0.3622608482837677 0.36412391066551208
0.38489475846290588 0.37298652529716492 0.37557217478752136
0.40160426497459412 0.39039841294288635 0.39302447438240051
0.42390543222427368 0.41325899958610535 0.41600552201271057
0.44830727577209473 0.43855255842208862 0.44039839506149292
0.47560477256774902 0.46711567044258118 0.46761465072631836
0.5035170316696167 0.49387344717979431 0.49530905485153198
0.53409403562545776 0.52444946765899658 0.52412229776382446
0.57156378030776978 0.55904203653335571 0.55688250064849854
0.61812347173690796 0.60220956802368164 0.59539997577667236
0.66501283645629883 0.64549797773361206 0.63442766666412354
0.40263193845748901 0.38977116346359253 0.39267763495445251
0.40381971001625061 0.39244124293327332 0.395112544298172
0.40466791391372681 0.39476147294044495 0.3965258002281189
0.40691858530044556 0.39611327648162842 0.39886948466300964
0.42083615064620972 0.4103715717792511 0.41289108991622925
0.43817645311355591 0.42775750160217285 0.43029636144638062
0.45875990390777588 0.44863051176071167 0.45091170072555542
0.48036769032478333 0.47148588299751282 0.47244659066200256
0.50679653882980347 0.49750533699989319 0.49877282977104187
