films/polaroid_665.cube
# Created by: G'MIC (https://gmic.eu)
TITLE "polaroid_665"
# LUT size
LUT_3D_SIZE 7
# Data domain
DOMAIN_MIN 0.0 0.0 0.0
DOMAIN_MAX 1.0 1.0 1.0
# LUT data points
0.058134865015745163 0.058134865015745163 0.058134865015745163
0.074595384299755096 0.074595384299755096 0.074595384299755096
0.11942184716463089 0.11942184716463089 0.11942184716463089
0.18545584380626678 0.18545584380626678 0.18545584380626678
0.26530700922012329 0.26530700922012329 0.26530700922012329
0.3565981388092041 0.3565981388092041 0.3565981388092041
0.4587458074092865 0.4587458074092865 0.4587458074092865
0.10313142091035843 0.10313142091035843 0.10313142091035843
0.10449033230543137 0.10449033230543137 0.10449033230543137
0.14047469198703766 0.14047469198703766 0.14047469198703766
0.20869706571102142 0.20869706571102142 0.20869706571102142
0.29145136475563049 0.29145136475563049 0.29145136475563049
0.388651043176651 0.388651043176651 0.388651043176651
0.49641674757003784 0.49641674757003784 0.49641674757003784
0.19680657982826233 0.19680657982826233 0.19680657982826233
0.19067567586898804 0.19067567586898804 0.19067567586898804
0.21044561266899109 0.21044561266899109 0.21044561266899109
0.26029503345489502 0.26029503345489502 0.26029503345489502
0.33582940697669983 0.33582940697669983 0.33582940697669983
0.4421364963054657 0.4421364963054657 0.4421364963054657
0.55946671962738037 0.55946671962738037 0.55946671962738037
0.30456185340881348 0.30456185340881348 0.30456185340881348
0.30941620469093323 0.30941620469093323 0.30941620469093323
0.31990376114845276 0.31990376114845276 0.31990376114845276
0.33930090069770813 0.33930090069770813 0.33930090069770813
0.3839813768863678 0.3839813768863678 0.3839813768863678
0.49352747201919556 0.49352747201919556 0.49352747201919556
0.63375109434127808 0.63375109434127808 0.63375109434127808
0.45381775498390198 0.45381775498390198 0.45381775498390198
0.45754843950271606 0.45754843950271606 0.45754843950271606
0.46476507186889648 0.46476507186889648 0.46476507186889648
0.46542125940322876 0.46542125940322876 0.46542125940322876
0.46527889370918274 0.46527889370918274 0.46527889370918274
0.55016821622848511 0.55016821622848511 0.55016821622848511
0.67661124467849731 0.67661124467849731 0.67661124467849731
0.64998722076416016 0.64998722076416016 0.64998722076416016
0.64288473129272461 0.64288473129272461 0.64288473129272461
0.65105664730072021 0.65105664730072021 0.65105664730072021
0.65773701667785645 0.65773701667785645 0.65773701667785645
0.65799754858016968 0.65799754858016968 0.65799754858016968
0.68455475568771362 0.68455475568771362 0.68455475568771362
0.75368297100067139 0.75368297100067139 0.75368297100067139
0.84627330303192139 0.84627330303192139 0.84627330303192139
0.83503270149230957 0.83503270149230957 0.83503270149230957
0.84694570302963257 0.84694570302963257 0.84694570302963257
0.86489087343215942 0.86489087343215942 0.86489087343215942
0.86654740571975708 0.86654740571975708 0.86654740571975708
0.86172807216644287 0.86172807216644287 0.86172807216644287
0.87934786081314087 0.87934786081314087 0.87934786081314087
0.10799108445644379 0.10799108445644379 0.10799108445644379
0.12280421704053879 0.12280421704053879 0.12280421704053879
0.16574972867965698 0.16574972867965698 0.16574972867965698
0.22538420557975769 0.22538420557975769 0.22538420557975769
0.29670962691307068 0.29670962691307068 0.29670962691307068
0.38019686937332153 0.38019686937332153 0.38019686937332153
0.48327136039733887 0.48327136039733887 0.48327136039733887
0.13183613121509552 0.13183613121509552 0.13183613121509552
0.15239289402961731 0.15239289402961731 0.15239289402961731
0.19334682822227478 0.19334682822227478 0.19334682822227478
0.25258070230484009 0.25258070230484009 0.25258070230484009
0.32387611269950867 0.32387611269950867 0.32387611269950867
0.4078277051448822 0.4078277051448822 0.4078277051448822
0.51440370082855225 0.51440370082855225 0.51440370082855225
0.21982893347740173 0.21982893347740173 0.21982893347740173
0.23429958522319794 0.23429958522319794 0.23429958522319794
0.25886094570159912 0.25886094570159912 0.25886094570159912
0.29970818758010864 0.29970818758010864 0.29970818758010864
0.36546114087104797 0.36546114087104797 0.36546114087104797
0.46160700917243958 0.46160700917243958 0.46160700917243958
0.57480180263519287 0.57480180263519287 0.57480180263519287
0.34394067525863647 0.34394067525863647 0.34394067525863647
0.35184571146965027 0.35184571146965027 0.35184571146965027
0.36004745960235596 0.36004745960235596 0.36004745960235596
0.37276512384414673 0.37276512384414673 0.37276512384414673
0.41214483976364136 0.41214483976364136 0.41214483976364136
0.51659005880355835 0.51659005880355835 0.51659005880355835
0.64683836698532104 0.64683836698532104 0.64683836698532104
0.48426833748817444 0.48426833748817444 0.48426833748817444
0.48787835240364075 0.48787835240364075 0.48787835240364075
0.49470224976539612 0.49470224976539612 0.49470224976539612
0.49262189865112305 0.49262189865112305 0.49262189865112305
0.49764606356620789 0.49764606356620789 0.49764606356620789
0.57412350177764893 0.57412350177764893 0.57412350177764893
0.69613909721374512 0.69613909721374512 0.69613909721374512
0.66201329231262207 0.66201329231262207 0.66201329231262207
0.65473181009292603 0.65473181009292603 0.65473181009292603
0.66626107692718506 0.66626107692718506 0.66626107692718506
0.67316049337387085 0.67316049337387085 0.67316049337387085
0.67631196975708008 0.67631196975708008 0.67631196975708008
0.69551992416381836 0.69551992416381836 0.69551992416381836
0.7640988826751709 0.7640988826751709 0.7640988826751709
0.84226244688034058 0.84226244688034058 0.84226244688034058
0.84248930215835571 0.84248930215835571 0.84248930215835571
0.85185772180557251 0.85185772180557251 0.85185772180557251
0.86573964357376099 0.86573964357376099 0.86573964357376099
0.87663847208023071 0.87663847208023071 0.87663847208023071
0.87765383720397949 0.87765383720397949 0.87765383720397949
0.89250028133392334 0.89250028133392334 0.89250028133392334
0.20097465813159943 0.20097465813159943 0.20097465813159943
0.2168552577495575 0.2168552577495575 0.2168552577495575
0.25027695298194885 0.25027695298194885 0.25027695298194885
0.29404538869857788 0.29404538869857788 0.29404538869857788
0.35496047139167786 0.35496047139167786 0.35496047139167786
0.43719983100891113 0.43719983100891113 0.43719983100891113
0.54114407300949097 0.54114407300949097 0.54114407300949097
0.22414234280586243 0.22414234280586243 0.22414234280586243
0.24920165538787842 0.24920165538787842 0.24920165538787842
0.28296533226966858 0.28296533226966858 0.28296533226966858
0.3300870954990387 0.3300870954990387 0.3300870954990387
0.38723444938659668 0.38723444938659668 0.38723444938659668
0.4609682559967041 0.4609682559967041 0.4609682559967041
0.56303459405899048 0.56303459405899048 0.56303459405899048
0.29044660925865173 0.29044660925865173 0.29044660925865173
0.31495153903961182 0.31495153903961182 0.31495153903961182
0.33860483765602112 0.33860483765602112 0.33860483765602112
0.36783841252326965 0.36783841252326965 0.36783841252326965
0.42114549875259399 0.42114549875259399 0.42114549875259399
0.50423234701156616 0.50423234701156616 0.50423234701156616
0.60927045345306396 0.60927045345306396 0.60927045345306396
0.386453777551651 0.386453777551651 0.386453777551651
0.40822482109069824 0.40822482109069824 0.40822482109069824
0.42679065465927124 0.42679065465927124 0.42679065465927124
0.43829572200775146 0.43829572200775146 0.43829572200775146
0.4744059145450592 0.4744059145450592 0.4744059145450592
0.56454497575759888 0.56454497575759888 0.56454497575759888
0.68580734729766846 0.68580734729766846 0.68580734729766846
0.51629191637039185 0.51629191637039185 0.51629191637039185
0.5356520414352417 0.5356520414352417 0.5356520414352417
0.54933708906173706 0.54933708906173706 0.54933708906173706
0.55074352025985718 0.55074352025985718 0.55074352025985718
0.56089740991592407 0.56089740991592407 0.56089740991592407
0.62801623344421387 0.62801623344421387 0.62801623344421387
0.74487000703811646 0.74487000703811646 0.74487000703811646
0.68875247240066528 0.68875247240066528 0.68875247240066528
0.69866585731506348 0.69866585731506348 0.69866585731506348
0.7026936411857605 0.7026936411857605 0.7026936411857605
0.70807123184204102 0.70807123184204102 0.70807123184204102
0.71252661943435669 0.71252661943435669 0.71252661943435669
0.74071711301803589 0.74071711301803589 0.74071711301803589
0.80633968114852905 0.80633968114852905 0.80633968114852905
0.85628169775009155 0.85628169775009155 0.85628169775009155
0.86074268817901611 0.86074268817901611 0.86074268817901611
0.86583518981933594 0.86583518981933594 0.86583518981933594
0.87504345178604126 0.87504345178604126 0.87504345178604126
0.88505005836486816 0.88505005836486816 0.88505005836486816
0.90277218818664551 0.90277218818664551 0.90277218818664551
0.91346025466918945 0.91346025466918945 0.91346025466918945
0.33149552345275879 0.33149552345275879 0.33149552345275879
0.34985047578811646 0.34985047578811646 0.34985047578811646
0.36762598156929016 0.36762598156929016 0.36762598156929016
0.38150513172149658 0.38150513172149658 0.38150513172149658
0.41898894309997559 0.41898894309997559 0.41898894309997559
0.52648603916168213 0.52648603916168213 0.52648603916168213
0.64365965127944946 0.64365965127944946 0.64365965127944946
0.36830875277519226 0.36830875277519226 0.36830875277519226
0.38803616166114807 0.38803616166114807 0.38803616166114807
0.40070751309394836 0.40070751309394836 0.40070751309394836
0.41508927941322327 0.41508927941322327 0.41508927941322327
0.46415618062019348 0.46415618062019348 0.46415618062019348
0.5556410551071167 0.5556410551071167 0.5556410551071167
0.65782099962234497 0.65782099962234497 0.65782099962234497
0.40597075223922729 0.40597075223922729 0.40597075223922729
0.42916682362556458 0.42916682362556458 0.42916682362556458
0.44139677286148071 0.44139677286148071 0.44139677286148071
0.4530780017375946 0.4530780017375946 0.4530780017375946
0.50233548879623413 0.50233548879623413 0.50233548879623413
0.58695691823959351 0.58695691823959351 0.58695691823959351
0.6764037013053894 0.6764037013053894 0.6764037013053894
0.43091776967048645 0.43091776967048645 0.43091776967048645
0.46565872430801392 0.46565872430801392 0.46565872430801392
0.48797628283500671 0.48797628283500671 0.48797628283500671
0.52348524332046509 0.52348524332046509 0.52348524332046509
0.5683974027633667 0.5683974027633667 0.5683974027633667
0.64138054847717285 0.64138054847717285 0.64138054847717285
0.73085963726043701 0.73085963726043701 0.73085963726043701
0.54086589813232422 0.54086589813232422 0.54086589813232422
0.56859642267227173 0.56859642267227173 0.56859642267227173
0.58558815717697144 0.58558815717697144 0.58558815717697144
0.62168323993682861 0.62168323993682861 0.62168323993682861
0.64530891180038452 0.64530891180038452 0.64530891180038452
0.69528454542160034 0.69528454542160034 0.69528454542160034
0.79347264766693115 0.79347264766693115 0.79347264766693115
0.71256798505783081 0.71256798505783081 0.71256798505783081
0.72810441255569458 0.72810441255569458 0.72810441255569458
0.73422473669052124 0.73422473669052124 0.73422473669052124
0.75591421127319336 0.75591421127319336 0.75591421127319336
0.76321429014205933 0.76321429014205933 0.76321429014205933
0.7843748927116394 0.7843748927116394 0.7843748927116394
0.84306120872497559 0.84306120872497559 0.84306120872497559
0.88122236728668213 0.88122236728668213 0.88122236728668213
0.8765566349029541 0.8765566349029541 0.8765566349029541
0.8826943039894104 0.8826943039894104 0.8826943039894104
0.8952338695526123 0.8952338695526123 0.8952338695526123
0.90384554862976074 0.90384554862976074 0.90384554862976074
0.91045254468917847 0.91045254468917847 0.91045254468917847
0.92095386981964111 0.92095386981964111 0.92095386981964111
0.51086825132369995 0.51086825132369995 0.51086825132369995
0.51864165067672729 0.51864165067672729 0.51864165067672729
0.52256757020950317 0.52256757020950317 0.52256757020950317
0.52371275424957275 0.52371275424957275 0.52371275424957275
0.53560823202133179 0.53560823202133179 0.53560823202133179
0.58292365074157715 0.58292365074157715 0.58292365074157715
0.72107470035552979 0.72107470035552979 0.72107470035552979
0.54699099063873291 0.54699099063873291 0.54699099063873291
0.55238145589828491 0.55238145589828491 0.55238145589828491
0.55176234245300293 0.55176234245300293 0.55176234245300293
0.55318039655685425 0.55318039655685425 0.55318039655685425
0.57614719867706299 0.57614719867706299 0.57614719867706299
0.63606512546539307 0.63606512546539307 0.63606512546539307
0.74074065685272217 0.74074065685272217 0.74074065685272217
0.57799297571182251 0.57799297571182251 0.57799297571182251
0.5809895396232605 0.5809895396232605 0.5809895396232605
0.58421945571899414 0.58421945571899414 0.58421945571899414
0.59339296817779541 0.59339296817779541 0.59339296817779541
0.62085950374603271 0.62085950374603271 0.62085950374603271
0.67194986343383789 0.67194986343383789 0.67194986343383789
0.75339311361312866 0.75339311361312866 0.75339311361312866
0.57530736923217773 0.57530736923217773 0.57530736923217773
0.59566164016723633 0.59566164016723633 0.59566164016723633
0.61300867795944214 0.61300867795944214 0.61300867795944214
0.64889252185821533 0.64889252185821533 0.64889252185821533
0.67687308788299561 0.67687308788299561 0.67687308788299561
0.72130441665649414 0.72130441665649414 0.72130441665649414
0.78921604156494141 0.78921604156494141 0.78921604156494141
0.61704468727111816 0.61704468727111816 0.61704468727111816
0.64158320426940918 0.64158320426940918 0.64158320426940918
0.65956073999404907 0.65956073999404907 0.65956073999404907
0.70095527172088623 0.70095527172088623 0.70095527172088623
0.733653724193573 0.733653724193573 0.733653724193573
0.77849030494689941 0.77849030494689941 0.77849030494689941
0.84520328044891357 0.84520328044891357 0.84520328044891357
0.72621524333953857 0.72621524333953857 0.72621524333953857
0.74186939001083374 0.74186939001083374 0.74186939001083374
0.75468027591705322 0.75468027591705322 0.75468027591705322
0.78680700063705444 0.78680700063705444 0.78680700063705444
0.81356173753738403 0.81356173753738403 0.81356173753738403
0.84369254112243652 0.84369254112243652 0.84369254112243652
0.88490700721740723 0.88490700721740723 0.88490700721740723
0.88005822896957397 0.88005822896957397 0.88005822896957397
0.87706565856933594 0.87706565856933594 0.87706565856933594
0.89337176084518433 0.89337176084518433 0.89337176084518433
0.91442024707794189 0.91442024707794189 0.91442024707794189
0.92420274019241333 0.92420274019241333 0.92420274019241333
0.93169641494750977 0.93169641494750977 0.93169641494750977
0.94256848096847534 0.94256848096847534 0.94256848096847534
0.70962190628051758 0.70962190628051758 0.70962190628051758
0.70382040739059448 0.70382040739059448 0.70382040739059448
0.69839084148406982 0.69839084148406982 0.69839084148406982
0.70508444309234619 0.70508444309234619 0.70508444309234619
0.72565197944641113 0.72565197944641113 0.72565197944641113
0.72159099578857422 0.72159099578857422 0.72159099578857422
0.77500623464584351 0.77500623464584351 0.77500623464584351
0.7282530665397644 0.7282530665397644 0.7282530665397644
0.72742468118667603 0.72742468118667603 0.72742468118667603
0.72281008958816528 0.72281008958816528 0.72281008958816528
0.72659158706665039 0.72659158706665039 0.72659158706665039
0.73978126049041748 0.73978126049041748 0.73978126049041748
0.74973422288894653 0.74973422288894653 0.74973422288894653
0.78941911458969116 0.78941911458969116 0.78941911458969116
0.74208641052246094 0.74208641052246094 0.74208641052246094
0.74710357189178467 0.74710357189178467 0.74710357189178467
0.7483556866645813 0.7483556866645813 0.7483556866645813
0.75377357006072998 0.75377357006072998 0.75377357006072998
0.75847828388214111 0.75847828388214111 0.75847828388214111
0.7616201639175415 0.7616201639175415 0.7616201639175415
0.80638909339904785 0.80638909339904785 0.80638909339904785
0.74152618646621704 0.74152618646621704 0.74152618646621704
0.76204460859298706 0.76204460859298706 0.76204460859298706
0.77210491895675659 0.77210491895675659 0.77210491895675659
0.78738939762115479 0.78738939762115479 0.78738939762115479
0.79134011268615723 0.79134011268615723 0.79134011268615723
0.80310386419296265 0.80310386419296265 0.80310386419296265
0.84958916902542114 0.84958916902542114 0.84958916902542114
0.74881458282470703 0.74881458282470703 0.74881458282470703
0.77519762516021729 0.77519762516021729 0.77519762516021729
0.78391784429550171 0.78391784429550171 0.78391784429550171
0.80531448125839233 0.80531448125839233 0.80531448125839233
0.8293684720993042 0.8293684720993042 0.8293684720993042
0.85712903738021851 0.85712903738021851 0.85712903738021851
0.89787179231643677 0.89787179231643677 0.89787179231643677
0.79748529195785522 0.79748529195785522 0.79748529195785522
0.81022173166275024 0.81022173166275024 0.81022173166275024
0.81156569719314575 0.81156569719314575 0.81156569719314575
0.8393973708152771 0.8393973708152771 0.8393973708152771
0.87305718660354614 0.87305718660354614 0.87305718660354614
0.90066826343536377 0.90066826343536377 0.90066826343536377
0.92729371786117554 0.92729371786117554 0.92729371786117554
0.90061455965042114 0.90061455965042114 0.90061455965042114
0.89386838674545288 0.89386838674545288 0.89386838674545288
0.90320521593093872 0.90320521593093872 0.90320521593093872
0.9290127158164978 0.9290127158164978 0.9290127158164978
0.94684392213821411 0.94684392213821411 0.94684392213821411
0.95648801326751709 0.95648801326751709 0.95648801326751709
0.96868407726287842 0.96868407726287842 0.96868407726287842
0.88704031705856323 0.88704031705856323 0.88704031705856323
0.86873060464859009 0.86873060464859009 0.86873060464859009
0.85788887739181519 0.85788887739181519 0.85788887739181519
0.86302286386489868 0.86302286386489868 0.86302286386489868
0.87719857692718506 0.87719857692718506 0.87719857692718506
0.88259744644165039 0.88259744644165039 0.88259744644165039
0.91009658575057983 0.91009658575057983 0.91009658575057983
0.88265722990036011 0.88265722990036011 0.88265722990036011
0.88172441720962524 0.88172441720962524 0.88172441720962524
0.87735891342163086 0.87735891342163086 0.87735891342163086
0.88271671533584595 0.88271671533584595 0.88271671533584595
0.89945524930953979 0.89945524930953979 0.89945524930953979
0.89697659015655518 0.89697659015655518 0.89697659015655518
0.90092486143112183 0.90092486143112183 0.90092486143112183
0.88038241863250732 0.88038241863250732 0.88038241863250732
0.88992828130722046 0.88992828130722046 0.88992828130722046
0.89277505874633789 0.89277505874633789 0.89277505874633789
0.89591169357299805 0.89591169357299805 0.89591169357299805
0.89837265014648438 0.89837265014648438 0.89837265014648438
0.89433354139328003 0.89433354139328003 0.89433354139328003
0.90639370679855347 0.90639370679855347 0.90639370679855347
0.88131725788116455 0.88131725788116455 0.88131725788116455
0.89905285835266113 0.89905285835266113 0.89905285835266113
0.90713536739349365 0.90713536739349365 0.90713536739349365
0.91072267293930054 0.91072267293930054 0.91072267293930054
0.91016405820846558 0.91016405820846558 0.91016405820846558
0.91116476058959961 0.91116476058959961 0.91116476058959961
0.93087661266326904 0.93087661266326904 0.93087661266326904
0.89110559225082397 0.89110559225082397 0.89110559225082397
0.91470658779144287 0.91470658779144287 0.91470658779144287
0.92177516222000122 0.92177516222000122 0.92177516222000122
0.92816781997680664 0.92816781997680664 0.92816781997680664
0.93485945463180542 0.93485945463180542 0.93485945463180542
0.94114482402801514 0.94114482402801514 0.94114482402801514
0.95843887329101562 0.95843887329101562 0.95843887329101562
0.91757380962371826 0.91757380962371826 0.91757380962371826
0.93244093656539917 0.93244093656539917 0.93244093656539917
0.93402063846588135 0.93402063846588135 0.93402063846588135
0.94805669784545898 0.94805669784545898 0.94805669784545898
0.9592893123626709 0.9592893123626709 0.9592893123626709
0.96527004241943359 0.96527004241943359 0.96527004241943359
0.97630113363265991 0.97630113363265991 0.97630113363265991
0.96783214807510376 0.96783214807510376 0.96783214807510376
0.95428502559661865 0.95428502559661865 0.95428502559661865
0.95698374509811401 0.95698374509811401 0.95698374509811401
0.98256450891494751 0.98256450891494751 0.98256450891494751
0.99330157041549683 0.99330157041549683 0.99330157041549683
0.99435162544250488 0.99435162544250488 0.99435162544250488
0.99462306499481201 0.99462306499481201 0.99462306499481201
