films/polaroid_669.cube
# Created by: G'MIC (https://gmic.eu)
TITLE "polaroid_669"
# LUT size
LUT_3D_SIZE 5
# Data domain
DOMAIN_MIN 0.0 0.0 0.0
DOMAIN_MAX 1.0 1.0 1.0
# LUT data points
0.02591247484087944 0.15484641492366791 0.11905793100595474
0.16277599334716797 0.15857656300067902 0.12499011307954788
0.40814357995986938 0.16502761840820312 0.13905413448810577
0.68379020690917969 0.14644803106784821 0.16041313111782074
0.91182494163513184 0.19210883975028992 0.19240228831768036
0.031252872198820114 0.24939513206481934 0.14069987833499908
0.20016065239906311 0.25436487793922424 0.13727554678916931
0.47528722882270813 0.2705848217010498 0.15682300925254822
0.727944016456604 0.27718111872673035 0.17757180333137512
0.93490391969680786 0.3145068883895874 0.2125915139913559
0.089580997824668884 0.41544577479362488 0.16379337012767792
0.21602253615856171 0.40503025054931641 0.15543891489505768
0.43678686022758484 0.42199280858039856 0.13758143782615662
0.71279937028884888 0.46172216534614563 0.16525444388389587
0.95778095722198486 0.55081582069396973 0.26889440417289734
0.11187833547592163 0.61052066087722778 0.15534023940563202
0.22154431045055389 0.59431451559066772 0.14951290190219879
0.40841236710548401 0.59795510768890381 0.12772151827812195
0.64413684606552124 0.63962149620056152 0.04839031770825386
0.9044528603553772 0.72187113761901855 0.11450085788965225
0.25659221410751343 0.91381078958511353 0.23536595702171326
0.36679902672767639 0.9335060715675354 0.24217404425144196
0.52940642833709717 0.9355313777923584 0.25626093149185181
0.73908412456512451 0.95544970035552979 0.23522365093231201
0.95406639575958252 0.97379106283187866 0.26085945963859558
0.00046220666263252497 0.17388336360454559 0.22622495889663696
0.17525367438793182 0.18345293402671814 0.24314107000827789
0.44863849878311157 0.18174460530281067 0.27714988589286804
0.70702981948852539 0.1455102413892746 0.28054141998291016
0.93302708864212036 0.14753738045692444 0.28930118680000305
0.0057414486072957516 0.28588017821311951 0.27158927917480469
0.2405158132314682 0.29014027118682861 0.29303929209709167
0.50315922498703003 0.29306060075759888 0.3063761293888092
0.7336127758026123 0.27641183137893677 0.2985471785068512
0.94304555654525757 0.3042372465133667 0.31800496578216553
0.094011507928371429 0.47898662090301514 0.29461544752120972
0.26206290721893311 0.45631712675094604 0.29255399107933044
0.47486212849617004 0.45466440916061401 0.27077367901802063
0.74220901727676392 0.5029866099357605 0.32137936353683472
0.95705497264862061 0.56144177913665771 0.38699403405189514
0.13320283591747284 0.66005700826644897 0.27633398771286011
0.24715469777584076 0.63822758197784424 0.26248466968536377
0.41986933350563049 0.61848199367523193 0.24296276271343231
0.66296583414077759 0.66312974691390991 0.20885688066482544
0.91363716125488281 0.73751676082611084 0.26502171158790588
0.2591797411441803 0.94455653429031372 0.34331017732620239
0.35922518372535706 0.94467437267303467 0.34091073274612427
0.51845300197601318 0.94110286235809326 0.33591637015342712
0.73687779903411865 0.95939451456069946 0.33685380220413208
0.95303690433502197 0.973846435546875 0.36773225665092468
0 0.23687663674354553 0.50398874282836914
0.10009448230266571 0.22936289012432098 0.52226299047470093
0.52706789970397949 0.25758081674575806 0.57198703289031982
0.76464438438415527 0.30361020565032959 0.59385019540786743
0.95716208219528198 0.31724858283996582 0.57816487550735474
3.0697094189235941e-05 0.36431348323822021 0.52120119333267212
0.21974767744541168 0.35531654953956604 0.55825239419937134
0.55494695901870728 0.38253846764564514 0.60083615779876709
0.76822692155838013 0.41414541006088257 0.60702067613601685
0.95559811592102051 0.38580837845802307 0.57348984479904175
0.011162267997860909 0.55808955430984497 0.56376504898071289
0.2790229320526123 0.55658161640167236 0.57398813962936401
0.54524916410446167 0.55954813957214355 0.59728872776031494
0.75846302509307861 0.55504220724105835 0.59011828899383545
0.94722473621368408 0.54396206140518188 0.56049627065658569
0.0080567002296447754 0.76451289653778076 0.53053385019302368
0.26784658432006836 0.75543558597564697 0.53751629590988159
0.46316319704055786 0.71653074026107788 0.51132321357727051
0.68900179862976074 0.71599239110946655 0.47476875782012939
0.92800736427307129 0.78800708055496216 0.56776976585388184
0.28290915489196777 0.97149264812469482 0.57550597190856934
0.34492594003677368 0.96641451120376587 0.55691730976104736
0.48339426517486572 0.95337975025177002 0.51256847381591797
0.70728594064712524 0.96196639537811279 0.50262618064880371
0.94616174697875977 0.97569942474365234 0.54086786508560181
0 0.34547558426856995 0.80715811252593994
0.018986018374562263 0.3289584219455719 0.81442368030548096
0.52407270669937134 0.37986910343170166 0.83776915073394775
0.80401235818862915 0.46963649988174438 0.84622651338577271
0.94532805681228638 0.57154566049575806 0.85081744194030762
0.0013588849687948823 0.4788118302822113 0.80800986289978027
0.13526558876037598 0.45172226428985596 0.81584066152572632
0.54861301183700562 0.48724520206451416 0.83891212940216064
0.79990381002426147 0.58031445741653442 0.8487318754196167
0.93559014797210693 0.65519446134567261 0.856131911277771
0.0019997092895209789 0.64405173063278198 0.78348702192306519
0.22533059120178223 0.64006227254867554 0.78486758470535278
0.53783833980560303 0.64750754833221436 0.81805682182312012
0.78544467687606812 0.7326539158821106 0.84997284412384033
0.91735583543777466 0.77094656229019165 0.85533970594406128
0.13370396196842194 0.83192509412765503 0.80094659328460693
0.31279405951499939 0.82901322841644287 0.8014758825302124
0.53476834297180176 0.83794683218002319 0.81567567586898804
0.75481772422790527 0.84714764356613159 0.83387672901153564
0.91648167371749878 0.84024339914321899 0.82559871673583984
0.42180696129798889 0.99161207675933838 0.80913621187210083
0.46578273177146912 0.9889533519744873 0.8031960129737854
0.58874958753585815 0.98713690042495728 0.80458128452301025
0.70663636922836304 0.97143638134002686 0.76608568429946899
0.92225319147109985 0.97300642728805542 0.75380587577819824
0.25232827663421631 0.58768177032470703 0.95450353622436523
0.38444057106971741 0.57705032825469971 0.95700299739837646
0.62695920467376709 0.63513189554214478 0.95147931575775146
0.83133137226104736 0.73816734552383423 0.94911295175552368
0.95936840772628784 0.79704660177230835 0.93996632099151611
0.39821392297744751 0.69020706415176392 0.94751626253128052
0.46102678775787354 0.66997575759887695 0.94901591539382935
0.63938111066818237 0.70078879594802856 0.94609493017196655
0.83246976137161255 0.78680193424224854 0.94295608997344971
0.9466477632522583 0.83800828456878662 0.94055652618408203
0.43809172511100769 0.82194030284881592 0.93254739046096802
0.51656454801559448 0.81680560111999512 0.93495333194732666
0.64499616622924805 0.80536627769470215 0.93813431262969971
0.82390713691711426 0.85419780015945435 0.9373774528503418
0.92870050668716431 0.89713484048843384 0.93601471185684204
0.38486373424530029 0.93263149261474609 0.92478060722351074
0.44048699736595154 0.92873764038085938 0.92457103729248047
0.60125255584716797 0.91801506280899048 0.92533367872238159
0.80048316717147827 0.92061018943786621 0.92964392900466919
0.93000137805938721 0.95715343952178955 0.93588411808013916
0.61795389652252197 1 0.93354052305221558
0.65429830551147461 0.99918413162231445 0.92625373601913452
0.73729985952377319 0.99726665019989014 0.92925941944122314
0.83998435735702515 0.9978034496307373 0.93301618099212646
0.93900609016418457 0.99703413248062134 0.93583953380584717
