films/polaroid_px-680.cube
# Created by: G'MIC (https://gmic.eu)
TITLE "polaroid_px-680"
# LUT size
LUT_3D_SIZE 7
# Data domain
DOMAIN_MIN 0.0 0.0 0.0
DOMAIN_MAX 1.0 1.0 1.0
# LUT data points
0.025685537606477737 0.18039216101169586 0.20784313976764679
0.043777406215667725 0.18360210955142975 0.20784313976764679
0.20684981346130371 0.18644994497299194 0.20569729804992676
0.54170966148376465 0.18708591163158417 0.20071302354335785
0.80945098400115967 0.27061939239501953 0.1993754506111145
0.92287248373031616 0.42808130383491516 0.22314533591270447
0.97669470310211182 0.55531787872314453 0.2912631630897522
0.012787583284080029 0.1955876499414444 0.20788981020450592
0.063601687550544739 0.20571900904178619 0.20739234983921051
0.28216239809989929 0.22940538823604584 0.20127618312835693
0.58589106798171997 0.2568933367729187 0.1939907968044281
0.81440508365631104 0.34905293583869934 0.19253967702388763
0.91437065601348877 0.4750983715057373 0.22239835560321808
0.97508829832077026 0.57823961973190308 0.29017543792724609
4.5955883251735941e-05 0.33991608023643494 0.20517688989639282
0.031130965799093246 0.341319739818573 0.20479939877986908
0.33469715714454651 0.38809031248092651 0.19480644166469574
0.62631529569625854 0.43253454566001892 0.18015852570533752
0.80213272571563721 0.46491724252700806 0.17731387913227081
0.89695334434509277 0.5469927191734314 0.21609489619731903
0.96263396739959717 0.62463885545730591 0.29491659998893738
0.0018823063001036644 0.51504343748092651 0.21010679006576538
0.02729480154812336 0.51818335056304932 0.21447691321372986
0.31902748346328735 0.54092377424240112 0.21430815756320953
0.59535938501358032 0.57993990182876587 0.21096129715442657
0.78480148315429688 0.62177538871765137 0.21699447929859161
0.87297314405441284 0.63637244701385498 0.22924162447452545
0.94421696662902832 0.67067521810531616 0.29565918445587158
0.083434402942657471 0.65252912044525146 0.25190657377243042
0.18793189525604248 0.65106606483459473 0.24975621700286865
0.39192190766334534 0.65775042772293091 0.26079583168029785
0.58236908912658691 0.68089509010314941 0.2738073468208313
0.7470247745513916 0.71252971887588501 0.29856595396995544
0.85351485013961792 0.74640512466430664 0.33037477731704712
0.92864298820495605 0.76008623838424683 0.36631187796592712
0.37027335166931152 0.75509274005889893 0.32225176692008972
0.40383347868919373 0.74825942516326904 0.31684786081314087
0.50286173820495605 0.7526557445526123 0.33353111147880554
0.62619191408157349 0.76496249437332153 0.35884153842926025
0.74132645130157471 0.78720653057098389 0.39203754067420959
0.82619732618331909 0.81094110012054443 0.42159798741340637
0.90371519327163696 0.84405303001403809 0.46355468034744263
0.61145269870758057 0.86292761564254761 0.4517359733581543
0.62764012813568115 0.8637041449546814 0.45596271753311157
0.66132783889770508 0.86656272411346436 0.46808966994285583
0.70919442176818848 0.87683892250061035 0.48963227868080139
0.76693820953369141 0.88345462083816528 0.50791651010513306
0.82595616579055786 0.90529108047485352 0.54408079385757446
0.86164921522140503 0.91478967666625977 0.56437456607818604
0.02371571771800518 0.18153892457485199 0.21171873807907104
0.055942118167877197 0.18385984003543854 0.21350483596324921
0.24211254715919495 0.17754131555557251 0.22426709532737732
0.57581615447998047 0.16672289371490479 0.24118974804878235
0.82386362552642822 0.32619026303291321 0.28321677446365356
0.91834753751754761 0.47609031200408936 0.31591150164604187
0.97167289257049561 0.58204942941665649 0.36831536889076233
0.01001269742846489 0.21009096503257751 0.22649665176868439
0.096711881458759308 0.21258749067783356 0.22569051384925842
0.33178958296775818 0.23462897539138794 0.23486164212226868
0.62248396873474121 0.27999117970466614 0.25072884559631348
0.82231700420379639 0.39691871404647827 0.28033196926116943
0.90971559286117554 0.51791262626647949 0.31732413172721863
0.96971827745437622 0.60673874616622925 0.36885780096054077
0.0080406786873936653 0.3591671884059906 0.24264273047447205
0.115520179271698 0.36865222454071045 0.24427101016044617
0.38891309499740601 0.40607598423957825 0.24636086821556091
0.64796406030654907 0.43574100732803345 0.24146068096160889
0.81059795618057251 0.48820951581001282 0.25663867592811584
0.89470773935317993 0.57001447677612305 0.30280062556266785
0.95790797472000122 0.64090830087661743 0.36202543973922729
0.043499112129211426 0.53157657384872437 0.25904443860054016
0.12896473705768585 0.53137516975402832 0.25871509313583374
0.38303038477897644 0.55212897062301636 0.26670807600021362
0.62461042404174805 0.59132897853851318 0.27536773681640625
0.79014062881469727 0.62629681825637817 0.2865125834941864
0.8749847412109375 0.64552921056747437 0.29553133249282837
0.94609206914901733 0.67857986688613892 0.34576845169067383
0.20158405601978302 0.66210627555847168 0.28879463672637939
0.27474921941757202 0.65594279766082764 0.28922936320304871
0.43216082453727722 0.66329765319824219 0.30251616239547729
0.60608810186386108 0.68489968776702881 0.31750494241714478
0.75438952445983887 0.71658724546432495 0.34533935785293579
0.85630488395690918 0.74904954433441162 0.37284070253372192
0.92863005399703979 0.7570265531539917 0.39653781056404114
0.41010507941246033 0.75432890653610229 0.34720340371131897
0.44361716508865356 0.75386720895767212 0.3502577543258667
0.53183114528656006 0.75674033164978027 0.36256012320518494
0.63713341951370239 0.76848310232162476 0.38606646656990051
0.74700367450714111 0.7892184853553772 0.41636952757835388
0.83169722557067871 0.81438404321670532 0.44886788725852966
0.90350514650344849 0.84108239412307739 0.47698104381561279
0.62473064661026001 0.86757582426071167 0.46571698784828186
0.63595163822174072 0.86669230461120605 0.46794721484184265
0.66768282651901245 0.86904335021972656 0.47965767979621887
0.71341747045516968 0.87688320875167847 0.49815914034843445
0.77068847417831421 0.8894379734992981 0.52207523584365845
0.82739889621734619 0.90300613641738892 0.54862838983535767
0.87363952398300171 0.92237991094589233 0.58078110218048096
0.031193362548947334 0.18519416451454163 0.26859775185585022
0.14724838733673096 0.1913541853427887 0.27530169486999512
0.31337037682533264 0.2256801426410675 0.29346439242362976
0.58013457059860229 0.20406156778335571 0.33208894729614258
0.82320022583007812 0.28056466579437256 0.36986541748046875
0.91955411434173584 0.46377456188201904 0.41413134336471558
0.96473610401153564 0.62212628126144409 0.4734366238117218
0.012126967310905457 0.23636996746063232 0.30144575238227844
0.1719832718372345 0.24428458511829376 0.30914905667304993
0.3934052586555481 0.29729416966438293 0.323383629322052
0.63531172275543213 0.30871757864952087 0.3556913435459137
0.83202385902404785 0.40382304787635803 0.38774400949478149
0.90461581945419312 0.55271542072296143 0.43661049008369446
0.95698976516723633 0.6531187891960144 0.48044648766517639
0.028704026713967323 0.38336232304573059 0.32655525207519531
0.22345565259456635 0.400022953748703 0.33915352821350098
0.47543132305145264 0.43285930156707764 0.35709106922149658
0.67798858880996704 0.47324314713478088 0.37417581677436829
0.81379657983779907 0.54784137010574341 0.40259870886802673
0.88937997817993164 0.61997455358505249 0.43479129672050476
0.95083093643188477 0.6782112717628479 0.47351965308189392
0.24207125604152679 0.53871548175811768 0.34727004170417786
0.34918099641799927 0.54891586303710938 0.35528197884559631
0.4997439980506897 0.57310104370117188 0.36897164583206177
0.66526335477828979 0.60512709617614746 0.38217353820800781
0.7995641827583313 0.63174629211425781 0.39278960227966309
0.87653297185897827 0.66179609298706055 0.41247090697288513
0.94373118877410889 0.70300853252410889 0.45235195755958557
0.40415021777153015 0.66543936729431152 0.37484055757522583
0.43497577309608459 0.66853827238082886 0.37350583076477051
0.51311391592025757 0.67534613609313965 0.37758529186248779
0.64367622137069702 0.6923331618309021 0.40021166205406189
0.76981908082962036 0.72362422943115234 0.42524853348731995
0.85818177461624146 0.74985051155090332 0.44211795926094055
0.93155646324157715 0.76202434301376343 0.4593316912651062
0.48924010992050171 0.75613623857498169 0.40376093983650208
0.50471800565719604 0.75687503814697266 0.40123456716537476
0.57497650384902954 0.76198530197143555 0.41424113512039185
0.66442453861236572 0.77343261241912842 0.43831810355186462
0.75339782238006592 0.79292654991149902 0.46208155155181885
0.83654749393463135 0.8187326192855835 0.49061062932014465
0.90553873777389526 0.84699857234954834 0.51568055152893066
0.6329345703125 0.86944115161895752 0.48873764276504517
0.64076024293899536 0.86760205030441284 0.48707982897758484
0.66978228092193604 0.86750710010528564 0.49442389607429504
0.71643209457397461 0.8772696852684021 0.51828157901763916
0.77370059490203857 0.89173060655593872 0.54293167591094971
0.82911032438278198 0.90456283092498779 0.56892853975296021
0.87248879671096802 0.92521589994430542 0.59956365823745728
0.16461201012134552 0.21459680795669556 0.40871813893318176
0.2771640419960022 0.22042189538478851 0.41341924667358398
0.51467067003250122 0.30112233757972717 0.43055346608161926
0.67346346378326416 0.39633619785308838 0.45007890462875366
0.8032912015914917 0.3927234411239624 0.47286233305931091
0.90251338481903076 0.47830376029014587 0.49824249744415283
0.96489816904067993 0.59960132837295532 0.52424120903015137
0.1485820859670639 0.28032991290092468 0.43281754851341248
0.31373962759971619 0.29806211590766907 0.43931442499160767
0.55782616138458252 0.38039100170135498 0.45176783204078674
0.69448626041412354 0.47200271487236023 0.46466535329818726
0.80858892202377319 0.46798044443130493 0.48315748572349548
0.89683502912521362 0.5442008376121521 0.50735974311828613
0.95914727449417114 0.6405482292175293 0.53262090682983398
0.14246988296508789 0.43475577235221863 0.43743512034416199
0.30569595098495483 0.43976816534996033 0.44573044776916504
0.56187266111373901 0.4835493266582489 0.46566519141197205
0.71143567562103271 0.55949574708938599 0.47880133986473083
0.80901670455932617 0.57464396953582764 0.49578559398651123
0.88772642612457275 0.63331794738769531 0.51938092708587646
0.94616442918777466 0.70483195781707764 0.55231529474258423
0.27912884950637817 0.55677610635757446 0.43085664510726929
0.38294738531112671 0.56316614151000977 0.43676894903182983
0.556263267993927 0.58841502666473389 0.46014845371246338
0.71114683151245117 0.62743532657623291 0.48362335562705994
0.80521696805953979 0.66079318523406982 0.49997517466545105
0.87724965810775757 0.70231026411056519 0.52049607038497925
0.93364280462265015 0.73838835954666138 0.54375344514846802
0.42175477743148804 0.65763503313064575 0.43339705467224121
0.47950834035873413 0.66160792112350464 0.4397655725479126
0.60008752346038818 0.68253856897354126 0.46268782019615173
0.69162261486053467 0.70378458499908447 0.48144140839576721
0.78679966926574707 0.73649513721466064 0.50340563058853149
0.86645174026489258 0.75515902042388916 0.51686173677444458
0.9307369589805603 0.76775658130645752 0.52691185474395752
0.55396980047225952 0.75383782386779785 0.46974226832389832
0.58006304502487183 0.75475865602493286 0.46882903575897217
0.63038069009780884 0.76477253437042236 0.47740939259529114
0.68914413452148438 0.7800019383430481 0.48966994881629944
0.76461541652679443 0.79793977737426758 0.51411217451095581
0.84564882516860962 0.82567179203033447 0.54013776779174805
0.90322774648666382 0.84158569574356079 0.55674654245376587
0.65402227640151978 0.86635071039199829 0.52558505535125732
0.65931135416030884 0.86695605516433716 0.52304863929748535
0.68123805522918701 0.86984723806381226 0.52588009834289551
0.72124391794204712 0.88018357753753662 0.54153174161911011
0.77619725465774536 0.88905376195907593 0.56565719842910767
0.83387851715087891 0.90517133474349976 0.59301894903182983
0.87910902500152588 0.92511427402496338 0.61991047859191895
0.38387474417686462 0.28256547451019287 0.55177581310272217
0.49344450235366821 0.31080901622772217 0.55198079347610474
0.66166877746582031 0.39841428399085999 0.5575559139251709
0.77254676818847656 0.54473966360092163 0.56239074468612671
0.82663983106613159 0.61618375778198242 0.56968158483505249
0.87743723392486572 0.60071253776550293 0.5744708776473999
0.94576483964920044 0.64189577102661133 0.59173554182052612
0.40587696433067322 0.36853793263435364 0.55774229764938354
0.51037859916687012 0.39259278774261475 0.55840319395065308
0.66998255252838135 0.46606218814849854 0.5609428882598877
0.77276152372360229 0.58669853210449219 0.56497013568878174
0.82635647058486938 0.65112072229385376 0.57618898153305054
0.87584775686264038 0.63704979419708252 0.58025944232940674
0.93956625461578369 0.66475486755371094 0.59488701820373535
0.38796505331993103 0.49902793765068054 0.54942524433135986
0.48817640542984009 0.50410294532775879 0.55029982328414917
0.64802515506744385 0.54378664493560791 0.55926764011383057
0.76989668607711792 0.63378137350082397 0.56955987215042114
0.82647860050201416 0.6937328577041626 0.58190512657165527
0.87084388732910156 0.67944812774658203 0.58504843711853027
0.9296758770942688 0.70062404870986938 0.59760200977325439
0.35817927122116089 0.5950162410736084 0.52589410543441772
0.4279206395149231 0.59683269262313843 0.52865123748779297
0.58165353536605835 0.61028075218200684 0.54340749979019165
0.74112659692764282 0.65952283143997192 0.56442016363143921
0.82247787714004517 0.72620505094528198 0.5854942798614502
0.87523418664932251 0.72454053163528442 0.59245759248733521
0.93238151073455811 0.75513231754302979 0.61070388555526733
0.45594111084938049 0.6779518723487854 0.51458418369293213
0.49795615673065186 0.67578661441802979 0.5138925313949585
0.59387499094009399 0.68480408191680908 0.52392113208770752
0.71315556764602661 0.71247243881225586 0.55131816864013672
0.80999696254730225 0.75603848695755005 0.58274120092391968
0.87690949440002441 0.77335888147354126 0.59353780746459961
0.92215859889984131 0.80713695287704468 0.61656498908996582
0.49430984258651733 0.74288976192474365 0.50683927536010742
0.53184264898300171 0.74456495046615601 0.50774884223937988
0.61587059497833252 0.75485563278198242 0.52192312479019165
0.71307986974716187 0.77752375602722168 0.55018943548202515
0.78599673509597778 0.80234253406524658 0.57260781526565552
0.85473990440368652 0.82999533414840698 0.59395861625671387
0.90868657827377319 0.85114961862564087 0.61042207479476929
0.62424111366271973 0.85827809572219849 0.55515259504318237
0.64597970247268677 0.86317062377929688 0.55676728487014771
0.67994850873947144 0.86683779954910278 0.5643848180770874
0.73133343458175659 0.88058000802993774 0.57745498418807983
0.78519922494888306 0.89158982038497925 0.59640789031982422
0.84158092737197876 0.91205745935440063 0.62876224517822266
0.88272708654403687 0.93169969320297241 0.6540224552154541
0.62819176912307739 0.44798910617828369 0.64907974004745483
0.6729356050491333 0.47264900803565979 0.64527618885040283
0.75546872615814209 0.54204219579696655 0.64372819662094116
0.81788986921310425 0.63531768321990967 0.64515763521194458
0.86234956979751587 0.72675883769989014 0.64867991209030151
0.89214253425598145 0.74857127666473389 0.65271985530853271
0.92619049549102783 0.72946476936340332 0.65201586484909058
0.62383157014846802 0.50902491807937622 0.64763402938842773
0.66784298419952393 0.52282428741455078 0.64471054077148438
0.74866968393325806 0.58075553178787231 0.64409863948822021
0.81586593389511108 0.65653532743453979 0.64639866352081299
0.8643912672996521 0.73846918344497681 0.65201163291931152
0.8918529748916626 0.75931727886199951 0.65392613410949707
0.91928058862686157 0.74222356081008911 0.65321487188339233
0.59785377979278564 0.57719665765762329 0.63852781057357788
0.6420714259147644 0.58258056640625 0.63938969373703003
0.73084139823913574 0.62198090553283691 0.64022111892700195
0.8072933554649353 0.68703454732894897 0.64555734395980835
0.86065828800201416 0.75823205709457397 0.65382272005081177
0.88878613710403442 0.78181129693984985 0.65792733430862427
0.91925442218780518 0.7674289345741272 0.6591489315032959
0.49191221594810486 0.64333373308181763 0.61619037389755249
0.5590139627456665 0.64472830295562744 0.61892426013946533
0.67718863487243652 0.65941518545150757 0.62768161296844482
0.77751868963241577 0.70427030324935913 0.63983023166656494
0.85379928350448608 0.77041405439376831 0.65489429235458374
0.88817620277404785 0.80632549524307251 0.66371965408325195
0.91753625869750977 0.79548197984695435 0.66470110416412354
0.48464250564575195 0.70851892232894897 0.59617406129837036
0.52914506196975708 0.70927375555038452 0.59919756650924683
0.60960990190505981 0.71322453022003174 0.60592925548553467
0.71330004930496216 0.7302173376083374 0.62111902236938477
0.82613289356231689 0.7780119776725769 0.64749598503112793
0.88478177785873413 0.83322948217391968 0.66825377941131592
0.91227370500564575 0.83239781856536865 0.6734311580657959
0.53943818807601929 0.76620864868164062 0.58477157354354858
0.56445455551147461 0.76763665676116943 0.58712244033813477
0.62806439399719238 0.76993340253829956 0.59301799535751343
0.69748753309249878 0.78065484762191772 0.60492855310440063
0.78952372074127197 0.80693286657333374 0.63064885139465332
0.87062865495681763 0.85340094566345215 0.6639094352722168
0.90207576751708984 0.87965768575668335 0.68027472496032715
0.56343239545822144 0.85547524690628052 0.59229999780654907
0.58302479982376099 0.85888397693634033 0.59240555763244629
0.63661378622055054 0.86258423328399658 0.60150694847106934
0.69616842269897461 0.87020653486251831 0.60824525356292725
0.78254932165145874 0.88891935348510742 0.63339781761169434
0.84766620397567749 0.91430914402008057 0.66614991426467896
0.8943517804145813 0.94454902410507202 0.69353240728378296
0.76883381605148315 0.67065739631652832 0.7269408106803894
0.78248494863510132 0.6791803240776062 0.72406047582626343
0.81559789180755615 0.70734411478042603 0.72069543600082397
0.85414236783981323 0.74301278591156006 0.71713238954544067
0.88940906524658203 0.79237526655197144 0.71443295478820801
0.89815318584442139 0.84347814321517944 0.71064561605453491
0.90979588031768799 0.85161405801773071 0.71299821138381958
0.76616281270980835 0.68531864881515503 0.7264367938041687
0.78052175045013428 0.69387525320053101 0.72337204217910767
0.8133435845375061 0.71858513355255127 0.71879547834396362
0.8533099889755249 0.75577938556671143 0.71873843669891357
0.88823026418685913 0.80151534080505371 0.71543943881988525
0.89803922176361084 0.84692013263702393 0.71001958847045898
0.90687036514282227 0.85796952247619629 0.71333229541778564
0.75210016965866089 0.70783811807632446 0.72408854961395264
0.76735043525695801 0.71342307329177856 0.72211885452270508
0.80523467063903809 0.73648178577423096 0.72001558542251587
0.84798920154571533 0.76759040355682373 0.71774071455001831
0.88447016477584839 0.81259554624557495 0.71611708402633667
0.89498734474182129 0.86066097021102905 0.71441686153411865
0.903106689453125 0.87070536613464355 0.71509677171707153
0.71576547622680664 0.73185485601425171 0.71754956245422363
0.72575080394744873 0.72942250967025757 0.71547454595565796
0.76991230249404907 0.74115395545959473 0.71567505598068237
0.82818025350570679 0.77226018905639648 0.71582180261611938
0.87761199474334717 0.82131803035736084 0.71556001901626587
0.89245545864105225 0.87035655975341797 0.7174447774887085
0.89736336469650269 0.88607335090637207 0.71713781356811523
0.62354296445846558 0.76912105083465576 0.71134442090988159
0.6426817774772644 0.76671832799911499 0.70929217338562012
0.69997680187225342 0.76718473434448242 0.70905357599258423
0.77603232860565186 0.78046208620071411 0.71159821748733521
0.8573157787322998 0.82402586936950684 0.71642941236495972
0.88737720251083374 0.88148635625839233 0.72421300411224365
0.89938580989837646 0.90482300519943237 0.72858542203903198
0.63593608140945435 0.82297086715698242 0.70511794090270996
0.64256829023361206 0.82005804777145386 0.69995725154876709
0.6774107813835144 0.82128286361694336 0.70374494791030884
0.7267918586730957 0.82243698835372925 0.7078518271446228
0.80397462844848633 0.83658027648925781 0.71274667978286743
0.8676263689994812 0.87554097175598145 0.71478843688964844
0.90072846412658691 0.92419147491455078 0.7416265606880188
0.6493033766746521 0.90323317050933838 0.70330661535263062
0.65598911046981812 0.90505886077880859 0.70410436391830444
0.68552517890930176 0.90691500902175903 0.70834815502166748
0.72595047950744629 0.91087031364440918 0.71248072385787964
0.78010427951812744 0.91286134719848633 0.71019786596298218
0.83666735887527466 0.9293866753578186 0.72514772415161133
0.91679573059082031 0.96088677644729614 0.76975768804550171
