films/polaroid_690.cube
# Created by: G'MIC (https://gmic.eu)
TITLE "polaroid_690"
# LUT size
LUT_3D_SIZE 7
# Data domain
DOMAIN_MIN 0.0 0.0 0.0
DOMAIN_MAX 1.0 1.0 1.0
# LUT data points
0.045357916504144669 0.056423500180244446 0.051745619624853134
0.10835711658000946 0.053705222904682159 0.055083960294723511
0.25669950246810913 0.014395096339285374 0.054779410362243652
0.4684620201587677 0.00010501637007109821 0.048383839428424835
0.69388240575790405 0 0.032021079212427139
0.88079512119293213 0 0.0086811892688274384
0.99577659368515015 0.00038933847099542618 0.0035730698145925999
0.041834317147731781 0.12590305507183075 0.052626427263021469
0.13275431096553802 0.1308271735906601 0.049234412610530853
0.3214631974697113 0.12651912868022919 0.040160249918699265
0.56168216466903687 0.070433884859085083 0.026298463344573975
0.76460790634155273 0.0037429211661219597 0.011360512115061283
0.92247265577316284 0 0.0020324855577200651
0.99966627359390259 0.0029945224523544312 0.00015402401913888752
0.018256962299346924 0.29520735144615173 0.013219975866377354
0.13417087495326996 0.29510083794593811 0.0098224710673093796
0.35535511374473572 0.32958924770355225 0.0026864444371312857
0.62555134296417236 0.35669562220573425 0.0039320853538811207
0.83426600694656372 0.35180848836898804 9.7835763881448656e-05
0.963234543800354 0.30569171905517578 0
0.99999064207077026 0.2919687032699585 0
0.0024918948765844107 0.49646744132041931 0
0.094300031661987305 0.48900243639945984 0
0.32845580577850342 0.50773215293884277 0
0.58370131254196167 0.55028879642486572 0
0.80638235807418823 0.58667135238647461 0
0.95885664224624634 0.61364054679870605 0
0.9998658299446106 0.60263478755950928 0.0019275142112746835
0.011581001803278923 0.67433220148086548 0
0.080160088837146759 0.6704864501953125 7.5845156970899552e-05
0.33520740270614624 0.66614478826522827 0
0.55834966897964478 0.69374459981918335 0
0.76841241121292114 0.72089236974716187 0
0.92735004425048828 0.73611414432525635 0
0.99936515092849731 0.74514913558959961 0.0065222945995628834
0.24342259764671326 0.80647075176239014 0
0.30951353907585144 0.80598223209381104 0
0.45459499955177307 0.79620522260665894 0
0.61064183712005615 0.80609554052352905 0
0.77126449346542358 0.82526028156280518 0
0.90369194746017456 0.83976298570632935 0
0.99514609575271606 0.84854042530059814 0.0057862075045704842
0.52324843406677246 0.9407305121421814 0.19194474816322327
0.55258011817932129 0.93863463401794434 0.17668063938617706
0.61712878942489624 0.93524432182312012 0.12229675799608231
0.70794695615768433 0.93541985750198364 0.078922390937805176
0.80474597215652466 0.94460886716842651 0.093893177807331085
0.89549052715301514 0.95928961038589478 0.12945929169654846
0.98243683576583862 0.97102677822113037 0.15247084200382233
0.034389957785606384 0.058597102761268616 0.12275097519159317
0.11574804037809372 0.056251361966133118 0.13338117301464081
0.26587903499603271 0.024273352697491646 0.12837603688240051
0.4674588143825531 5.7175580877810717e-05 0.12492600828409195
0.67591136693954468 0 0.12125769257545471
0.864654541015625 4.4729196815751493e-05 0.090029634535312653
0.99415618181228638 0.0015425737947225571 0.064643234014511108
0.033549800515174866 0.13289310038089752 0.14268097281455994
0.14301173388957977 0.13926593959331512 0.14880223572254181
0.32449015974998474 0.11618874967098236 0.14590249955654144
0.54251402616500854 0.032626193016767502 0.13655716180801392
0.73907577991485596 0.00013598274381365627 0.11734367907047272
0.90597772598266602 0 0.091240674257278442
0.9984549880027771 0.0058797500096261501 0.067963637411594391
0.0025081709027290344 0.31839385628700256 0.15624867379665375
0.13907565176486969 0.31648033857345581 0.15106265246868134
0.37878981232643127 0.33981072902679443 0.13643091917037964
0.63371074199676514 0.35062211751937866 0.14160796999931335
0.82260710000991821 0.31616383790969849 0.12914004921913147
0.95471584796905518 0.27264142036437988 0.091720461845397949
1 0.24621486663818359 0.052592243999242783
0 0.52348142862319946 0.12066078931093216
0.070656180381774902 0.5133482813835144 0.11643093079328537
0.34166860580444336 0.52026593685150146 0.076327994465827942
0.59393352270126343 0.55848962068557739 0.060849674046039581
0.81107968091964722 0.59273755550384521 0.04915943369269371
0.95762687921524048 0.60900545120239258 0.1246478334069252
1 0.60144895315170288 0.15739509463310242
0.01156978216022253 0.6927223801612854 0.060281835496425629
0.082583270967006683 0.6836237907409668 0.063283763825893402
0.35125750303268433 0.67846435308456421 0.036398343741893768
0.56514841318130493 0.69517987966537476 0.030619362369179726
0.76994782686233521 0.7220035195350647 0.012271267361938953
0.9272809624671936 0.73658204078674316 0.043424986302852631
0.99976736307144165 0.74591338634490967 0.17835618555545807
0.25321575999259949 0.81478351354598999 0.076823979616165161
0.31809473037719727 0.80830395221710205 0.053279232233762741
0.46056690812110901 0.80213749408721924 0.058291058987379074
0.6106446385383606 0.80329358577728271 0.020146209746599197
0.76934218406677246 0.82240545749664307 0.023367937654256821
0.90365320444107056 0.83794689178466797 0.040855616331100464
0.99412757158279419 0.85066884756088257 0.12905950844287872
0.50732553005218506 0.94055306911468506 0.29319459199905396
0.54734557867050171 0.94132488965988159 0.28240573406219482
0.60904651880264282 0.93910056352615356 0.25392094254493713
0.69950705766677856 0.93633204698562622 0.19610829651355743
0.79697620868682861 0.94593870639801025 0.2242342084646225
0.89243221282958984 0.95921403169631958 0.23376138508319855
0.97853147983551025 0.96914851665496826 0.24378326535224915
6.3907398725859821e-05 0.060208924114704132 0.30974718928337097
0.065298236906528473 0.050057876855134964 0.34020140767097473
0.31971830129623413 0.010733719915151596 0.37431448698043823
0.51781290769577026 0.00016075583698693663 0.33411985635757446
0.68500936031341553 0.00010929481504717842 0.29475986957550049
0.84748208522796631 0.0031759673729538918 0.2750602662563324
0.9878419041633606 0.0029052584432065487 0.23339536786079407
0.0015773399500176311 0.1371365487575531 0.32645374536514282
0.10343198478221893 0.14483748376369476 0.35057458281517029
0.34923252463340759 0.1406317800283432 0.38034224510192871
0.54733395576477051 0.065857186913490295 0.35104012489318848
0.71308094263076782 0.00032279817969538271 0.30735814571380615
0.87728291749954224 0 0.27403095364570618
0.99658215045928955 0.00058536900905892253 0.2163713127374649
0.0068307616747915745 0.33057102560997009 0.37590259313583374
0.14993993937969208 0.34062498807907104 0.38577836751937866
0.39694920182228088 0.35736232995986938 0.40448424220085144
0.61522340774536133 0.32655569911003113 0.38030007481575012
0.77974259853363037 0.23717433214187622 0.33973062038421631
0.92390537261962891 0.1618441641330719 0.2907874584197998
0.99712270498275757 0.11942391842603683 0.24729613959789276
0.00018256691691931337 0.56081569194793701 0.39232003688812256
0.13082712888717651 0.56671595573425293 0.39501175284385681
0.3785557746887207 0.55763500928878784 0.37894216179847717
0.61437207460403442 0.58083337545394897 0.37262552976608276
0.81432497501373291 0.59525096416473389 0.38988795876502991
0.94463157653808594 0.59057867527008057 0.39576143026351929
0.99941724538803101 0.56215173006057739 0.3556293249130249
0.025732271373271942 0.72251313924789429 0.37543854117393494
0.12005021423101425 0.71420800685882568 0.35627219080924988
0.36887592077255249 0.69994616508483887 0.32817161083221436
0.56878572702407837 0.70297670364379883 0.31200584769248962
0.77449184656143188 0.72780692577362061 0.33102867007255554
0.9223177433013916 0.74197292327880859 0.37921908497810364
0.99808615446090698 0.7502562403678894 0.45937064290046692
0.26449757814407349 0.82862561941146851 0.36943987011909485
0.32320266962051392 0.82458269596099854 0.35427981615066528
0.45770600438117981 0.81561398506164551 0.33157438039779663
0.60116934776306152 0.81026774644851685 0.29422062635421753
0.76116973161697388 0.82285547256469727 0.30026102066040039
0.89746534824371338 0.83918207883834839 0.33409848809242249
0.99259823560714722 0.85161513090133667 0.39394751191139221
0.48607310652732849 0.94507086277008057 0.46443560719490051
0.52657938003540039 0.94510424137115479 0.45938271284103394
0.59167170524597168 0.94346213340759277 0.44328215718269348
0.68085050582885742 0.93960559368133545 0.39960625767707825
0.78154957294464111 0.94266307353973389 0.39481678605079651
0.88267499208450317 0.95779526233673096 0.42107513546943665
0.9707300066947937 0.97383403778076172 0.45278546214103699
0 0.059831835329532623 0.56217652559280396
0.019012944772839546 0.035908523947000504 0.58653640747070312
0.32455623149871826 0.011369877494871616 0.64637798070907593
0.61186313629150391 0.00036244111834093928 0.64293909072875977
0.76877826452255249 0 0.57714265584945679
0.88376414775848389 7.234461372718215e-05 0.51983428001403809
0.98965585231781006 0 0.48753032088279724
0 0.15592153370380402 0.57220077514648438
0.055819805711507797 0.15208899974822998 0.59480619430541992
0.36705219745635986 0.1496182382106781 0.65052944421768188
0.63166970014572144 0.10308004915714264 0.65697097778320312
0.77053290605545044 0.031938917934894562 0.5860406756401062
0.88819444179534912 0.017639728263020515 0.52692651748657227
0.99187958240509033 0.0014448876027017832 0.48114287853240967
0 0.32089820504188538 0.57994312047958374
0.085242100059986115 0.32866385579109192 0.58791190385818481
0.39639025926589966 0.35939675569534302 0.63317805528640747
0.64439105987548828 0.38569679856300354 0.65952414274215698
0.77459359169006348 0.32480278611183167 0.58698886632919312
0.89718055725097656 0.19101728498935699 0.51969283819198608
0.99373167753219604 0.0091441730037331581 0.45415589213371277
0.0035511839669197798 0.55862218141555786 0.6071012020111084
0.18349146842956543 0.56946182250976562 0.61893981695175171
0.41537976264953613 0.5782659649848938 0.62598663568496704
0.63041448593139648 0.60548806190490723 0.64622777700424194
0.78762590885162354 0.56989485025405884 0.6153368353843689
0.91216671466827393 0.48672541975975037 0.55246931314468384
0.99769169092178345 0.40070217847824097 0.47721663117408752
0.20293153822422028 0.74182033538818359 0.6286652684211731
0.31211772561073303 0.74357748031616211 0.62741124629974365
0.45553383231163025 0.7338634729385376 0.61439532041549683
0.60582804679870605 0.72906076908111572 0.59870076179504395
0.77549475431442261 0.74217420816421509 0.6115041971206665
0.90891987085342407 0.75079059600830078 0.64372766017913818
0.99350345134735107 0.74419397115707397 0.65123569965362549
0.33920124173164368 0.83968782424926758 0.61061835289001465
0.38825923204421997 0.8384583592414856 0.60416054725646973
0.48662331700325012 0.83318912982940674 0.59203469753265381
0.60611176490783691 0.82335644960403442 0.56076532602310181
0.74618697166442871 0.82302403450012207 0.54362636804580688
0.88235342502593994 0.84423589706420898 0.58341509103775024
0.98089396953582764 0.86158716678619385 0.62995040416717529
0.47814083099365234 0.94707202911376953 0.64180243015289307
0.51695835590362549 0.948619544506073 0.6402314305305481
0.58145463466644287 0.94561314582824707 0.62326288223266602
0.66396570205688477 0.94305264949798584 0.59191054105758667
0.75906550884246826 0.940257728099823 0.57266503572463989
0.86302894353866577 0.95366597175598145 0.58931899070739746
0.95960485935211182 0.97039061784744263 0.61758506298065186
0 0.052740268409252167 0.77545166015625
0.047034289687871933 0.017192091792821884 0.78807002305984497
0.34936577081680298 0.0033395655918866396 0.81564551591873169
0.64452028274536133 0.00048451143084093928 0.84084582328796387
0.83116161823272705 0.019338659942150116 0.82657992839813232
0.93628567457199097 0.0042077456600964069 0.78022855520248413
0.99803882837295532 0.014847579412162304 0.72371023893356323
2.3696002244832925e-05 0.17066219449043274 0.7812802791595459
0.10344257950782776 0.15846560895442963 0.79206305742263794
0.39103484153747559 0.15332747995853424 0.81196993589401245
0.66137439012527466 0.16498760879039764 0.84964734315872192
0.83606332540512085 0.17210765182971954 0.83814817667007446
0.93049949407577515 0.12174975872039795 0.78388965129852295
0.99632900953292847 0.10417681187391281 0.72537016868591309
2.7525658879312687e-05 0.32398760318756104 0.76358067989349365
0.099391177296638489 0.33067166805267334 0.77197724580764771
0.4073537290096283 0.35709446668624878 0.79496073722839355
0.65048772096633911 0.41036099195480347 0.83013641834259033
0.82349509000778198 0.44906222820281982 0.83619678020477295
0.91367578506469727 0.40509557723999023 0.77719599008560181
0.99521899223327637 0.30403894186019897 0.72057968378067017
0 0.5181993842124939 0.7458951473236084
0.10250987857580185 0.52522999048233032 0.74901467561721802
0.37567588686943054 0.54132622480392456 0.76197296380996704
0.61646151542663574 0.59829938411712646 0.80022943019866943
0.79160314798355103 0.64314770698547363 0.82133489847183228
0.88616949319839478 0.56661832332611084 0.75886166095733643
0.98762917518615723 0.44698283076286316 0.68729043006896973
0.20235162973403931 0.73283767700195312 0.78049099445343018
0.32957261800765991 0.73224246501922607 0.78022563457489014
0.47796651721000671 0.73021429777145386 0.78498643636703491
0.64129126071929932 0.73936671018600464 0.79918819665908813
0.78203189373016357 0.75581353902816772 0.81274652481079102
0.88502264022827148 0.7269890308380127 0.78407716751098633
0.98548680543899536 0.65660226345062256 0.72044938802719116
0.49883189797401428 0.84727734327316284 0.80082762241363525
0.51113319396972656 0.84518831968307495 0.7979399561882019
0.58735412359237671 0.84713256359100342 0.80044978857040405
0.67444419860839844 0.84403789043426514 0.79494565725326538
0.75475585460662842 0.83470630645751953 0.76794981956481934
0.86953192949295044 0.85067504644393921 0.77963447570800781
0.96386057138442993 0.86374634504318237 0.80703198909759521
0.56172633171081543 0.95209437608718872 0.80764120817184448
0.58125877380371094 0.95398980379104614 0.80661630630493164
0.61828774213790894 0.95243847370147705 0.79957979917526245
0.67780917882919312 0.94935703277587891 0.78608220815658569
0.74619364738464355 0.94984132051467896 0.76030784845352173
0.84014111757278442 0.95477485656738281 0.75007593631744385
0.93910151720046997 0.97796225547790527 0.78500097990036011
0.076532565057277679 0.078438781201839447 0.92531120777130127
0.20906427502632141 0.066212370991706848 0.92514562606811523
0.45566430687904358 0.053331218659877777 0.93249130249023438
0.67001223564147949 0.047443930059671402 0.94561880826950073
0.84336382150650024 0.15954612195491791 0.95437270402908325
0.95916914939880371 0.23571528494358063 0.94848453998565674
1 0.24994055926799774 0.9025760293006897
0.12380824238061905 0.1999845951795578 0.92177808284759521
0.26732835173606873 0.19531765580177307 0.9245871901512146
0.47591572999954224 0.19949723780155182 0.92742586135864258
0.67387628555297852 0.2266656905412674 0.94175511598587036
0.84114176034927368 0.33076420426368713 0.95253199338912964
0.95051920413970947 0.38319027423858643 0.94447869062423706
0.99966061115264893 0.35401272773742676 0.91145795583724976
0.11161737143993378 0.35599040985107422 0.90847766399383545
0.2735801637172699 0.36407789587974548 0.91139835119247437
0.479869544506073 0.38377410173416138 0.91650980710983276
0.66742348670959473 0.43158811330795288 0.92745190858840942
0.82182615995407104 0.52359127998352051 0.94206750392913818
0.92564982175827026 0.55423992872238159 0.9378654956817627
0.99168676137924194 0.50991964340209961 0.90470755100250244
0.025210317224264145 0.51528215408325195 0.88092470169067383
0.17468258738517761 0.5206562876701355 0.88278257846832275
0.41312447190284729 0.54474592208862305 0.88856786489486694
0.62956219911575317 0.59436511993408203 0.90490961074829102
0.79929375648498535 0.6677863597869873 0.93033772706985474
0.9025922417640686 0.68795251846313477 0.9318116307258606
0.97503757476806641 0.63821971416473389 0.89807736873626709
0.098754629492759705 0.70192515850067139 0.87858730554580688
0.22884088754653931 0.69976198673248291 0.87601351737976074
0.409014493227005 0.69885605573654175 0.87819743156433105
0.58471906185150146 0.70725876092910767 0.88379573822021484
0.77049708366394043 0.7483285665512085 0.91001409292221069
0.88516128063201904 0.77888005971908569 0.91830754280090332
0.95703768730163574 0.72867345809936523 0.88577765226364136
0.49211212992668152 0.83906185626983643 0.89856648445129395
0.52217411994934082 0.83865904808044434 0.89854598045349121
0.58295249938964844 0.83754813671112061 0.90178829431533813
0.67805665731430054 0.83846855163574219 0.90293341875076294
0.78020691871643066 0.84809380769729614 0.90569472312927246
0.87052905559539795 0.86735057830810547 0.91328495740890503
0.95228052139282227 0.83997732400894165 0.89690035581588745
0.65428262948989868 0.95604598522186279 0.91319006681442261
0.66747188568115234 0.95697122812271118 0.91342920064926147
0.69842064380645752 0.95724982023239136 0.91412270069122314
0.74107462167739868 0.95961028337478638 0.9116789698600769
0.78335130214691162 0.96372729539871216 0.90638512372970581
0.84843116998672485 0.96628499031066895 0.89175575971603394
0.9311029314994812 0.97939777374267578 0.90188115835189819
0.46275293827056885 0.25020533800125122 0.99742668867111206
0.50466054677963257 0.25069090723991394 0.99762487411499023
0.61325943470001221 0.26133614778518677 0.99749851226806641
0.73500585556030273 0.30230683088302612 0.99774682521820068
0.84891331195831299 0.37618875503540039 0.99908483028411865
0.93806463479995728 0.5009264349937439 0.99971276521682739
0.99664998054504395 0.5484306812286377 0.99523866176605225
0.48663461208343506 0.34619396924972534 0.99692738056182861
0.53099435567855835 0.3439432680606842 0.99827265739440918
0.62225764989852905 0.35543757677078247 0.99750357866287231
0.73601925373077393 0.39803281426429749 0.99747443199157715
0.84236627817153931 0.46996742486953735 0.9977184534072876
0.92756569385528564 0.57064300775527954 0.99782967567443848
0.99402350187301636 0.59146326780319214 0.99664241075515747
0.49156254529953003 0.47852250933647156 0.99554276466369629
0.54036432504653931 0.49324089288711548 0.99399316310882568
0.62124520540237427 0.49791699647903442 0.99397337436676025
0.72967571020126343 0.53645902872085571 0.99384284019470215
0.83085340261459351 0.59688246250152588 0.99542886018753052
0.91401267051696777 0.65922296047210693 0.99612903594970703
0.98685872554779053 0.66658562421798706 0.99383836984634399
0.44903451204299927 0.61712175607681274 0.98829811811447144
0.48675346374511719 0.61571687459945679 0.98818027973175049
0.59574365615844727 0.63496744632720947 0.98619300127029419
0.70988047122955322 0.65552657842636108 0.98724180459976196
0.81915181875228882 0.69791460037231445 0.99119502305984497
0.90563696622848511 0.74165242910385132 0.99344003200531006
0.97599142789840698 0.74483054876327515 0.98994821310043335
0.37274983525276184 0.72685980796813965 0.97696608304977417
0.43766677379608154 0.72650939226150513 0.9771912693977356
0.53536158800125122 0.72765868902206421 0.97719967365264893
0.67298811674118042 0.73779475688934326 0.97938793897628784
0.79853296279907227 0.76283043622970581 0.98293745517730713
0.89597165584564209 0.80715835094451904 0.98741620779037476
0.96471500396728516 0.8218083381652832 0.98878371715545654
0.55637526512145996 0.84658628702163696 0.97279411554336548
0.57253026962280273 0.84273368120193481 0.97294580936431885
0.61203068494796753 0.84120982885360718 0.9728081226348877
0.683574378490448 0.83879572153091431 0.97278910875320435
0.76823872327804565 0.83907026052474976 0.97276550531387329
0.86906850337982178 0.86929214000701904 0.97770208120346069
0.9500201940536499 0.90353298187255859 0.98262667655944824
0.67902570962905884 0.96446716785430908 0.97566860914230347
0.69137126207351685 0.96270287036895752 0.97753500938415527
0.71713995933532715 0.96757888793945312 0.97598499059677124
0.76373887062072754 0.96693474054336548 0.97823303937911987
0.80686616897583008 0.97182047367095947 0.97619378566741943
0.86364471912384033 0.97413593530654907 0.97614789009094238
0.93794572353363037 0.98948705196380615 0.98182410001754761
