films/polaroid_669.cube
# Created by: G'MIC (https://gmic.eu)
TITLE "polaroid_669"
# LUT size
LUT_3D_SIZE 7
# Data domain
DOMAIN_MIN 0.0 0.0 0.0
DOMAIN_MAX 1.0 1.0 1.0
# LUT data points
0.02591247484087944 0.15484641492366791 0.11905793100595474
0.10876822471618652 0.15481078624725342 0.12000047415494919
0.23152169585227966 0.16257824003696442 0.12923488020896912
0.40814357995986938 0.16502761840820312 0.13905413448810577
0.59593135118484497 0.150328129529953 0.15341164171695709
0.76465427875518799 0.15408086776733398 0.16677550971508026
0.91182494163513184 0.19210883975028992 0.19240228831768036
0.021019401028752327 0.20371602475643158 0.13065198063850403
0.12131301313638687 0.20706069469451904 0.12907734513282776
0.27175745368003845 0.21528810262680054 0.13924591243267059
0.45456382632255554 0.21979370713233948 0.15247860550880432
0.63098794221878052 0.22035546600818634 0.16283091902732849
0.78788644075393677 0.22037622332572937 0.17572766542434692
0.92718219757080078 0.26135894656181335 0.20329411327838898
0.049551315605640411 0.30567482113838196 0.1491444855928421
0.14004218578338623 0.29923185706138611 0.14802101254463196
0.28769323229789734 0.31088358163833618 0.14413918554782867
0.47632315754890442 0.32405310869216919 0.15203306078910828
0.66300827264785767 0.3402935266494751 0.17710642516613007
0.81490647792816162 0.35305574536323547 0.19866140186786652
0.94405299425125122 0.3832184374332428 0.22543440759181976
0.089580997824668884 0.41544577479362488 0.16379337012767792
0.16387893259525299 0.4057350754737854 0.1601090133190155
0.28039270639419556 0.40889698266983032 0.14980664849281311
0.43678686022758484 0.42199280858039856 0.13758143782615662
0.61517977714538574 0.43648993968963623 0.14182671904563904
0.80339854955673218 0.49270761013031006 0.19628132879734039
0.95778095722198486 0.55081582069396973 0.26889440417289734
0.11016170680522919 0.5312609076499939 0.16358108818531036
0.1748652309179306 0.5215180516242981 0.16173231601715088
0.27368339896202087 0.51372635364532471 0.15267010033130646
0.41172802448272705 0.52866494655609131 0.13805639743804932
0.57355815172195435 0.55153107643127441 0.1058521494269371
0.73877662420272827 0.58468687534332275 0.093072064220905304
0.92486238479614258 0.66946154832839966 0.2052558958530426
0.12166429311037064 0.7065538763999939 0.14939343929290771
0.19284139573574066 0.70434713363647461 0.15112306177616119
0.28668469190597534 0.6845126748085022 0.14204899966716766
0.41572943329811096 0.69070976972579956 0.11689367890357971
0.57302200794219971 0.72188997268676758 0.077089853584766388
0.72963154315948486 0.74880069494247437 0.0016051348065957427
0.89784586429595947 0.79420691728591919 0.029352106153964996
0.25659221410751343 0.91381078958511353 0.23536595702171326
0.34721651673316956 0.93878716230392456 0.26626196503639221
0.40439131855964661 0.92970037460327148 0.23704183101654053
0.52940642833709717 0.9355313777923584 0.25626093149185181
0.67077189683914185 0.94957226514816284 0.25940197706222534
0.81652569770812988 0.96037822961807251 0.25025463104248047
0.95406639575958252 0.97379106283187866 0.26085945963859558
0.0065929340198636055 0.16299340128898621 0.17093990743160248
0.10099541395902634 0.16725243628025055 0.18067705631256104
0.24252571165561676 0.17561966180801392 0.19544099271297455
0.43074670433998108 0.16707390546798706 0.21011875569820404
0.61211365461349487 0.1527022123336792 0.22231021523475647
0.77268880605697632 0.14104604721069336 0.22217521071434021
0.92854076623916626 0.1668030321598053 0.24440978467464447
0.011596754193305969 0.22261442244052887 0.19722893834114075
0.12880304455757141 0.2197115570306778 0.20425803959369659
0.28463253378868103 0.22586928308010101 0.21299043297767639
0.47040998935699463 0.22324655950069427 0.22270059585571289
0.63889580965042114 0.21916210651397705 0.22862702608108521
0.78966373205184937 0.21939836442470551 0.2372121661901474
0.93539601564407349 0.25131475925445557 0.26083630323410034
0.044930987060070038 0.33478578925132751 0.22206652164459229
0.16276761889457703 0.32645207643508911 0.22313044965267181
0.31556117534637451 0.32925373315811157 0.2181113213300705
0.49798199534416199 0.33835825324058533 0.23310214281082153
0.67223328351974487 0.34934630990028381 0.25212869048118591
0.81569522619247437 0.35629120469093323 0.26384347677230835
0.94964897632598877 0.38498464226722717 0.28845465183258057
0.10856921970844269 0.4504472017288208 0.23189586400985718
0.19242025911808014 0.43488776683807373 0.23064722120761871
0.29937788844108582 0.42587167024612427 0.21851810812950134
0.45507901906967163 0.43557265400886536 0.20334473252296448
0.63723242282867432 0.45895817875862122 0.21980841457843781
0.81705844402313232 0.51381474733352661 0.28179675340652466
0.95893365144729614 0.55778747797012329 0.33571326732635498
0.13466288149356842 0.56431621313095093 0.22485220432281494
0.1934826672077179 0.55022317171096802 0.21987365186214447
0.28708678483963013 0.53463447093963623 0.21311606466770172
0.42122083902359009 0.54184234142303467 0.1973971426486969
0.58505499362945557 0.56733733415603638 0.17634956538677216
0.75476443767547607 0.60066181421279907 0.18111962080001831
0.93183690309524536 0.68470275402069092 0.29493445158004761
0.1262056827545166 0.73124700784683228 0.21334199607372284
0.19284652173519135 0.72055846452713013 0.2069123387336731
0.2885625958442688 0.70168596506118774 0.19593201577663422
0.41680854558944702 0.69915306568145752 0.1785612553358078
0.57493561506271362 0.73030316829681396 0.15516600012779236
0.7371940016746521 0.76083600521087646 0.099958129227161407
0.89992797374725342 0.79400187730789185 0.077003017067909241
0.27612718939781189 0.93957597017288208 0.30627548694610596
0.33416643738746643 0.9449346661567688 0.30303952097892761
0.40529957413673401 0.93679976463317871 0.29474925994873047
0.52506041526794434 0.9387698769569397 0.29569205641746521
0.65773576498031616 0.94802772998809814 0.28302845358848572
0.80769401788711548 0.96329754590988159 0.28917774558067322
0.95345735549926758 0.973408043384552 0.3225080668926239
0 0.18916024267673492 0.30407258868217468
0.066870309412479401 0.18703679740428925 0.30985695123672485
0.27258959412574768 0.19740155339241028 0.3342474102973938
0.47029423713684082 0.20629078149795532 0.36409857869148254
0.65261352062225342 0.19785067439079285 0.37669870257377625
0.79939419031143188 0.15381881594657898 0.35567238926887512
0.94184070825576782 0.14334429800510406 0.35317292809486389
0.00034107881947420537 0.25673314929008484 0.32338365912437439
0.097875498235225677 0.24959070980548859 0.34015181660652161
0.31742683053016663 0.26313623785972595 0.36948800086975098
0.49865314364433289 0.26838618516921997 0.38482606410980225
0.66089761257171631 0.24956117570400238 0.37807801365852356
0.80503678321838379 0.23228247463703156 0.3669343888759613
0.94137346744537354 0.2253425270318985 0.36093428730964661
0.0073709376156330109 0.37288615107536316 0.36956650018692017
0.16910502314567566 0.37716212868690491 0.38155168294906616
0.36097449064254761 0.37285915017127991 0.39342579245567322
0.52618813514709473 0.36894086003303528 0.39587011933326721
0.67926520109176636 0.3604482114315033 0.39037933945655823
0.81542980670928955 0.35162347555160522 0.3787611722946167
0.94960677623748779 0.38150539994239807 0.39320775866508484
0.04923311248421669 0.51291382312774658 0.37378239631652832
0.20531460642814636 0.50824308395385742 0.37911307811737061
0.34902870655059814 0.48351284861564636 0.37762761116027832
0.50117284059524536 0.48215606808662415 0.36287775635719299
0.67272770404815674 0.5026131272315979 0.38530728220939636
0.82866626977920532 0.53848278522491455 0.42698562145233154
0.95448654890060425 0.56092303991317749 0.44262444972991943
0.11010583490133286 0.62514805793762207 0.35777240991592407
0.2072412520647049 0.61576110124588013 0.35592877864837646
0.32876130938529968 0.59127360582351685 0.35046151280403137
0.44716301560401917 0.57708865404129028 0.32837328314781189
0.61135071516036987 0.60141819715499878 0.31586244702339172
0.78021645545959473 0.63303208351135254 0.3329196572303772
0.93550205230712891 0.70186769962310791 0.42303648591041565
0.10215968638658524 0.77075040340423584 0.34114211797714233
0.18246877193450928 0.758869469165802 0.33150860667228699
0.30384224653244019 0.74289971590042114 0.32024973630905151
0.41571033000946045 0.72317695617675781 0.29413381218910217
0.57699364423751831 0.7420041561126709 0.28438487648963928
0.74292075634002686 0.77052056789398193 0.24570198357105255
0.90624642372131348 0.80356734991073608 0.25715619325637817
0.25927877426147461 0.95152384042739868 0.40192779898643494
0.30335548520088196 0.95129358768463135 0.39718317985534668
0.40396398305892944 0.95025688409805298 0.39745438098907471
0.49779093265533447 0.94022548198699951 0.37323841452598572
0.6537553071975708 0.95111304521560669 0.38882774114608765
0.80486947298049927 0.96636497974395752 0.38504707813262939
0.94863444566726685 0.97464609146118164 0.3975677490234375
0 0.23687663674354553 0.50398874282836914
0.0067427540197968483 0.22386370599269867 0.51245379447937012
0.27281835675239563 0.2393384575843811 0.5408739447593689
0.52706789970397949 0.25758081674575806 0.57198703289031982
0.68217223882675171 0.27527275681495667 0.58011353015899658
0.83574700355529785 0.31980904936790466 0.59560525417327881
0.95716208219528198 0.31724858283996582 0.57816487550735474
0 0.31042352318763733 0.51415801048278809
0.033064465969800949 0.29674845933914185 0.53461819887161255
0.31459540128707886 0.30266097187995911 0.56600892543792725
0.54137575626373291 0.32189929485321045 0.58792942762374878
0.69773703813552856 0.35336065292358398 0.60371989011764526
0.83528798818588257 0.37204819917678833 0.59910410642623901
0.95909076929092407 0.35342690348625183 0.58127135038375854
0.0019894170109182596 0.42168420553207397 0.53110551834106445
0.14150752127170563 0.42656707763671875 0.54736340045928955
0.35079365968704224 0.41739729046821594 0.57595878839492798
0.55728930234909058 0.4444090723991394 0.6076933741569519
0.69588303565979004 0.45672288537025452 0.61019414663314819
0.82353752851486206 0.43750032782554626 0.5817263126373291
0.95180171728134155 0.4123726487159729 0.55548501014709473
0.011162267997860909 0.55808955430984497 0.56376504898071289
0.16143715381622314 0.55688726902008057 0.56730139255523682
0.3748687207698822 0.55885684490203857 0.57966715097427368
0.54524916410446167 0.55954813957214355 0.59728872776031494
0.69094514846801758 0.55873054265975952 0.59360039234161377
0.82214492559432983 0.54863160848617554 0.57964539527893066
0.94722473621368408 0.54396206140518188 0.56049627065658569
0.025123970583081245 0.70215660333633423 0.54644221067428589
0.19413752853870392 0.6969415545463562 0.54877388477325439
0.36438319087028503 0.68666929006576538 0.55480140447616577
0.49481585621833801 0.66576534509658813 0.54297292232513428
0.64435040950775146 0.66183918714523315 0.5258668065071106
0.80263471603393555 0.68672698736190796 0.5475572943687439
0.93559646606445312 0.74124681949615479 0.61952906847000122
0.01954498328268528 0.82837998867034912 0.52132046222686768
0.12618201971054077 0.82540953159332275 0.51512807607650757
0.31420192122459412 0.81017959117889404 0.51281964778900146
0.43975552916526794 0.78414452075958252 0.48588129878044128
0.57555532455444336 0.77235907316207886 0.45053693652153015
0.75428903102874756 0.79346334934234619 0.43118706345558167
0.91734534502029419 0.82912749052047729 0.4648514986038208
0.28290915489196777 0.97149264812469482 0.57550597190856934
0.29719433188438416 0.96862292289733887 0.56047743558883667
0.38210192322731018 0.96290093660354614 0.54010993242263794
0.48339426517486572 0.95337975025177002 0.51256847381591797
0.6226922869682312 0.95483505725860596 0.49721065163612366
0.7984689474105835 0.96832948923110962 0.52109277248382568
0.94616174697875977 0.97569942474365234 0.54086786508560181
0 0.30405962467193604 0.71564531326293945
7.7789909482817166e-06 0.28235065937042236 0.72516334056854248
0.20202304422855377 0.29483151435852051 0.74008899927139282
0.53631186485290527 0.33448073267936707 0.76721870899200439
0.72754037380218506 0.37652093172073364 0.77565562725067139
0.8424866795539856 0.41671589016914368 0.77946209907531738
0.94922173023223877 0.53701865673065186 0.79465961456298828
0 0.38030597567558289 0.721832275390625
0.00023486567079089582 0.35865363478660583 0.73458778858184814
0.25164622068405151 0.3558708131313324 0.74726355075836182
0.55377346277236938 0.40006914734840393 0.77568143606185913
0.73014086484909058 0.44565603137016296 0.78425067663192749
0.83882433176040649 0.47849798202514648 0.78376257419586182
0.94453418254852295 0.58194613456726074 0.799949049949646
0.00031632068566977978 0.49850839376449585 0.71751737594604492
0.13115696609020233 0.49134466052055359 0.72809314727783203
0.33226114511489868 0.47335225343704224 0.7450374960899353
0.55635738372802734 0.50917887687683105 0.77782255411148071
0.72474575042724609 0.56007808446884155 0.78692382574081421
0.83252018690109253 0.59365791082382202 0.796622633934021
0.93663471937179565 0.63619238138198853 0.79453897476196289
9.3347889560391195e-06 0.6075173020362854 0.71379399299621582
0.07657286524772644 0.60579204559326172 0.71148836612701416
0.34349066019058228 0.60606443881988525 0.71955090761184692
0.54012197256088257 0.61585009098052979 0.75610476732254028
0.71186661720275879 0.67242544889450073 0.78867858648300171
0.8200688362121582 0.68560051918029785 0.78861516714096069
0.92931109666824341 0.67818444967269897 0.7648392915725708
0.062741465866565704 0.74471163749694824 0.73048269748687744
0.18300732970237732 0.74887204170227051 0.7348557710647583
0.37067419290542603 0.74249953031539917 0.73546648025512695
0.52751410007476807 0.75166100263595581 0.75094372034072876
0.68733066320419312 0.76079130172729492 0.7706335186958313
0.81345605850219727 0.75805795192718506 0.7680315375328064
0.92921853065490723 0.7453569769859314 0.7557373046875
0.1583499014377594 0.87695950269699097 0.71995973587036133
0.25304451584815979 0.88161510229110718 0.72468048334121704
0.37748953700065613 0.87778580188751221 0.72693550586700439
0.50725948810577393 0.86735469102859497 0.72562909126281738
0.61991792917251587 0.8376387357711792 0.69877803325653076
0.76778584718704224 0.83406442403793335 0.6760219931602478
0.91662204265594482 0.87268036603927612 0.72198742628097534
0.29798099398612976 0.98719990253448486 0.73010551929473877
0.35780012607574463 0.9861263632774353 0.73136568069458008
0.42228609323501587 0.98341763019561768 0.72292107343673706
0.53701376914978027 0.97801530361175537 0.72118902206420898
0.6289946436882019 0.96658766269683838 0.68181926012039185
0.77298188209533691 0.96737939119338989 0.67659711837768555
0.9316832423210144 0.97262239456176758 0.66631275415420532
1.0112687959917821e-05 0.39994850754737854 0.87760406732559204
0.017285784706473351 0.39064982533454895 0.87835294008255005
0.21642859280109406 0.39406681060791016 0.88205403089523315
0.53100943565368652 0.43959438800811768 0.89224672317504883
0.74428343772888184 0.53301465511322021 0.89854675531387329
0.86485809087753296 0.58832919597625732 0.8944394588470459
0.94606274366378784 0.62020176649093628 0.88866841793060303
0.0090637058019638062 0.47386521100997925 0.87688702344894409
0.02607511542737484 0.45783558487892151 0.87940007448196411
0.26698064804077148 0.44906830787658691 0.88306033611297607
0.55181246995925903 0.49756774306297302 0.88936698436737061
0.74702465534210205 0.58733779191970825 0.89854496717453003
0.86368685960769653 0.63287585973739624 0.89142990112304688
0.94147747755050659 0.6632695198059082 0.8936772346496582
0.091589130461215973 0.58938729763031006 0.86592566967010498
0.21950577199459076 0.5785754919052124 0.86882549524307251
0.36649161577224731 0.56228649616241455 0.87452512979507446
0.55879819393157959 0.58589434623718262 0.88434362411499023
0.74599498510360718 0.67054516077041626 0.89589226245880127
0.85471159219741821 0.70925462245941162 0.89055556058883667
0.93000966310501099 0.7306482195854187 0.89376533031463623
0.059324227273464203 0.68964791297912598 0.84583353996276855
0.17654837667942047 0.68597447872161865 0.84549546241760254
0.39383235573768616 0.68774640560150146 0.85664516687393188
0.55014979839324951 0.68742430210113525 0.8704063892364502
0.73110073804855347 0.74565023183822632 0.8880353569984436
0.84526592493057251 0.7901720404624939 0.89244252443313599
0.91678571701049805 0.80708986520767212 0.89562791585922241
0.015034529380500317 0.80189216136932373 0.84764236211776733
0.11045704036951065 0.79698801040649414 0.84526419639587402
0.31674721837043762 0.79713261127471924 0.84804719686508179
0.51293432712554932 0.79716414213180542 0.85482823848724365
0.6970590353012085 0.81336504220962524 0.87385374307632446
0.8392907977104187 0.86579930782318115 0.89084541797637939
0.91016030311584473 0.87756288051605225 0.89097326993942261
0.25899320840835571 0.91360288858413696 0.85701590776443481
0.33281835913658142 0.90798330307006836 0.85424482822418213
0.43300658464431763 0.90856301784515381 0.85767143964767456
0.56486016511917114 0.90798133611679077 0.86384779214859009
0.69205391407012939 0.90672904253005981 0.87155574560165405
0.82487964630126953 0.9163704514503479 0.88007980585098267
0.91396039724349976 0.91338145732879639 0.87834501266479492
0.51904511451721191 0.99340569972991943 0.86620014905929565
0.52139365673065186 0.99213266372680664 0.8622288703918457
0.58298242092132568 0.99114787578582764 0.86474299430847168
0.64996224641799927 0.99150276184082031 0.86468625068664551
0.72014856338500977 0.98798179626464844 0.86195510625839233
0.79342210292816162 0.97493082284927368 0.84092962741851807
0.9184335470199585 0.98015975952148438 0.84073841571807861
0.25232827663421631 0.58768177032470703 0.95450353622436523
0.33629855513572693 0.58672249317169189 0.95591026544570923
0.45746317505836487 0.58330643177032471 0.95639550685882568
0.62695920467376709 0.63513189554214478 0.95147931575775146
0.77047330141067505 0.6987839937210083 0.94914215803146362
0.87902843952178955 0.77828764915466309 0.94591915607452393
0.95936840772628784 0.79704660177230835 0.93996632099151611
0.35619774460792542 0.65103095769882202 0.95148414373397827
0.3950265645980835 0.63743573427200317 0.95112425088882446
0.49101641774177551 0.63260263204574585 0.95283526182174683
0.63535022735595703 0.67358779907226562 0.9483981728553772
0.77486467361450195 0.731708824634552 0.9461214542388916
0.87864750623703003 0.79859656095504761 0.94214218854904175
0.95164722204208374 0.82075804471969604 0.94129902124404907
0.43657064437866211 0.73795443773269653 0.9423488974571228
0.46591642498970032 0.73021364212036133 0.94245171546936035
0.52978336811065674 0.71864748001098633 0.94457393884658813
0.6404041051864624 0.73016452789306641 0.94485640525817871
0.77501457929611206 0.78003102540969849 0.94260871410369873
0.87459254264831543 0.83485740423202515 0.93773168325424194
0.93904447555541992 0.85708022117614746 0.93817728757858276
0.43809172511100769 0.82194030284881592 0.93254739046096802
0.47623127698898315 0.81819999217987061 0.9346693754196167
0.56492871046066284 0.81511378288269043 0.93505996465682983
0.64499616622924805 0.80536627769470215 0.93813431262969971
0.76733118295669556 0.83138895034790039 0.93804895877838135
0.8704410195350647 0.87853682041168213 0.93687784671783447
0.92870050668716431 0.89713484048843384 0.93601471185684204
0.35002666711807251 0.89490044116973877 0.92622357606887817
0.38651522994041443 0.89261674880981445 0.92509132623672485
0.47688150405883789 0.88509327173233032 0.92593234777450562
0.61560285091400146 0.88218128681182861 0.92875003814697266
0.75728988647460938 0.88700026273727417 0.9328005313873291
0.86489272117614746 0.91686618328094482 0.93362390995025635
0.92652487754821777 0.93800604343414307 0.93351906538009644
0.44664588570594788 0.96805238723754883 0.9257817268371582
0.46564528346061707 0.96568107604980469 0.92605483531951904
0.52512937784194946 0.95942789316177368 0.92626971006393433
0.62367182970046997 0.95203906297683716 0.925403892993927
0.73110741376876831 0.95004123449325562 0.92489731311798096
0.8541216254234314 0.95422935485839844 0.93387389183044434
0.93499565124511719 0.97397017478942871 0.93562287092208862
0.61795389652252197 1 0.93354052305221558
0.63393735885620117 0.99995046854019165 0.92957776784896851
0.68110209703445435 0.998787522315979 0.92875367403030396
0.73729985952377319 0.99726665019989014 0.92925941944122314
0.80669766664505005 0.99892807006835938 0.93254750967025757
0.87127852439880371 0.99745029211044312 0.93411147594451904
0.93900609016418457 0.99703413248062134 0.93583953380584717
