films/polaroid_665.cube
# Created by: G'MIC (https://gmic.eu)
TITLE "polaroid_665"
# LUT size
LUT_3D_SIZE 13
# Data domain
DOMAIN_MIN 0.0 0.0 0.0
DOMAIN_MAX 1.0 1.0 1.0
# LUT data points
0.058134865015745163 0.058134865015745163 0.058134865015745163
0.062114536762237549 0.062114536762237549 0.062114536762237549
0.074595384299755096 0.074595384299755096 0.074595384299755096
0.093787729740142822 0.093787729740142822 0.093787729740142822
0.11942184716463089 0.11942184716463089 0.11942184716463089
0.15032793581485748 0.15032793581485748 0.15032793581485748
0.18545584380626678 0.18545584380626678 0.18545584380626678
0.2239796370267868 0.2239796370267868 0.2239796370267868
0.26530700922012329 0.26530700922012329 0.26530700922012329
0.30953752994537354 0.30953752994537354 0.30953752994537354
0.3565981388092041 0.3565981388092041 0.3565981388092041
0.40663883090019226 0.40663883090019226 0.40663883090019226
0.4587458074092865 0.4587458074092865 0.4587458074092865
0.074075229465961456 0.074075229465961456 0.074075229465961456
0.074380360543727875 0.074380360543727875 0.074380360543727875
0.083326302468776703 0.083326302468776703 0.083326302468776703
0.10031751543283463 0.10031751543283463 0.10031751543283463
0.12525887787342072 0.12525887787342072 0.12525887787342072
0.15733733773231506 0.15733733773231506 0.15733733773231506
0.19368204474449158 0.19368204474449158 0.19368204474449158
0.23309162259101868 0.23309162259101868 0.23309162259101868
0.27547773718833923 0.27547773718833923 0.27547773718833923
0.32104736566543579 0.32104736566543579 0.32104736566543579
0.36957743763923645 0.36957743763923645 0.36957743763923645
0.42098143696784973 0.42098143696784973 0.42098143696784973
0.4743921160697937 0.4743921160697937 0.4743921160697937
0.10313142091035843 0.10313142091035843 0.10313142091035843
0.10029691457748413 0.10029691457748413 0.10029691457748413
0.10449033230543137 0.10449033230543137 0.10449033230543137
0.11646723747253418 0.11646723747253418 0.11646723747253418
0.14047469198703766 0.14047469198703766 0.14047469198703766
0.17256172001361847 0.17256172001361847 0.17256172001361847
0.20869706571102142 0.20869706571102142 0.20869706571102142
0.24838541448116302 0.24838541448116302 0.24838541448116302
0.29145136475563049 0.29145136475563049 0.29145136475563049
0.33841401338577271 0.33841401338577271 0.33841401338577271
0.388651043176651 0.388651043176651 0.388651043176651
0.44174313545227051 0.44174313545227051 0.44174313545227051
0.49641674757003784 0.49641674757003784 0.49641674757003784
0.14467594027519226 0.14467594027519226 0.14467594027519226
0.14085336029529572 0.14085336029529572 0.14085336029529572
0.14067798852920532 0.14067798852920532 0.14067798852920532
0.14750699698925018 0.14750699698925018 0.14750699698925018
0.16827067732810974 0.16827067732810974 0.16827067732810974
0.19759030640125275 0.19759030640125275 0.19759030640125275
0.23099276423454285 0.23099276423454285 0.23099276423454285
0.26895278692245483 0.26895278692245483 0.26895278692245483
0.31205931305885315 0.31205931305885315 0.31205931305885315
0.36061659455299377 0.36061659455299377 0.36061659455299377
0.41343379020690918 0.41343379020690918 0.41343379020690918
0.46900004148483276 0.46900004148483276 0.46900004148483276
0.52506041526794434 0.52506041526794434 0.52506041526794434
0.19680657982826233 0.19680657982826233 0.19680657982826233
0.19297744333744049 0.19297744333744049 0.19297744333744049
0.19067567586898804 0.19067567586898804 0.19067567586898804
0.19560912251472473 0.19560912251472473 0.19560912251472473
0.21044561266899109 0.21044561266899109 0.21044561266899109
0.23264960944652557 0.23264960944652557 0.23264960944652557
0.26029503345489502 0.26029503345489502 0.26029503345489502
0.29403823614120483 0.29403823614120483 0.29403823614120483
0.33582940697669983 0.33582940697669983 0.33582940697669983
0.38599488139152527 0.38599488139152527 0.38599488139152527
0.4421364963054657 0.4421364963054657 0.4421364963054657
0.50114858150482178 0.50114858150482178 0.50114858150482178
0.55946671962738037 0.55946671962738037 0.55946671962738037
0.24971729516983032 0.24971729516983032 0.24971729516983032
0.24818095564842224 0.24818095564842224 0.24818095564842224
0.24776817858219147 0.24776817858219147 0.24776817858219147
0.25168144702911377 0.25168144702911377 0.25168144702911377
0.26149728894233704 0.26149728894233704 0.26149728894233704
0.27621102333068848 0.27621102333068848 0.27621102333068848
0.29601362347602844 0.29601362347602844 0.29601362347602844
0.32283022999763489 0.32283022999763489 0.32283022999763489
0.3601841926574707 0.3601841926574707 0.3601841926574707
0.41041260957717896 0.41041260957717896 0.41041260957717896
0.47028273344039917 0.47028273344039917 0.47028273344039917
0.53479224443435669 0.53479224443435669 0.53479224443435669
0.59742718935012817 0.59742718935012817 0.59742718935012817
0.30456185340881348 0.30456185340881348 0.30456185340881348
0.30619248747825623 0.30619248747825623 0.30619248747825623
0.30941620469093323 0.30941620469093323 0.30941620469093323
0.31377840042114258 0.31377840042114258 0.31377840042114258
0.31990376114845276 0.31990376114845276 0.31990376114845276
0.32832235097885132 0.32832235097885132 0.32832235097885132
0.33930090069770813 0.33930090069770813 0.33930090069770813
0.35604560375213623 0.35604560375213623 0.35604560375213623
0.3839813768863678 0.3839813768863678 0.3839813768863678
0.43051663041114807 0.43051663041114807 0.43051663041114807
0.49352747201919556 0.49352747201919556 0.49352747201919556
0.56517809629440308 0.56517809629440308 0.56517809629440308
0.63375109434127808 0.63375109434127808 0.63375109434127808
0.36964219808578491 0.36964219808578491 0.36964219808578491
0.37378969788551331 0.37378969788551331 0.37378969788551331
0.37866947054862976 0.37866947054862976 0.37866947054862976
0.3830929696559906 0.3830929696559906 0.3830929696559906
0.38717234134674072 0.38717234134674072 0.38717234134674072
0.39085987210273743 0.39085987210273743 0.39085987210273743
0.39394497871398926 0.39394497871398926 0.39394497871398926
0.39901918172836304 0.39901918172836304 0.39901918172836304
0.41285508871078491 0.41285508871078491 0.41285508871078491
0.45174762606620789 0.45174762606620789 0.45174762606620789
0.51573640108108521 0.51573640108108521 0.51573640108108521
0.58827811479568481 0.58827811479568481 0.58827811479568481
0.65642940998077393 0.65642940998077393 0.65642940998077393
0.45381775498390198 0.45381775498390198 0.45381775498390198
0.45475864410400391 0.45475864410400391 0.45475864410400391
0.45754843950271606 0.45754843950271606 0.45754843950271606
0.46125602722167969 0.46125602722167969 0.46125602722167969
0.46476507186889648 0.46476507186889648 0.46476507186889648
0.46650665998458862 0.46650665998458862 0.46650665998458862
0.46542125940322876 0.46542125940322876 0.46542125940322876
0.46271783113479614 0.46271783113479614 0.46271783113479614
0.46527889370918274 0.46527889370918274 0.46527889370918274
0.49388834834098816 0.49388834834098816 0.49388834834098816
0.55016821622848511 0.55016821622848511 0.55016821622848511
0.6139950156211853 0.6139950156211853 0.6139950156211853
0.67661124467849731 0.67661124467849731 0.67661124467849731
0.5491558313369751 0.5491558313369751 0.5491558313369751
0.54677891731262207 0.54677891731262207 0.54677891731262207
0.5464397668838501 0.5464397668838501 0.5464397668838501
0.5488770604133606 0.5488770604133606 0.5488770604133606
0.55341178178787231 0.55341178178787231 0.55341178178787231
0.55583661794662476 0.55583661794662476 0.55583661794662476
0.55486017465591431 0.55486017465591431 0.55486017465591431
0.55179274082183838 0.55179274082183838 0.55179274082183838
0.55331021547317505 0.55331021547317505 0.55331021547317505
0.57092666625976562 0.57092666625976562 0.57092666625976562
0.60712599754333496 0.60712599754333496 0.60712599754333496
0.65424168109893799 0.65424168109893799 0.65424168109893799
0.70725089311599731 0.70725089311599731 0.70725089311599731
0.64998722076416016 0.64998722076416016 0.64998722076416016
0.64551389217376709 0.64551389217376709 0.64551389217376709
0.64288473129272461 0.64288473129272461 0.64288473129272461
0.64475452899932861 0.64475452899932861 0.64475452899932861
0.65105664730072021 0.65105664730072021 0.65105664730072021
0.65635967254638672 0.65635967254638672 0.65635967254638672
0.65773701667785645 0.65773701667785645 0.65773701667785645
0.65662568807601929 0.65662568807601929 0.65662568807601929
0.65799754858016968 0.65799754858016968 0.65799754858016968
0.66628348827362061 0.66628348827362061 0.66628348827362061
0.68455475568771362 0.68455475568771362 0.68455475568771362
0.71381396055221558 0.71381396055221558 0.71381396055221558
0.75368297100067139 0.75368297100067139 0.75368297100067139
0.75228208303451538 0.75228208303451538 0.75228208303451538
0.74620360136032104 0.74620360136032104 0.74620360136032104
0.74216187000274658 0.74216187000274658 0.74216187000274658
0.74433374404907227 0.74433374404907227 0.74433374404907227
0.75229203701019287 0.75229203701019287 0.75229203701019287
0.76167744398117065 0.76167744398117065 0.76167744398117065
0.76562899351119995 0.76562899351119995 0.76562899351119995
0.76539504528045654 0.76539504528045654 0.76539504528045654
0.76684999465942383 0.76684999465942383 0.76684999465942383
0.76914352178573608 0.76914352178573608 0.76914352178573608
0.77417361736297607 0.77417361736297607 0.77417361736297607
0.78836828470230103 0.78836828470230103 0.78836828470230103
0.81379503011703491 0.81379503011703491 0.81379503011703491
0.84627330303192139 0.84627330303192139 0.84627330303192139
0.83932203054428101 0.83932203054428101 0.83932203054428101
0.83503270149230957 0.83503270149230957 0.83503270149230957
0.83767455816268921 0.83767455816268921 0.83767455816268921
0.84694570302963257 0.84694570302963257 0.84694570302963257
0.85988175868988037 0.85988175868988037 0.85988175868988037
0.86489087343215942 0.86489087343215942 0.86489087343215942
0.86438530683517456 0.86438530683517456 0.86438530683517456
0.86654740571975708 0.86654740571975708 0.86654740571975708
0.86548256874084473 0.86548256874084473 0.86548256874084473
0.86172807216644287 0.86172807216644287 0.86172807216644287
0.86574679613113403 0.86574679613113403 0.86574679613113403
0.87934786081314087 0.87934786081314087 0.87934786081314087
0.077176295220851898 0.077176295220851898 0.077176295220851898
0.079895183444023132 0.079895183444023132 0.079895183444023132
0.092391595244407654 0.092391595244407654 0.092391595244407654
0.11174962669610977 0.11174962669610977 0.11174962669610977
0.13709457218647003 0.13709457218647003 0.13709457218647003
0.16712784767150879 0.16712784767150879 0.16712784767150879
0.20106461644172668 0.20106461644172668 0.20106461644172668
0.23799644410610199 0.23799644410610199 0.23799644410610199
0.27743285894393921 0.27743285894393921 0.27743285894393921
0.31985613703727722 0.31985613703727722 0.31985613703727722
0.36567261815071106 0.36567261815071106 0.36567261815071106
0.41527226567268372 0.41527226567268372 0.41527226567268372
0.46848559379577637 0.46848559379577637 0.46848559379577637
0.087654754519462585 0.087654754519462585 0.087654754519462585
0.089805334806442261 0.089805334806442261 0.089805334806442261
0.10084934532642365 0.10084934532642365 0.10084934532642365
0.11921926587820053 0.11921926587820053 0.11921926587820053
0.14449024200439453 0.14449024200439453 0.14449024200439453
0.17524507641792297 0.17524507641792297 0.17524507641792297
0.20990185439586639 0.20990185439586639 0.20990185439586639
0.24750350415706635 0.24750350415706635 0.24750350415706635
0.28783389925956726 0.28783389925956726 0.28783389925956726
0.33101984858512878 0.33101984858512878 0.33101984858512878
0.37767186760902405 0.37767186760902405 0.37767186760902405
0.42834442853927612 0.42834442853927612 0.42834442853927612
0.48245033621788025 0.48245033621788025 0.48245033621788025
0.11215181648731232 0.11215181648731232 0.11215181648731232
0.11325595527887344 0.11325595527887344 0.11325595527887344
0.12217613309621811 0.12217613309621811 0.12217613309621811
0.13768190145492554 0.13768190145492554 0.13768190145492554
0.16120259463787079 0.16120259463787079 0.16120259463787079
0.19125007092952728 0.19125007092952728 0.19125007092952728
0.22567221522331238 0.22567221522331238 0.22567221522331238
0.2627595067024231 0.2627595067024231 0.2627595067024231
0.30401751399040222 0.30401751399040222 0.30401751399040222
0.34804216027259827 0.34804216027259827 0.34804216027259827
0.39618545770645142 0.39618545770645142 0.39618545770645142
0.44823697209358215 0.44823697209358215 0.44823697209358215
0.50355994701385498 0.50355994701385498 0.50355994701385498
0.15170601010322571 0.15170601010322571 0.15170601010322571
0.15217480063438416 0.15217480063438416 0.15217480063438416
0.15802595019340515 0.15802595019340515 0.15802595019340515
0.16946396231651306 0.16946396231651306 0.16946396231651306
0.1893075704574585 0.1893075704574585 0.1893075704574585
0.21587152779102325 0.21587152779102325 0.21587152779102325
0.24734093248844147 0.24734093248844147 0.24734093248844147
0.28312641382217407 0.28312641382217407 0.28312641382217407
0.32412895560264587 0.32412895560264587 0.32412895560264587
0.3703303337097168 0.3703303337097168 0.3703303337097168
0.42096307873725891 0.42096307873725891 0.42096307873725891
0.47521871328353882 0.47521871328353882 0.47521871328353882
0.53180712461471558 0.53180712461471558 0.53180712461471558
0.2040446400642395 0.2040446400642395 0.2040446400642395
0.20438113808631897 0.20438113808631897 0.20438113808631897
0.20726111531257629 0.20726111531257629 0.20726111531257629
0.21492114663124084 0.21492114663124084 0.21492114663124084
0.22924871742725372 0.22924871742725372 0.22924871742725372
0.24963399767875671 0.24963399767875671 0.24963399767875671
0.27520221471786499 0.27520221471786499 0.27520221471786499
0.30718910694122314 0.30718910694122314 0.30718910694122314
0.34757426381111145 0.34757426381111145 0.34757426381111145
0.39666736125946045 0.39666736125946045 0.39666736125946045
0.45078405737876892 0.45078405737876892 0.45078405737876892
0.50793629884719849 0.50793629884719849 0.50793629884719849
0.56600391864776611 0.56600391864776611 0.56600391864776611
0.26139682531356812 0.26139682531356812 0.26139682531356812
0.26169312000274658 0.26169312000274658 0.26169312000274658
0.26433008909225464 0.26433008909225464 0.26433008909225464
0.26932361721992493 0.26932361721992493 0.26932361721992493
0.2783145010471344 0.2783145010471344 0.2783145010471344
0.29149314761161804 0.29149314761161804 0.29149314761161804
0.30897003412246704 0.30897003412246704 0.30897003412246704
0.33477699756622314 0.33477699756622314 0.33477699756622314
0.37139642238616943 0.37139642238616943 0.37139642238616943
0.4224250316619873 0.4224250316619873 0.4224250316619873
0.48027235269546509 0.48027235269546509 0.48027235269546509
0.54148977994918823 0.54148977994918823 0.54148977994918823
0.60274672508239746 0.60274672508239746 0.60274672508239746
0.32042014598846436 0.32042014598846436 0.32042014598846436
0.32292670011520386 0.32292670011520386 0.32292670011520386
0.32606637477874756 0.32606637477874756 0.32606637477874756
0.32983681559562683 0.32983681559562683 0.32983681559562683
0.33517754077911377 0.33517754077911377 0.33517754077911377
0.34191888570785522 0.34191888570785522 0.34191888570785522
0.35108038783073425 0.35108038783073425 0.35108038783073425
0.36658671498298645 0.36658671498298645 0.36658671498298645
0.39470580220222473 0.39470580220222473 0.39470580220222473
0.44172313809394836 0.44172313809394836 0.44172313809394836
0.50273138284683228 0.50273138284683228 0.50273138284683228
0.57057929039001465 0.57057929039001465 0.57057929039001465
0.63613837957382202 0.63613837957382202 0.63613837957382202
0.38750454783439636 0.38750454783439636 0.38750454783439636
0.38993549346923828 0.38993549346923828 0.38993549346923828
0.39337247610092163 0.39337247610092163 0.39337247610092163
0.39704775810241699 0.39704775810241699 0.39704775810241699
0.40040653944015503 0.40040653944015503 0.40040653944015503
0.40284034609794617 0.40284034609794617 0.40284034609794617
0.40470466017723083 0.40470466017723083 0.40470466017723083
0.40927755832672119 0.40927755832672119 0.40927755832672119
0.42557370662689209 0.42557370662689209 0.42557370662689209
0.46465149521827698 0.46465149521827698 0.46465149521827698
0.52449411153793335 0.52449411153793335 0.52449411153793335
0.59380078315734863 0.59380078315734863 0.59380078315734863
0.66085857152938843 0.66085857152938843 0.66085857152938843
0.46693119406700134 0.46693119406700134 0.46693119406700134
0.46673107147216797 0.46673107147216797 0.46673107147216797
0.46859681606292725 0.46859681606292725 0.46859681606292725
0.47176477313041687 0.47176477313041687 0.47176477313041687
0.47546291351318359 0.47546291351318359 0.47546291351318359
0.47657105326652527 0.47657105326652527 0.47657105326652527
0.47457152605056763 0.47457152605056763 0.47457152605056763
0.47292545437812805 0.47292545437812805 0.47292545437812805
0.4796372652053833 0.4796372652053833 0.4796372652053833
0.50749635696411133 0.50749635696411133 0.50749635696411133
0.5569729208946228 0.5569729208946228 0.5569729208946228
0.61799365282058716 0.61799365282058716 0.61799365282058716
0.68144339323043823 0.68144339323043823 0.68144339323043823
0.55737787485122681 0.55737787485122681 0.55737787485122681
0.55373334884643555 0.55373334884643555 0.55373334884643555
0.55128425359725952 0.55128425359725952 0.55128425359725952
0.55467325448989868 0.55467325448989868 0.55467325448989868
0.5607445240020752 0.5607445240020752 0.5607445240020752
0.56363499164581299 0.56363499164581299 0.56363499164581299
0.56258732080459595 0.56258732080459595 0.56258732080459595
0.5601235032081604 0.5601235032081604 0.5601235032081604
0.56274831295013428 0.56274831295013428 0.56274831295013428
0.5786249041557312 0.5786249041557312 0.5786249041557312
0.60869288444519043 0.60869288444519043 0.60869288444519043
0.65249186754226685 0.65249186754226685 0.65249186754226685
0.70878994464874268 0.70878994464874268 0.70878994464874268
0.6543576717376709 0.6543576717376709 0.6543576717376709
0.64917969703674316 0.64917969703674316 0.64917969703674316
0.64405971765518188 0.64405971765518188 0.64405971765518188
0.64743882417678833 0.64743882417678833 0.64743882417678833
0.6557852029800415 0.6557852029800415 0.6557852029800415
0.66188538074493408 0.66188538074493408 0.66188538074493408
0.66375541687011719 0.66375541687011719 0.66375541687011719
0.66367077827453613 0.66367077827453613 0.66367077827453613
0.66520851850509644 0.66520851850509644 0.66520851850509644
0.6716688871383667 0.6716688871383667 0.6716688871383667
0.68405723571777344 0.68405723571777344 0.68405723571777344
0.708831787109375 0.708831787109375 0.708831787109375
0.75322341918945312 0.75322341918945312 0.75322341918945312
0.75229722261428833 0.75229722261428833 0.75229722261428833
0.74822652339935303 0.74822652339935303 0.74822652339935303
0.74433225393295288 0.74433225393295288 0.74433225393295288
0.74711018800735474 0.74711018800735474 0.74711018800735474
0.7553747296333313 0.7553747296333313 0.7553747296333313
0.76378804445266724 0.76378804445266724 0.76378804445266724
0.76869851350784302 0.76869851350784302 0.76869851350784302
0.77128571271896362 0.77128571271896362 0.77128571271896362
0.77469760179519653 0.77469760179519653 0.77469760179519653
0.77626907825469971 0.77626907825469971 0.77626907825469971
0.77770859003067017 0.77770859003067017 0.77770859003067017
0.78970521688461304 0.78970521688461304 0.78970521688461304
0.8159714937210083 0.8159714937210083 0.8159714937210083
0.84290343523025513 0.84290343523025513 0.84290343523025513
0.84049081802368164 0.84049081802368164 0.84049081802368164
0.83816838264465332 0.83816838264465332 0.83816838264465332
0.84123772382736206 0.84123772382736206 0.84123772382736206
0.84935641288757324 0.84935641288757324 0.84935641288757324
0.85912019014358521 0.85912019014358521 0.85912019014358521
0.86561566591262817 0.86561566591262817 0.86561566591262817
0.87023061513900757 0.87023061513900757 0.87023061513900757
0.87656265497207642 0.87656265497207642 0.87656265497207642
0.87599378824234009 0.87599378824234009 0.87599378824234009
0.86949580907821655 0.86949580907821655 0.86949580907821655
0.87141257524490356 0.87141257524490356 0.87141257524490356
0.88415408134460449 0.88415408134460449 0.88415408134460449
0.10799108445644379 0.10799108445644379 0.10799108445644379
0.11057715117931366 0.11057715117931366 0.11057715117931366
0.12280421704053879 0.12280421704053879 0.12280421704053879
0.14166072010993958 0.14166072010993958 0.14166072010993958
0.16574972867965698 0.16574972867965698 0.16574972867965698
0.19388496875762939 0.19388496875762939 0.19388496875762939
0.22538420557975769 0.22538420557975769 0.22538420557975769
0.2597966194152832 0.2597966194152832 0.2597966194152832
0.29670962691307068 0.29670962691307068 0.29670962691307068
0.33671620488166809 0.33671620488166809 0.33671620488166809
0.38019686937332153 0.38019686937332153 0.38019686937332153
0.42896044254302979 0.42896044254302979 0.42896044254302979
0.48327136039733887 0.48327136039733887 0.48327136039733887
0.11399413645267487 0.11399413645267487 0.11399413645267487
0.11820563673973083 0.11820563673973083 0.11820563673973083
0.13169620931148529 0.13169620931148529 0.13169620931148529
0.15097510814666748 0.15097510814666748 0.15097510814666748
0.17510338127613068 0.17510338127613068 0.17510338127613068
0.20392158627510071 0.20392158627510071 0.20392158627510071
0.23626533150672913 0.23626533150672913 0.23626533150672913
0.2710283100605011 0.2710283100605011 0.2710283100605011
0.30805730819702148 0.30805730819702148 0.30805730819702148
0.34772825241088867 0.34772825241088867 0.34772825241088867
0.39099925756454468 0.39099925756454468 0.39099925756454468
0.44024825096130371 0.44024825096130371 0.44024825096130371
0.49566686153411865 0.49566686153411865 0.49566686153411865
0.13183613121509552 0.13183613121509552 0.13183613121509552
0.13851825892925262 0.13851825892925262 0.13851825892925262
0.15239289402961731 0.15239289402961731 0.15239289402961731
0.17063343524932861 0.17063343524932861 0.17063343524932861
0.19334682822227478 0.19334682822227478 0.19334682822227478
0.2210409939289093 0.2210409939289093 0.2210409939289093
0.25258070230484009 0.25258070230484009 0.25258070230484009
0.28694242238998413 0.28694242238998413 0.28694242238998413
0.32387611269950867 0.32387611269950867 0.32387611269950867
0.36400589346885681 0.36400589346885681 0.36400589346885681
0.4078277051448822 0.4078277051448822 0.4078277051448822
0.4577440619468689 0.4577440619468689 0.4577440619468689
0.51440370082855225 0.51440370082855225 0.51440370082855225
0.16667485237121582 0.16667485237121582 0.16667485237121582
0.17442454397678375 0.17442454397678375 0.17442454397678375
0.18678377568721771 0.18678377568721771 0.18678377568721771
0.20199190080165863 0.20199190080165863 0.20199190080165863
0.22111313045024872 0.22111313045024872 0.22111313045024872
0.24510979652404785 0.24510979652404785 0.24510979652404785
0.27354168891906738 0.27354168891906738 0.27354168891906738
0.30608677864074707 0.30608677864074707 0.30608677864074707
0.34316337108612061 0.34316337108612061 0.34316337108612061
0.38524752855300903 0.38524752855300903 0.38524752855300903
0.4318217933177948 0.4318217933177948 0.4318217933177948
0.48376962542533875 0.48376962542533875 0.48376962542533875
0.54115849733352661 0.54115849733352661 0.54115849733352661
0.21982893347740173 0.21982893347740173 0.21982893347740173
0.22589561343193054 0.22589561343193054 0.22589561343193054
0.23429958522319794 0.23429958522319794 0.23429958522319794
0.24480362236499786 0.24480362236499786 0.24480362236499786
0.25886094570159912 0.25886094570159912 0.25886094570159912
0.27703678607940674 0.27703678607940674 0.27703678607940674
0.29970818758010864 0.29970818758010864 0.29970818758010864
0.32862314581871033 0.32862314581871033 0.32862314581871033
