films/polaroid_px-70.cube
# Created by: G'MIC (https://gmic.eu)
TITLE "polaroid_px-70"
# LUT size
LUT_3D_SIZE 5
# Data domain
DOMAIN_MIN 0.0 0.0 0.0
DOMAIN_MAX 1.0 1.0 1.0
# LUT data points
0 0.14919891953468323 0.2021925151348114
0.01478183176368475 0.15735639631748199 0.20392157137393951
0.35620662569999695 0.1805596649646759 0.20994500815868378
0.84830504655838013 0.30383974313735962 0.18471422791481018
0.99887144565582275 0.54889982938766479 0.21173417568206787
0.00067891139769926667 0.22046312689781189 0.20814380049705505
0.052593830972909927 0.23695418238639832 0.20765157043933868
0.4575706422328949 0.28267404437065125 0.1972019374370575
0.85896670818328857 0.43365415930747986 0.16498664021492004
0.99369484186172485 0.60221153497695923 0.20712627470493317
0 0.55105054378509521 0.18955020606517792
0.17671883106231689 0.54597765207290649 0.19122648239135742
0.57170307636260986 0.58065873384475708 0.16898122429847717
0.85182338953018188 0.63681840896606445 0.13870258629322052
0.9667019248008728 0.68503516912460327 0.19849526882171631
0.47783574461936951 0.79930353164672852 0.27670809626579285
0.53803050518035889 0.79318004846572876 0.28860324621200562
0.68914896249771118 0.80086123943328857 0.30116373300552368
0.83352124691009521 0.81073975563049316 0.31128779053688049
0.93525862693786621 0.82305192947387695 0.351727694272995
0.79901045560836792 0.91667842864990234 0.50970852375030518
0.80169308185577393 0.91341948509216309 0.5036156177520752
0.83556091785430908 0.91839098930358887 0.52531206607818604
0.87906765937805176 0.92451518774032593 0.52894884347915649
0.93738019466400146 0.93574178218841553 0.54866629838943481
0 0.15821097791194916 0.21767908334732056
0.0216103196144104 0.1730516105890274 0.21951141953468323
0.40049827098846436 0.17594219744205475 0.24345502257347107
0.87989634275436401 0.33864429593086243 0.26911729574203491
0.9883720874786377 0.61706781387329102 0.34547513723373413
0 0.24167095124721527 0.2375027984380722
0.12789283692836761 0.2585696280002594 0.24116358160972595
0.52781087160110474 0.32202175259590149 0.25135457515716553
0.87646085023880005 0.49278062582015991 0.26859560608863831
0.97986400127410889 0.66080367565155029 0.34462279081344604
0.12733004987239838 0.57487964630126953 0.25950813293457031
0.28134113550186157 0.57389742136001587 0.25565826892852783
0.62170290946960449 0.60600739717483521 0.24755033850669861
0.86163574457168579 0.64766448736190796 0.24904169142246246
0.96298706531524658 0.71031671762466431 0.31639513373374939
0.53628909587860107 0.79949402809143066 0.34135091304779053
0.59865468740463257 0.79938727617263794 0.35042884945869446
0.71115356683731079 0.80200684070587158 0.36622306704521179
0.83836692571640015 0.81615233421325684 0.37279590964317322
0.93496084213256836 0.8312574028968811 0.40699774026870728
0.80193489789962769 0.91573190689086914 0.51625204086303711
0.81169611215591431 0.91679030656814575 0.52322930097579956
0.83583712577819824 0.92087817192077637 0.53404182195663452
0.8818821907043457 0.92745602130889893 0.54360628128051758
0.94361233711242676 0.93814307451248169 0.55211645364761353
0.0093153258785605431 0.18851570785045624 0.31202003359794617
0.23439070582389832 0.21355128288269043 0.32241472601890564
0.53092449903488159 0.3200969398021698 0.34625285863876343
0.86702358722686768 0.35435259342193604 0.41011583805084229
0.98482340574264526 0.6045040488243103 0.45459473133087158
0.019101819023489952 0.30835404992103577 0.35068446397781372
0.30198898911476135 0.32887914776802063 0.36293396353721619
0.61704790592193604 0.45892408490180969 0.37623661756515503
0.87368154525756836 0.50937777757644653 0.42290952801704407
0.9689604640007019 0.69151133298873901 0.47873517870903015
0.23751148581504822 0.60023194551467896 0.38662472367286682
0.41361123323440552 0.59859997034072876 0.39195737242698669
0.68966662883758545 0.63573706150054932 0.41382825374603271
0.86555790901184082 0.703743577003479 0.44595709443092346
0.94776397943496704 0.77487140893936157 0.4882044792175293
0.64827102422714233 0.80447894334793091 0.45663163065910339
0.6938672661781311 0.80191123485565186 0.45771098136901855
0.76300203800201416 0.81100058555603027 0.46770882606506348
0.85094255208969116 0.81769591569900513 0.4705784022808075
0.93762779235839844 0.83469140529632568 0.48406514525413513
0.81741690635681152 0.91676050424575806 0.54416978359222412
0.82791924476623535 0.91816800832748413 0.54789072275161743
0.84780114889144897 0.92338716983795166 0.55653113126754761
0.88890618085861206 0.93057632446289062 0.56296843290328979
0.94390088319778442 0.94155943393707275 0.57050096988677979
0.40985807776451111 0.29677531123161316 0.54936432838439941
0.58532160520553589 0.34793418645858765 0.55247503519058228
0.80065423250198364 0.55227565765380859 0.54570549726486206
0.87436878681182861 0.69669348001480103 0.54491764307022095
0.94567447900772095 0.70703941583633423 0.55462276935577393
0.42423832416534424 0.44801533222198486 0.55691057443618774
0.59288102388381958 0.4851536750793457 0.55447614192962646
0.80690854787826538 0.63512158393859863 0.55087977647781372
0.87625598907470703 0.74300211668014526 0.55141276121139526
0.93950569629669189 0.7430959939956665 0.56033128499984741
0.41242021322250366 0.66451871395111084 0.53877300024032593
0.54898649454116821 0.66451293230056763 0.54101002216339111
0.78199988603591919 0.71354824304580688 0.54925096035003662
0.8759351372718811 0.79193860292434692 0.55513960123062134
0.93778896331787109 0.80627936124801636 0.56701213121414185
0.65801310539245605 0.81255167722702026 0.53964018821716309
0.69748443365097046 0.81042373180389404 0.53888708353042603
0.77377724647521973 0.8118293285369873 0.54607731103897095
0.86930233240127563 0.83738148212432861 0.55772268772125244
0.94017118215560913 0.86101603507995605 0.56793892383575439
0.82699841260910034 0.92227697372436523 0.57272577285766602
0.83337795734405518 0.9211086630821228 0.57823741436004639
0.86125630140304565 0.92514979839324951 0.58011692762374878
0.9047163724899292 0.93232047557830811 0.58875548839569092
0.95020449161529541 0.94520270824432373 0.59976059198379517
0.79894250631332397 0.69024950265884399 0.64258831739425659
0.82957309484481812 0.71510112285614014 0.63761430978775024
0.88295519351959229 0.78052955865859985 0.62794619798660278
0.92876744270324707 0.84830969572067261 0.61798369884490967
0.95183968544006348 0.87316489219665527 0.61572247743606567
0.79888510704040527 0.73147696256637573 0.6385263204574585
0.83317404985427856 0.75114542245864868 0.63468557596206665
0.88606834411621094 0.80160641670227051 0.62594276666641235
0.93086755275726318 0.85869967937469482 0.61875176429748535
0.95465433597564697 0.88166314363479614 0.61755424737930298
0.76705986261367798 0.77815753221511841 0.63068443536758423
0.79877203702926636 0.78414160013198853 0.62722146511077881
0.86642158031463623 0.81928473711013794 0.6238822340965271
0.92805784940719604 0.87214475870132446 0.62189251184463501
0.95434689521789551 0.90341222286224365 0.62249356508255005
0.74170136451721191 0.85033702850341797 0.61780726909637451
0.74661684036254883 0.84352201223373413 0.61772382259368896
0.81386113166809082 0.84996324777603149 0.61785429716110229
0.90673369169235229 0.88201391696929932 0.62522429227828979
0.95784664154052734 0.92620426416397095 0.63192999362945557
0.84538620710372925 0.93929266929626465 0.62945276498794556
0.8515358567237854 0.93925821781158447 0.62843137979507446
0.87494635581970215 0.94066506624221802 0.62637656927108765
0.91159307956695557 0.94408518075942993 0.63552719354629517
0.96075904369354248 0.95765393972396851 0.65305918455123901
