films/polaroid_px-70.cube
# Created by: G'MIC (https://gmic.eu)
TITLE "polaroid_px-70"
# LUT size
LUT_3D_SIZE 13
# Data domain
DOMAIN_MIN 0.0 0.0 0.0
DOMAIN_MAX 1.0 1.0 1.0
# LUT data points
0 0.14919891953468323 0.2021925151348114
0 0.148082435131073 0.2001543790102005
0 0.15102007985115051 0.20290680229663849
0.01478183176368475 0.15735639631748199 0.20392157137393951
0.091800957918167114 0.16330842673778534 0.20654378831386566
0.20479840040206909 0.17214754223823547 0.20839536190032959
0.35620662569999695 0.1805596649646759 0.20994500815868378
0.5353664755821228 0.19537255167961121 0.2065584659576416
0.70998680591583252 0.23315882682800293 0.19681547582149506
0.84830504655838013 0.30383974313735962 0.18471422791481018
0.93124383687973022 0.39817702770233154 0.1788560152053833
0.9774969220161438 0.48318696022033691 0.18895766139030457
0.99887144565582275 0.54889982938766479 0.21173417568206787
0 0.15499028563499451 0.20367768406867981
0 0.15684531629085541 0.20346903800964355
0.00026643043383955956 0.1598806232213974 0.20392118394374847
0.031038621440529823 0.16609784960746765 0.20392157137393951
0.11848840117454529 0.17326939105987549 0.20489911735057831
0.23081542551517487 0.1851465255022049 0.20695331692695618
0.38227453827857971 0.19686426222324371 0.20770858228206635
0.55701100826263428 0.21505390107631683 0.20374347269535065
0.72295463085174561 0.25776636600494385 0.19376496970653534
0.85313701629638672 0.33434274792671204 0.18081893026828766
0.93558657169342041 0.42343130707740784 0.17585846781730652
0.98062294721603394 0.50166231393814087 0.18761850893497467
0.99923884868621826 0.56226915121078491 0.21205174922943115
0.0012753654737025499 0.17885376513004303 0.2055179625749588
7.0010914896556642e-06 0.17844991385936737 0.20518968999385834
0.00085147033678367734 0.1832728236913681 0.2047077864408493
0.044091183692216873 0.19063359498977661 0.20424260199069977
0.15009748935699463 0.19905956089496613 0.2043917179107666
0.26942047476768494 0.2129073441028595 0.2046450674533844
0.41788294911384583 0.22847858071327209 0.20370060205459595
0.58128583431243896 0.25452536344528198 0.19774983823299408
0.7354704737663269 0.30500996112823486 0.18639445304870605
0.85822218656539917 0.38007766008377075 0.1753973662853241
0.93350964784622192 0.45757785439491272 0.17394854128360748
0.975411057472229 0.52466475963592529 0.18798965215682983
0.99701040983200073 0.5792272686958313 0.21338915824890137
0.00067891139769926667 0.22046312689781189 0.20814380049705505
3.1115962428884814e-06 0.21968063712120056 0.20791691541671753
0.00069403555244207382 0.22667074203491211 0.20828862488269806
0.052593830972909927 0.23695418238639832 0.20765157043933868
0.18277294933795929 0.25163921713829041 0.20550642907619476
0.3150356113910675 0.26697927713394165 0.20178070664405823
0.4575706422328949 0.28267404437065125 0.1972019374370575
0.60822421312332153 0.31126698851585388 0.18885554373264313
0.74756133556365967 0.36314070224761963 0.17581617832183838
0.85896670818328857 0.43365415930747986 0.16498664021492004
0.92864477634429932 0.50109320878982544 0.16570189595222473
0.96918702125549316 0.55678021907806396 0.18127152323722839
0.99369484186172485 0.60221153497695923 0.20712627470493317
0 0.29928785562515259 0.20664018392562866
0 0.30260631442070007 0.20599310100078583
0.00075539981480687857 0.3076317310333252 0.20721819996833801
0.060544706881046295 0.31620827317237854 0.20632091164588928
0.21121349930763245 0.33366405963897705 0.201027512550354
0.35820665955543518 0.35205173492431641 0.19311791658401489
0.50007051229476929 0.37108990550041199 0.18355599045753479
0.64061862230300903 0.40005949139595032 0.17185166478157043
0.76094686985015869 0.43695223331451416 0.16009961068630219
0.85493654012680054 0.48997798562049866 0.15064194798469543
0.9192352294921875 0.54431045055389404 0.15343117713928223
0.95984786748886108 0.5898430347442627 0.17080177366733551
0.98725032806396484 0.62689495086669922 0.1983259916305542
0.00013146494165994227 0.42457270622253418 0.19873763620853424
2.994911301357206e-05 0.42274948954582214 0.19835121929645538
0.016139939427375793 0.42421221733093262 0.19955718517303467
0.10461331903934479 0.42793050408363342 0.19744434952735901
0.24596333503723145 0.43993908166885376 0.19146481156349182
0.39580076932907104 0.45694825053215027 0.18205432593822479
0.53851217031478882 0.47790548205375671 0.1701197475194931
0.67044007778167725 0.50492072105407715 0.15598446130752563
0.77528214454650879 0.52963978052139282 0.14375193417072296
0.85222935676574707 0.55694657564163208 0.137224480509758
0.90849786996841431 0.59186160564422607 0.14397911727428436
0.94828766584396362 0.62424057722091675 0.16337059438228607
0.97765618562698364 0.65257424116134644 0.19214043021202087
0 0.55105054378509521 0.18955020606517792
0.0038808186072856188 0.54530143737792969 0.19015386700630188
0.065801151096820831 0.5446586012840271 0.19219358265399933
0.17671883106231689 0.54597765207290649 0.19122648239135742
0.30667105317115784 0.55296182632446289 0.18697664141654968
0.44172579050064087 0.56504553556442261 0.17954432964324951
0.57170307636260986 0.58065873384475708 0.16898122429847717
0.68804764747619629 0.59923374652862549 0.15605181455612183
0.78211790323257446 0.61857795715332031 0.1438542902469635
0.85182338953018188 0.63681840896606445 0.13870258629322052
0.90025132894515991 0.65396428108215332 0.15014983713626862
0.93680495023727417 0.66939902305603027 0.17062978446483612
0.9667019248008728 0.68503516912460327 0.19849526882171631
0.051686618477106094 0.65950393676757812 0.19195549190044403
0.082561969757080078 0.6523367166519165 0.19382031261920929
0.17767933011054993 0.65151745080947876 0.1958334743976593
0.28307080268859863 0.65184867382049561 0.19838570058345795
0.39031630754470825 0.65588319301605225 0.19760413467884064
0.49897292256355286 0.6633676290512085 0.19392746686935425
0.60511481761932373 0.6714971661567688 0.18877317011356354
0.70238471031188965 0.68231838941574097 0.18088974058628082
0.78427720069885254 0.69582974910736084 0.17220057547092438
0.84763246774673462 0.70895624160766602 0.16939368844032288
0.89108210802078247 0.71678745746612549 0.18311679363250732
0.92520791292190552 0.72219359874725342 0.20452044904232025
0.95516127347946167 0.72998380661010742 0.23175179958343506
0.28776335716247559 0.74529176950454712 0.2215425968170166
0.31113645434379578 0.74126327037811279 0.22244410216808319
0.3485545814037323 0.73748946189880371 0.22436405718326569
0.41366082429885864 0.73544126749038696 0.2300800234079361
0.48748645186424255 0.73780721426010132 0.23252665996551514
0.5651320219039917 0.74222773313522339 0.23286114633083344
0.6440010666847229 0.74515998363494873 0.23395530879497528
0.71889573335647583 0.75004458427429199 0.23267833888530731
0.78480255603790283 0.75693362951278687 0.23026502132415771
0.8383629322052002 0.7637031078338623 0.23216636478900909
0.87995404005050659 0.76848477125167847 0.24363464117050171
0.9139716625213623 0.77232998609542847 0.26230999827384949
0.94379532337188721 0.77857136726379395 0.28650099039077759
0.47783574461936951 0.79930353164672852 0.27670809626579285
0.48489618301391602 0.79717934131622314 0.27767100930213928
0.50162643194198608 0.79410135746002197 0.28220608830451965
0.53803050518035889 0.79318004846572876 0.28860324621200562
0.58369719982147217 0.79554069042205811 0.29331088066101074
0.63517004251480103 0.79867774248123169 0.29717543721199036
0.68914896249771118 0.80086123943328857 0.30116373300552368
0.74197036027908325 0.80362832546234131 0.30407220125198364
0.7902178168296814 0.80717134475708008 0.30713063478469849
0.83352124691009521 0.81073975563049316 0.31128779053688049
0.87188005447387695 0.81403124332427979 0.3195529580116272
0.90523135662078857 0.81768125295639038 0.33346441388130188
0.93525862693786621 0.82305192947387695 0.351727694272995
0.60782349109649658 0.84062421321868896 0.35301738977432251
0.61264514923095703 0.83919888734817505 0.35238495469093323
0.62352412939071655 0.8365929126739502 0.35637888312339783
0.64491128921508789 0.83641588687896729 0.36251345276832581
0.67147642374038696 0.83949142694473267 0.36791062355041504
0.70308423042297363 0.84276872873306274 0.37366184592247009
0.73789465427398682 0.84526115655899048 0.37879496812820435
0.77221941947937012 0.84767246246337891 0.38351097702980042
0.80444425344467163 0.85069376230239868 0.38947418332099915
0.83752340078353882 0.85275185108184814 0.39433068037033081
0.87128889560699463 0.8554614782333374 0.39910697937011719
0.9019203782081604 0.8585045337677002 0.40832531452178955
0.93056929111480713 0.86352419853210449 0.42064914107322693
0.71391808986663818 0.87940120697021484 0.43560239672660828
0.71746534109115601 0.87881100177764893 0.43217045068740845
0.72157412767410278 0.8758118748664856 0.43238291144371033
0.73199528455734253 0.87561756372451782 0.43673801422119141
0.74716383218765259 0.87839257717132568 0.44345834851264954
0.76673722267150879 0.88103806972503662 0.4516676664352417
0.78794914484024048 0.88356608152389526 0.4566991925239563
0.8089287281036377 0.88595759868621826 0.45927140116691589
0.83031481504440308 0.88823050260543823 0.46319374442100525
0.85455995798110962 0.89050471782684326 0.4674437940120697
0.88058286905288696 0.89264780282974243 0.47207814455032349
0.90573948621749878 0.8959924578666687 0.47984498739242554
0.93068581819534302 0.90087389945983887 0.48863288760185242
0.79901045560836792 0.91667842864990234 0.50970852375030518
0.79868334531784058 0.91519749164581299 0.50319755077362061
0.7981334924697876 0.91370636224746704 0.50073623657226562
0.80169308185577393 0.91341948509216309 0.5036156177520752
0.81046062707901001 0.91443085670471191 0.5111314058303833
0.82306849956512451 0.91630607843399048 0.52153980731964111
0.83556091785430908 0.91839098930358887 0.52531206607818604
0.84749114513397217 0.92045289278030396 0.52440506219863892
0.86191940307617188 0.92261373996734619 0.52566403150558472
0.87906765937805176 0.92451518774032593 0.52894884347915649
0.89877140522003174 0.92721390724182129 0.53404873609542847
0.91715675592422485 0.93078577518463135 0.54134756326675415
0.93738019466400146 0.93574178218841553 0.54866629838943481
0 0.15062147378921509 0.20345287024974823
0 0.15050588548183441 0.20257504284381866
0 0.15379495918750763 0.20439152419567108
0.018413648009300232 0.15909527242183685 0.20603586733341217
0.10137017816305161 0.16631712019443512 0.20804627239704132
0.21938537061214447 0.17824351787567139 0.21152092516422272
0.3783784806728363 0.18875302374362946 0.21486769616603851
0.56090396642684937 0.20798715949058533 0.2139832079410553
0.73053479194641113 0.24862934648990631 0.20748256146907806
0.85946559906005859 0.32339909672737122 0.19996778666973114
0.93882423639297485 0.41621318459510803 0.20069260895252228
0.98236578702926636 0.49927306175231934 0.21773284673690796
0.99962425231933594 0.56518387794494629 0.2440812736749649
0 0.15788675844669342 0.20517140626907349
0 0.15812070667743683 0.20454750955104828
0.00025675157667137682 0.16235628724098206 0.20565126836299896
0.031349644064903259 0.16921438276767731 0.20733800530433655
0.12212622910737991 0.17880652844905853 0.20933246612548828
0.24489443004131317 0.19140423834323883 0.21202376484870911
0.40354445576667786 0.20571817457675934 0.21442484855651855
0.57964056730270386 0.2288791686296463 0.21253259479999542
0.74102795124053955 0.27564838528633118 0.20548193156719208
0.86443769931793213 0.35095000267028809 0.19784784317016602
0.94202989339828491 0.4375668466091156 0.19923999905586243
0.98401409387588501 0.51579713821411133 0.21615566313266754
0.99976629018783569 0.57731145620346069 0.24303773045539856
6.5149048168677837e-05 0.18214522302150726 0.20860347151756287
0 0.18062645196914673 0.20810717344284058
0.002597749000415206 0.18525728583335876 0.20868739485740662
0.053161080926656723 0.19223673641681671 0.20974461734294891
0.15891662240028381 0.20183888077735901 0.21065257489681244
0.28376427292823792 0.21788345277309418 0.21107983589172363
0.43649619817733765 0.23754067718982697 0.21112513542175293
0.60121214389801025 0.26660192012786865 0.20711483061313629
0.75052803754806519 0.31635105609893799 0.19938400387763977
0.86649805307388306 0.39166152477264404 0.19323541224002838
0.93940818309783936 0.47029665112495422 0.19725644588470459
0.97896677255630493 0.53873312473297119 0.21576660871505737
0.99831986427307129 0.5944511890411377 0.24337631464004517
8.1679399954737164e-06 0.22664435207843781 0.21269279718399048
0 0.22591280937194824 0.21205289661884308
0.0051277461461722851 0.23158997297286987 0.21286351978778839
0.071603827178478241 0.24004615843296051 0.21368168294429779
0.19506028294563293 0.25226926803588867 0.21196670830249786
0.32788306474685669 0.26791441440582275 0.20852796733379364
0.47386738657951355 0.28901299834251404 0.20352812111377716
0.62589967250823975 0.32202714681625366 0.19691464304924011
0.76295965909957886 0.37433058023452759 0.18780894577503204
0.86873024702072144 0.44518911838531494 0.18218940496444702
0.93455076217651367 0.51217561960220337 0.18893301486968994
0.97214120626449585 0.56885743141174316 0.20966877043247223
0.99487018585205078 0.6159864068031311 0.23821909725666046
0 0.30849635601043701 0.2130444198846817
0 0.30999088287353516 0.21214777231216431
0.0045390408486127853 0.3156694769859314 0.21303308010101318
0.083334244787693024 0.32331189513206482 0.21323060989379883
0.22411595284938812 0.33694308996200562 0.2091076523065567
0.37162718176841736 0.35536679625511169 0.20096468925476074
0.51621580123901367 0.37683236598968506 0.19194605946540833
0.65478086471557617 0.4058588445186615 0.18185380101203918
0.77476376295089722 0.4471743106842041 0.17132775485515594
0.86568272113800049 0.49966335296630859 0.16628058254718781
0.92488330602645874 0.55215680599212646 0.17576403915882111
0.96252274513244629 0.59896069765090942 0.19839954376220703
0.98819255828857422 0.63768249750137329 0.22830456495285034
0 0.43054983019828796 0.20715247094631195
0 0.42975181341171265 0.20682324469089508
0.010629347525537014 0.43239647150039673 0.20811355113983154
0.10978701710700989 0.43651434779167175 0.20694825053215027
0.2572610080242157 0.44740745425224304 0.20186297595500946
0.41054180264472961 0.46485099196434021 0.19273169338703156
0.55587375164031982 0.48646652698516846 0.18128465116024017
0.68365520238876343 0.51035386323928833 0.16848289966583252
0.78514808416366577 0.53452014923095703 0.15748332440853119
0.85947120189666748 0.55905234813690186 0.15329834818840027
0.91305023431777954 0.59408551454544067 0.1643737405538559
0.95067590475082397 0.62951219081878662 0.1875566840171814
0.97842788696289062 0.66035759449005127 0.2190919816493988
0.00025194953195750713 0.55851441621780396 0.20066434144973755
0.0043686809949576855 0.55354011058807373 0.20178212225437164
0.059006575495004654 0.55327141284942627 0.20389077067375183
0.17838278412818909 0.55493265390396118 0.20336398482322693
0.31633949279785156 0.56147104501724243 0.19970709085464478
0.45554473996162415 0.57419246435165405 0.19212476909160614
0.58857625722885132 0.59045803546905518 0.18105825781822205
0.70387434959411621 0.60701185464859009 0.16852477192878723
0.79097145795822144 0.62430548667907715 0.16013222932815552
0.85578876733779907 0.63674968481063843 0.15823410451412201
0.9030616283416748 0.65307056903839111 0.16885611414909363
0.93884378671646118 0.67013156414031982 0.1893201470375061
0.96739691495895386 0.69061797857284546 0.22164300084114075
0.082939192652702332 0.66735458374023438 0.20780365169048309
0.10767974704504013 0.66014653444290161 0.20927694439888
0.19406037032604218 0.65910518169403076 0.2112470418214798
0.29724454879760742 0.65976285934448242 0.213238924741745
0.40427333116531372 0.66284728050231934 0.21266067028045654
0.51199328899383545 0.67022031545639038 0.20870441198348999
0.61739134788513184 0.67998605966567993 0.20156602561473846
0.71396678686141968 0.68962401151657104 0.19375382363796234
0.79142278432846069 0.70011109113693237 0.18822392821311951
0.84981036186218262 0.708121657371521 0.18861088156700134
0.89297515153884888 0.71604388952255249 0.20041553676128387
0.92649108171463013 0.7235335111618042 0.22091691195964813
0.95560586452484131 0.73447787761688232 0.25097215175628662
0.32917657494544983 0.74937385320663452 0.23998305201530457
0.3394734263420105 0.74526149034500122 0.23925355076789856
0.37519502639770508 0.74181872606277466 0.24169228971004486
0.43595588207244873 0.74109506607055664 0.24526387453079224
0.5038682222366333 0.74236017465591431 0.24828830361366272
0.57687580585479736 0.74604099988937378 0.24867498874664307
0.6527475118637085 0.75088179111480713 0.24735730886459351
0.7264397144317627 0.7556767463684082 0.24512030184268951
0.79048687219619751 0.76007974147796631 0.2428889125585556
0.84173524379730225 0.76424515247344971 0.24477708339691162
0.88157397508621216 0.7697640061378479 0.25755530595779419
0.91459399461746216 0.77589058876037598 0.27736428380012512
0.94390928745269775 0.78300535678863525 0.3024408221244812
0.50253462791442871 0.80153948068618774 0.29422447085380554
0.50585752725601196 0.79920423030853271 0.29275259375572205
0.5224684476852417 0.79705983400344849 0.29642412066459656
0.55633050203323364 0.79715168476104736 0.30194920301437378
0.59748780727386475 0.79924249649047852 0.30680713057518005
0.64438128471374512 0.80178302526473999 0.31052538752555847
0.69573920965194702 0.80425328016281128 0.31351593136787415
0.74736666679382324 0.80708450078964233 0.31504863500595093
0.79499012231826782 0.80946654081344604 0.31619295477867126
0.83703899383544922 0.8119545578956604 0.32031682133674622
0.87327718734741211 0.81613123416900635 0.3303074836730957
0.90559154748916626 0.82091164588928223 0.34546437859535217
0.93510395288467407 0.82670217752456665 0.36416012048721313
0.6265447735786438 0.84309005737304688 0.36570468544960022
0.62818789482116699 0.84044814109802246 0.36407926678657532
0.63811695575714111 0.83904922008514404 0.36755958199501038
0.65781015157699585 0.83946037292480469 0.37316057085990906
0.68115401268005371 0.84259593486785889 0.37839004397392273
0.70990884304046631 0.84504097700119019 0.38358831405639648
0.74246281385421753 0.84815442562103271 0.38831430673599243
0.77617496252059937 0.84972351789474487 0.3920692503452301
0.80888217687606812 0.85237431526184082 0.39593994617462158
0.84111469984054565 0.85434383153915405 0.40063697099685669
0.87266784906387329 0.85690861940383911 0.40735548734664917
0.90225684642791748 0.86103546619415283 0.41712185740470886
0.93072378635406494 0.86605894565582275 0.42950537800788879
0.72493022680282593 0.88104188442230225 0.44135347008705139
0.72874826192855835 0.87929350137710571 0.43950015306472778
0.73204541206359863 0.87884926795959473 0.44084125757217407
0.74075174331665039 0.87875217199325562 0.4449925422668457
0.75354939699172974 0.88070058822631836 0.4507770836353302
0.77071094512939453 0.8832707405090332 0.45717355608940125
0.79022294282913208 0.88587057590484619 0.46210470795631409
0.81093412637710571 0.88753575086593628 0.46527433395385742
0.83323162794113159 0.889972984790802 0.46907049417495728
0.85724306106567383 0.89153176546096802 0.47367745637893677
0.88238531351089478 0.8942338228225708 0.47898510098457336
0.90700995922088623 0.89766305685043335 0.48549309372901917
0.93208807706832886 0.90249264240264893 0.49296796321868896
0.8020661473274231 0.9170956015586853 0.50915586948394775
0.80515748262405396 0.91653937101364136 0.50713580846786499
0.80502164363861084 0.91520410776138306 0.50685429573059082
0.80770409107208252 0.91509944200515747 0.50985389947891235
0.81449323892593384 0.91654336452484131 0.51577997207641602
0.8243597149848938 0.91850757598876953 0.52300727367401123
0.83595430850982666 0.92023104429244995 0.52668523788452148
0.84841799736022949 0.92230528593063354 0.52898740768432617
0.86343228816986084 0.92400413751602173 0.53116661310195923
0.8812071681022644 0.92589926719665527 0.53521299362182617
0.90004426240921021 0.92825138568878174 0.54004585742950439
0.91914635896682739 0.93189054727554321 0.54463094472885132
0.9401969313621521 0.93672400712966919 0.54908430576324463
0 0.15455643832683563 0.20769506692886353
0 0.15545059740543365 0.20693953335285187
0 0.15948428213596344 0.20923759043216705
0.019171725958585739 0.16138555109500885 0.21176676452159882
0.10461820662021637 0.16749800741672516 0.21421976387500763
0.23163844645023346 0.17437523603439331 0.21954204142093658
0.39879465103149414 0.18510785698890686 0.22565184533596039
0.585274338722229 0.20710492134094238 0.22803035378456116
0.74989402294158936 0.25700569152832031 0.22865660488605499
0.86886918544769287 0.34907543659210205 0.23081305623054504
0.9401053786277771 0.44190967082977295 0.2397584468126297
0.97765755653381348 0.524860680103302 0.26208645105361938
0.99715089797973633 0.58684331178665161 0.28946015238761902
0 0.16169387102127075 0.21144509315490723
0 0.16308453679084778 0.2102842777967453
0.0013948178384453058 0.16805587708950043 0.21181124448776245
0.036953914910554886 0.17394912242889404 0.21454794704914093
0.12914298474788666 0.1816430389881134 0.21794059872627258
0.2591392993927002 0.19160051643848419 0.22263282537460327
0.42551499605178833 0.20898786187171936 0.22756130993366241
0.60385268926620483 0.23534087836742401 0.22997520864009857
0.75783509016036987 0.29448458552360535 0.22953325510025024
0.8700556755065918 0.37620943784713745 0.23010216653347015
0.93887466192245483 0.45910170674324036 0.23807515203952789
0.97732031345367432 0.53743815422058105 0.26041075587272644
0.99702531099319458 0.59552919864654541 0.28753241896629333
0 0.1864904910326004 0.21661406755447388
0 0.18675300478935242 0.21563060581684113
0.011239578947424889 0.19142043590545654 0.21684330701828003
0.070908688008785248 0.1984180212020874 0.21982347965240479
0.17110575735569 0.20936986804008484 0.22262683510780334
0.30028337240219116 0.22583070397377014 0.22533600032329559
0.46037951111793518 0.24981535971164703 0.22694827616214752
0.62446516752243042 0.28266477584838867 0.22723948955535889
0.76393872499465942 0.3348088264465332 0.22563979029655457
0.8692328929901123 0.41382259130477905 0.22615809738636017
0.93601036071777344 0.49002301692962646 0.23654766380786896
0.97266334295272827 0.55903440713882446 0.26017197966575623
0.99427807331085205 0.6152225136756897 0.28885003924369812
0 0.23246496915817261 0.22253550589084625
0 0.23313044011592865 0.22129340469837189
0.020768333226442337 0.2384808212518692 0.22276237607002258
0.10075231641530991 0.2468685656785965 0.22459667921066284
0.21689395606517792 0.26048034429550171 0.22508622705936432
0.35130450129508972 0.27751544117927551 0.22287870943546295
0.4978061318397522 0.29999533295631409 0.22078032791614532
0.6448175311088562 0.33474010229110718 0.21880608797073364
0.77513480186462402 0.39034697413444519 0.21546328067779541
0.87095272541046143 0.46153050661087036 0.21645106375217438
0.93106329441070557 0.5277896523475647 0.22963438928127289
0.96684569120407104 0.58617562055587769 0.25510966777801514
0.98988282680511475 0.63486325740814209 0.28467419743537903
0 0.31512689590454102 0.2259170264005661
0 0.31826701760292053 0.22390536963939667
0.019651779904961586 0.32493883371353149 0.22563906013965607
0.11822973191738129 0.3325226902961731 0.22669088840484619
0.25184470415115356 0.34490880370140076 0.22334221005439758
0.39745917916297913 0.36505937576293945 0.21726727485656738
0.53723758459091187 0.38445273041725159 0.21071547269821167
0.66759246587753296 0.41165846586227417 0.20592100918292999
0.78329277038574219 0.45606124401092529 0.2004302442073822
0.86809712648391724 0.50943946838378906 0.20138232409954071
0.92329400777816772 0.56420731544494629 0.21746547520160675
0.95854467153549194 0.61304223537445068 0.24486924707889557
0.98363447189331055 0.65275245904922485 0.27495661377906799
0.00023236742708832026 0.43796995282173157 0.22438724339008331
0.00039080451824702322 0.43885856866836548 0.22327539324760437
0.02026437409222126 0.44380423426628113 0.22454133629798889
0.13938175141811371 0.44752135872840881 0.22413799166679382
