films/polaroid_px-680.cube
# Created by: G'MIC (https://gmic.eu)
TITLE "polaroid_px-680"
# LUT size
LUT_3D_SIZE 5
# Data domain
DOMAIN_MIN 0.0 0.0 0.0
DOMAIN_MAX 1.0 1.0 1.0
# LUT data points
0.025685537606477737 0.18039216101169586 0.20784313976764679
0.10243097692728043 0.18489630520343781 0.20784313976764679
0.54170966148376465 0.18708591163158417 0.20071302354335785
0.87871110439300537 0.35249155759811401 0.20645821094512939
0.97669470310211182 0.55531787872314453 0.2912631630897522
0.0024191015399992466 0.25048282742500305 0.20681573450565338
0.17743802070617676 0.2780558168888092 0.20179684460163116
0.61201953887939453 0.32921311259269714 0.18555749952793121
0.86668103933334351 0.46230301260948181 0.19727243483066559
0.96891850233078003 0.60125440359115601 0.29358300566673279
0.0018823063001036644 0.51504343748092651 0.21010679006576538
0.14675793051719666 0.52628958225250244 0.21604630351066589
0.59535938501358032 0.57993990182876587 0.21096129715442657
0.83434885740280151 0.62977820634841919 0.22100326418876648
0.94421696662902832 0.67067521810531616 0.29565918445587158
0.22605288028717041 0.70458453893661499 0.27781975269317627
0.36320370435714722 0.70360511541366577 0.2834530770778656
0.59614640474319458 0.72192353010177612 0.31054317951202393
0.79442989826202393 0.76350730657577515 0.35848134756088257
0.91890400648117065 0.8016124963760376 0.41307532787322998
0.61145269870758057 0.86292761564254761 0.4517359733581543
0.64371484518051147 0.86480545997619629 0.46200102567672729
0.70919442176818848 0.87683892250061035 0.48963227868080139
0.79789155721664429 0.89519572257995605 0.52634423971176147
0.86164921522140503 0.91478967666625977 0.56437456607818604
0.025269392877817154 0.18402647972106934 0.23140823841094971
0.14924690127372742 0.19334776699542999 0.23679801821708679
0.57901346683502197 0.16484329104423523 0.28214100003242493
0.88335186243057251 0.40799954533576965 0.35231587290763855
0.96660584211349487 0.61319738626480103 0.43229243159294128
0.0099775129929184914 0.28814205527305603 0.27099615335464478
0.2846253514289856 0.3126196563243866 0.2845579981803894
0.65801197290420532 0.38112637400627136 0.31007063388824463
0.86597084999084473 0.52610749006271362 0.35942986607551575
0.95665860176086426 0.64174145460128784 0.4206182062625885
0.19712549448013306 0.53837889432907104 0.30933323502540588
0.34932130575180054 0.55320227146148682 0.31170415878295898
0.64143341779708862 0.59729957580566406 0.32761391997337341
0.83897852897644043 0.63529378175735474 0.34140247106552124
0.94299113750457764 0.69214785099029541 0.40066307783126831
0.3732602596282959 0.70931971073150635 0.34535416960716248
0.44741228222846985 0.7102852463722229 0.34940612316131592
0.62809187173843384 0.72874492406845093 0.38032782077789307
0.80185157060623169 0.7681843638420105 0.42069074511528015
0.91891628503799438 0.8025214672088623 0.46271410584449768
0.62736505270004272 0.86819112300872803 0.47578898072242737
0.64877802133560181 0.86189031600952148 0.47596323490142822
0.71491628885269165 0.87611311674118042 0.50665628910064697
0.79892247915267944 0.89546942710876465 0.5428200364112854
0.87242811918258667 0.92439138889312744 0.58844053745269775
0.16461201012134552 0.21459680795669556 0.40871813893318176
0.3998405933380127 0.25069835782051086 0.42139959335327148
0.67346346378326416 0.39633619785308838 0.45007890462875366
0.86062788963317871 0.42773893475532532 0.48645487427711487
0.96489816904067993 0.59960132837295532 0.52424120903015137
0.14400798082351685 0.35969480872154236 0.43954378366470337
0.45416513085365295 0.39204695820808411 0.4553525447845459
0.70292973518371582 0.51788932085037231 0.47266831994056702
0.85677826404571533 0.54893296957015991 0.50078886747360229
0.95142292976379395 0.67436772584915161 0.54345053434371948
0.27912884950637817 0.55677610635757446 0.43085664510726929
0.46494799852371216 0.57336729764938354 0.44601023197174072
0.71114683151245117 0.62743532657623291 0.48362335562705994
0.84273672103881836 0.68190246820449829 0.51042383909225464
0.93364280462265015 0.73838835954666138 0.54375344514846802
0.48658546805381775 0.7049376368522644 0.4497741162776947
0.57553571462631226 0.71661889553070068 0.46094942092895508
0.68937039375305176 0.74087786674499512 0.48463314771652222
0.81731259822845459 0.77931272983551025 0.51729494333267212
0.91942691802978516 0.80228585004806519 0.53965234756469727
0.65402227640151978 0.86635071039199829 0.52558505535125732
0.66711103916168213 0.86488693952560425 0.52293139696121216
0.72124391794204712 0.88018357753753662 0.54153174161911011
0.80434572696685791 0.8939204216003418 0.57787704467773438
0.87910902500152588 0.92511427402496338 0.61991047859191895
0.51825797557830811 0.35591131448745728 0.6039806604385376
0.65543824434280396 0.41995158791542053 0.60029309988021851
0.79732954502105713 0.58606898784637451 0.60552042722702026
0.86243295669555664 0.69102144241333008 0.61340117454528809
0.9351571798324585 0.68482917547225952 0.62259256839752197
0.51312929391860962 0.4815121591091156 0.60262894630432129
0.64879137277603149 0.52007061243057251 0.60118001699447632
0.79424941539764404 0.64298278093338013 0.60688537359237671
0.86149615049362183 0.72573578357696533 0.61944502592086792
0.92962217330932617 0.71492946147918701 0.62676191329956055
0.40542888641357422 0.61557900905609131 0.56872981786727905
0.54674404859542847 0.62057048082351685 0.57664912939071655
0.75822693109512329 0.67862933874130249 0.60255616903305054
0.86097514629364014 0.76697748899459839 0.62593954801559448
0.92563199996948242 0.76606482267379761 0.63646197319030762
0.49835079908370972 0.72010892629623413 0.54612869024276733
0.56891781091690063 0.7246326208114624 0.55296838283538818
0.7067374587059021 0.74554574489593506 0.57806521654129028
0.84529346227645874 0.79930472373962402 0.62089163064956665
0.91151422262191772 0.84358316659927368 0.64930897951126099
0.59016656875610352 0.85422432422637939 0.56948423385620117
0.63600707054138184 0.86290717124938965 0.5747382640838623
0.72067499160766602 0.87744343280792236 0.59274744987487793
0.81943249702453613 0.90248042345046997 0.6321071982383728
0.88741087913513184 0.93366062641143799 0.67026501893997192
0.76883381605148315 0.67065739631652832 0.7269408106803894
0.79806631803512573 0.69115978479385376 0.72223454713821411
0.85414236783981323 0.74301278591156006 0.71713238954544067
0.89640289545059204 0.8170589804649353 0.71204096078872681
0.90979588031768799 0.85161405801773071 0.71299821138381958
0.76197642087936401 0.69850057363510132 0.72643923759460449
0.79179126024246216 0.71351462602615356 0.7202526330947876
0.85164421796798706 0.76245516538619995 0.71773052215576172
0.89534181356430054 0.83185392618179321 0.71413058042526245
0.90410500764846802 0.86581552028656006 0.71332979202270508
0.71576547622680664 0.73185485601425171 0.71754956245422363
0.7509157657623291 0.73631900548934937 0.71808189153671265
0.82818025350570679 0.77226018905639648 0.71582180261611938
0.88770145177841187 0.84705245494842529 0.71714073419570923
0.89736336469650269 0.88607335090637207 0.71713781356811523
0.62535315752029419 0.79368466138839722 0.70658719539642334
0.65002048015594482 0.78910797834396362 0.70214563608169556
0.73288524150848389 0.78997009992599487 0.69915568828582764
0.86431378126144409 0.84930723905563354 0.71548175811767578
0.90061777830123901 0.91445517539978027 0.73628264665603638
0.6493033766746521 0.90323317050933838 0.70330661535263062
0.66834491491317749 0.90657395124435425 0.70554512739181519
0.72595047950744629 0.91087031364440918 0.71248072385787964
0.81367462873458862 0.92321580648422241 0.72218590974807739
0.91679573059082031 0.96088677644729614 0.76975768804550171
