films/polaroid_px-680_warm.cube
# Created by: G'MIC (https://gmic.eu)
TITLE "polaroid_px-680_warm"
# LUT size
LUT_3D_SIZE 5
# Data domain
DOMAIN_MIN 0.0 0.0 0.0
DOMAIN_MAX 1.0 1.0 1.0
# LUT data points
0.25225242972373962 0.20708934962749481 0.082345552742481232
0.28073480725288391 0.21043644845485687 0.082209400832653046
0.55575507879257202 0.21133604645729065 0.065273329615592957
0.86206156015396118 0.30579087138175964 0.059218388050794601
0.98109245300292969 0.4680292010307312 0.19660761952400208
0.24877379834651947 0.25356212258338928 0.079915501177310944
0.32049500942230225 0.27435114979743958 0.071599923074245453
0.61610656976699829 0.31203994154930115 0.022062981501221657
0.85948348045349121 0.40217307209968567 0.038345996290445328
0.98247122764587402 0.5374138355255127 0.21000489592552185
0.23202642798423767 0.47710630297660828 0.072188735008239746
0.33693107962608337 0.4783778190612793 0.075998969376087189
0.59169584512710571 0.52932631969451904 0.05911935493350029
0.83120465278625488 0.58500975370407104 0.067418672144412994
0.95870119333267212 0.61499327421188354 0.17772349715232849
0.33828133344650269 0.67112725973129272 0.17417274415493011
0.40185061097145081 0.66925889253616333 0.18394182622432709
0.56837886571884155 0.69726252555847168 0.2230437695980072
0.77647203207015991 0.74308663606643677 0.286264568567276
0.92385321855545044 0.77541667222976685 0.37165144085884094
0.57725709676742554 0.82811492681503296 0.40817481279373169
0.63956749439239502 0.83231192827224731 0.44647577404975891
0.7173457145690918 0.83668726682662964 0.47990909218788147
0.82767301797866821 0.84526902437210083 0.53215146064758301
0.92049187421798706 0.85725533962249756 0.6012808084487915
0.25492867827415466 0.20816299319267273 0.11270401626825333
0.29940551519393921 0.21644763648509979 0.12299354374408722
0.59147411584854126 0.19356894493103027 0.1717342734336853
0.87080973386764526 0.36787724494934082 0.2715638279914856
0.97681576013565063 0.55915194749832153 0.38314417004585266
0.26462468504905701 0.27425375580787659 0.14905644953250885
0.3778824508190155 0.30120077729225159 0.17528347671031952
0.65428036451339722 0.34895592927932739 0.21420902013778687
0.8637925386428833 0.46869271993637085 0.28373178839683533
0.96856164932250977 0.5947272777557373 0.37437379360198975
0.3614560067653656 0.49351969361305237 0.21660761535167694
0.42942419648170471 0.50415319204330444 0.22050994634628296
0.63451820611953735 0.55734455585479736 0.24064624309539795
0.840038001537323 0.59106671810150146 0.25834497809410095
0.95136493444442749 0.65434771776199341 0.34503334760665894
0.40784814953804016 0.67718791961669922 0.26300272345542908
0.45600682497024536 0.68088024854660034 0.27090650796890259
0.59570473432540894 0.70517706871032715 0.3140224814414978
0.78694921731948853 0.74715757369995117 0.36986324191093445
0.92325830459594727 0.7809785008430481 0.43857786059379578
0.62207961082458496 0.83760279417037964 0.46186196804046631
0.64225989580154419 0.83710432052612305 0.4654574990272522
0.72558093070983887 0.83926504850387573 0.50474280118942261
0.83129388093948364 0.84480208158493042 0.55570918321609497
0.92474031448364258 0.85901975631713867 0.60458081960678101
0.31494686007499695 0.22989560663700104 0.33253180980682373
0.45345795154571533 0.25937265157699585 0.35277441143989563
0.65713226795196533 0.37888988852500916 0.39494195580482483
0.84548556804656982 0.38487216830253601 0.44119888544082642
0.96975117921829224 0.555866539478302 0.50788712501525879
0.32537975907325745 0.33798357844352722 0.37925633788108826
0.49099358916282654 0.36468520760536194 0.40054807066917419
0.68827694654464722 0.47791612148284912 0.43519824743270874
0.8508141040802002 0.49661067128181458 0.46981674432754517
0.95579516887664795 0.63693380355834961 0.53255254030227661
0.39086693525314331 0.5074230432510376 0.37530297040939331
0.49295768141746521 0.52356135845184326 0.39517655968666077
0.68969011306762695 0.58869653940200806 0.45360252261161804
0.84415453672409058 0.64919060468673706 0.49366939067840576
0.93664336204528809 0.72477430105209351 0.54682594537734985
0.49166423082351685 0.67284590005874634 0.40226376056671143
0.55357438325881958 0.68367195129394531 0.41757959127426147
0.66156810522079468 0.72077667713165283 0.45201730728149414
0.81199687719345093 0.76148128509521484 0.49903541803359985
0.92628937959671021 0.77743422985076904 0.53624504804611206
0.63968217372894287 0.832256019115448 0.51479983329772949
0.67310959100723267 0.8350033164024353 0.52378851175308228
0.73946964740753174 0.83829629421234131 0.54906672239303589
0.8335687518119812 0.8450695276260376 0.59411370754241943
0.92700964212417603 0.85750490427017212 0.65585589408874512
0.51890212297439575 0.34297963976860046 0.59138888120651245
0.62389612197875977 0.39611470699310303 0.59583652019500732
0.78156828880310059 0.54344707727432251 0.60893607139587402
0.85687297582626343 0.66048240661621094 0.62059420347213745
0.93751949071884155 0.65294432640075684 0.63239985704421997
0.52504020929336548 0.4428260326385498 0.59886741638183594
0.62248444557189941 0.47237327694892883 0.60062342882156372
0.78292554616928101 0.60093116760253906 0.61293160915374756
0.85748541355133057 0.69996964931488037 0.62820535898208618
0.9251176118850708 0.69537019729614258 0.63934403657913208
0.43299877643585205 0.56700259447097778 0.56387829780578613
0.54399192333221436 0.57834994792938232 0.57463353872299194
0.74350553750991821 0.64908039569854736 0.60900592803955078
0.85779094696044922 0.7448914647102356 0.63668954372406006
0.92303740978240967 0.74417054653167725 0.65016239881515503
0.46990182995796204 0.69008457660675049 0.53393304347991943
0.53096359968185425 0.6943659782409668 0.54121613502502441
0.67419332265853882 0.72165507078170776 0.57237231731414795
0.84029126167297363 0.77774643898010254 0.6308361291885376
0.92617470026016235 0.79891479015350342 0.66026616096496582
0.57557612657546997 0.82889485359191895 0.57684803009033203
0.62199687957763672 0.83038663864135742 0.58268320560455322
0.72420471906661987 0.83348315954208374 0.60319191217422485
0.83749485015869141 0.84527575969696045 0.64992815256118774
0.93564188480377197 0.85850584506988525 0.70265412330627441
0.75968450307846069 0.64152175188064575 0.75646263360977173
0.79225236177444458 0.66519695520401001 0.74872469902038574
0.85462093353271484 0.72671830654144287 0.74300408363342285
0.90516918897628784 0.78755557537078857 0.74534314870834351
0.94832617044448853 0.80609971284866333 0.75074928998947144
0.74756038188934326 0.67001909017562866 0.75336939096450806
0.78468680381774902 0.69179064035415649 0.7475011944770813
0.85285890102386475 0.74231243133544922 0.74555844068527222
0.90520131587982178 0.79852104187011719 0.74875837564468384
0.93517661094665527 0.81523853540420532 0.75516349077224731
0.69630986452102661 0.71760272979736328 0.74630880355834961
0.74198824167251587 0.72204881906509399 0.74808323383331299
0.83192628622055054 0.75742596387863159 0.74993664026260376
0.90326303243637085 0.80793601274490356 0.7536696195602417
0.93837064504623413 0.82720804214477539 0.76182264089584351
0.57927435636520386 0.77854686975479126 0.72822660207748413
0.61629736423492432 0.77965283393859863 0.73285359144210815
0.71814948320388794 0.7814745306968689 0.73995733261108398
0.87860441207885742 0.81304585933685303 0.75930631160736084
0.94621884822845459 0.84890091419219971 0.77709561586380005
0.66552555561065674 0.86050307750701904 0.74434608221054077
0.68430817127227783 0.85778629779815674 0.74536013603210449
0.74553722143173218 0.85604298114776611 0.75073111057281494
0.83329755067825317 0.85503536462783813 0.75962883234024048
0.95117902755737305 0.87125355005264282 0.79722344875335693
