films/polaroid_690.cube
# Created by: G'MIC (https://gmic.eu)
TITLE "polaroid_690"
# LUT size
LUT_3D_SIZE 13
# Data domain
DOMAIN_MIN 0.0 0.0 0.0
DOMAIN_MAX 1.0 1.0 1.0
# LUT data points
0.045357916504144669 0.056423500180244446 0.051745619624853134
0.068933852016925812 0.056983977556228638 0.052286814898252487
0.10835711658000946 0.053705222904682159 0.055083960294723511
0.17153047025203705 0.03980109840631485 0.054948799312114716
0.25669950246810913 0.014395096339285374 0.054779410362243652
0.35791474580764771 0.0010580174857750535 0.052418965846300125
0.4684620201587677 0.00010501637007109821 0.048383839428424835
0.58187353610992432 0 0.042773585766553879
0.69388240575790405 0 0.032021079212427139
0.79632872343063354 0 0.020230894908308983
0.88079512119293213 0 0.0086811892688274384
0.95037829875946045 0 0.0028651517350226641
0.99577659368515015 0.00038933847099542618 0.0035730698145925999
0.046684820204973221 0.076969325542449951 0.055130422115325928
0.072607807815074921 0.078534066677093506 0.054765947163105011
0.12024535983800888 0.0791153684258461 0.0546913743019104
0.19284653663635254 0.073642253875732422 0.054014738649129868
0.28439623117446899 0.050120111554861069 0.053082574158906937
0.38916796445846558 0.020288160070776939 0.050766155123710632
0.50390839576721191 0.0054975175298750401 0.044278521090745926
0.61744511127471924 2.994911301357206e-05 0.035760931670665741
0.72414612770080566 0 0.024317244067788124
0.82044577598571777 0 0.013439716771245003
0.90172851085662842 0 0.0040597203187644482
0.96602994203567505 0 0.00025669173919595778
0.99897760152816772 0 0.00053268135525286198
0.041834317147731781 0.12590305507183075 0.052626427263021469
0.074419774115085602 0.12652440369129181 0.051773130893707275
0.13275431096553802 0.1308271735906601 0.049234412610530853
0.21743817627429962 0.13612152636051178 0.044272061437368393
0.3214631974697113 0.12651912868022919 0.040160249918699265
0.43884167075157166 0.10080093890428543 0.035186603665351868
0.56168216466903687 0.070433884859085083 0.026298463344573975
0.66945385932922363 0.021147439256310463 0.018115339800715446
0.76460790634155273 0.0037429211661219597 0.011360512115061283
0.84976911544799805 0.0001898372865980491 0.0068996655754745007
0.92247265577316284 0 0.0020324855577200651
0.97702473402023315 0 3.9493338590546045e-06
0.99966627359390259 0.0029945224523544312 0.00015402401913888752
0.031147915869951248 0.20321428775787354 0.037071377038955688
0.070355959236621857 0.19961585104465485 0.037378259003162384
0.13929320871829987 0.20496630668640137 0.032852713018655777
0.23373213410377502 0.21845616400241852 0.024201426655054092
0.35033577680587769 0.22888094186782837 0.018344340845942497
0.48263493180274963 0.23020842671394348 0.014416429214179516
0.6141667366027832 0.21795116364955902 0.008844996802508831
0.72065860033035278 0.18043912947177887 0.0021278529893606901
0.80718928575515747 0.14052824676036835 0.00085527007468044758
0.88090705871582031 0.10161496698856354 0.00078400259371846914
0.94388914108276367 0.075855210423469543 0.0002525030286051333
0.98621571063995361 0.067730829119682312 0
0.99962365627288818 0.075135968625545502 0.00012835334928240627
0.018256962299346924 0.29520735144615173 0.013219975866377354
0.057747021317481995 0.29173606634140015 0.014815252274274826
0.13417087495326996 0.29510083794593811 0.0098224710673093796
0.23542687296867371 0.30998232960700989 0.0041959872469305992
0.35535511374473572 0.32958924770355225 0.0026864444371312857
0.49081572890281677 0.3444468080997467 0.0041536968201398849
0.62555134296417236 0.35669562220573425 0.0039320853538811207
0.74154436588287354 0.35935577750205994 0.00087049894500523806
0.83426600694656372 0.35180848836898804 9.7835763881448656e-05
0.90621089935302734 0.33346503973007202 0
0.963234543800354 0.30569171905517578 0
0.9949762225151062 0.29442819952964783 0
0.99999064207077026 0.2919687032699585 0
0.0093038072809576988 0.39483779668807983 0.00075272202957421541
0.042568415403366089 0.39140510559082031 0.0016545015387237072
0.11971735954284668 0.39095452427864075 0.00028411266976036131
0.22410567104816437 0.40162470936775208 0
0.34502631425857544 0.42179650068283081 0
0.47727680206298828 0.44255954027175903 1.7951517293113284e-05
0.60884076356887817 0.4625014066696167 5.7444853155175224e-05
0.72765672206878662 0.47741878032684326 0.00014145794557407498
0.82856684923171997 0.48934662342071533 0.00015887092740740627
0.90952843427658081 0.49883309006690979 0
0.96842747926712036 0.49652639031410217 0
0.99657714366912842 0.48361960053443909 0
1 0.4724382758140564 0
0.0024918948765844107 0.49646744132041931 0
0.022883277386426926 0.4924984872341156 0
0.094300031661987305 0.48900243639945984 0
0.20343227684497833 0.49290168285369873 0
0.32845580577850342 0.50773215293884277 0
0.45751667022705078 0.52853024005889893 0
0.58370131254196167 0.55028879642486572 0
0.70166283845901489 0.5688861608505249 0
0.80638235807418823 0.58667135238647461 0
0.89436304569244385 0.60475265979766846 0
0.95885664224624634 0.61364054679870605 0
0.99179857969284058 0.60893708467483521 0.00011174818791914731
0.9998658299446106 0.60263478755950928 0.0019275142112746835
0.00030843698186799884 0.59164535999298096 0
0.0055506988428533077 0.58899897336959839 0
0.072172246873378754 0.58399182558059692 0
0.19110201299190521 0.58208680152893066 0
0.31995347142219543 0.58973509073257446 0
0.4443911612033844 0.60679417848587036 0
0.56338620185852051 0.62738251686096191 0
0.67826414108276367 0.6456223726272583 0
0.78382784128189087 0.66159480810165405 0
0.87407326698303223 0.67536205053329468 0
0.94381839036941528 0.68186992406845093 5.0563439799589105e-06
0.98630756139755249 0.68500906229019165 0.00022936055029276758
0.99965071678161621 0.68912822008132935 0.011278488673269749
0.011581001803278923 0.67433220148086548 0
0.0043918834999203682 0.6756521463394165 8.8486020104028285e-05
0.080160088837146759 0.6704864501953125 7.5845156970899552e-05
0.21064698696136475 0.66492331027984619 0
0.33520740270614624 0.66614478826522827 0
0.44919392466545105 0.67660123109817505 0
0.55834966897964478 0.69374459981918335 0
0.66699832677841187 0.70862412452697754 0
0.76841241121292114 0.72089236974716187 0
0.85624176263809204 0.73060762882232666 0
0.92735004425048828 0.73611414432525635 0
0.97725170850753784 0.74033284187316895 0
0.99936515092849731 0.74514913558959961 0.0065222945995628834
0.094609983265399933 0.74450474977493286 0
0.084040381014347076 0.74734914302825928 0
0.16474433243274689 0.74358958005905151 0
0.28160089254379272 0.73707962036132812 0
0.38179013133049011 0.73309361934661865 0
0.47673824429512024 0.73745846748352051 0
0.57537662982940674 0.74959516525268555 0
0.67276942729949951 0.76248627901077271 0
0.76416563987731934 0.77311050891876221 0
0.84524494409561157 0.78139263391494751 0
0.91322839260101318 0.78750771284103394 0
0.96595603227615356 0.79231023788452148 0
0.99761098623275757 0.79654330015182495 0.0026238535065203905
0.24342259764671326 0.80647075176239014 0
0.25206652283668518 0.80790847539901733 0
0.30951353907585144 0.80598223209381104 0
0.38820657134056091 0.80183607339859009 0
0.45459499955177307 0.79620522260665894 0
0.52709513902664185 0.79725795984268188 0
0.61064183712005615 0.80609554052352905 0
0.69314491748809814 0.81625354290008545 0
0.77126449346542358 0.82526028156280518 0
0.84184521436691284 0.8329765796661377 0
0.90369194746017456 0.83976298570632935 0
0.95640295743942261 0.84469974040985107 0
0.99514609575271606 0.84854042530059814 0.0057862075045704842
0.39810639619827271 0.87030291557312012 0.016200032085180283
0.41170421242713928 0.87069964408874512 0.017346011474728584
0.44549688696861267 0.86913865804672241 0.016015265136957169
0.49022671580314636 0.86631041765213013 0.0077910479158163071
0.538543701171875 0.86336135864257812 0.0044527538120746613
0.59533756971359253 0.86404168605804443 0.0027697095647454262
0.65918630361557007 0.86875420808792114 0.00065473670838400722
0.72305804491043091 0.87612664699554443 0.0048831566236913204
0.78569000959396362 0.88213235139846802 0.0015799279790371656
0.84426862001419067 0.88887900114059448 0.0011921302648261189
0.89746683835983276 0.89699625968933105 0.0049809175543487072
0.94694036245346069 0.90227288007736206 0.0034345888998359442
0.9898262619972229 0.90722543001174927 0.042603094130754471
0.52324843406677246 0.9407305121421814 0.19194474816322327
0.53384160995483398 0.94005322456359863 0.18632818758487701
0.55258011817932129 0.93863463401794434 0.17668063938617706
0.5808836817741394 0.93650305271148682 0.13862277567386627
0.61712878942489624 0.93524432182312012 0.12229675799608231
0.66055154800415039 0.93399560451507568 0.096097178757190704
0.70794695615768433 0.93541985750198364 0.078922390937805176
0.75617092847824097 0.94106400012969971 0.11471434682607651
0.80474597215652466 0.94460886716842651 0.093893177807331085
0.85171252489089966 0.95055693387985229 0.098342776298522949
0.89549052715301514 0.95928961038589478 0.12945929169654846
0.94059586524963379 0.96481835842132568 0.10479605942964554
0.98243683576583862 0.97102677822113037 0.15247084200382233
0.04546254500746727 0.057982996106147766 0.07471051812171936
0.068947464227676392 0.058620035648345947 0.07641272246837616
0.10808826237916946 0.056365128606557846 0.077424980700016022
0.17144078016281128 0.040845878422260284 0.077832207083702087
0.25854113698005676 0.0118458466604352 0.079290427267551422
0.35872822999954224 6.5223845012951642e-05 0.0793624147772789
0.46813103556632996 0 0.07383621484041214
0.57904279232025146 0 0.070944108068943024
0.68729490041732788 0 0.065895289182662964
0.78847301006317139 0 0.054236035794019699
0.87729787826538086 0 0.038300413638353348
0.9504770040512085 0 0.025903111323714256
0.99621707201004028 0.00092608883278444409 0.025175865739583969
0.046433556824922562 0.078425496816635132 0.080244533717632294
0.07474815845489502 0.080846451222896576 0.081738188862800598
0.1224668025970459 0.081171326339244843 0.082346372306346893
0.19391654431819916 0.069477170705795288 0.081415481865406036
0.28517615795135498 0.041166536509990692 0.082073196768760681
0.38915956020355225 0.011820984072983265 0.081561997532844543
0.50128090381622314 0.00088002823758870363 0.075765363872051239
0.61224526166915894 0 0.068496048450469971
0.71680772304534912 0 0.05950496718287468
0.81305742263793945 0 0.047689653933048248
0.89846080541610718 0 0.032773274928331375
0.9684109091758728 2.1392224880401045e-06 0.018707768991589546
0.99956667423248291 0.0018708471907302737 0.018866550177335739
0.039779108017683029 0.12943468987941742 0.086207173764705658
0.076404273509979248 0.13029439747333527 0.086622126400470734
0.13650335371494293 0.13332387804985046 0.083981744945049286
0.22096559405326843 0.13113248348236084 0.080186150968074799
0.32411620020866394 0.1182875856757164 0.078575149178504944
0.43997696042060852 0.089364595711231232 0.076477333903312683
0.55700421333312988 0.049679655581712723 0.070994898676872253
0.66355162858963013 0.011453516781330109 0.063629567623138428
0.75799179077148438 0.0025477090384811163 0.050065416842699051
0.84369492530822754 0.00011548808834049851 0.039644397795200348
0.92082506418228149 0 0.028557721525430679
0.9814906120300293 3.8894953036106017e-07 0.01600329764187336
1 0.0072655770927667618 0.016199119389057159
0.022562019526958466 0.20777465403079987 0.082826338708400726
0.064162373542785645 0.20544339716434479 0.083566747605800629
0.13940930366516113 0.20996440947055817 0.077398575842380524
0.23823271691799164 0.22073774039745331 0.068987876176834106
0.35803726315498352 0.23000764846801758 0.066601216793060303
0.4901081919670105 0.22862417995929718 0.067550897598266602
0.61219888925552368 0.20169907808303833 0.061503734439611435
0.71576660871505737 0.16082832217216492 0.04699401929974556
0.80196094512939453 0.12830273807048798 0.032029695808887482
0.87645184993743896 0.096305802464485168 0.024527950212359428
0.94210773706436157 0.065550647675991058 0.019094863906502724
0.98861926794052124 0.047964584082365036 0.010810074396431446
1 0.08047504723072052 0.0091906525194644928
0.0035238377749919891 0.30404001474380493 0.066342912614345551
0.039026282727718353 0.30148246884346008 0.068677060306072235
0.12982189655303955 0.30154955387115479 0.058085482567548752
0.24128960072994232 0.31482598185539246 0.046948947012424469
0.36590197682380676 0.33615294098854065 0.042560204863548279
0.50210797786712646 0.35224118828773499 0.04529939591884613
0.63100022077560425 0.35601183772087097 0.044115029275417328
0.74105632305145264 0.35098391771316528 0.037212416529655457
0.83066308498382568 0.33988958597183228 0.027271585538983345
0.90237694978713989 0.32286763191223145 0.016512718051671982
0.96036970615386963 0.29887670278549194 0.0070213768631219864
0.99542325735092163 0.27588587999343872 0.0016351736849173903
1 0.2888130247592926 0.0003743788693100214
0.00020464729459490627 0.40593379735946655 0.040108129382133484
0.024113373830914497 0.40265849232673645 0.044732052832841873
0.11200390756130219 0.3976152241230011 0.032129548490047455
0.22757504880428314 0.40658873319625854 0.020601788535714149
0.35336658358573914 0.42854052782058716 0.0135358776897192
0.48593735694885254 0.44929206371307373 0.013319681398570538
0.61485761404037476 0.46631366014480591 0.013287876732647419
0.73135960102081299 0.47840353846549988 0.018634077161550522
0.82937979698181152 0.48688533902168274 0.017869642004370689
0.9081568717956543 0.49483409523963928 0.012716285884380341
0.96563065052032471 0.48925817012786865 0.0086279772222042084
0.99657160043716431 0.47638291120529175 0.010063814930617809
1 0.47148141264915466 0.0035990695469081402
1.0770910421342705e-06 0.50561100244522095 0.015417749993503094
0.010067225433886051 0.50242632627487183 0.026279300451278687
0.081775173544883728 0.49685019254684448 0.021029843017458916
0.20123989880084991 0.50006061792373657 0.0094070285558700562
0.33313474059104919 0.51484912633895874 0.0035855909809470177
0.46263289451599121 0.53417289257049561 0.0031406327616423368
0.58777225017547607 0.55443620681762695 0.0012829649494960904
0.70527094602584839 0.5728294849395752 0.00083597219781950116
0.80822926759719849 0.58954024314880371 0.00029377656755968928
0.89468824863433838 0.60622644424438477 0.0019037134479731321
0.95795542001724243 0.61397308111190796 0.0096164029091596603
0.99348616600036621 0.61006003618240356 0.031528621912002563
1 0.60437768697738647 0.035704877227544785
0 0.59971028566360474 0.0050619537942111492
0.0018001331482082605 0.5970340371131897 0.013559708371758461
0.064018979668617249 0.59188038110733032 0.010855745524168015
0.19155196845531464 0.59093469381332397 0.0021220636554062366
0.32490721344947815 0.59731113910675049 0.00090095668565481901
0.44832620024681091 0.61148428916931152 0.0014765571104362607
0.56659293174743652 0.63050073385238647 0.00012572045670822263
0.68072104454040527 0.64895713329315186 0
0.78523558378219604 0.66479289531707764 0
0.87512576580047607 0.67823582887649536 1.3329001376405358e-05
0.94467467069625854 0.68574059009552002 0.0039010441396385431
0.98928689956665039 0.68701255321502686 0.029796391725540161
1 0.68905001878738403 0.085051864385604858
0.012168405577540398 0.68186020851135254 0.00049258960643783212
0.013568893074989319 0.68009400367736816 0.0039730747230350971
0.087806656956672668 0.67545980215072632 0.0026761074550449848
0.21789173781871796 0.67200690507888794 1.4316334272734821e-05
0.3425409197807312 0.67226999998092651 1.0531556654314045e-05
0.45379295945167542 0.67995321750640869 0.00036876901867799461
0.56178176403045654 0.69474321603775024 7.8986677181092091e-06
0.6689257025718689 0.70973843336105347 0
0.76941585540771484 0.72231954336166382 0
0.857433021068573 0.73174214363098145 0
0.92907822132110596 0.73733460903167725 2.5012446712935343e-05
0.98038375377655029 0.7401500940322876 0.0051679573953151703
0.99980467557907104 0.74530375003814697 0.058440923690795898
0.10278694331645966 0.74943333864212036 0
0.10693028569221497 0.74869781732559204 0.00027431413764134049
0.17746569216251373 0.74503320455551147 0.00020915012282785028
0.28670510649681091 0.74038094282150269 0
0.38849014043807983 0.73723632097244263 0
0.48245090246200562 0.74005270004272461 0
0.57774269580841064 0.74983340501785278 0
0.67376196384429932 0.76183170080184937 0
0.76493406295776367 0.77276039123535156 0
0.8463057279586792 0.78093355894088745 0
0.91496133804321289 0.78688085079193115 0
0.96808028221130371 0.79175561666488647 0.0006588655523955822
0.99817907810211182 0.7972831130027771 0.035949841141700745
0.25252059102058411 0.80975675582885742 0.0013301625149324536
0.26382938027381897 0.80962574481964111 0.00081082514952868223
0.31669518351554871 0.80593419075012207 4.3891457607969642e-05
0.38887754082679749 0.802040696144104 0.00030360501841641963
0.45880526304244995 0.7986609935760498 0.00049926160136237741
0.53245848417282104 0.79931271076202393 9.2151116405148059e-05
0.61207294464111328 0.8050239086151123 0
0.6931195855140686 0.8141283392906189 0
0.77125537395477295 0.82347917556762695 0
0.84238451719284058 0.83122533559799194 0
0.90478157997131348 0.83818942308425903 0
0.95683807134628296 0.84400731325149536 0.00088722381042316556
0.99466502666473389 0.85002660751342773 0.035867143422365189
0.40137287974357605 0.87305909395217896 0.059004031121730804
0.41608169674873352 0.87295717000961304 0.057701665908098221
0.44874870777130127 0.87041640281677246 0.045985996723175049
0.48994144797325134 0.86634498834609985 0.029186129570007324
0.5383111834526062 0.86413633823394775 0.024715602397918701
0.59628909826278687 0.86474359035491943 0.017301581799983978
0.65855985879898071 0.86742866039276123 0.0076439501717686653
0.72168576717376709 0.87416279315948486 0.016758818179368973
0.78504002094268799 0.88095343112945557 0.015107233077287674
0.84421497583389282 0.88638925552368164 0.0077335434034466743
0.89798766374588013 0.89477294683456421 0.018070206046104431
0.94674909114837646 0.90058356523513794 0.021178316324949265
0.98838788270950317 0.90679222345352173 0.073408372700214386
0.51734656095504761 0.94045758247375488 0.22871500253677368
0.53287184238433838 0.9419371485710144 0.23247426748275757
0.55223220586776733 0.94107562303543091 0.22289720177650452
0.57822483777999878 0.93812084197998047 0.18974302709102631
0.614033043384552 0.93642854690551758 0.17585161328315735
0.65914136171340942 0.93554019927978516 0.1420292854309082
0.70611017942428589 0.93648660182952881 0.12437057495117188
0.75347608327865601 0.94223171472549438 0.16205178201198578
0.80231702327728271 0.94644725322723389 0.15643058717250824
0.85008823871612549 0.95082646608352661 0.14155986905097961
0.89495837688446045 0.95796531438827515 0.15693393349647522
0.93987488746643066 0.96326029300689697 0.14623820781707764
0.98166286945343018 0.9683462381362915 0.17675656080245972
0.034389957785606384 0.058597102761268616 0.12275097519159317
0.065052390098571777 0.05865802988409996 0.12748758494853973
0.11574804037809372 0.056251361966133118 0.13338117301464081
0.18235549330711365 0.044801555573940277 0.13229167461395264
0.26587903499603271 0.024273352697491646 0.12837603688240051
0.36336356401443481 0.0047698826529085636 0.13019007444381714
0.4674588143825531 5.7175580877810717e-05 0.12492600828409195
0.57326477766036987 0 0.12359654903411865
0.67591136693954468 0 0.12125769257545471
0.7738918662071228 8.1679398135747761e-05 0.11021766066551208
0.864654541015625 4.4729196815751493e-05 0.090029634535312653
0.94204032421112061 0 0.070863179862499237
0.99415618181228638 0.0015425737947225571 0.064643234014511108
0.036818664520978928 0.081768780946731567 0.13057255744934082
0.071975409984588623 0.083693377673625946 0.13492962718009949
0.12854973971843719 0.085182294249534607 0.14052534103393555
0.20053058862686157 0.076587453484535217 0.1394825279712677
0.28700476884841919 0.050311699509620667 0.1360994428396225
0.38833394646644592 0.011779635213315487 0.13543282449245453
0.49452340602874756 2.106311330862809e-05 0.1290806382894516
0.60075497627258301 0 0.12116045504808426
0.70151495933532715 0 0.11650419235229492
0.79534232616424561 0 0.10762987285852432
0.88271594047546387 0 0.090880781412124634
0.95488965511322021 0 0.071758478879928589
0.99669474363327026 0.002672472270205617 0.066653281450271606
0.033549800515174866 0.13289310038089752 0.14268097281455994
0.076719485223293304 0.13481001555919647 0.14559964835643768
0.14301173388957977 0.13926593959331512 0.14880223572254181
0.22713103890419006 0.13496863842010498 0.14973455667495728
0.32449015974998474 0.11618874967098236 0.14590249955654144
0.43377068638801575 0.071346700191497803 0.14237561821937561
0.54251402616500854 0.032626193016767502 0.13655716180801392
0.64582031965255737 0.0092361448332667351 0.12798689305782318
0.73907577991485596 0.00013598274381365627 0.11734367907047272
0.82613575458526611 0 0.10598671436309814
0.90597772598266602 0 0.091240674257278442
0.96906894445419312 0 0.073754072189331055
0.9984549880027771 0.0058797500096261501 0.067963637411594391
0.019546642899513245 0.21456892788410187 0.15384550392627716
0.066735304892063141 0.21515204012393951 0.15502782166004181
0.14804255962371826 0.22024922072887421 0.15374767780303955
0.24862095713615417 0.22705636918544769 0.15223477780818939
0.36425492167472839 0.22716955840587616 0.15116538107395172
0.48873060941696167 0.21885065734386444 0.15383923053741455
0.60184210538864136 0.18423978984355927 0.15000163018703461
0.70058631896972656 0.13488700985908508 0.13854750990867615
0.78464007377624512 0.087483078241348267 0.12041214853525162
0.86128181219100952 0.061947975307703018 0.10596466064453125
0.93068200349807739 0.039341900497674942 0.092978715896606445
0.98138701915740967 0.038425985723733902 0.074443012475967407
0.99971616268157959 0.058875273913145065 0.064038671553134918
0.0025081709027290344 0.31839385628700256 0.15624867379665375
0.040614020079374313 0.3176291286945343 0.15741331875324249
0.13907565176486969 0.31648033857345581 0.15106265246868134
0.25479832291603088 0.32461369037628174 0.14311881363391876
0.37878981232643127 0.33981072902679443 0.13643091917037964
0.50981801748275757 0.35135960578918457 0.13811525702476501
0.63371074199676514 0.35062211751937866 0.14160796999931335
0.73759925365447998 0.33668234944343567 0.13844035565853119
0.82260710000991821 0.31616383790969849 0.12914004921913147
0.89481550455093384 0.2970745861530304 0.11574627459049225
0.95471584796905518 0.27264142036437988 0.091720461845397949
0.99406665563583374 0.24893228709697723 0.067494742572307587
1 0.24621486663818359 0.052592243999242783
9.9630917247850448e-05 0.4254758358001709 0.14353859424591064
0.022426905110478401 0.42320561408996582 0.14473272860050201
0.11234982311725616 0.41656291484832764 0.13655902445316315
0.2364317774772644 0.41602098941802979 0.12304377555847168
0.36611443758010864 0.43360361456871033 0.10435744374990463
0.4960210919380188 0.45283281803131104 0.0966215580701828
0.62184327840805054 0.46815764904022217 0.093332059681415558
0.73667526245117188 0.4790651798248291 0.11004135757684708
0.83121061325073242 0.48590618371963501 0.11790638417005539
0.90714085102081299 0.48965418338775635 0.1255047619342804
0.96350973844528198 0.47602805495262146 0.11723045259714127
0.99722576141357422 0.46702113747596741 0.10077514499425888
1 0.4571557343006134 0.077998369932174683
0 0.52348142862319946 0.12066078931093216
0.0050307479687035084 0.52128815650939941 0.1235799565911293
0.070656180381774902 0.5133482813835144 0.11643093079328537
0.20334205031394958 0.51048558950424194 0.093900851905345917
0.34166860580444336 0.52026593685150146 0.076327994465827942
0.47004935145378113 0.53784263134002686 0.072618149220943451
0.59393352270126343 0.55848962068557739 0.060849674046039581
0.71105498075485229 0.57746100425720215 0.054050926119089127
0.81107968091964722 0.59273755550384521 0.04915943369269371
0.89466530084609985 0.60612612962722778 0.084761649370193481
0.95762687921524048 0.60900545120239258 0.1246478334069252
0.99496495723724365 0.60942643880844116 0.1559155285358429
