films/polaroid_time_zero_expired.cube
# Created by: G'MIC (https://gmic.eu)
TITLE "polaroid_time_zero_expired"
# LUT size
LUT_3D_SIZE 5
# Data domain
DOMAIN_MIN 0.0 0.0 0.0
DOMAIN_MAX 1.0 1.0 1.0
# LUT data points
0.61433660984039307 0.34721297025680542 0.13208812475204468
0.63044768571853638 0.3476005494594574 0.12985335290431976
0.69337683916091919 0.34979653358459473 0.13178201019763947
0.80421352386474609 0.35532623529434204 0.13209453225135803
0.93220293521881104 0.38604456186294556 0.1398678719997406
0.62609940767288208 0.3835887610912323 0.12226806581020355
0.65035444498062134 0.38868072628974915 0.12104611843824387
0.71408599615097046 0.39481130242347717 0.12142585217952728
0.81485110521316528 0.40343430638313293 0.11476582288742065
0.93583047389984131 0.43516173958778381 0.1283162534236908
0.66472357511520386 0.50202196836471558 0.062546432018280029
0.69301199913024902 0.50514644384384155 0.050538681447505951
0.76086634397506714 0.51465708017349243 0.072642505168914795
0.84324997663497925 0.53060078620910645 0.095342062413692474
0.93574309349060059 0.55432844161987305 0.08392971009016037
0.72504770755767822 0.66111207008361816 0
0.7376595139503479 0.65724331140518188 0
0.80202168226242065 0.66772139072418213 0
0.87730288505554199 0.68681049346923828 0.082055754959583282
0.94611936807632446 0.70789968967437744 0.23509635031223297
0.80949932336807251 0.82024544477462769 0.012176827527582645
0.81848937273025513 0.81222379207611084 0.013314759358763695
0.86090683937072754 0.81844973564147949 0.0089415609836578369
0.92123967409133911 0.82874536514282227 0.21898117661476135
0.96700292825698853 0.83626753091812134 0.41351026296615601
0.62511128187179565 0.34909194707870483 0.15947915613651276
0.64106160402297974 0.35093647241592407 0.16264635324478149
0.70059877634048462 0.35419192910194397 0.17202331125736237
0.81466734409332275 0.36631697416305542 0.18274176120758057
0.93465602397918701 0.39996176958084106 0.19838099181652069
0.63571721315383911 0.38469421863555908 0.15774190425872803
0.65936678647994995 0.39215615391731262 0.16068817675113678
0.72336035966873169 0.39761292934417725 0.16782829165458679
0.82816773653030396 0.40935128927230835 0.16896162927150726
0.94091486930847168 0.44154059886932373 0.18748253583908081
0.6670072078704834 0.49988546967506409 0.13032057881355286
0.69270175695419312 0.50800037384033203 0.11805810034275055
0.76247084140777588 0.51678168773651123 0.13507670164108276
0.84963858127593994 0.5318063497543335 0.15867237746715546
0.94093805551528931 0.55748891830444336 0.16058531403541565
0.71680724620819092 0.66030418872833252 0.045910615473985672
0.73978006839752197 0.66120260953903198 0.031855117529630661
0.80155915021896362 0.67064368724822998 0.031210146844387054
0.88057005405426025 0.69289833307266235 0.18845255672931671
0.94766360521316528 0.71694254875183105 0.27071747183799744
0.80610048770904541 0.81851810216903687 0.14556318521499634
0.82049047946929932 0.81938385963439941 0.11475285887718201
0.85788887739181519 0.82153022289276123 0.061470989137887955
0.92037022113800049 0.82965797185897827 0.26296842098236084
0.96431344747543335 0.83826392889022827 0.42936664819717407
0.68292236328125 0.36230102181434631 0.2810402512550354
0.6973382830619812 0.36471948027610779 0.28706029057502747
0.7355276346206665 0.3754546046257019 0.29343992471694946
0.82926446199417114 0.37497854232788086 0.31012433767318726
0.93663966655731201 0.41458860039710999 0.34302008152008057
0.70245105028152466 0.41018012166023254 0.28761842846870422
0.72241055965423584 0.42393729090690613 0.2882314920425415
0.75607550144195557 0.43054357171058655 0.29396268725395203
0.83990675210952759 0.42446863651275635 0.30654558539390564
0.94280773401260376 0.46215429902076721 0.33413791656494141
0.70508348941802979 0.50761944055557251 0.26556515693664551
0.72908896207809448 0.51645112037658691 0.26917383074760437
0.78299909830093384 0.53243231773376465 0.27528184652328491
0.8565329909324646 0.53751760721206665 0.28063106536865234
0.94614559412002563 0.5663827657699585 0.2982831597328186
0.73284095525741577 0.65809386968612671 0.24690261483192444
0.74977856874465942 0.6619110107421875 0.25014349818229675
0.80078780651092529 0.67486679553985596 0.2393258810043335
0.87900781631469727 0.69633090496063232 0.31687042117118835
0.94522058963775635 0.71214777231216431 0.35050228238105774
0.80747032165527344 0.81628865003585815 0.32802379131317139
0.81978082656860352 0.8193475604057312 0.31889992952346802
0.85485893487930298 0.82509100437164307 0.29915699362754822
0.91129964590072632 0.83122724294662476 0.33762562274932861
0.96164768934249878 0.84144413471221924 0.50557518005371094
0.78173291683197021 0.41874048113822937 0.50783437490463257
0.79042798280715942 0.42146581411361694 0.50703966617584229
0.8183671236038208 0.45209285616874695 0.52498078346252441
0.86246049404144287 0.46926394104957581 0.50718957185745239
0.93373602628707886 0.46790197491645813 0.50254702568054199
0.80581027269363403 0.49687105417251587 0.50447487831115723
0.8161277174949646 0.50387483835220337 0.50568270683288574
0.83691674470901489 0.52293950319290161 0.52202373743057251
0.86963504552841187 0.53101366758346558 0.50615149736404419
0.93731987476348877 0.51327461004257202 0.5100017786026001
0.80640929937362671 0.57280302047729492 0.48917597532272339
0.82376950979232788 0.5881769061088562 0.48962792754173279
0.85506355762481689 0.61842769384384155 0.49823984503746033
0.87858384847640991 0.62559294700622559 0.50119590759277344
0.94248437881469727 0.58716613054275513 0.51451224088668823
0.7946740984916687 0.67857784032821655 0.45491307973861694
0.80594617128372192 0.6806909441947937 0.45460522174835205
0.84006261825561523 0.68880420923233032 0.46719217300415039
0.88610386848449707 0.70814114809036255 0.47911089658737183
0.94527643918991089 0.707874596118927 0.49790439009666443
0.81938570737838745 0.81218385696411133 0.49338343739509583
0.82894974946975708 0.81033474206924438 0.49110808968544006
0.8500632643699646 0.81971430778503418 0.49832698702812195
0.89787960052490234 0.83225154876708984 0.49710831046104431
0.95740783214569092 0.84336137771606445 0.60857307910919189
0.86739921569824219 0.57188946008682251 0.71853607892990112
0.8726915717124939 0.57888460159301758 0.71845793724060059
0.88204795122146606 0.59969121217727661 0.72152078151702881
0.9012417197227478 0.62542784214019775 0.72666889429092407
0.93058818578720093 0.64723938703536987 0.72074908018112183
0.87987005710601807 0.6274104118347168 0.71567094326019287
0.88437813520431519 0.63252151012420654 0.717204749584198
0.88891029357910156 0.64874404668807983 0.71905648708343506
0.90512579679489136 0.6711609959602356 0.73134058713912964
0.93267953395843506 0.67482239007949829 0.71804571151733398
0.88615930080413818 0.70200228691101074 0.71398013830184937
0.89226603507995605 0.7056889533996582 0.714854896068573
0.90027904510498047 0.71661818027496338 0.71820330619812012
0.9112701416015625 0.73192566633224487 0.73168706893920898
0.93134284019470215 0.73146116733551025 0.72722464799880981
0.87367826700210571 0.74874109029769897 0.71656018495559692
0.87850230932235718 0.75364202260971069 0.71807205677032471
0.89702355861663818 0.76617181301116943 0.72291988134384155
0.91802150011062622 0.78917044401168823 0.73456048965454102
0.93529927730560303 0.79217815399169922 0.73541945219039917
0.86612898111343384 0.83333098888397217 0.72322022914886475
0.87067443132400513 0.83426076173782349 0.7246711254119873
0.8883863091468811 0.83902609348297119 0.72683525085449219
0.91567504405975342 0.84683507680892944 0.73642033338546753
0.9482606053352356 0.85430794954299927 0.76340991258621216
