films/polaroid_px-100uv+_warm.cube
# Created by: G'MIC (https://gmic.eu)
TITLE "polaroid_px-100uv+_warm"
# LUT size
LUT_3D_SIZE 7
# Data domain
DOMAIN_MIN 0.0 0.0 0.0
DOMAIN_MAX 1.0 1.0 1.0
# LUT data points
0.27882769703865051 0.25674790143966675 0.25937911868095398
0.29212647676467896 0.27015417814254761 0.27355045080184937
0.33628293871879578 0.32082587480545044 0.32338699698448181
0.3977319598197937 0.38612055778503418 0.38963460922241211
0.46983838081359863 0.45912355184555054 0.46190923452377319
0.53624880313873291 0.52572798728942871 0.52631509304046631
0.62955504655838013 0.61380362510681152 0.60422301292419434
0.29894366860389709 0.27982041239738464 0.28161275386810303
0.30956578254699707 0.29247555136680603 0.29415345191955566
0.34391948580741882 0.32983464002609253 0.33236581087112427
0.40167990326881409 0.39192751049995422 0.39373445510864258
0.47081473469734192 0.4617493748664856 0.46295255422592163
0.53945016860961914 0.52922976016998291 0.52872973680496216
0.63740032911300659 0.62059170007705688 0.61157006025314331
0.36209771037101746 0.34820035099983215 0.35127538442611694
0.36440163850784302 0.35121351480484009 0.35416972637176514
0.38872155547142029 0.37711739540100098 0.38048651814460754
0.43030473589897156 0.41915073990821838 0.42246159911155701
0.4804789125919342 0.4712689220905304 0.4726264476776123
0.5474202036857605 0.5362250804901123 0.5357736349105835
0.64272010326385498 0.62722676992416382 0.6164742112159729
0.43661457300186157 0.42790040373802185 0.42877143621444702
0.43411791324615479 0.42396765947341919 0.42627477645874023
0.44375425577163696 0.43493944406509399 0.43686696887016296
0.47275793552398682 0.46397441625595093 0.46492880582809448
0.51641559600830078 0.50716596841812134 0.50767934322357178
0.57235324382781982 0.5598456859588623 0.55712640285491943
0.65861296653747559 0.63994622230529785 0.62726306915283203
0.5140073299407959 0.50395315885543823 0.50554853677749634
0.51032567024230957 0.50148129463195801 0.50145053863525391
0.51182764768600464 0.50190025568008423 0.50297403335571289
0.53370130062103271 0.52468419075012207 0.52431309223175049
0.5720335841178894 0.55823862552642822 0.55707448720932007
0.62981665134429932 0.61303812265396118 0.60427677631378174
0.70237272977828979 0.6824982762336731 0.66418731212615967
0.61911565065383911 0.60349553823471069 0.59540683031082153
0.61335784196853638 0.59695792198181152 0.59186452627182007
0.61196440458297729 0.59791016578674316 0.59013926982879639
0.63132584095001221 0.61395502090454102 0.60667449235916138
0.66678303480148315 0.64878922700881958 0.63584250211715698
0.70582860708236694 0.68458831310272217 0.66780281066894531
0.767200767993927 0.74188005924224854 0.71919494867324829
0.76787978410720825 0.74491202831268311 0.72093367576599121
0.7683146595954895 0.74388635158538818 0.72009813785552979
0.76684874296188354 0.74389010667800903 0.71845352649688721
0.77464085817337036 0.75089317560195923 0.72545337677001953
0.79519987106323242 0.77095520496368408 0.74510294198989868
0.82248371839523315 0.80013811588287354 0.7711482048034668
0.84581989049911499 0.82548725605010986 0.79496598243713379
0.30693233013153076 0.28880837559700012 0.29105958342552185
0.32461261749267578 0.30747511982917786 0.31040799617767334
0.37303397059440613 0.361197829246521 0.36403518915176392
0.43149974942207336 0.42142978310585022 0.42365661263465881
0.4953569769859314 0.48665949702262878 0.48711869120597839
0.56498342752456665 0.5509028434753418 0.5506664514541626
0.65557289123535156 0.63858276605606079 0.62544369697570801
0.33061617612838745 0.31523364782333374 0.31721383333206177
0.34914249181747437 0.33385804295539856 0.33694693446159363
0.38518297672271729 0.37302288413047791 0.37578281760215759
0.44159698486328125 0.43083038926124573 0.43374839425086975
0.50075554847717285 0.49193495512008667 0.49264675378799438
0.57009148597717285 0.55759286880493164 0.55512291193008423
0.66118162870407104 0.64278453588485718 0.63092446327209473
0.40263193845748901 0.38977116346359253 0.39267763495445251
0.40466791391372681 0.39476147294044495 0.3965258002281189
0.42083615064620972 0.4103715717792511 0.41289108991622925
0.45875990390777588 0.44863051176071167 0.45091170072555542
0.50679653882980347 0.49750533699989319 0.49877282977104187
0.57309252023696899 0.56151467561721802 0.55770272016525269
0.66641002893447876 0.64704298973083496 0.63389730453491211
0.46667519211769104 0.4571724534034729 0.45913857221603394
0.46509110927581787 0.45616412162780762 0.45721548795700073
0.47175696492195129 0.46175488829612732 0.4638935923576355
0.49717867374420166 0.48780277371406555 0.48923599720001221
0.53583633899688721 0.52529919147491455 0.52554780244827271
0.59022325277328491 0.57634598016738892 0.57222729921340942
0.67862236499786377 0.65773099660873413 0.64422798156738281
0.53767889738082886 0.52748852968215942 0.52694237232208252
0.53460747003555298 0.5236402153968811 0.52362662553787231
0.53477734327316284 0.52458745241165161 0.52438104152679443
0.55327504873275757 0.54232347011566162 0.54019546508789062
0.58843439817428589 0.57519429922103882 0.57148659229278564
0.64201813936233521 0.62478888034820557 0.61461770534515381
0.71642816066741943 0.69613540172576904 0.67639988660812378
0.63750874996185303 0.62141209840774536 0.61180335283279419
0.63450294733047485 0.61807888746261597 0.60865747928619385
0.6325410008430481 0.61657524108886719 0.60713404417037964
0.64679288864135742 0.62878811359405518 0.61885964870452881
0.67860478162765503 0.65816479921340942 0.64500123262405396
0.71435731649398804 0.69422489404678345 0.67489105463027954
0.77537292242050171 0.74996709823608398 0.72525805234909058
0.77852404117584229 0.75506734848022461 0.72969561815261841
0.77634412050247192 0.75327903032302856 0.7275732159614563
0.77678316831588745 0.75226211547851562 0.72817313671112061
0.78175932168960571 0.75824129581451416 0.73232781887054443
0.80267894268035889 0.77880287170410156 0.75090521574020386
0.82643300294876099 0.8044007420539856 0.77515417337417603
0.84527432918548584 0.82375317811965942 0.79338771104812622
0.38567039370536804 0.37391003966331482 0.37634062767028809
0.40194049477577209 0.39008709788322449 0.39363840222358704
0.42459443211555481 0.41507279872894287 0.41677671670913696
0.46733123064041138 0.45818701386451721 0.46075907349586487
0.5318712592124939 0.52226793766021729 0.5219038724899292
0.60511261224746704 0.59123200178146362 0.58534097671508789
0.69041049480438232 0.67071127891540527 0.65467846393585205
0.40078544616699219 0.3899473249912262 0.39264920353889465
0.41694143414497375 0.40604516863822937 0.40891838073730469
0.44810780882835388 0.43862128257751465 0.44028022885322571
0.48643189668655396 0.47812911868095398 0.47879290580749512
0.54271167516708374 0.53282362222671509 0.53166460990905762
0.61448472738265991 0.5975918173789978 0.59053385257720947
0.70001471042633057 0.677906334400177 0.66117990016937256
0.43887719511985779 0.42865613102912903 0.43095380067825317
0.44739869236946106 0.4388737678527832 0.4417605996131897
0.47531846165657043 0.4657289981842041 0.46781197190284729
0.50853025913238525 0.49968829751014709 0.4997425377368927
0.56005597114562988 0.5478895902633667 0.54498493671417236
0.62375038862228394 0.60711145401000977 0.59964007139205933
0.70085883140563965 0.67987507581710815 0.66377705335617065
0.50620406866073608 0.49779370427131653 0.49710646271705627
0.50990617275238037 0.50024628639221191 0.50173848867416382
0.51943361759185791 0.51053756475448608 0.51015716791152954
0.53692835569381714 0.5267951488494873 0.52654069662094116
0.57544136047363281 0.5634196400642395 0.55961251258850098
0.63448977470397949 0.61861109733581543 0.60960119962692261
0.71563583612442017 0.69306915998458862 0.67539471387863159
0.58837926387786865 0.5730597972869873 0.57048940658569336
0.58335310220718384 0.56925678253173828 0.56683343648910522
0.58339834213256836 0.56922417879104614 0.56564927101135254
0.59232443571090698 0.57761603593826294 0.57397693395614624
0.62494748830795288 0.60763251781463623 0.60009628534317017
0.67541623115539551 0.65620195865631104 0.64263021945953369
0.74050116539001465 0.71898704767227173 0.6963191032409668
0.67768901586532593 0.65918052196502686 0.64551174640655518
0.67559689283370972 0.6558382511138916 0.64202481508255005
0.67530125379562378 0.65470409393310547 0.64155018329620361
0.68329286575317383 0.66258078813552856 0.64809972047805786
0.70651739835739136 0.68423187732696533 0.66844850778579712
0.73790270090103149 0.71590954065322876 0.6950753927230835
0.79038935899734497 0.76695621013641357 0.73953282833099365
0.79647743701934814 0.77244138717651367 0.74688863754272461
0.79701274633407593 0.77371597290039062 0.74587380886077881
0.79968458414077759 0.77493226528167725 0.74810820817947388
0.79902666807174683 0.77479547262191772 0.74855715036392212
0.81460422277450562 0.78911048173904419 0.76188862323760986
0.82779097557067871 0.80529105663299561 0.7749481201171875
0.85134714841842651 0.82988709211349487 0.79781705141067505
0.47959050536155701 0.47034046053886414 0.47048652172088623
0.48781254887580872 0.47787123918533325 0.47970646619796753
0.51069873571395874 0.50022673606872559 0.50174230337142944
0.53263401985168457 0.52325868606567383 0.52202999591827393
0.56684869527816772 0.55516260862350464 0.55352091789245605
0.64666855335235596 0.62861782312393188 0.61832106113433838
0.73008269071578979 0.70763444900512695 0.68692272901535034
0.4944966733455658 0.48451346158981323 0.48486566543579102
0.49910485744476318 0.49014031887054443 0.49078384041786194
0.51907837390899658 0.50935381650924683 0.51009392738342285
0.53987127542495728 0.52801001071929932 0.52844113111495972
0.58099043369293213 0.56828731298446655 0.56385165452957153
0.65564334392547607 0.63695055246353149 0.62563902139663696
0.73718243837356567 0.71297061443328857 0.69418096542358398
0.50891709327697754 0.49959155917167664 0.49952471256256104
0.51408332586288452 0.50410479307174683 0.50563716888427734
0.54245799779891968 0.53072100877761841 0.53070777654647827
0.56494736671447754 0.5513414740562439 0.55043363571166992
0.61174052953720093 0.59526437520980835 0.58904796838760376
0.67576569318771362 0.65619748830795288 0.64091610908508301
0.74917453527450562 0.72594660520553589 0.70257073640823364
0.53961819410324097 0.52967768907546997 0.52854353189468384
0.54964488744735718 0.53838813304901123 0.53736239671707153
0.56645911931991577 0.55499386787414551 0.55171573162078857
0.59388065338134766 0.58099287748336792 0.57565212249755859
0.63373172283172607 0.61688655614852905 0.60853630304336548
0.69339132308959961 0.67171448469161987 0.65679526329040527
0.7607617974281311 0.73667412996292114 0.71285820007324219
0.61993789672851562 0.60348999500274658 0.59762662649154663
0.62510848045349121 0.60859966278076172 0.60099965333938599
0.6372990608215332 0.61993062496185303 0.61066389083862305
0.64797353744506836 0.62960827350616455 0.61942338943481445
0.67106598615646362 0.65122658014297485 0.63914662599563599
0.71688830852508545 0.69392818212509155 0.67638421058654785
0.77393943071365356 0.74865734577178955 0.72540861368179321
0.71875256299972534 0.69639039039611816 0.67856603860855103
0.71881496906280518 0.69674617052078247 0.67827916145324707
0.72314298152923584 0.70083200931549072 0.68279564380645752
0.72613310813903809 0.70316857099533081 0.68561756610870361
0.74018776416778564 0.71692752838134766 0.69637030363082886
0.76704692840576172 0.74295234680175781 0.71926140785217285
0.81368529796600342 0.7895696759223938 0.76015228033065796
0.82211208343505859 0.79870057106018066 0.76873183250427246
0.82144874334335327 0.79800748825073242 0.7679707407951355
0.82265174388885498 0.79914218187332153 0.76902073621749878
0.81768500804901123 0.79394817352294922 0.76488983631134033
0.82745242118835449 0.80430346727371216 0.77377867698669434
0.84428852796554565 0.82329833507537842 0.79232800006866455
0.86502951383590698 0.84175282716751099 0.81056755781173706
0.58501547574996948 0.57036399841308594 0.56765991449356079
0.59136658906936646 0.57687389850616455 0.57359546422958374
0.60964065790176392 0.59441900253295898 0.58867359161376953
0.63636207580566406 0.61889666318893433 0.6110464334487915
0.6578795313835144 0.63961327075958252 0.62829744815826416
0.68572008609771729 0.66656410694122314 0.65112674236297607
0.76605129241943359 0.74254989624023438 0.71702748537063599
0.59802579879760742 0.58373475074768066 0.57828426361083984
0.60372304916381836 0.58855897188186646 0.58442008495330811
0.61931097507476807 0.60494446754455566 0.5966983437538147
0.64501577615737915 0.62681931257247925 0.61729007959365845
0.66440099477767944 0.64515393972396851 0.63309234380722046
0.69460403919219971 0.6728864312171936 0.65839308500289917
0.77168244123458862 0.74820905923843384 0.72244620323181152
0.61144489049911499 0.59466123580932617 0.58914393186569214
0.61795365810394287 0.60311585664749146 0.59583801031112671
0.63514852523803711 0.61820584535598755 0.60994994640350342
0.65897387266159058 0.64113366603851318 0.62908327579498291
0.68167555332183838 0.66200840473175049 0.64736646413803101
0.7162858247756958 0.69445967674255371 0.67575472593307495
0.78453719615936279 0.75996428728103638 0.73472011089324951
0.62313610315322876 0.60761064291000366 0.60002124309539795
0.62900477647781372 0.61389893293380737 0.60420417785644531
0.64955055713653564 0.6325191855430603 0.62100541591644287
0.67691385746002197 0.65654826164245605 0.64389413595199585
0.70343154668807983 0.68172210454940796 0.66575413942337036
0.74331563711166382 0.72126787900924683 0.69911378622055054
0.80030065774917603 0.77585840225219727 0.74861222505569458
0.66112434864044189 0.64269876480102539 0.63143181800842285
0.66561013460159302 0.64629220962524414 0.63464796543121338
0.68311142921447754 0.66321682929992676 0.6485869288444519
0.70537036657333374 0.68445712327957153 0.66742241382598877
0.73478657007217407 0.71156197786331177 0.69191581010818481
0.77375572919845581 0.74965393543243408 0.72434383630752563
0.81870448589324951 0.79527896642684937 0.76488298177719116
0.74337965250015259 0.72116601467132568 0.69976508617401123
0.74761515855789185 0.72495079040527344 0.7022663950920105
0.75752359628677368 0.73462045192718506 0.71116197109222412
0.77364122867584229 0.74988234043121338 0.72449088096618652
0.78689205646514893 0.76275873184204102 0.73589277267456055
0.80718004703521729 0.78197306394577026 0.75518900156021118
0.83691680431365967 0.8134911060333252 0.78332358598709106
0.83895289897918701 0.81589686870574951 0.78566485643386841
0.83865368366241455 0.8176192045211792 0.78697395324707031
0.84198421239852905 0.8203284740447998 0.79000157117843628
0.8478507399559021 0.82604527473449707 0.79500794410705566
0.85278940200805664 0.83044707775115967 0.79938119649887085
0.85785079002380371 0.83650004863739014 0.80559331178665161
0.87764990329742432 0.8544999361038208 0.82323825359344482
0.71896719932556152 0.69715327024459839 0.67828720808029175
0.71997189521789551 0.6975933313369751 0.68000215291976929
0.73151463270187378 0.71008092164993286 0.68958330154418945
0.74801778793334961 0.7253793478012085 0.70333254337310791
0.76938122510910034 0.74622505903244019 0.72166180610656738
0.77460610866546631 0.75142920017242432 0.72816634178161621
0.80383181571960449 0.78030240535736084 0.75331014394760132
0.72282034158706665 0.69972914457321167 0.68214964866638184
0.72685009241104126 0.70544475317001343 0.68542790412902832
0.73747950792312622 0.71409732103347778 0.69414108991622925
0.75422662496566772 0.73135566711425781 0.70910769701004028
0.77520895004272461 0.75091230869293213 0.72602212429046631
0.78431612253189087 0.75971126556396484 0.7353472113609314
0.7983705997467041 0.7747071385383606 0.74618875980377197
0.73466330766677856 0.71201521158218384 0.69134670495986938
0.73522377014160156 0.71317976713180542 0.69210219383239746
0.74571418762207031 0.72312849760055542 0.70168918371200562
0.76306980848312378 0.74055570363998413 0.71608465909957886
0.78272104263305664 0.75913476943969727 0.73208057880401611
0.793609619140625 0.77038300037384033 0.74343633651733398
0.81627458333969116 0.79196947813034058 0.76282203197479248
0.73955953121185303 0.71637511253356934 0.69551783800125122
0.74283081293106079 0.72013044357299805 0.69875317811965942
0.75632864236831665 0.73305702209472656 0.70909804105758667
0.77264523506164551 0.74867647886276245 0.72342950105667114
0.79292792081832886 0.76958036422729492 0.74198293685913086
0.80521011352539062 0.78077775239944458 0.75364142656326294
0.83192771673202515 0.80779010057449341 0.77961152791976929
0.7553214430809021 0.73215353488922119 0.70951902866363525
0.75616276264190674 0.73261278867721558 0.7095944881439209
0.76557189226150513 0.74250262975692749 0.71779245138168335
0.78247374296188354 0.75728148221969604 0.73147076368331909
0.80528169870376587 0.7819705605506897 0.75295758247375488
0.82252210378646851 0.7976146936416626 0.76975744962692261
0.84569782018661499 0.82434558868408203 0.79339230060577393
0.79010987281799316 0.7651856541633606 0.74006646871566772
0.78647881746292114 0.76315665245056152 0.73726409673690796
0.79724997282028198 0.77278798818588257 0.74588608741760254
0.80874156951904297 0.78438085317611694 0.75607097148895264
0.82891297340393066 0.80424016714096069 0.77517718076705933
0.84676104784011841 0.82349973917007446 0.79473340511322021
0.86765837669372559 0.84648317098617554 0.81393051147460938
0.85266172885894775 0.83071458339691162 0.79990911483764648
0.85354793071746826 0.83158391714096069 0.80077368021011353
0.85764193534851074 0.8370358943939209 0.80589550733566284
0.86803913116455078 0.84594136476516724 0.81333369016647339
0.87350380420684814 0.85136556625366211 0.81948930025100708
0.87679785490036011 0.85407555103302002 0.82225888967514038
0.89065343141555786 0.86962389945983887 0.83603709936141968
0.8421664834022522 0.81901884078979492 0.78934252262115479
0.84463995695114136 0.82108765840530396 0.79071426391601562
0.84844410419464111 0.82592630386352539 0.79517155885696411
0.85127073526382446 0.83029228448867798 0.79965770244598389
0.86163067817687988 0.84097075462341309 0.8085969090461731
0.86912614107131958 0.84774577617645264 0.81571394205093384
0.87418955564498901 0.8536980152130127 0.81984704732894897
0.84223371744155884 0.82117855548858643 0.79098623991012573
0.84727942943572998 0.82432520389556885 0.79337972402572632
0.84881609678268433 0.82812601327896118 0.79762238264083862
0.85264521837234497 0.83094221353530884 0.80118471384048462
0.86185544729232788 0.84131842851638794 0.80855965614318848
0.87296569347381592 0.85026627779006958 0.81868648529052734
0.87397098541259766 0.85363304615020752 0.82186925411224365
0.84840130805969238 0.82787096500396729 0.79733377695083618
0.84754443168640137 0.82615476846694946 0.79577165842056274
0.85339105129241943 0.83053159713745117 0.79922592639923096
0.85518544912338257 0.83312779664993286 0.80246257781982422
0.86560559272766113 0.84506011009216309 0.81108975410461426
0.87508827447891235 0.85417979955673218 0.82084149122238159
0.87891137599945068 0.85850268602371216 0.82441258430480957
0.84796762466430664 0.82461625337600708 0.79387515783309937
0.85144710540771484 0.82996088266372681 0.79953116178512573
0.85341429710388184 0.83177191019058228 0.80031490325927734
0.86026620864868164 0.83953970670700073 0.80636429786682129
0.87008857727050781 0.84770268201828003 0.81643331050872803
0.87901437282562256 0.85755980014801025 0.8244665265083313
0.8739551305770874 0.85088247060775757 0.8200831413269043
0.85072606801986694 0.82959932088851929 0.79884523153305054
0.85238093137741089 0.83173298835754395 0.8009955883026123
0.85706907510757446 0.83600533008575439 0.80496639013290405
0.86510205268859863 0.84462463855743408 0.81351971626281738
0.87483370304107666 0.85391372442245483 0.82210713624954224
0.87948071956634521 0.85872584581375122 0.82523024082183838
0.88998574018478394 0.86915463209152222 0.83539724349975586
0.86115467548370361 0.83840173482894897 0.80744254589080811
0.85699343681335449 0.83654105663299561 0.80416041612625122
0.86566483974456787 0.84332525730133057 0.81183415651321411
0.87194699048995972 0.85142362117767334 0.8182990550994873
0.87789595127105713 0.85716062784194946 0.82510983943939209
0.88713091611862183 0.86627769470214844 0.83240711688995361
0.89406800270080566 0.87217271327972412 0.83932024240493774
0.87025237083435059 0.84762626886367798 0.81564110517501831
0.86731445789337158 0.84655153751373291 0.813232421875
0.87931591272354126 0.8583032488822937 0.82461971044540405
0.88353109359741211 0.86326140165328979 0.83093762397766113
0.89058393239974976 0.87039482593536377 0.83614450693130493
0.8972475528717041 0.87645107507705688 0.84240126609802246
0.89803922176361084 0.87658405303955078 0.84313726425170898
