films/polaroid_px-70.cube
# Created by: G'MIC (https://gmic.eu)
TITLE "polaroid_px-70"
# LUT size
LUT_3D_SIZE 7
# Data domain
DOMAIN_MIN 0.0 0.0 0.0
DOMAIN_MAX 1.0 1.0 1.0
# LUT data points
0 0.14919891953468323 0.2021925151348114
0 0.15102007985115051 0.20290680229663849
0.091800957918167114 0.16330842673778534 0.20654378831386566
0.35620662569999695 0.1805596649646759 0.20994500815868378
0.70998680591583252 0.23315882682800293 0.19681547582149506
0.93124383687973022 0.39817702770233154 0.1788560152053833
0.99887144565582275 0.54889982938766479 0.21173417568206787
0.0012753654737025499 0.17885376513004303 0.2055179625749588
0.00085147033678367734 0.1832728236913681 0.2047077864408493
0.15009748935699463 0.19905956089496613 0.2043917179107666
0.41788294911384583 0.22847858071327209 0.20370060205459595
0.7354704737663269 0.30500996112823486 0.18639445304870605
0.93350964784622192 0.45757785439491272 0.17394854128360748
0.99701040983200073 0.5792272686958313 0.21338915824890137
0 0.29928785562515259 0.20664018392562866
0.00075539981480687857 0.3076317310333252 0.20721819996833801
0.21121349930763245 0.33366405963897705 0.201027512550354
0.50007051229476929 0.37108990550041199 0.18355599045753479
0.76094686985015869 0.43695223331451416 0.16009961068630219
0.9192352294921875 0.54431045055389404 0.15343117713928223
0.98725032806396484 0.62689495086669922 0.1983259916305542
0 0.55105054378509521 0.18955020606517792
0.065801151096820831 0.5446586012840271 0.19219358265399933
0.30667105317115784 0.55296182632446289 0.18697664141654968
0.57170307636260986 0.58065873384475708 0.16898122429847717
0.78211790323257446 0.61857795715332031 0.1438542902469635
0.90025132894515991 0.65396428108215332 0.15014983713626862
0.9667019248008728 0.68503516912460327 0.19849526882171631
0.28776335716247559 0.74529176950454712 0.2215425968170166
0.3485545814037323 0.73748946189880371 0.22436405718326569
0.48748645186424255 0.73780721426010132 0.23252665996551514
0.6440010666847229 0.74515998363494873 0.23395530879497528
0.78480255603790283 0.75693362951278687 0.23026502132415771
0.87995404005050659 0.76848477125167847 0.24363464117050171
0.94379532337188721 0.77857136726379395 0.28650099039077759
0.60782349109649658 0.84062421321868896 0.35301738977432251
0.62352412939071655 0.8365929126739502 0.35637888312339783
0.67147642374038696 0.83949142694473267 0.36791062355041504
0.73789465427398682 0.84526115655899048 0.37879496812820435
0.80444425344467163 0.85069376230239868 0.38947418332099915
0.87128889560699463 0.8554614782333374 0.39910697937011719
0.93056929111480713 0.86352419853210449 0.42064914107322693
0.79901045560836792 0.91667842864990234 0.50970852375030518
0.7981334924697876 0.91370636224746704 0.50073623657226562
0.81046062707901001 0.91443085670471191 0.5111314058303833
0.83556091785430908 0.91839098930358887 0.52531206607818604
0.86191940307617188 0.92261373996734619 0.52566403150558472
0.89877140522003174 0.92721390724182129 0.53404873609542847
0.93738019466400146 0.93574178218841553 0.54866629838943481
0 0.15455643832683563 0.20769506692886353
0 0.15948428213596344 0.20923759043216705
0.10461820662021637 0.16749800741672516 0.21421976387500763
0.39879465103149414 0.18510785698890686 0.22565184533596039
0.74989402294158936 0.25700569152832031 0.22865660488605499
0.9401053786277771 0.44190967082977295 0.2397584468126297
0.99715089797973633 0.58684331178665161 0.28946015238761902
0 0.1864904910326004 0.21661406755447388
0.011239578947424889 0.19142043590545654 0.21684330701828003
0.17110575735569 0.20936986804008484 0.22262683510780334
0.46037951111793518 0.24981535971164703 0.22694827616214752
0.76393872499465942 0.3348088264465332 0.22563979029655457
0.93601036071777344 0.49002301692962646 0.23654766380786896
0.99427807331085205 0.6152225136756897 0.28885003924369812
0 0.31512689590454102 0.2259170264005661
0.019651779904961586 0.32493883371353149 0.22563906013965607
0.25184470415115356 0.34490880370140076 0.22334221005439758
0.53723758459091187 0.38445273041725159 0.21071547269821167
0.78329277038574219 0.45606124401092529 0.2004302442073822
0.92329400777816772 0.56420731544494629 0.21746547520160675
0.98363447189331055 0.65275245904922485 0.27495661377906799
0.033074487000703812 0.56498104333877563 0.2245730459690094
0.090158723294734955 0.56397408246994019 0.22479800879955292
0.34177812933921814 0.569935142993927 0.22269196808338165
0.60695117712020874 0.60063618421554565 0.20816554129123688
0.79546326398849487 0.63213098049163818 0.19431643187999725
0.90403741598129272 0.65561127662658691 0.20755511522293091
0.96583163738250732 0.69661259651184082 0.25983822345733643
0.35849016904830933 0.74687188863754272 0.26301729679107666
0.41461575031280518 0.74361759424209595 0.26546677947044373
0.52384358644485474 0.74366635084152222 0.27321723103523254
0.66337352991104126 0.75288403034210205 0.27485111355781555
0.79468441009521484 0.76296192407608032 0.27071180939674377
0.88205832242965698 0.77104467153549194 0.28605836629867554
0.94354307651519775 0.78754585981369019 0.32890161871910095
0.64022457599639893 0.84089666604995728 0.38279265165328979
0.65303361415863037 0.84107494354248047 0.38331657648086548
0.68974155187606812 0.84423696994781494 0.39319592714309692
0.74646174907684326 0.84728777408599854 0.40349456667900085
0.81145703792572021 0.85240787267684937 0.40955942869186401
0.87237387895584106 0.85815608501434326 0.42079102993011475
0.93090230226516724 0.86785566806793213 0.44123172760009766
0.80156713724136353 0.91654890775680542 0.5105510950088501
0.807472825050354 0.91628503799438477 0.51301425695419312
0.81577450037002563 0.91756898164749146 0.51997560262680054
0.83555549383163452 0.92070382833480835 0.52924120426177979
0.86412793397903442 0.92448019981384277 0.53546833992004395
0.90248316526412964 0.92890411615371704 0.54361140727996826
0.94254326820373535 0.93747568130493164 0.54972773790359497
0 0.16541413962841034 0.23461674153804779
0.014496717602014542 0.17350305616855621 0.23561190068721771
0.13579437136650085 0.19899506866931915 0.24206934869289398
0.39797326922416687 0.19054311513900757 0.26815313100814819
0.76453649997711182 0.1954558938741684 0.29096874594688416
0.95062851905822754 0.41929388046264648 0.32558205723762512
0.98247164487838745 0.63214278221130371 0.39640220999717712
0 0.20704971253871918 0.25088724493980408
0.048051811754703522 0.21469070017337799 0.2538314163684845
0.21656897664070129 0.25057289004325867 0.25791901350021362
0.46985343098640442 0.25105392932891846 0.27647894620895386
0.79466253519058228 0.33364123106002808 0.30025258660316467
0.93370890617370605 0.53339594602584839 0.34755536913871765
0.97285020351409912 0.67542219161987305 0.40932545065879822
0.0018879609415307641 0.33921316266059875 0.27166202664375305
0.079008050262928009 0.34824344515800476 0.27601891756057739
0.32517790794372559 0.37306877970695496 0.28020426630973816
0.5901334285736084 0.42355078458786011 0.29288086295127869
0.81093680858612061 0.51594150066375732 0.31237140297889709
0.91787976026535034 0.61771661043167114 0.34748756885528564
0.96685951948165894 0.69919729232788086 0.39896580576896667
0.2056678980588913 0.58243799209594727 0.30109342932701111
0.28853434324264526 0.57843905687332153 0.29799267649650574
0.45073196291923523 0.58834350109100342 0.30134469270706177
0.63730084896087646 0.60854661464691162 0.29833900928497314
0.81152302026748657 0.6395840048789978 0.29937916994094849
0.9060325026512146 0.6823190450668335 0.32982715964317322
0.9583701491355896 0.72970402240753174 0.3779427707195282
0.50408971309661865 0.75211250782012939 0.34760916233062744
0.52007615566253662 0.74600690603256226 0.34090840816497803
0.58772212266921997 0.74635165929794312 0.3487275242805481
0.693958580493927 0.75634753704071045 0.35627129673957825
0.80513244867324829 0.76965487003326416 0.35725852847099304
0.88547450304031372 0.77838289737701416 0.3700127899646759
0.94280457496643066 0.79378688335418701 0.40001150965690613
0.67923986911773682 0.84439140558242798 0.43108686804771423
0.6949957013130188 0.84399747848510742 0.43153604865074158
0.71779072284698486 0.8443867564201355 0.43769043684005737
0.76079016923904419 0.84562700986862183 0.44844493269920349
0.81804889440536499 0.85417252779006958 0.45320618152618408
0.87463629245758057 0.86088043451309204 0.45966550707817078
0.9323078989982605 0.87026768922805786 0.47374722361564636
0.80545532703399658 0.9152522087097168 0.52528995275497437
0.81292456388473511 0.91629904508590698 0.53020459413528442
0.82041275501251221 0.9183613657951355 0.53342491388320923
0.83806413412094116 0.9214361310005188 0.54105418920516968
0.86633694171905518 0.9259992241859436 0.54702490568161011
0.90257632732391357 0.93113982677459717 0.55080336332321167
0.94397872686386108 0.93914055824279785 0.55662637948989868
0.0093153258785605431 0.18851570785045624 0.31202003359794617
0.13788409531116486 0.19698871672153473 0.31608667969703674
0.33494734764099121 0.24534113705158234 0.32738220691680908
0.53092449903488159 0.3200969398021698 0.34625285863876343
0.75137031078338623 0.31447741389274597 0.38475173711776733
0.93552041053771973 0.4234636127948761 0.42530548572540283
0.98482340574264526 0.6045040488243103 0.45459473133087158
0.022161610424518585 0.24070838093757629 0.33910024166107178
0.17500816285610199 0.25436997413635254 0.34333926439285278
0.40057146549224854 0.31381237506866455 0.35141026973724365
0.58477610349655151 0.39962098002433777 0.36308175325393677
0.78204387426376343 0.40107080340385437 0.39742356538772583
0.92859190702438354 0.51347583532333374 0.43135261535644531
0.97660499811172485 0.6547551155090332 0.46666446328163147
0.029330026358366013 0.39731866121292114 0.36234691739082336
0.1595769077539444 0.39909970760345459 0.36831098794937134
0.44597649574279785 0.43350932002067566 0.37910118699073792
0.64799576997756958 0.52108621597290039 0.38910090923309326
0.80866146087646484 0.54655748605728149 0.41910892724990845
0.91181099414825439 0.63918960094451904 0.45364215970039368
0.9582664966583252 0.73383611440658569 0.49233892560005188
0.23751148581504822 0.60023194551467896 0.38662472367286682
0.32866579294204712 0.59628051519393921 0.38704290986061096
0.50255995988845825 0.60491222143173218 0.39725261926651001
0.68966662883758545 0.63573706150054932 0.41382825374603271
0.82181757688522339 0.67844307422637939 0.43289616703987122
0.89742803573608398 0.73014700412750244 0.45868569612503052
0.94776397943496704 0.77487140893936157 0.4882044792175293
0.54699450731277466 0.7541651725769043 0.42838555574417114
0.58544290065765381 0.75010818243026733 0.42590439319610596
0.66401296854019165 0.75573462247848511 0.43724772334098816
0.73731458187103271 0.76417064666748047 0.44488862156867981
0.81303197145462036 0.7708667516708374 0.44698438048362732
0.88691532611846924 0.77894467115402222 0.45044621825218201
0.94340866804122925 0.79840201139450073 0.46643415093421936
0.71797639131546021 0.8446381688117981 0.48481717705726624
0.73590952157974243 0.84451138973236084 0.48434099555015564
0.75380188226699829 0.84646344184875488 0.48641201853752136
0.78774893283843994 0.85179370641708374 0.49446865916252136
0.83234024047851562 0.85646778345108032 0.49950265884399414
0.88252788782119751 0.86196547746658325 0.50125110149383545
0.93452322483062744 0.87317371368408203 0.51107382774353027
0.81741690635681152 0.91676050424575806 0.54416978359222412
0.82619380950927734 0.91723179817199707 0.5466759204864502
0.83053803443908691 0.91938823461532593 0.54932045936584473
0.84780114889144897 0.92338716983795166 0.55653113126754761
0.87423908710479736 0.92809891700744629 0.56205683946609497
0.90551364421844482 0.93313074111938477 0.56396377086639404
0.94390088319778442 0.94155943393707275 0.57050096988677979
0.24375835061073303 0.2357882559299469 0.47045940160751343
0.36729234457015991 0.25266182422637939 0.47268515825271606
0.57005923986434937 0.3201652467250824 0.48412913084030151
0.74370646476745605 0.48519676923751831 0.48588430881500244
0.82829034328460693 0.58361077308654785 0.49892380833625793
0.90170776844024658 0.57714581489562988 0.51172477006912231
0.96206802129745483 0.65159070491790771 0.52567654848098755
0.25699925422668457 0.31164965033531189 0.48880183696746826
0.39237886667251587 0.33374699950218201 0.49039852619171143
0.59453612565994263 0.40286251902580261 0.49230393767356873
0.76000458002090454 0.54122066497802734 0.49697911739349365
0.83347314596176147 0.63284879922866821 0.5062299370765686
0.90214210748672485 0.62950366735458374 0.51941657066345215
0.95811128616333008 0.68724119663238525 0.53282457590103149
0.2571856677532196 0.48202776908874512 0.49371236562728882
0.38002705574035645 0.47937819361686707 0.49635013937950134
0.59577643871307373 0.51614475250244141 0.50240463018417358
0.76853269338607788 0.62421464920043945 0.50693923234939575
0.83387547731399536 0.69613814353942871 0.51498514413833618
0.8936498761177063 0.69523769617080688 0.52305471897125244
0.94671481847763062 0.73843616247177124 0.5394856333732605
0.30714425444602966 0.64034909009933472 0.48966929316520691
0.38889607787132263 0.63537019491195679 0.49012446403503418
0.56053328514099121 0.6430048942565918 0.49596947431564331
0.7509458065032959 0.68464237451553345 0.50941932201385498
0.83653944730758667 0.74913376569747925 0.52011334896087646
0.88881546258926392 0.75326079130172729 0.53086894750595093
0.94109869003295898 0.7929157018661499 0.54751777648925781
0.55595499277114868 0.76295596361160278 0.50104653835296631
0.59228509664535522 0.76070684194564819 0.49915122985839844
0.66500198841094971 0.76058113574981689 0.50268512964248657
0.74843281507492065 0.76640093326568604 0.51205062866210938
0.83346301317214966 0.79042696952819824 0.52469754219055176
0.88920605182647705 0.8049895167350769 0.53095078468322754
0.94088512659072876 0.83850109577178955 0.54807770252227783
0.71791708469390869 0.8485293984413147 0.52565658092498779
0.73594462871551514 0.84851741790771484 0.52548313140869141
0.76603949069976807 0.84850907325744629 0.52740347385406494
0.80445742607116699 0.85106766223907471 0.53522807359695435
0.84478473663330078 0.86020523309707642 0.54262804985046387
0.88923120498657227 0.86692905426025391 0.54425883293151855
0.93846482038497925 0.87936687469482422 0.55203258991241455
0.82315653562545776 0.9200747013092041 0.56245023012161255
0.82820612192153931 0.91979742050170898 0.56530797481536865
0.838695228099823 0.92041015625 0.56744295358657837
0.85840988159179688 0.92398363351821899 0.5716138482093811
0.88471019268035889 0.9293634295463562 0.57723051309585571
0.91223961114883423 0.93512147665023804 0.58084297180175781
0.94729787111282349 0.94400560855865479 0.58877694606781006
0.56987154483795166 0.40323933959007263 0.60303056240081787
0.63215047121047974 0.42647966742515564 0.60070717334747314
0.74144542217254639 0.50764703750610352 0.59386098384857178
0.83520567417144775 0.6350598931312561 0.5852242112159729
0.88077884912490845 0.75066965818405151 0.57835274934768677
0.90230244398117065 0.77022260427474976 0.57266175746917725
0.93417680263519287 0.75636357069015503 0.57530194520950317
0.57989072799682617 0.48193937540054321 0.60188192129135132
0.64308542013168335 0.50295650959014893 0.60002058744430542
0.7486492395401001 0.56521439552307129 0.59456580877304077
0.83614259958267212 0.66725152730941772 0.58534532785415649
0.88117134571075439 0.76574999094009399 0.57766044139862061
0.90437823534011841 0.78919488191604614 0.57670718431472778
0.93451583385467529 0.77421194314956665 0.57891374826431274
0.57476520538330078 0.5864453911781311 0.59425324201583862
0.63269352912902832 0.59594070911407471 0.5927538275718689
0.73966366052627563 0.63887542486190796 0.5880095362663269
0.83167546987533569 0.71657729148864746 0.58371180295944214
0.879497230052948 0.79054313898086548 0.58011680841445923
0.90296560525894165 0.80804646015167236 0.57720589637756348
0.93343842029571533 0.79759472608566284 0.58056843280792236
0.53191781044006348 0.69290095567703247 0.57817405462265015
0.58924770355224609 0.69356262683868408 0.57650429010391235
0.70126986503601074 0.70432257652282715 0.57830768823623657
0.80871349573135376 0.74561643600463867 0.57917630672454834
0.87536168098449707 0.80514919757843018 0.57963508367538452
0.90730613470077515 0.83396238088607788 0.57981389760971069
0.93828576803207397 0.83271318674087524 0.58452337980270386
0.60488784313201904 0.7792668342590332 0.56744885444641113
0.6240878701210022 0.77557438611984253 0.56737411022186279
0.68523645401000977 0.77454572916030884 0.56701737642288208
0.77066707611083984 0.78492754697799683 0.57108360528945923
0.85408776998519897 0.81852191686630249 0.57684481143951416
0.9048992395401001 0.85354161262512207 0.58112746477127075
0.94113665819168091 0.85405313968658447 0.58670246601104736
0.73408550024032593 0.85497027635574341 0.56924700736999512
0.74165743589401245 0.85447210073471069 0.5708545446395874
0.76584148406982422 0.85374945402145386 0.57069474458694458
0.79694962501525879 0.85334873199462891 0.57227611541748047
0.8512648344039917 0.86259716749191284 0.57926839590072632
0.90330177545547485 0.87922298908233643 0.58316886425018311
0.94623935222625732 0.89175081253051758 0.58803373575210571
0.8301425576210022 0.92477303743362427 0.5882183313369751
0.83105051517486572 0.92379331588745117 0.59150964021682739
0.84175467491149902 0.92480647563934326 0.59190845489501953
0.86380636692047119 0.92838627099990845 0.59005540609359741
0.89471328258514404 0.93070513010025024 0.59719717502593994
0.91992342472076416 0.93595361709594727 0.6040765643119812
0.95311862230300903 0.94591748714447021 0.61403340101242065
0.79894250631332397 0.69024950265884399 0.64258831739425659
0.81371152400970459 0.70563304424285889 0.63916963338851929
0.84758132696151733 0.72915339469909668 0.63505285978317261
0.88295519351959229 0.78052955865859985 0.62794619798660278
0.91795057058334351 0.82656407356262207 0.62145727872848511
0.93526023626327515 0.86771339178085327 0.61575937271118164
0.95183968544006348 0.87316489219665527 0.61572247743606567
0.80256479978561401 0.7183418869972229 0.64011865854263306
0.82046270370483398 0.72621285915374756 0.63890010118484497
0.85165143013000488 0.75396043062210083 0.63202583789825439
0.88688105344772339 0.79367578029632568 0.62735676765441895
0.91827511787414551 0.83317768573760986 0.62269604206085205
0.93877345323562622 0.87242239713668823 0.61580884456634521
0.95445579290390015 0.87999421358108521 0.61644905805587769
0.79342681169509888 0.74827438592910767 0.63573569059371948
0.81023550033569336 0.75448811054229736 0.63474118709564209
0.84388947486877441 0.77598303556442261 0.62929868698120117
0.88173520565032959 0.80921423435211182 0.62477743625640869
0.91759967803955078 0.8448062539100647 0.62011885643005371
0.93873816728591919 0.88236838579177856 0.6165691614151001
0.95458000898361206 0.88652461767196655 0.61920249462127686
0.76705986261367798 0.77815753221511841 0.63068443536758423
0.78236407041549683 0.77836287021636963 0.62733739614486694
0.82141411304473877 0.79309463500976562 0.62744158506393433
0.86642158031463623 0.81928473711013794 0.6238822340965271
0.91167479753494263 0.85389429330825806 0.62264406681060791
0.9379889965057373 0.89024662971496582 0.62052756547927856
0.95434689521789551 0.90341222286224365 0.62249356508255005
0.71770012378692627 0.82114160060882568 0.62052690982818604
0.72129642963409424 0.81519967317581177 0.61998409032821655
0.76051962375640869 0.81864941120147705 0.61983221769332886
0.83164924383163452 0.83380365371704102 0.62200802564620972
0.88744640350341797 0.85932916402816772 0.62223637104034424
0.93165767192840576 0.89963597059249878 0.62399077415466309
0.95631080865859985 0.91707861423492432 0.62781554460525513
0.7762342095375061 0.88019931316375732 0.61791145801544189
0.77344393730163574 0.87610733509063721 0.61760967969894409
0.78996318578720093 0.8749619722366333 0.61664664745330811
0.81947332620620728 0.87540900707244873 0.61605870723724365
0.87024909257888794 0.884124755859375 0.62141227722167969
0.92198807001113892 0.91048961877822876 0.62824475765228271
0.95806050300598145 0.93568497896194458 0.63649505376815796
0.84538620710372925 0.93929266929626465 0.62945276498794556
0.84784495830535889 0.93896710872650146 0.62849670648574829
0.85714846849441528 0.93979203701019287 0.62767601013183594
0.87494635581970215 0.94066506624221802 0.62637656927108765
0.89983671903610229 0.94188368320465088 0.63172447681427002
0.92435973882675171 0.94751310348510742 0.63992327451705933
0.96075904369354248 0.95765393972396851 0.65305918455123901
