films/polaroid_time_zero_expired.cube
# Created by: G'MIC (https://gmic.eu)
TITLE "polaroid_time_zero_expired"
# LUT size
LUT_3D_SIZE 7
# Data domain
DOMAIN_MIN 0.0 0.0 0.0
DOMAIN_MAX 1.0 1.0 1.0
# LUT data points
0.61433660984039307 0.34721297025680542 0.13208812475204468
0.62155693769454956 0.34643813967704773 0.12845708429813385
0.64345425367355347 0.3494899570941925 0.13109181821346283
0.69337683916091919 0.34979653358459473 0.13178201019763947
0.763450026512146 0.35125240683555603 0.13317269086837769
0.84902673959732056 0.3619745671749115 0.13118594884872437
0.93220293521881104 0.38604456186294556 0.1398678719997406
0.61901426315307617 0.36136332154273987 0.12879745662212372
0.62969917058944702 0.36721646785736084 0.12459602952003479
0.656421959400177 0.36913564801216125 0.12795634567737579
0.70397305488586426 0.37235048413276672 0.12624955177307129
0.77005743980407715 0.3759513795375824 0.12334732711315155
0.85289806127548218 0.38593336939811707 0.12219557166099548
0.93378514051437378 0.41160953044891357 0.13385786116123199
0.63575559854507446 0.41396361589431763 0.11052549630403519
0.65047067403793335 0.41864338517189026 0.10538630932569504
0.67949777841567993 0.41791707277297974 0.11328663676977158
0.72746717929840088 0.42621931433677673 0.11320241540670395
0.78639680147171021 0.43395280838012695 0.10829894244670868
0.85892659425735474 0.44291362166404724 0.10468263924121857
0.93561375141143799 0.46834471821784973 0.11530275642871857
0.66472357511520386 0.50202196836471558 0.062546432018280029
0.67906463146209717 0.50334751605987549 0.054412003606557846
0.71214425563812256 0.50714623928070068 0.046823583543300629
0.76086634397506714 0.51465708017349243 0.072642505168914795
0.81562930345535278 0.52547621726989746 0.1011384129524231
0.87340402603149414 0.53639209270477295 0.088474616408348083
0.93574309349060059 0.55432844161987305 0.08392971009016037
0.70215463638305664 0.60627138614654541 0.006497611291706562
0.71105527877807617 0.60446780920028687 0.0039471792988479137
0.73887157440185547 0.60726845264434814 0.00042241413029842079
0.78806406259536743 0.61607104539871216 0.007983907125890255
0.84104675054550171 0.62860137224197388 0.055096317082643509
0.89196455478668213 0.64391183853149414 0.12861908972263336
0.94120109081268311 0.65713739395141602 0.16613686084747314
0.75149655342102051 0.71587187051773071 0
0.75552380084991455 0.71214789152145386 0
0.77462303638458252 0.71171277761459351 0
0.81932967901229858 0.71965700387954712 0
0.86678177118301392 0.72950661182403564 0.024004528298974037
0.91150879859924316 0.74355798959732056 0.18542388081550598
0.9516034722328186 0.75387930870056152 0.29476693272590637
0.80949932336807251 0.82024544477462769 0.012176827527582645
0.81289499998092651 0.81414633989334106 0.014654436148703098
0.82835066318511963 0.812366783618927 0.0089874565601348877
0.86090683937072754 0.81844973564147949 0.0089415609836578369
0.90169388055801392 0.82540935277938843 0.12512634694576263
0.93701177835464478 0.83121079206466675 0.2933599054813385
0.96700292825698853 0.83626753091812134 0.41351026296615601
0.61719417572021484 0.34885606169700623 0.14507542550563812
0.62499797344207764 0.34793809056282043 0.14391888678073883
0.64859992265701294 0.34880214929580688 0.14952155947685242
0.69719606637954712 0.35153090953826904 0.15302224457263947
0.76924335956573486 0.35883805155754089 0.15578362345695496
0.85389411449432373 0.36548987030982971 0.15942636132240295
0.93279057741165161 0.39142271876335144 0.17337651550769806
0.62201994657516479 0.36421704292297363 0.1427781879901886
0.63282853364944458 0.3680376410484314 0.14272688329219818
0.66030734777450562 0.37074992060661316 0.14805063605308533
0.71023881435394287 0.37355828285217285 0.14929677546024323
0.77929878234863281 0.37872925400733948 0.14798067510128021
0.85987633466720581 0.38708695769309998 0.15021677315235138
0.93770378828048706 0.4136371910572052 0.16484341025352478
0.63503968715667725 0.41691321134567261 0.13211001455783844
0.6506732702255249 0.41936281323432922 0.12988026440143585
0.68188965320587158 0.42410588264465332 0.13299226760864258
0.73070967197418213 0.42693868279457092 0.13882414996623993
0.79157614707946777 0.43310663104057312 0.1335877925157547
0.86564284563064575 0.44431796669960022 0.13079918920993805
0.93985390663146973 0.46904850006103516 0.14960458874702454
0.66242915391921997 0.50174736976623535 0.098435796797275543
0.67677682638168335 0.50380861759185791 0.089279249310493469
0.71035027503967285 0.50925403833389282 0.085190281271934509
0.76146864891052246 0.51547336578369141 0.10835475474596024
0.81802266836166382 0.52976399660110474 0.13652464747428894
0.87575393915176392 0.53769880533218384 0.12322074919939041
0.93915116786956787 0.55692273378372192 0.12777593731880188
0.69719338417053223 0.60613548755645752 0.036679826676845551
0.70817059278488159 0.60528206825256348 0.029642755165696144
0.73801428079605103 0.6072765588760376 0.012242141179740429
0.78771483898162842 0.61756139993667603 0.030508289113640785
0.84369444847106934 0.63397198915481567 0.11387404054403305
0.8946988582611084 0.64673495292663574 0.18269529938697815
0.94288754463195801 0.66165649890899658 0.18942748010158539
0.74332284927368164 0.71462953090667725 0.00041468002018518746
0.75379407405853271 0.71533507108688354 0.000484466552734375
0.77689433097839355 0.7156217098236084 0
0.81806004047393799 0.72267574071884155 4.1288487409474328e-05
0.86813390254974365 0.73440337181091309 0.083467997610569
0.91186106204986572 0.74628573656082153 0.22506868839263916
0.95006632804870605 0.75678688287734985 0.30225560069084167
0.80631524324417114 0.81942629814147949 0.08916085958480835
0.81354838609695435 0.81898045539855957 0.072070688009262085
0.83010733127593994 0.81809616088867188 0.052064348012208939
0.85994642972946167 0.82219547033309937 0.026609098538756371
0.90081787109375 0.82727217674255371 0.146574467420578
0.93649554252624512 0.83161765336990356 0.31001028418540955
0.96454823017120361 0.83600056171417236 0.4101661741733551
0.63771152496337891 0.35031864047050476 0.18343456089496613
0.64485836029052734 0.35226607322692871 0.18520630896091461
0.66192597150802612 0.35702797770500183 0.1879245936870575
0.70476990938186646 0.35803306102752686 0.19759413599967957
0.77891355752944946 0.36096251010894775 0.21751394867897034
0.8604733943939209 0.37574422359466553 0.22311659157276154
0.93635058403015137 0.4084012508392334 0.23360516130924225
0.647411048412323 0.36848190426826477 0.18601889908313751
0.65482419729232788 0.37531900405883789 0.18719561398029327
0.67695116996765137 0.37935763597488403 0.1954459547996521
0.72025430202484131 0.37954506278038025 0.20244321227073669
0.78897523880004883 0.38436764478683472 0.21102286875247955
0.86665791273117065 0.40102493762969971 0.21617034077644348
0.94030565023422241 0.42815279960632324 0.23128136992454529
0.65511596202850342 0.41598868370056152 0.18270596861839294
0.6679685115814209 0.41952872276306152 0.18318827450275421
0.69520360231399536 0.42937290668487549 0.18729205429553986
0.73844778537750244 0.43227627873420715 0.191611647605896
0.80302542448043823 0.44130182266235352 0.19487603008747101
0.87574559450149536 0.45392531156539917 0.20196467638015747
0.94286364316940308 0.47933223843574524 0.21837438642978668
0.67457932233810425 0.49762675166130066 0.16712735593318939
0.68570077419281006 0.50068181753158569 0.16148731112480164
0.71630620956420898 0.51075112819671631 0.16108526289463043
0.76541376113891602 0.51809751987457275 0.17268350720405579
0.82271832227706909 0.52736783027648926 0.18832655251026154
0.88244235515594482 0.53544771671295166 0.18750466406345367
0.94253057241439819 0.5580984354019165 0.20379754900932312
0.69787776470184326 0.60954970121383667 0.13723810017108917
0.71026623249053955 0.60800522565841675 0.13500608503818512
0.7399669885635376 0.61117750406265259 0.1166536808013916
0.79023557901382446 0.6204984188079834 0.12447192519903183
0.84546828269958496 0.63352721929550171 0.18614725768566132
0.89557951688766479 0.64645957946777344 0.23511597514152527
0.94432252645492554 0.66346269845962524 0.24610015749931335
0.74521863460540771 0.71331703662872314 0.11892765760421753
0.75484353303909302 0.71591013669967651 0.10498830676078796
0.77845412492752075 0.71883916854858398 0.086711913347244263
0.81579196453094482 0.72406798601150513 0.068685121834278107
0.86613768339157104 0.73593688011169434 0.16355004906654358
0.91288262605667114 0.75085794925689697 0.29224148392677307
0.95055949687957764 0.76398825645446777 0.35743498802185059
0.80437356233596802 0.8163987398147583 0.20075175166130066
0.81363648176193237 0.81924903392791748 0.18773706257343292
0.83213222026824951 0.82071918249130249 0.18060320615768433
0.857105553150177 0.82208061218261719 0.1252005398273468
0.89631426334381104 0.82693362236022949 0.20888738334178925
0.93441057205200195 0.8333098292350769 0.35054436326026917
0.9638296365737915 0.84055429697036743 0.45929083228111267
0.68292236328125 0.36230102181434631 0.2810402512550354
0.68990021944046021 0.36186674237251282 0.28225469589233398
0.70688581466674805 0.36823499202728271 0.29193547368049622
0.7355276346206665 0.3754546046257019 0.29343992471694946
0.7914004921913147 0.37232944369316101 0.29608443379402161
0.86670327186584473 0.38386699557304382 0.31816855072975159
0.93663966655731201 0.41458860039710999 0.34302008152008057
0.69905197620391846 0.39087596535682678 0.28664252161979675
0.70521259307861328 0.39306080341339111 0.2878691554069519
0.72226786613464355 0.40079623460769653 0.29601910710334778
0.74760377407073975 0.40562731027603149 0.29147136211395264
0.80029416084289551 0.39855942130088806 0.29735046625137329
0.87274265289306641 0.40839740633964539 0.31931248307228088
0.94199806451797485 0.43844309449195862 0.3400852382183075
0.70141398906707764 0.43240848183631897 0.2859882116317749
0.71747606992721558 0.44347462058067322 0.28336629271507263
0.73928320407867432 0.45485088229179382 0.28730419278144836
0.76530516147613525 0.45944437384605408 0.29037615656852722
0.81314080953598022 0.45240852236747742 0.29575023055076599
0.88017213344573975 0.46487331390380859 0.30912688374519348
0.94452488422393799 0.49518114328384399 0.32282960414886475
0.70508348941802979 0.50761944055557251 0.26556515693664551
0.71500676870346069 0.51281416416168213 0.26416099071502686
0.74603438377380371 0.52088993787765503 0.27373382449150085
0.78299909830093384 0.53243231773376465 0.27528184652328491
0.82778090238571167 0.53226256370544434 0.28067749738693237
0.8867720365524292 0.54430001974105835 0.28237932920455933
0.94614559412002563 0.5663827657699585 0.2982831597328186
0.7232930064201355 0.60179710388183594 0.24694417417049408
0.72866547107696533 0.60595393180847168 0.24971611797809601
0.75268203020095825 0.61545753479003906 0.25832316279411316
0.79327106475830078 0.62579715251922607 0.25107097625732422
0.84392440319061279 0.6337430477142334 0.27566301822662354
0.89506107568740845 0.64558166265487671 0.30661803483963013
0.94501596689224243 0.65637576580047607 0.30121177434921265
0.74832618236541748 0.71469295024871826 0.25835379958152771
0.75465744733810425 0.71628475189208984 0.25533643364906311
0.78325384855270386 0.7193915843963623 0.26105868816375732
0.81437987089157104 0.72551256418228149 0.23752212524414062
0.86284995079040527 0.73679333925247192 0.26914027333259583
0.91174435615539551 0.75291407108306885 0.36339649558067322
0.9470973014831543 0.76400697231292725 0.41765743494033813
0.80747032165527344 0.81628865003585815 0.32802379131317139
0.81236481666564941 0.81832540035247803 0.32144623994827271
0.83072453737258911 0.82116496562957764 0.31789520382881165
0.85485893487930298 0.82509100437164307 0.29915699362754822
0.89028334617614746 0.82821017503738403 0.30092534422874451
0.93087995052337646 0.83197295665740967 0.39141952991485596
0.96164768934249878 0.84144413471221924 0.50557518005371094
0.74791091680526733 0.39354193210601807 0.43020665645599365
0.75271707773208618 0.38992780447006226 0.42874342203140259
0.76808887720108032 0.39910721778869629 0.43771451711654663
0.79214996099472046 0.4171898365020752 0.4505884051322937
0.82319945096969604 0.42573791742324829 0.4309750497341156
0.8746105432510376 0.42316919565200806 0.42270305752754211
0.9375801682472229 0.43170586228370667 0.46236178278923035
0.76255178451538086 0.43124222755432129 0.43247327208518982
0.76938265562057495 0.43174588680267334 0.43234822154045105
0.7842828631401062 0.44252422451972961 0.43955352902412415
0.80394148826599121 0.45553421974182129 0.45085546374320984
0.83099460601806641 0.45984372496604919 0.43417257070541382
0.87971031665802002 0.45097357034683228 0.43076804280281067
0.94111496210098267 0.45522359013557434 0.4618389904499054
0.77541089057922363 0.48755708336830139 0.42535144090652466
0.78871506452560425 0.49994033575057983 0.42360192537307739
0.80272579193115234 0.50968986749649048 0.42857486009597778
0.81842207908630371 0.52079057693481445 0.43719637393951416
0.83954387903213501 0.52043825387954712 0.42487254738807678
0.88100016117095947 0.50108510255813599 0.42314800620079041
0.94326508045196533 0.50668072700500488 0.46118053793907166
0.76908427476882935 0.53958475589752197 0.41018363833427429
0.77958351373672485 0.54549515247344971 0.41022792458534241
0.80291789770126343 0.56056356430053711 0.41388106346130371
0.82821804285049438 0.58098828792572021 0.41716039180755615
0.84911710023880005 0.58669495582580566 0.41965723037719727
0.89004814624786377 0.56474488973617554 0.42207780480384827
0.94638890027999878 0.57500195503234863 0.4403901994228363
0.76729077100753784 0.62057220935821533 0.3832201361656189
0.77444213628768921 0.62026882171630859 0.38265711069107056
0.79257321357727051 0.62635999917984009 0.39036974310874939
0.82112264633178711 0.63686597347259521 0.39622098207473755
0.85640370845794678 0.65162992477416992 0.40180423855781555
0.89734458923339844 0.6478722095489502 0.40707403421401978
0.94788509607315063 0.66285437345504761 0.41850292682647705
0.78074401617050171 0.70778310298919678 0.37570321559906006
0.78563261032104492 0.70671522617340088 0.3767457902431488
0.79997295141220093 0.71089828014373779 0.38071253895759583
0.82180923223495483 0.72297060489654541 0.3839130699634552
0.86361402273178101 0.73503297567367554 0.38586965203285217
0.90778279304504395 0.74831682443618774 0.42885851860046387
0.9491005539894104 0.76022261381149292 0.46198365092277527
0.80756586790084839 0.81757599115371704 0.43438750505447388
0.81505590677261353 0.81281435489654541 0.43251001834869385
0.82608622312545776 0.81923806667327881 0.43766000866889954
0.84627944231033325 0.82281434535980225 0.4300893247127533
0.88061302900314331 0.82869380712509155 0.41980698704719543
0.92207497358322144 0.83550882339477539 0.46915557980537415
0.95920073986053467 0.84189802408218384 0.56938344240188599
0.81422841548919678 0.45379093289375305 0.58351981639862061
0.81625199317932129 0.45647859573364258 0.58201688528060913
0.82619702816009521 0.4718940258026123 0.58385008573532104
0.84238284826278687 0.49722433090209961 0.59561634063720703
0.86498725414276123 0.51808887720108032 0.60127419233322144
0.89172148704528809 0.51948386430740356 0.56908190250396729
0.9320605993270874 0.51903033256530762 0.55887424945831299
0.82686334848403931 0.50134587287902832 0.58315211534500122
0.82928574085235596 0.50264376401901245 0.58254724740982056
0.83857911825180054 0.51569896936416626 0.58555823564529419
0.85218983888626099 0.53460460901260376 0.59598630666732788
0.87124311923980713 0.55190491676330566 0.59959930181503296
0.89526045322418213 0.55215060710906982 0.57401710748672485
0.9335511326789856 0.54657256603240967 0.56575596332550049
0.84437102079391479 0.57344287633895874 0.57414990663528442
0.84760808944702148 0.57531946897506714 0.57462877035140991
0.85424083471298218 0.58291405439376831 0.57779914140701294
0.86459946632385254 0.59448850154876709 0.58885884284973145
0.87915968894958496 0.60927116870880127 0.59853339195251465
0.8972163200378418 0.60183250904083252 0.57315742969512939
0.93409997224807739 0.58366602659225464 0.56668663024902344
0.83926129341125488 0.61523950099945068 0.56804186105728149
0.84690827131271362 0.62087833881378174 0.56804460287094116
0.86144804954528809 0.63863921165466309 0.56910020112991333
0.87489604949951172 0.65222597122192383 0.57728034257888794
0.88542366027832031 0.66676664352416992 0.59220486879348755
0.90015625953674316 0.65647006034851074 0.57651245594024658
0.93615609407424927 0.62932980060577393 0.57386666536331177
0.82617819309234619 0.66331827640533447 0.55704081058502197
0.83241254091262817 0.66413646936416626 0.55745476484298706
0.84809917211532593 0.67345041036605835 0.56009519100189209
0.86956918239593506 0.6873595118522644 0.56610506772994995
0.88765710592269897 0.70649993419647217 0.57524579763412476
0.9038119912147522 0.7048456072807312 0.57249003648757935
0.94036591053009033 0.68364042043685913 0.58040940761566162
0.82140982151031494 0.73484843969345093 0.53992843627929688
0.82358372211456299 0.73375004529953003 0.53577786684036255
0.83837443590164185 0.73410594463348389 0.5360986590385437
0.8556516170501709 0.74267613887786865 0.54926854372024536
0.88033157587051392 0.74940425157546997 0.55535405874252319
0.9088243842124939 0.76365286111831665 0.57164472341537476
0.94485032558441162 0.75721591711044312 0.5766528844833374
0.83516889810562134 0.81271368265151978 0.56468659639358521
0.84043604135513306 0.8086472749710083 0.5560840368270874
0.84633731842041016 0.81331324577331543 0.56271684169769287
0.86109393835067749 0.81816905736923218 0.56909632682800293
0.88255226612091064 0.8295254111289978 0.57458490133285522
0.91539162397384644 0.83998817205429077 0.57225137948989868
0.9534149169921875 0.84338235855102539 0.6487463116645813
0.86739921569824219 0.57188946008682251 0.71853607892990112
0.86978757381439209 0.57033199071884155 0.71798396110534668
0.87523764371871948 0.58639299869537354 0.71894723176956177
0.88204795122146606 0.59969121217727661 0.72152078151702881
0.89411681890487671 0.61841511726379395 0.72614437341690063
0.90946000814437866 0.63262951374053955 0.72521370649337769
0.93058818578720093 0.64723938703536987 0.72074908018112183
0.87515026330947876 0.60155582427978516 0.71765387058258057
0.87862414121627808 0.6047406792640686 0.71921026706695557
0.88158667087554932 0.61453557014465332 0.71940094232559204
0.88653850555419922 0.62892419099807739 0.72170788049697876
0.8972240686416626 0.64608919620513916 0.72943621873855591
0.91202062368392944 0.65926092863082886 0.73093634843826294
0.93359279632568359 0.6612246036529541 0.71891790628433228
0.88356214761734009 0.65696448087692261 0.7138221263885498
0.88772487640380859 0.65773850679397583 0.71581339836120605
0.8893701434135437 0.66014957427978516 0.71648722887039185
0.89292865991592407 0.67041963338851929 0.71933943033218384
0.90153396129608154 0.68447995185852051 0.72924971580505371
0.91270691156387329 0.69506984949111938 0.73037183284759521
0.93090265989303589 0.69312423467636108 0.72099226713180542
0.88615930080413818 0.70200228691101074 0.71398013830184937
0.89053630828857422 0.7039177417755127 0.71495097875595093
0.89454233646392822 0.70831078290939331 0.71495097875595093
0.90027904510498047 0.71661818027496338 0.71820330619812012
0.90720319747924805 0.7245902419090271 0.72695088386535645
0.9154970645904541 0.73534208536148071 0.73169028759002686
0.93134284019470215 0.73146116733551025 0.72722464799880981
0.88333225250244141 0.72945159673690796 0.71466600894927979
0.88421648740768433 0.73229461908340454 0.71666663885116577
0.8894956111907959 0.73967933654785156 0.71857613325119019
0.90104997158050537 0.75324970483779907 0.72059643268585205
0.91279417276382446 0.76709163188934326 0.72744327783584595
0.91964614391326904 0.77542591094970703 0.74022030830383301
0.9337126612663269 0.77150118350982666 0.73107385635375977
0.86635786294937134 0.77390807867050171 0.71481490135192871
0.86905425786972046 0.77474343776702881 0.71555233001708984
0.87777513265609741 0.78000915050506592 0.71933931112289429
0.8912346363067627 0.78497451543807983 0.72295033931732178
0.90919244289398193 0.79667168855667114 0.73101234436035156
0.92241531610488892 0.80813789367675781 0.742867112159729
0.9376491904258728 0.81272190809249878 0.74552017450332642
0.86612898111343384 0.83333098888397217 0.72322022914886475
0.86792892217636108 0.83476483821868896 0.7204928994178772
0.87514001131057739 0.83362948894500732 0.72740477323532104
0.8883863091468811 0.83902609348297119 0.72683525085449219
0.90571421384811401 0.84543275833129883 0.73336076736450195
0.9251059889793396 0.8487134575843811 0.74141937494277954
0.9482606053352356 0.85430794954299927 0.76340991258621216
