films/polaroid_690.cube
# Created by: G'MIC (https://gmic.eu)
TITLE "polaroid_690"
# LUT size
LUT_3D_SIZE 5
# Data domain
DOMAIN_MIN 0.0 0.0 0.0
DOMAIN_MAX 1.0 1.0 1.0
# LUT data points
0.045357916504144669 0.056423500180244446 0.051745619624853134
0.17153047025203705 0.03980109840631485 0.054948799312114716
0.4684620201587677 0.00010501637007109821 0.048383839428424835
0.79632872343063354 0 0.020230894908308983
0.99577659368515015 0.00038933847099542618 0.0035730698145925999
0.031147915869951248 0.20321428775787354 0.037071377038955688
0.23373213410377502 0.21845616400241852 0.024201426655054092
0.6141667366027832 0.21795116364955902 0.008844996802508831
0.88090705871582031 0.10161496698856354 0.00078400259371846914
0.99962365627288818 0.075135968625545502 0.00012835334928240627
0.0024918948765844107 0.49646744132041931 0
0.20343227684497833 0.49290168285369873 0
0.58370131254196167 0.55028879642486572 0
0.89436304569244385 0.60475265979766846 0
0.9998658299446106 0.60263478755950928 0.0019275142112746835
0.094609983265399933 0.74450474977493286 0
0.28160089254379272 0.73707962036132812 0
0.57537662982940674 0.74959516525268555 0
0.84524494409561157 0.78139263391494751 0
0.99761098623275757 0.79654330015182495 0.0026238535065203905
0.52324843406677246 0.9407305121421814 0.19194474816322327
0.5808836817741394 0.93650305271148682 0.13862277567386627
0.70794695615768433 0.93541985750198364 0.078922390937805176
0.85171252489089966 0.95055693387985229 0.098342776298522949
0.98243683576583862 0.97102677822113037 0.15247084200382233
0.01080977451056242 0.060005262494087219 0.19970235228538513
0.19600002467632294 0.03704502061009407 0.23415468633174896
0.48051548004150391 1.8669577912078239e-05 0.20599889755249023
0.76200592517852783 0.0026711109094321728 0.1902315765619278
0.99127763509750366 0.0013519885251298547 0.12835784256458282
0.014392463490366936 0.21696943044662476 0.2422274649143219
0.25944250822067261 0.23371416330337524 0.26226073503494263
0.5831758975982666 0.1712220162153244 0.24778148531913757
0.84060251712799072 0.03874930739402771 0.19936716556549072
0.99856382608413696 0.025651190429925919 0.14281114935874939
3.7698184314649552e-05 0.54714536666870117 0.25980222225189209
0.22189784049987793 0.53157985210418701 0.23440353572368622
0.60464859008789062 0.5684812068939209 0.21119064092636108
0.89405280351638794 0.60354673862457275 0.25879180431365967
0.99972999095916748 0.58692395687103271 0.26460164785385132
0.11421927809715271 0.76459383964538574 0.20734317600727081
0.29575872421264648 0.75265485048294067 0.18281042575836182
0.57832294702529907 0.75012242794036865 0.14675796031951904
0.84367412328720093 0.77996742725372314 0.17100086808204651
0.99835020303726196 0.79777061939239502 0.28700464963912964
0.49629563093185425 0.94227898120880127 0.37507015466690063
0.56523793935775757 0.94285660982131958 0.36296835541725159
0.69093078374862671 0.93813163042068481 0.29747822880744934
0.8394971489906311 0.95271623134613037 0.33147576451301575
0.97408664226531982 0.973793625831604 0.35189178586006165
0 0.059831835329532623 0.56217652559280396
0.14034093916416168 0.020757323130965233 0.61402231454849243
0.61186313629150391 0.00036244111834093928 0.64293909072875977
0.82629638910293579 3.5005457448278321e-06 0.54430460929870605
0.98965585231781006 0 0.48753032088279724
0 0.23040716350078583 0.57559049129486084
0.22231672704219818 0.24036015570163727 0.61224508285522461
0.64156723022460938 0.24950769543647766 0.66146254539489746
0.83133214712142944 0.14213904738426208 0.55342370271682739
0.99150377511978149 0.0052545433863997459 0.46781402826309204
0.0035511839669197798 0.55862218141555786 0.6071012020111084
0.30512586236000061 0.57248079776763916 0.62033450603485107
0.63041448593139648 0.60548806190490723 0.64622777700424194
0.85118353366851807 0.52863413095474243 0.58682441711425781
0.99769169092178345 0.40070217847824097 0.47721663117408752
0.28465530276298523 0.79224932193756104 0.61969256401062012
0.40054163336753845 0.78812390565872192 0.6067880392074585
0.59707647562026978 0.77290451526641846 0.57324999570846558
0.83281934261322021 0.78921777009963989 0.59122276306152344
0.98878318071365356 0.80998069047927856 0.65785330533981323
0.47814083099365234 0.94707202911376953 0.64180243015289307
0.54750055074691772 0.94754904508590698 0.63371682167053223
0.66396570205688477 0.94305264949798584 0.59191054105758667
0.81071633100509644 0.945121169090271 0.57698160409927368
0.95960485935211182 0.97039061784744263 0.61758506298065186
0.0009152580751106143 0.051412217319011688 0.85965490341186523
0.24382893741130829 0.02148081548511982 0.87031841278076172
0.65437507629394531 0.0049534216523170471 0.90017259120941162
0.90605533123016357 0.098650991916656494 0.89562690258026123
1 0.10276543349027634 0.82407534122467041
0.012720384635031223 0.25343489646911621 0.85643571615219116
0.30861210823059082 0.25953188538551331 0.86392021179199219
0.66255313158035278 0.31037849187850952 0.89594626426696777
0.89460539817810059 0.39269515872001648 0.89604318141937256
0.99771273136138916 0.32341477274894714 0.82754945755004883
3.5005457448278321e-06 0.50656253099441528 0.8136104941368103
0.24636581540107727 0.5203319787979126 0.81966131925582886
0.61502563953399658 0.59008508920669556 0.85578680038452148
0.85257399082183838 0.66426044702529907 0.88441473245620728
0.97707557678222656 0.5678706169128418 0.81108611822128296
0.36283642053604126 0.78575509786605835 0.84351307153701782
0.46662735939025879 0.78649222850799561 0.84660822153091431
0.65993309020996094 0.78738945722579956 0.85550886392593384
0.83485037088394165 0.81144511699676514 0.8734326958656311
0.96649408340454102 0.75333046913146973 0.82109194993972778
0.62071782350540161 0.95466840267181396 0.86961823701858521
0.64319026470184326 0.95720237493515015 0.86911696195602417
0.70773559808731079 0.95454955101013184 0.86010104417800903
0.79760134220123291 0.95536708831787109 0.82693052291870117
0.93434244394302368 0.97666400671005249 0.84850794076919556
0.46275293827056885 0.25020533800125122 0.99742668867111206
0.55700170993804932 0.26000797748565674 0.99690300226211548
0.73500585556030273 0.30230683088302612 0.99774682521820068
0.89645767211914062 0.43542122840881348 0.99958908557891846
0.99664998054504395 0.5484306812286377 0.99523866176605225
0.49050179123878479 0.41166570782661438 0.99618422985076904
0.57736188173294067 0.41935244202613831 0.99630916118621826
0.7347143292427063 0.46591544151306152 0.99582195281982422
0.88139909505844116 0.5763857364654541 0.99769729375839233
0.99057042598724365 0.62768113613128662 0.99586611986160278
0.44903451204299927 0.61712175607681274 0.98829811811447144
0.53799861669540405 0.62593948841094971 0.98729145526885986
0.70988047122955322 0.65552657842636108 0.98724180459976196
0.86563432216644287 0.72165697813034058 0.9929996132850647
0.97599142789840698 0.74483054876327515 0.98994821310043335
0.46360296010971069 0.78673988580703735 0.97442460060119629
0.5233924388885498 0.78387415409088135 0.97427040338516235
0.6640738844871521 0.78202003240585327 0.97454959154129028
0.83265233039855957 0.81302899122238159 0.97897100448608398
0.95804756879806519 0.86173146963119507 0.98673123121261597
0.67902570962905884 0.96446716785430908 0.97566860914230347
0.70358574390411377 0.96469444036483765 0.97701847553253174
0.76373887062072754 0.96693474054336548 0.97823303937911987
0.83456152677536011 0.97586500644683838 0.97663724422454834
0.93794572353363037 0.98948705196380615 0.98182410001754761
