films/rollei_retro_80s.cube
# Created by: G'MIC (https://gmic.eu)
TITLE "rollei_retro_80s"
# LUT size
LUT_3D_SIZE 13
# Data domain
DOMAIN_MIN 0.0 0.0 0.0
DOMAIN_MAX 1.0 1.0 1.0
# LUT data points
0.014384415931999683 0.014384415931999683 0.014384415931999683
0.029677821323275566 0.029677821323275566 0.029677821323275566
0.046895075589418411 0.046895075589418411 0.046895075589418411
0.06865653395652771 0.06865653395652771 0.06865653395652771
0.10145990550518036 0.10145990550518036 0.10145990550518036
0.13849042356014252 0.13849042356014252 0.13849042356014252
0.1821453720331192 0.1821453720331192 0.1821453720331192
0.26243877410888672 0.26243877410888672 0.26243877410888672
0.35747775435447693 0.35747775435447693 0.35747775435447693
0.46244129538536072 0.46244129538536072 0.46244129538536072
0.58741897344589233 0.58741897344589233 0.58741897344589233
0.70058685541152954 0.70058685541152954 0.70058685541152954
0.7899201512336731 0.7899201512336731 0.7899201512336731
0.025880148634314537 0.025880148634314537 0.025880148634314537
0.037648055702447891 0.037648055702447891 0.037648055702447891
0.050513863563537598 0.050513863563537598 0.050513863563537598
0.069126591086387634 0.069126591086387634 0.069126591086387634
0.10782560706138611 0.10782560706138611 0.10782560706138611
0.15180891752243042 0.15180891752243042 0.15180891752243042
0.20083776116371155 0.20083776116371155 0.20083776116371155
0.28040286898612976 0.28040286898612976 0.28040286898612976
0.37509188055992126 0.37509188055992126 0.37509188055992126
0.47885102033615112 0.47885102033615112 0.47885102033615112
0.59461516141891479 0.59461516141891479 0.59461516141891479
0.70227748155593872 0.70227748155593872 0.70227748155593872
0.79173648357391357 0.79173648357391357 0.79173648357391357
0.036304429173469543 0.036304429173469543 0.036304429173469543
0.048721522092819214 0.048721522092819214 0.048721522092819214
0.064009256660938263 0.064009256660938263 0.064009256660938263
0.085278213024139404 0.085278213024139404 0.085278213024139404
0.12497277557849884 0.12497277557849884 0.12497277557849884
0.17051446437835693 0.17051446437835693 0.17051446437835693
0.22010296583175659 0.22010296583175659 0.22010296583175659
0.2993151843547821 0.2993151843547821 0.2993151843547821
0.39687129855155945 0.39687129855155945 0.39687129855155945
0.50012099742889404 0.50012099742889404 0.50012099742889404
0.60670524835586548 0.60670524835586548 0.60670524835586548
0.71373772621154785 0.71373772621154785 0.71373772621154785
0.80364733934402466 0.80364733934402466 0.80364733934402466
0.049217566847801208 0.049217566847801208 0.049217566847801208
0.064328916370868683 0.064328916370868683 0.064328916370868683
0.081529118120670319 0.081529118120670319 0.081529118120670319
0.10356741398572922 0.10356741398572922 0.10356741398572922
0.14320597052574158 0.14320597052574158 0.14320597052574158
0.18973483145236969 0.18973483145236969 0.18973483145236969
0.24085342884063721 0.24085342884063721 0.24085342884063721
0.31962364912033081 0.31962364912033081 0.31962364912033081
0.41825565695762634 0.41825565695762634 0.41825565695762634
0.52124398946762085 0.52124398946762085 0.52124398946762085
0.62337797880172729 0.62337797880172729 0.62337797880172729
0.72701233625411987 0.72701233625411987 0.72701233625411987
0.81199175119400024 0.81199175119400024 0.81199175119400024
0.075322002172470093 0.075322002172470093 0.075322002172470093
0.087373055517673492 0.087373055517673492 0.087373055517673492
0.10095380991697311 0.10095380991697311 0.10095380991697311
0.11965569853782654 0.11965569853782654 0.11965569853782654
0.16244474053382874 0.16244474053382874 0.16244474053382874
0.21135774254798889 0.21135774254798889 0.21135774254798889
0.26332709193229675 0.26332709193229675 0.26332709193229675
0.34224036335945129 0.34224036335945129 0.34224036335945129
0.4404146671295166 0.4404146671295166 0.4404146671295166
0.54364258050918579 0.54364258050918579 0.54364258050918579
0.64418983459472656 0.64418983459472656 0.64418983459472656
0.73385804891586304 0.73385804891586304 0.73385804891586304
0.80799400806427002 0.80799400806427002 0.80799400806427002
0.10163451731204987 0.10163451731204987 0.10163451731204987
0.11275023221969604 0.11275023221969604 0.11275023221969604
0.12800353765487671 0.12800353765487671 0.12800353765487671
0.14900100231170654 0.14900100231170654 0.14900100231170654
0.18922686576843262 0.18922686576843262 0.18922686576843262
0.23623202741146088 0.23623202741146088 0.23623202741146088
0.28611657023429871 0.28611657023429871 0.28611657023429871
0.36629375815391541 0.36629375815391541 0.36629375815391541
0.46679052710533142 0.46679052710533142 0.46679052710533142
0.56996142864227295 0.56996142864227295 0.56996142864227295
0.66478592157363892 0.66478592157363892 0.66478592157363892
0.74249398708343506 0.74249398708343506 0.74249398708343506
0.81482177972793579 0.81482177972793579 0.81482177972793579
0.1258387565612793 0.1258387565612793 0.1258387565612793
0.13731613755226135 0.13731613755226135 0.13731613755226135
0.15904539823532104 0.15904539823532104 0.15904539823532104
0.18219771981239319 0.18219771981239319 0.18219771981239319
0.21906429529190063 0.21906429529190063 0.21906429529190063
0.26628848910331726 0.26628848910331726 0.26628848910331726
0.3167690634727478 0.3167690634727478 0.3167690634727478
0.39865097403526306 0.39865097403526306 0.39865097403526306
0.50001376867294312 0.50001376867294312 0.50001376867294312
0.60133606195449829 0.60133606195449829 0.60133606195449829
0.68894976377487183 0.68894976377487183 0.68894976377487183
0.76522707939147949 0.76522707939147949 0.76522707939147949
0.83262640237808228 0.83262640237808228 0.83262640237808228
0.16228881478309631 0.16228881478309631 0.16228881478309631
0.17309571802616119 0.17309571802616119 0.17309571802616119
0.1953970342874527 0.1953970342874527 0.1953970342874527
0.21670137345790863 0.21670137345790863 0.21670137345790863
0.25645846128463745 0.25645846128463745 0.25645846128463745
0.31082284450531006 0.31082284450531006 0.31082284450531006
0.3702411949634552 0.3702411949634552 0.3702411949634552
0.44849839806556702 0.44849839806556702 0.44849839806556702
0.53956359624862671 0.53956359624862671 0.53956359624862671
0.63541251420974731 0.63541251420974731 0.63541251420974731
0.71660172939300537 0.71660172939300537 0.71660172939300537
0.78873336315155029 0.78873336315155029 0.78873336315155029
0.85199320316314697 0.85199320316314697 0.85199320316314697
0.21306377649307251 0.21306377649307251 0.21306377649307251
0.22580230236053467 0.22580230236053467 0.22580230236053467
0.2440330982208252 0.2440330982208252 0.2440330982208252
0.26755204796791077 0.26755204796791077 0.26755204796791077
0.31062257289886475 0.31062257289886475 0.31062257289886475
0.36028942465782166 0.36028942465782166 0.36028942465782166
0.42008581757545471 0.42008581757545471 0.42008581757545471
0.5007665753364563 0.5007665753364563 0.5007665753364563
0.58482378721237183 0.58482378721237183 0.58482378721237183
0.67249476909637451 0.67249476909637451 0.67249476909637451
0.74654918909072876 0.74654918909072876 0.74654918909072876
0.81641334295272827 0.81641334295272827 0.81641334295272827
0.87678349018096924 0.87678349018096924 0.87678349018096924
0.26086312532424927 0.26086312532424927 0.26086312532424927
0.27778834104537964 0.27778834104537964 0.27778834104537964
0.29534515738487244 0.29534515738487244 0.29534515738487244
0.32287025451660156 0.32287025451660156 0.32287025451660156
0.36968648433685303 0.36968648433685303 0.36968648433685303
0.41881611943244934 0.41881611943244934 0.41881611943244934
0.47578266263008118 0.47578266263008118 0.47578266263008118
0.55436879396438599 0.55436879396438599 0.55436879396438599
0.63696771860122681 0.63696771860122681 0.63696771860122681
0.71161115169525146 0.71161115169525146 0.71161115169525146
0.77394896745681763 0.77394896745681763 0.77394896745681763
0.84181785583496094 0.84181785583496094 0.84181785583496094
0.89599740505218506 0.89599740505218506 0.89599740505218506
0.32795917987823486 0.32795917987823486 0.32795917987823486
0.3438626229763031 0.3438626229763031 0.3438626229763031
0.35952740907669067 0.35952740907669067 0.35952740907669067
0.38692781329154968 0.38692781329154968 0.38692781329154968
0.43615478277206421 0.43615478277206421 0.43615478277206421
0.49093401432037354 0.49093401432037354 0.49093401432037354
0.55023652315139771 0.55023652315139771 0.55023652315139771
0.61842948198318481 0.61842948198318481 0.61842948198318481
0.68869447708129883 0.68869447708129883 0.68869447708129883
0.74661421775817871 0.74661421775817871 0.74661421775817871
0.80078238248825073 0.80078238248825073 0.80078238248825073
0.86247879266738892 0.86247879266738892 0.86247879266738892
0.90992742776870728 0.90992742776870728 0.90992742776870728
0.41420444846153259 0.41420444846153259 0.41420444846153259
0.43044218420982361 0.43044218420982361 0.43044218420982361
0.44863110780715942 0.44863110780715942 0.44863110780715942
0.47605594992637634 0.47605594992637634 0.47605594992637634
0.5167202353477478 0.5167202353477478 0.5167202353477478
0.56726258993148804 0.56726258993148804 0.56726258993148804
0.62518137693405151 0.62518137693405151 0.62518137693405151
0.6830030083656311 0.6830030083656311 0.6830030083656311
0.73349708318710327 0.73349708318710327 0.73349708318710327
0.78751718997955322 0.78751718997955322 0.78751718997955322
0.83729720115661621 0.83729720115661621 0.83729720115661621
0.88612806797027588 0.88612806797027588 0.88612806797027588
0.93033802509307861 0.93033802509307861 0.93033802509307861
0.49387580156326294 0.49387580156326294 0.49387580156326294
0.50767093896865845 0.50767093896865845 0.50767093896865845
0.5283275842666626 0.5283275842666626 0.5283275842666626
0.55403667688369751 0.55403667688369751 0.55403667688369751
0.58896982669830322 0.58896982669830322 0.58896982669830322
0.63249367475509644 0.63249367475509644 0.63249367475509644
0.68091297149658203 0.68091297149658203 0.68091297149658203
0.72689014673233032 0.72689014673233032 0.72689014673233032
0.77426457405090332 0.77426457405090332 0.77426457405090332
0.82497245073318481 0.82497245073318481 0.82497245073318481
0.86578363180160522 0.86578363180160522 0.86578363180160522
0.9111219048500061 0.9111219048500061 0.9111219048500061
0.95227515697479248 0.95227515697479248 0.95227515697479248
0.021070817485451698 0.021070817485451698 0.021070817485451698
0.03630128875374794 0.03630128875374794 0.03630128875374794
0.054837141185998917 0.054837141185998917 0.054837141185998917
0.078714869916439056 0.078714869916439056 0.078714869916439056
0.11146087944507599 0.11146087944507599 0.11146087944507599
0.15045075118541718 0.15045075118541718 0.15045075118541718
0.20254018902778625 0.20254018902778625 0.20254018902778625
0.28427562117576599 0.28427562117576599 0.28427562117576599
0.37795734405517578 0.37795734405517578 0.37795734405517578
0.48223966360092163 0.48223966360092163 0.48223966360092163
0.59835970401763916 0.59835970401763916 0.59835970401763916
0.70130026340484619 0.70130026340484619 0.70130026340484619
0.78740030527114868 0.78740030527114868 0.78740030527114868
0.032615244388580322 0.032615244388580322 0.032615244388580322
0.044954635202884674 0.044954635202884674 0.044954635202884674
0.061107411980628967 0.061107411980628967 0.061107411980628967
0.085058592259883881 0.085058592259883881 0.085058592259883881
0.12123731523752213 0.12123731523752213 0.12123731523752213
0.16384761035442352 0.16384761035442352 0.16384761035442352
0.21408724784851074 0.21408724784851074 0.21408724784851074
0.2937781810760498 0.2937781810760498 0.2937781810760498
0.38853424787521362 0.38853424787521362 0.38853424787521362
0.49108603596687317 0.49108603596687317 0.49108603596687317
0.6020500659942627 0.6020500659942627 0.6020500659942627
0.70698225498199463 0.70698225498199463 0.70698225498199463
0.7948487401008606 0.7948487401008606 0.7948487401008606
0.045545585453510284 0.045545585453510284 0.045545585453510284
0.058584608137607574 0.058584608137607574 0.058584608137607574
0.075315259397029877 0.075315259397029877 0.075315259397029877
0.10034311562776566 0.10034311562776566 0.10034311562776566
0.13830454647541046 0.13830454647541046 0.13830454647541046
0.18196940422058105 0.18196940422058105 0.18196940422058105
0.23159420490264893 0.23159420490264893 0.23159420490264893
0.31002873182296753 0.31002873182296753 0.31002873182296753
0.40627223253250122 0.40627223253250122 0.40627223253250122
0.50775492191314697 0.50775492191314697 0.50775492191314697
0.61229115724563599 0.61229115724563599 0.61229115724563599
0.71811538934707642 0.71811538934707642 0.71811538934707642
0.8068002462387085 0.8068002462387085 0.8068002462387085
0.062340050935745239 0.062340050935745239 0.062340050935745239
0.075758688151836395 0.075758688151836395 0.075758688151836395
0.093326166272163391 0.093326166272163391 0.093326166272163391
0.11883830279111862 0.11883830279111862 0.11883830279111862
0.15696680545806885 0.15696680545806885 0.15696680545806885
0.20126603543758392 0.20126603543758392 0.20126603543758392
0.25223106145858765 0.25223106145858765 0.25223106145858765
0.32968965172767639 0.32968965172767639 0.32968965172767639
0.42566144466400146 0.42566144466400146 0.42566144466400146
0.52711182832717896 0.52711182832717896 0.52711182832717896
0.62863123416900635 0.62863123416900635 0.62863123416900635
0.73083072900772095 0.73083072900772095 0.73083072900772095
0.81274276971817017 0.81274276971817017 0.81274276971817017
0.086421757936477661 0.086421757936477661 0.086421757936477661
0.099219091236591339 0.099219091236591339 0.099219091236591339
0.11552833020687103 0.11552833020687103 0.11552833020687103
0.14147116243839264 0.14147116243839264 0.14147116243839264
0.17843469977378845 0.17843469977378845 0.17843469977378845
0.22320953011512756 0.22320953011512756 0.22320953011512756
0.27485442161560059 0.27485442161560059 0.27485442161560059
0.35232514142990112 0.35232514142990112 0.35232514142990112
0.44832146167755127 0.44832146167755127 0.44832146167755127
0.55058300495147705 0.55058300495147705 0.55058300495147705
0.65189391374588013 0.65189391374588013 0.65189391374588013
0.73923158645629883 0.73923158645629883 0.73923158645629883
0.81527566909790039 0.81527566909790039 0.81527566909790039
0.11315454542636871 0.11315454542636871 0.11315454542636871
0.12552627921104431 0.12552627921104431 0.12552627921104431
0.14379708468914032 0.14379708468914032 0.14379708468914032
0.17049939930438995 0.17049939930438995 0.17049939930438995
0.20598490536212921 0.20598490536212921 0.20598490536212921
0.25053778290748596 0.25053778290748596 0.25053778290748596
0.30231592059135437 0.30231592059135437 0.30231592059135437
0.38039156794548035 0.38039156794548035 0.38039156794548035
0.47700411081314087 0.47700411081314087 0.47700411081314087
0.57927942276000977 0.57927942276000977 0.57927942276000977
0.67399269342422485 0.67399269342422485 0.67399269342422485
0.75225341320037842 0.75225341320037842 0.75225341320037842
0.82527494430541992 0.82527494430541992 0.82527494430541992
0.14260312914848328 0.14260312914848328 0.14260312914848328
0.15347804129123688 0.15347804129123688 0.15347804129123688
0.17441219091415405 0.17441219091415405 0.17441219091415405
0.20147345960140228 0.20147345960140228 0.20147345960140228
0.23622824251651764 0.23622824251651764 0.23622824251651764
0.28365731239318848 0.28365731239318848 0.28365731239318848
0.3407016396522522 0.3407016396522522 0.3407016396522522
0.41855144500732422 0.41855144500732422 0.41855144500732422
0.51267403364181519 0.51267403364181519 0.51267403364181519
0.61095362901687622 0.61095362901687622 0.61095362901687622
0.6970977783203125 0.6970977783203125 0.6970977783203125
0.77641862630844116 0.77641862630844116 0.77641862630844116
0.84315705299377441 0.84315705299377441 0.84315705299377441
0.18318949639797211 0.18318949639797211 0.18318949639797211
0.19036911427974701 0.19036911427974701 0.19036911427974701
0.20954374969005585 0.20954374969005585 0.20954374969005585
0.23641252517700195 0.23641252517700195 0.23641252517700195
0.27517992258071899 0.27517992258071899 0.27517992258071899
0.32793322205543518 0.32793322205543518 0.32793322205543518
0.39062654972076416 0.39062654972076416 0.39062654972076416
0.46645826101303101 0.46645826101303101 0.46645826101303101
0.55359667539596558 0.55359667539596558 0.55359667539596558
0.64546805620193481 0.64546805620193481 0.64546805620193481
0.72630959749221802 0.72630959749221802 0.72630959749221802
0.80070650577545166 0.80070650577545166 0.80070650577545166
0.86042207479476929 0.86042207479476929 0.86042207479476929
0.22999715805053711 0.22999715805053711 0.22999715805053711
0.23712393641471863 0.23712393641471863 0.23712393641471863
0.2506084144115448 0.2506084144115448 0.2506084144115448
0.28050357103347778 0.28050357103347778 0.28050357103347778
0.32840052247047424 0.32840052247047424 0.32840052247047424
0.38000702857971191 0.38000702857971191 0.38000702857971191
0.44318011403083801 0.44318011403083801 0.44318011403083801
0.51872605085372925 0.51872605085372925 0.51872605085372925
0.59946763515472412 0.59946763515472412 0.59946763515472412
0.6819261908531189 0.6819261908531189 0.6819261908531189
0.75546735525131226 0.75546735525131226 0.75546735525131226
0.82374840974807739 0.82374840974807739 0.82374840974807739
0.8755258321762085 0.8755258321762085 0.8755258321762085
0.27632880210876465 0.27632880210876465 0.27632880210876465
0.28884652256965637 0.28884652256965637 0.28884652256965637
0.30399540066719055 0.30399540066719055 0.30399540066719055
0.33734166622161865 0.33734166622161865 0.33734166622161865
0.3873409628868103 0.3873409628868103 0.3873409628868103
0.43892905116081238 0.43892905116081238 0.43892905116081238
0.49858018755912781 0.49858018755912781 0.49858018755912781
0.5709041953086853 0.5709041953086853 0.5709041953086853
0.64857357740402222 0.64857357740402222 0.64857357740402222
0.71815729141235352 0.71815729141235352 0.71815729141235352
0.7812846302986145 0.7812846302986145 0.7812846302986145
0.84626990556716919 0.84626990556716919 0.84626990556716919
0.89201503992080688 0.89201503992080688 0.89201503992080688
0.34372571110725403 0.34372571110725403 0.34372571110725403
0.36102563142776489 0.36102563142776489 0.36102563142776489
0.37863260507583618 0.37863260507583618 0.37863260507583618
0.40575262904167175 0.40575262904167175 0.40575262904167175
0.45132890343666077 0.45132890343666077 0.45132890343666077
0.50501805543899536 0.50501805543899536 0.50501805543899536
0.56040370464324951 0.56040370464324951 0.56040370464324951
0.62551748752593994 0.62551748752593994 0.62551748752593994
0.69631791114807129 0.69631791114807129 0.69631791114807129
0.75436675548553467 0.75436675548553467 0.75436675548553467
0.80882292985916138 0.80882292985916138 0.80882292985916138
0.86717629432678223 0.86717629432678223 0.86717629432678223
0.90859007835388184 0.90859007835388184 0.90859007835388184
0.43208163976669312 0.43208163976669312 0.43208163976669312
0.44542482495307922 0.44542482495307922 0.44542482495307922
0.463937908411026 0.463937908411026 0.463937908411026
0.48946893215179443 0.48946893215179443 0.48946893215179443
0.5274541974067688 0.5274541974067688 0.5274541974067688
0.57727879285812378 0.57727879285812378 0.57727879285812378
0.62995451688766479 0.62995451688766479 0.62995451688766479
0.68621408939361572 0.68621408939361572 0.68621408939361572
0.74241095781326294 0.74241095781326294 0.74241095781326294
0.79410111904144287 0.79410111904144287 0.79410111904144287
0.8425249457359314 0.8425249457359314 0.8425249457359314
0.89018529653549194 0.89018529653549194 0.89018529653549194
0.92982655763626099 0.92982655763626099 0.92982655763626099
0.50913858413696289 0.50913858413696289 0.50913858413696289
0.52029728889465332 0.52029728889465332 0.52029728889465332
0.5364154577255249 0.5364154577255249 0.5364154577255249
0.55955398082733154 0.55955398082733154 0.55955398082733154
0.59427744150161743 0.59427744150161743 0.59427744150161743
0.63722413778305054 0.63722413778305054 0.63722413778305054
0.68471676111221313 0.68471676111221313 0.68471676111221313
0.73458230495452881 0.73458230495452881 0.73458230495452881
0.78174328804016113 0.78174328804016113 0.78174328804016113
0.82628870010375977 0.82628870010375977 0.82628870010375977
0.8688850998878479 0.8688850998878479 0.8688850998878479
0.91250133514404297 0.91250133514404297 0.91250133514404297
0.95015817880630493 0.95015817880630493 0.95015817880630493
0.025548133999109268 0.025548133999109268 0.025548133999109268
0.043565593659877777 0.043565593659877777 0.043565593659877777
0.065913230180740356 0.065913230180740356 0.065913230180740356
0.090759918093681335 0.090759918093681335 0.090759918093681335
0.12345633655786514 0.12345633655786514 0.12345633655786514
0.16551199555397034 0.16551199555397034 0.16551199555397034
0.22297564148902893 0.22297564148902893 0.22297564148902893
0.30714097619056702 0.30714097619056702 0.30714097619056702
0.40185710787773132 0.40185710787773132 0.40185710787773132
0.50489699840545654 0.50489699840545654 0.50489699840545654
0.61140036582946777 0.61140036582946777 0.61140036582946777
0.71370559930801392 0.71370559930801392 0.71370559930801392
0.79689854383468628 0.79689854383468628 0.79689854383468628
0.039682440459728241 0.039682440459728241 0.039682440459728241
0.054619088768959045 0.054619088768959045 0.054619088768959045
0.07410779595375061 0.07410779595375061 0.07410779595375061
0.099804073572158813 0.099804073572158813 0.099804073572158813
0.1363743394613266 0.1363743394613266 0.1363743394613266
0.17937588691711426 0.17937588691711426 0.17937588691711426
0.23344853520393372 0.23344853520393372 0.23344853520393372
0.31446436047554016 0.31446436047554016 0.31446436047554016
0.40881738066673279 0.40881738066673279 0.40881738066673279
0.50838947296142578 0.50838947296142578 0.50838947296142578
0.61268156766891479 0.61268156766891479 0.61268156766891479
0.71954160928726196 0.71954160928726196 0.71954160928726196
0.80890059471130371 0.80890059471130371 0.80890059471130371
0.05645446851849556 0.05645446851849556 0.05645446851849556
0.070240259170532227 0.070240259170532227 0.070240259170532227
0.087682642042636871 0.087682642042636871 0.087682642042636871
0.11556243896484375 0.11556243896484375 0.11556243896484375
0.15457586944103241 0.15457586944103241 0.15457586944103241
0.19799420237541199 0.19799420237541199 0.19799420237541199
0.24870385229587555 0.24870385229587555 0.24870385229587555
0.32724049687385559 0.32724049687385559 0.32724049687385559
0.42185208201408386 0.42185208201408386 0.42185208201408386
0.52076905965805054 0.52076905965805054 0.52076905965805054
0.62274163961410522 0.62274163961410522 0.62274163961410522
0.72816812992095947 0.72816812992095947 0.72816812992095947
0.8124079704284668 0.8124079704284668 0.8124079704284668
0.073407329618930817 0.073407329618930817 0.073407329618930817
0.087838038802146912 0.087838038802146912 0.087838038802146912
0.10665586590766907 0.10665586590766907 0.10665586590766907
0.13538575172424316 0.13538575172424316 0.13538575172424316
0.17429909110069275 0.17429909110069275 0.17429909110069275
0.21762511134147644 0.21762511134147644 0.21762511134147644
0.26822713017463684 0.26822713017463684 0.26822713017463684
0.34556514024734497 0.34556514024734497 0.34556514024734497
0.44038906693458557 0.44038906693458557 0.44038906693458557
0.53956311941146851 0.53956311941146851 0.53956311941146851
0.64024960994720459 0.64024960994720459 0.64024960994720459
0.73680961132049561 0.73680961132049561 0.73680961132049561
0.81060618162155151 0.81060618162155151 0.81060618162155151
0.097076743841171265 0.097076743841171265 0.097076743841171265
0.11170259118080139 0.11170259118080139 0.11170259118080139
0.13284754753112793 0.13284754753112793 0.13284754753112793
0.16230635344982147 0.16230635344982147 0.16230635344982147
0.19872292876243591 0.19872292876243591 0.19872292876243591
0.24054308235645294 0.24054308235645294 0.24054308235645294
