films/rollei_ortho_25.cube
# Created by: G'MIC (https://gmic.eu)
TITLE "rollei_ortho_25"
# LUT size
LUT_3D_SIZE 7
# Data domain
DOMAIN_MIN 0.0 0.0 0.0
DOMAIN_MAX 1.0 1.0 1.0
# LUT data points
0.030881410464644432 0.030881410464644432 0.030881410464644432
0.041743498295545578 0.041743498295545578 0.041743498295545578
0.055498264729976654 0.055498264729976654 0.055498264729976654
0.063785836100578308 0.063785836100578308 0.063785836100578308
0.060641001909971237 0.060641001909971237 0.060641001909971237
0.053862012922763824 0.053862012922763824 0.053862012922763824
0.054116971790790558 0.054116971790790558 0.054116971790790558
0.098954036831855774 0.098954036831855774 0.098954036831855774
0.10197349637746811 0.10197349637746811 0.10197349637746811
0.10946399718523026 0.10946399718523026 0.10946399718523026
0.11405307799577713 0.11405307799577713 0.11405307799577713
0.11672859638929367 0.11672859638929367 0.11672859638929367
0.11727465689182281 0.11727465689182281 0.11727465689182281
0.1253027468919754 0.1253027468919754 0.1253027468919754
0.17634250223636627 0.17634250223636627 0.17634250223636627
0.17616766691207886 0.17616766691207886 0.17616766691207886
0.17808167636394501 0.17808167636394501 0.17808167636394501
0.17996218800544739 0.17996218800544739 0.17996218800544739
0.18921889364719391 0.18921889364719391 0.18921889364719391
0.19220846891403198 0.19220846891403198 0.19220846891403198
0.20306785404682159 0.20306785404682159 0.20306785404682159
0.2677912712097168 0.2677912712097168 0.2677912712097168
0.26502794027328491 0.26502794027328491 0.26502794027328491
0.2726891040802002 0.2726891040802002 0.2726891040802002
0.2701188325881958 0.2701188325881958 0.2701188325881958
0.27754613757133484 0.27754613757133484 0.27754613757133484
0.28240740299224854 0.28240740299224854 0.28240740299224854
0.29799604415893555 0.29799604415893555 0.29799604415893555
0.39813044667243958 0.39813044667243958 0.39813044667243958
0.40252271294593811 0.40252271294593811 0.40252271294593811
0.4067038893699646 0.4067038893699646 0.4067038893699646
0.40852606296539307 0.40852606296539307 0.40852606296539307
0.4152282178401947 0.4152282178401947 0.4152282178401947
0.42789268493652344 0.42789268493652344 0.42789268493652344
0.447297602891922 0.447297602891922 0.447297602891922
0.63292676210403442 0.63292676210403442 0.63292676210403442
0.64852571487426758 0.64852571487426758 0.64852571487426758
0.65200924873352051 0.65200924873352051 0.65200924873352051
0.65672397613525391 0.65672397613525391 0.65672397613525391
0.65214121341705322 0.65214121341705322 0.65214121341705322
0.64923202991485596 0.64923202991485596 0.64923202991485596
0.66431921720504761 0.66431921720504761 0.66431921720504761
0.85129815340042114 0.85129815340042114 0.85129815340042114
0.85160887241363525 0.85160887241363525 0.85160887241363525
0.849129319190979 0.849129319190979 0.849129319190979
0.84658187627792358 0.84658187627792358 0.84658187627792358
0.83976823091506958 0.83976823091506958 0.83976823091506958
0.84254682064056396 0.84254682064056396 0.84254682064056396
0.85994589328765869 0.85994589328765869 0.85994589328765869
0.111298568546772 0.111298568546772 0.111298568546772
0.11529276520013809 0.11529276520013809 0.11529276520013809
0.12185658514499664 0.12185658514499664 0.12185658514499664
0.12832623720169067 0.12832623720169067 0.12832623720169067
0.12863154709339142 0.12863154709339142 0.12863154709339142
0.13013903796672821 0.13013903796672821 0.13013903796672821
0.14194048941135406 0.14194048941135406 0.14194048941135406
0.16657830774784088 0.16657830774784088 0.16657830774784088
0.16720381379127502 0.16720381379127502 0.16720381379127502
0.17017970979213715 0.17017970979213715 0.17017970979213715
0.17324098944664001 0.17324098944664001 0.17324098944664001
0.18045045435428619 0.18045045435428619 0.18045045435428619
0.19097106158733368 0.19097106158733368 0.19097106158733368
0.19650669395923615 0.19650669395923615 0.19650669395923615
0.23611032962799072 0.23611032962799072 0.23611032962799072
0.23279163241386414 0.23279163241386414 0.23279163241386414
0.2333282083272934 0.2333282083272934 0.2333282083272934
0.23399192094802856 0.23399192094802856 0.23399192094802856
0.24437938630580902 0.24437938630580902 0.24437938630580902
0.25558957457542419 0.25558957457542419 0.25558957457542419
0.26029372215270996 0.26029372215270996 0.26029372215270996
0.33265841007232666 0.33265841007232666 0.33265841007232666
0.33302322030067444 0.33302322030067444 0.33302322030067444
0.33820581436157227 0.33820581436157227 0.33820581436157227
0.33626270294189453 0.33626270294189453 0.33626270294189453
0.34281742572784424 0.34281742572784424 0.34281742572784424
0.34277406334877014 0.34277406334877014 0.34277406334877014
0.35075986385345459 0.35075986385345459 0.35075986385345459
0.49703669548034668 0.49703669548034668 0.49703669548034668
0.49734833836555481 0.49734833836555481 0.49734833836555481
0.50048637390136719 0.50048637390136719 0.50048637390136719
0.50550758838653564 0.50550758838653564 0.50550758838653564
0.50822842121124268 0.50822842121124268 0.50822842121124268
0.50833642482757568 0.50833642482757568 0.50833642482757568
0.50612682104110718 0.50612682104110718 0.50612682104110718
0.70277881622314453 0.70277881622314453 0.70277881622314453
0.70276707410812378 0.70276707410812378 0.70276707410812378
0.70496082305908203 0.70496082305908203 0.70496082305908203
0.71804308891296387 0.71804308891296387 0.71804308891296387
0.71699064970016479 0.71699064970016479 0.71699064970016479
0.72651416063308716 0.72651416063308716 0.72651416063308716
0.72901660203933716 0.72901660203933716 0.72901660203933716
0.87033307552337646 0.87033307552337646 0.87033307552337646
0.87151575088500977 0.87151575088500977 0.87151575088500977
0.86983144283294678 0.86983144283294678 0.86983144283294678
0.87611037492752075 0.87611037492752075 0.87611037492752075
0.87334465980529785 0.87334465980529785 0.87334465980529785
0.8787611722946167 0.8787611722946167 0.8787611722946167
0.88370358943939209 0.88370358943939209 0.88370358943939209
0.2045014351606369 0.2045014351606369 0.2045014351606369
0.20403258502483368 0.20403258502483368 0.20403258502483368
0.20646913349628448 0.20646913349628448 0.20646913349628448
0.20721103250980377 0.20721103250980377 0.20721103250980377
0.21522167325019836 0.21522167325019836 0.21522167325019836
0.22169187664985657 0.22169187664985657 0.22169187664985657
0.2358420342206955 0.2358420342206955 0.2358420342206955
0.25248593091964722 0.25248593091964722 0.25248593091964722
0.25470945239067078 0.25470945239067078 0.25470945239067078
0.25917142629623413 0.25917142629623413 0.25917142629623413
0.25745916366577148 0.25745916366577148 0.25745916366577148
0.26490676403045654 0.26490676403045654 0.26490676403045654
0.28185507655143738 0.28185507655143738 0.28185507655143738
0.29498177766799927 0.29498177766799927 0.29498177766799927
0.31912386417388916 0.31912386417388916 0.31912386417388916
0.31851759552955627 0.31851759552955627 0.31851759552955627
0.32722193002700806 0.32722193002700806 0.32722193002700806
0.33006632328033447 0.33006632328033447 0.33006632328033447
0.3365788459777832 0.3365788459777832 0.3365788459777832
0.35349667072296143 0.35349667072296143 0.35349667072296143
0.35549461841583252 0.35549461841583252 0.35549461841583252
0.42615199089050293 0.42615199089050293 0.42615199089050293
0.43948471546173096 0.43948471546173096 0.43948471546173096
0.45938104391098022 0.45938104391098022 0.45938104391098022
0.46434164047241211 0.46434164047241211 0.46434164047241211
0.45989522337913513 0.45989522337913513 0.45989522337913513
0.46772119402885437 0.46772119402885437 0.46772119402885437
0.47898134589195251 0.47898134589195251 0.47898134589195251
0.62319481372833252 0.62319481372833252 0.62319481372833252
0.62516552209854126 0.62516552209854126 0.62516552209854126
0.63075470924377441 0.63075470924377441 0.63075470924377441
0.63857364654541016 0.63857364654541016 0.63857364654541016
0.65013426542282104 0.65013426542282104 0.65013426542282104
0.64482587575912476 0.64482587575912476 0.64482587575912476
0.6524968147277832 0.6524968147277832 0.6524968147277832
0.78842246532440186 0.78842246532440186 0.78842246532440186
0.78606164455413818 0.78606164455413818 0.78606164455413818
0.78610920906066895 0.78610920906066895 0.78610920906066895
0.79396271705627441 0.79396271705627441 0.79396271705627441
0.80240577459335327 0.80240577459335327 0.80240577459335327
0.8075069785118103 0.8075069785118103 0.8075069785118103
0.81011486053466797 0.81011486053466797 0.81011486053466797
0.89950299263000488 0.89950299263000488 0.89950299263000488
0.9006495475769043 0.9006495475769043 0.9006495475769043
0.90375572443008423 0.90375572443008423 0.90375572443008423
0.90796637535095215 0.90796637535095215 0.90796637535095215
0.90950220823287964 0.90950220823287964 0.90950220823287964
0.91099721193313599 0.91099721193313599 0.91099721193313599
0.91338598728179932 0.91338598728179932 0.91338598728179932
0.31807446479797363 0.31807446479797363 0.31807446479797363
0.31247007846832275 0.31247007846832275 0.31247007846832275
0.31812098622322083 0.31812098622322083 0.31812098622322083
0.31720656156539917 0.31720656156539917 0.31720656156539917
0.32196652889251709 0.32196652889251709 0.32196652889251709
0.33367571234703064 0.33367571234703064 0.33367571234703064
0.35156384110450745 0.35156384110450745 0.35156384110450745
0.37706509232521057 0.37706509232521057 0.37706509232521057
0.38900256156921387 0.38900256156921387 0.38900256156921387
0.39478710293769836 0.39478710293769836 0.39478710293769836
0.39370778203010559 0.39370778203010559 0.39370778203010559
0.39691343903541565 0.39691343903541565 0.39691343903541565
0.42960116267204285 0.42960116267204285 0.42960116267204285
0.44582101702690125 0.44582101702690125 0.44582101702690125
0.46478253602981567 0.46478253602981567 0.46478253602981567
0.48481166362762451 0.48481166362762451 0.48481166362762451
0.48766505718231201 0.48766505718231201 0.48766505718231201
0.49535804986953735 0.49535804986953735 0.49535804986953735
0.5101923942565918 0.5101923942565918 0.5101923942565918
0.5379827618598938 0.5379827618598938 0.5379827618598938
0.54505109786987305 0.54505109786987305 0.54505109786987305
0.60898303985595703 0.60898303985595703 0.60898303985595703
0.61291015148162842 0.61291015148162842 0.61291015148162842
0.63363850116729736 0.63363850116729736 0.63363850116729736
0.64969509840011597 0.64969509840011597 0.64969509840011597
0.64753729104995728 0.64753729104995728 0.64753729104995728
0.6630706787109375 0.6630706787109375 0.6630706787109375
0.68200099468231201 0.68200099468231201 0.68200099468231201
0.77067351341247559 0.77067351341247559 0.77067351341247559
0.76161152124404907 0.76161152124404907 0.76161152124404907
0.76704782247543335 0.76704782247543335 0.76704782247543335
0.77448356151580811 0.77448356151580811 0.77448356151580811
0.77793580293655396 0.77793580293655396 0.77793580293655396
0.77889019250869751 0.77889019250869751 0.77889019250869751
0.78033506870269775 0.78033506870269775 0.78033506870269775
0.86795920133590698 0.86795920133590698 0.86795920133590698
0.86833381652832031 0.86833381652832031 0.86833381652832031
0.86554902791976929 0.86554902791976929 0.86554902791976929
0.86582434177398682 0.86582434177398682 0.86582434177398682
0.87031710147857666 0.87031710147857666 0.87031710147857666
0.87078404426574707 0.87078404426574707 0.87078404426574707
0.86864382028579712 0.86864382028579712 0.86864382028579712
0.94337844848632812 0.94337844848632812 0.94337844848632812
0.94355356693267822 0.94355356693267822 0.94355356693267822
0.94353324174880981 0.94353324174880981 0.94353324174880981
0.93890655040740967 0.93890655040740967 0.93890655040740967
0.94103187322616577 0.94103187322616577 0.94103187322616577
0.93949645757675171 0.93949645757675171 0.93949645757675171
0.94084781408309937 0.94084781408309937 0.94084781408309937
0.47533115744590759 0.47533115744590759 0.47533115744590759
0.47795715928077698 0.47795715928077698 0.47795715928077698
0.48822677135467529 0.48822677135467529 0.48822677135467529
0.50564271211624146 0.50564271211624146 0.50564271211624146
0.50734829902648926 0.50734829902648926 0.50734829902648926
0.51333838701248169 0.51333838701248169 0.51333838701248169
0.53011417388916016 0.53011417388916016 0.53011417388916016
0.5824546217918396 0.5824546217918396 0.5824546217918396
0.5877685546875 0.5877685546875 0.5877685546875
0.59594070911407471 0.59594070911407471 0.59594070911407471
0.61587470769882202 0.61587470769882202 0.61587470769882202
0.62833070755004883 0.62833070755004883 0.62833070755004883
0.64745199680328369 0.64745199680328369 0.64745199680328369
0.64326775074005127 0.64326775074005127 0.64326775074005127
0.67271804809570312 0.67271804809570312 0.67271804809570312
0.6993865966796875 0.6993865966796875 0.6993865966796875
0.69455134868621826 0.69455134868621826 0.69455134868621826
0.70902633666992188 0.70902633666992188 0.70902633666992188
0.72468787431716919 0.72468787431716919 0.72468787431716919
0.73884350061416626 0.73884350061416626 0.73884350061416626
0.73351114988327026 0.73351114988327026 0.73351114988327026
0.77217185497283936 0.77217185497283936 0.77217185497283936
0.78763246536254883 0.78763246536254883 0.78763246536254883
0.79084485769271851 0.79084485769271851 0.79084485769271851
0.80346137285232544 0.80346137285232544 0.80346137285232544
0.80925905704498291 0.80925905704498291 0.80925905704498291
0.81898301839828491 0.81898301839828491 0.81898301839828491
0.81741398572921753 0.81741398572921753 0.81741398572921753
0.86384797096252441 0.86384797096252441 0.86384797096252441
0.85982996225357056 0.85982996225357056 0.85982996225357056
0.86357307434082031 0.86357307434082031 0.86357307434082031
0.87101209163665771 0.87101209163665771 0.87101209163665771
0.86899864673614502 0.86899864673614502 0.86899864673614502
0.87097126245498657 0.87097126245498657 0.87097126245498657
0.87072712182998657 0.87072712182998657 0.87072712182998657
0.93366473913192749 0.93366473913192749 0.93366473913192749
0.92786473035812378 0.92786473035812378 0.92786473035812378
0.92494237422943115 0.92494237422943115 0.92494237422943115
0.92435228824615479 0.92435228824615479 0.92435228824615479
0.92150634527206421 0.92150634527206421 0.92150634527206421
0.91914910078048706 0.91914910078048706 0.91914910078048706
0.91640669107437134 0.91640669107437134 0.91640669107437134
0.9927746057510376 0.9927746057510376 0.9927746057510376
0.9893263578414917 0.9893263578414917 0.9893263578414917
0.98443424701690674 0.98443424701690674 0.98443424701690674
0.977164626121521 0.977164626121521 0.977164626121521
0.97325408458709717 0.97325408458709717 0.97325408458709717
0.96914732456207275 0.96914732456207275 0.96914732456207275
0.96553325653076172 0.96553325653076172 0.96553325653076172
0.68868738412857056 0.68868738412857056 0.68868738412857056
0.71838760375976562 0.71838760375976562 0.71838760375976562
0.7163199782371521 0.7163199782371521 0.7163199782371521
0.73790979385375977 0.73790979385375977 0.73790979385375977
0.75210559368133545 0.75210559368133545 0.75210559368133545
0.74418443441390991 0.74418443441390991 0.74418443441390991
0.76284199953079224 0.76284199953079224 0.76284199953079224
0.78043609857559204 0.78043609857559204 0.78043609857559204
0.78151482343673706 0.78151482343673706 0.78151482343673706
0.78560608625411987 0.78560608625411987 0.78560608625411987
0.80309921503067017 0.80309921503067017 0.80309921503067017
0.81728929281234741 0.81728929281234741 0.81728929281234741
0.8171694278717041 0.8171694278717041 0.8171694278717041
0.81048023700714111 0.81048023700714111 0.81048023700714111
0.82938164472579956 0.82938164472579956 0.82938164472579956
0.8371739387512207 0.8371739387512207 0.8371739387512207
0.83896291255950928 0.83896291255950928 0.83896291255950928
0.85030722618103027 0.85030722618103027 0.85030722618103027
0.86083853244781494 0.86083853244781494 0.86083853244781494
0.86409097909927368 0.86409097909927368 0.86409097909927368
0.85448914766311646 0.85448914766311646 0.85448914766311646
0.88248747587203979 0.88248747587203979 0.88248747587203979
0.88864719867706299 0.88864719867706299 0.88864719867706299
0.88978284597396851 0.88978284597396851 0.88978284597396851
0.89464843273162842 0.89464843273162842 0.89464843273162842
0.89862829446792603 0.89862829446792603 0.89862829446792603
0.90358728170394897 0.90358728170394897 0.90358728170394897
0.89700925350189209 0.89700925350189209 0.89700925350189209
0.93619924783706665 0.93619924783706665 0.93619924783706665
0.92956143617630005 0.92956143617630005 0.92956143617630005
0.93080437183380127 0.93080437183380127 0.93080437183380127
0.93617457151412964 0.93617457151412964 0.93617457151412964
0.93451046943664551 0.93451046943664551 0.93451046943664551
0.93239134550094604 0.93239134550094604 0.93239134550094604
0.92723315954208374 0.92723315954208374 0.92723315954208374
0.98826897144317627 0.98826897144317627 0.98826897144317627
0.97982466220855713 0.97982466220855713 0.97982466220855713
0.97586274147033691 0.97586274147033691 0.97586274147033691
0.97428518533706665 0.97428518533706665 0.97428518533706665
0.96760565042495728 0.96760565042495728 0.96760565042495728
0.95887821912765503 0.95887821912765503 0.95887821912765503
0.95165127515792847 0.95165127515792847 0.95165127515792847
1 1 1
1 1 1
1 1 1
0.99996590614318848 0.99996590614318848 0.99996590614318848
0.99906527996063232 0.99906527996063232 0.99906527996063232
0.99322330951690674 0.99322330951690674 0.99322330951690674
0.98365038633346558 0.98365038633346558 0.98365038633346558
0.85031396150588989 0.85031396150588989 0.85031396150588989
0.85391634702682495 0.85391634702682495 0.85391634702682495
0.85297322273254395 0.85297322273254395 0.85297322273254395
0.85527700185775757 0.85527700185775757 0.85527700185775757
0.86350202560424805 0.86350202560424805 0.86350202560424805
0.8625638484954834 0.8625638484954834 0.8625638484954834
0.85563051700592041 0.85563051700592041 0.85563051700592041
0.88715875148773193 0.88715875148773193 0.88715875148773193
0.89560484886169434 0.89560484886169434 0.89560484886169434
0.89647263288497925 0.89647263288497925 0.89647263288497925
0.89796680212020874 0.89796680212020874 0.89796680212020874
0.90833073854446411 0.90833073854446411 0.90833073854446411
0.90628290176391602 0.90628290176391602 0.90628290176391602
0.899181067943573 0.899181067943573 0.899181067943573
0.92078554630279541 0.92078554630279541 0.92078554630279541
0.92471474409103394 0.92471474409103394 0.92471474409103394
0.92368006706237793 0.92368006706237793 0.92368006706237793
0.93254131078720093 0.93254131078720093 0.93254131078720093
0.93763858079910278 0.93763858079910278 0.93763858079910278
0.93445074558258057 0.93445074558258057 0.93445074558258057
0.92894357442855835 0.92894357442855835 0.92894357442855835
0.96127820014953613 0.96127820014953613 0.96127820014953613
0.96153438091278076 0.96153438091278076 0.96153438091278076
0.96073740720748901 0.96073740720748901 0.96073740720748901
0.96320921182632446 0.96320921182632446 0.96320921182632446
0.96436446905136108 0.96436446905136108 0.96436446905136108
0.96211445331573486 0.96211445331573486 0.96211445331573486
0.95492804050445557 0.95492804050445557 0.95492804050445557
0.99615335464477539 0.99615335464477539 0.99615335464477539
0.99391061067581177 0.99391061067581177 0.99391061067581177
0.99221813678741455 0.99221813678741455 0.99221813678741455
0.99142676591873169 0.99142676591873169 0.99142676591873169
0.98804652690887451 0.98804652690887451 0.98804652690887451
0.98138046264648438 0.98138046264648438 0.98138046264648438
0.97308516502380371 0.97308516502380371 0.97308516502380371
1 1 1
1 1 1
1 1 1
1 1 1
0.99987596273422241 0.99987596273422241 0.99987596273422241
0.99583917856216431 0.99583917856216431 0.99583917856216431
0.98553550243377686 0.98553550243377686 0.98553550243377686
1 1 1
1 1 1
1 1 1
1 1 1
1 1 1
1 1 1
0.99813210964202881 0.99813210964202881 0.99813210964202881
