films/rollei_retro_80s.cube
# Created by: G'MIC (https://gmic.eu)
TITLE "rollei_retro_80s"
# LUT size
LUT_3D_SIZE 7
# Data domain
DOMAIN_MIN 0.0 0.0 0.0
DOMAIN_MAX 1.0 1.0 1.0
# LUT data points
0.014384415931999683 0.014384415931999683 0.014384415931999683
0.046895075589418411 0.046895075589418411 0.046895075589418411
0.10145990550518036 0.10145990550518036 0.10145990550518036
0.1821453720331192 0.1821453720331192 0.1821453720331192
0.35747775435447693 0.35747775435447693 0.35747775435447693
0.58741897344589233 0.58741897344589233 0.58741897344589233
0.7899201512336731 0.7899201512336731 0.7899201512336731
0.036304429173469543 0.036304429173469543 0.036304429173469543
0.064009256660938263 0.064009256660938263 0.064009256660938263
0.12497277557849884 0.12497277557849884 0.12497277557849884
0.22010296583175659 0.22010296583175659 0.22010296583175659
0.39687129855155945 0.39687129855155945 0.39687129855155945
0.60670524835586548 0.60670524835586548 0.60670524835586548
0.80364733934402466 0.80364733934402466 0.80364733934402466
0.075322002172470093 0.075322002172470093 0.075322002172470093
0.10095380991697311 0.10095380991697311 0.10095380991697311
0.16244474053382874 0.16244474053382874 0.16244474053382874
0.26332709193229675 0.26332709193229675 0.26332709193229675
0.4404146671295166 0.4404146671295166 0.4404146671295166
0.64418983459472656 0.64418983459472656 0.64418983459472656
0.80799400806427002 0.80799400806427002 0.80799400806427002
0.1258387565612793 0.1258387565612793 0.1258387565612793
0.15904539823532104 0.15904539823532104 0.15904539823532104
0.21906429529190063 0.21906429529190063 0.21906429529190063
0.3167690634727478 0.3167690634727478 0.3167690634727478
0.50001376867294312 0.50001376867294312 0.50001376867294312
0.68894976377487183 0.68894976377487183 0.68894976377487183
0.83262640237808228 0.83262640237808228 0.83262640237808228
0.21306377649307251 0.21306377649307251 0.21306377649307251
0.2440330982208252 0.2440330982208252 0.2440330982208252
0.31062257289886475 0.31062257289886475 0.31062257289886475
0.42008581757545471 0.42008581757545471 0.42008581757545471
0.58482378721237183 0.58482378721237183 0.58482378721237183
0.74654918909072876 0.74654918909072876 0.74654918909072876
0.87678349018096924 0.87678349018096924 0.87678349018096924
0.32795917987823486 0.32795917987823486 0.32795917987823486
0.35952740907669067 0.35952740907669067 0.35952740907669067
0.43615478277206421 0.43615478277206421 0.43615478277206421
0.55023652315139771 0.55023652315139771 0.55023652315139771
0.68869447708129883 0.68869447708129883 0.68869447708129883
0.80078238248825073 0.80078238248825073 0.80078238248825073
0.90992742776870728 0.90992742776870728 0.90992742776870728
0.49387580156326294 0.49387580156326294 0.49387580156326294
0.5283275842666626 0.5283275842666626 0.5283275842666626
0.58896982669830322 0.58896982669830322 0.58896982669830322
0.68091297149658203 0.68091297149658203 0.68091297149658203
0.77426457405090332 0.77426457405090332 0.77426457405090332
0.86578363180160522 0.86578363180160522 0.86578363180160522
0.95227515697479248 0.95227515697479248 0.95227515697479248
0.025548133999109268 0.025548133999109268 0.025548133999109268
0.065913230180740356 0.065913230180740356 0.065913230180740356
0.12345633655786514 0.12345633655786514 0.12345633655786514
0.22297564148902893 0.22297564148902893 0.22297564148902893
0.40185710787773132 0.40185710787773132 0.40185710787773132
0.61140036582946777 0.61140036582946777 0.61140036582946777
0.79689854383468628 0.79689854383468628 0.79689854383468628
0.05645446851849556 0.05645446851849556 0.05645446851849556
0.087682642042636871 0.087682642042636871 0.087682642042636871
0.15457586944103241 0.15457586944103241 0.15457586944103241
0.24870385229587555 0.24870385229587555 0.24870385229587555
0.42185208201408386 0.42185208201408386 0.42185208201408386
0.62274163961410522 0.62274163961410522 0.62274163961410522
0.8124079704284668 0.8124079704284668 0.8124079704284668
0.097076743841171265 0.097076743841171265 0.097076743841171265
0.13284754753112793 0.13284754753112793 0.13284754753112793
0.19872292876243591 0.19872292876243591 0.19872292876243591
0.2915242612361908 0.2915242612361908 0.2915242612361908
0.46394723653793335 0.46394723653793335 0.46394723653793335
0.66227197647094727 0.66227197647094727 0.66227197647094727
0.81895506381988525 0.81895506381988525 0.81895506381988525
0.15776479244232178 0.15776479244232178 0.15776479244232178
0.19172702729701996 0.19172702729701996 0.19172702729701996
0.25842106342315674 0.25842106342315674 0.25842106342315674
0.36316263675689697 0.36316263675689697 0.36316263675689697
0.53469371795654297 0.53469371795654297 0.53469371795654297
0.7113412618637085 0.7113412618637085 0.7113412618637085
0.85795384645462036 0.85795384645462036 0.85795384645462036
0.24587374925613403 0.24587374925613403 0.24587374925613403
0.26336866617202759 0.26336866617202759 0.26336866617202759
0.34673300385475159 0.34673300385475159 0.34673300385475159
0.46738949418067932 0.46738949418067932 0.46738949418067932
0.61909431219100952 0.61909431219100952 0.61909431219100952
0.76840102672576904 0.76840102672576904 0.76840102672576904
0.87658780813217163 0.87658780813217163 0.87658780813217163
0.36276388168334961 0.36276388168334961 0.36276388168334961
0.40039020776748657 0.40039020776748657 0.40039020776748657
0.47149404883384705 0.47149404883384705 0.47149404883384705
0.5788765549659729 0.5788765549659729 0.5788765549659729
0.71069967746734619 0.71069967746734619 0.71069967746734619
0.82012540102005005 0.82012540102005005 0.82012540102005005
0.91134786605834961 0.91134786605834961 0.91134786605834961
0.5333181619644165 0.5333181619644165 0.5333181619644165
0.55289161205291748 0.55289161205291748 0.55289161205291748
0.60818803310394287 0.60818803310394287 0.60818803310394287
0.69341468811035156 0.69341468811035156 0.69341468811035156
0.79183322191238403 0.79183322191238403 0.79183322191238403
0.87701308727264404 0.87701308727264404 0.87701308727264404
0.95629489421844482 0.95629489421844482 0.95629489421844482
0.048573080450296402 0.048573080450296402 0.048573080450296402
0.093206010758876801 0.093206010758876801 0.093206010758876801
0.1546323150396347 0.1546323150396347 0.1546323150396347
0.26531121134757996 0.26531121134757996 0.26531121134757996
0.44587945938110352 0.44587945938110352 0.44587945938110352
0.64859789609909058 0.64859789609909058 0.64859789609909058
0.8142504096031189 0.8142504096031189 0.8142504096031189
0.082404404878616333 0.082404404878616333 0.082404404878616333
0.11321333050727844 0.11321333050727844 0.11321333050727844
0.19750270247459412 0.19750270247459412 0.19750270247459412
0.29679301381111145 0.29679301381111145 0.29679301381111145
0.47063645720481873 0.47063645720481873 0.47063645720481873
0.66466754674911499 0.66466754674911499 0.66466754674911499
0.82252848148345947 0.82252848148345947 0.82252848148345947
0.13105691969394684 0.13105691969394684 0.13105691969394684
0.17681840062141418 0.17681840062141418 0.17681840062141418
0.25049552321434021 0.25049552321434021 0.25049552321434021
0.3412821888923645 0.3412821888923645 0.3412821888923645
0.51703077554702759 0.51703077554702759 0.51703077554702759
0.69720017910003662 0.69720017910003662 0.69720017910003662
0.8383256196975708 0.8383256196975708 0.8383256196975708
0.20097136497497559 0.20097136497497559 0.20097136497497559
0.23934571444988251 0.23934571444988251 0.23934571444988251
0.31399136781692505 0.31399136781692505 0.31399136781692505
0.42506840825080872 0.42506840825080872 0.42506840825080872
0.58566993474960327 0.58566993474960327 0.58566993474960327
0.74524897336959839 0.74524897336959839 0.74524897336959839
0.87154442071914673 0.87154442071914673 0.87154442071914673
0.30268079042434692 0.30268079042434692 0.30268079042434692
0.33762276172637939 0.33762276172637939 0.33762276172637939
0.39232057332992554 0.39232057332992554 0.39232057332992554
0.52236086130142212 0.52236086130142212 0.52236086130142212
0.66859745979309082 0.66859745979309082 0.66859745979309082
0.79459995031356812 0.79459995031356812 0.79459995031356812
0.88906538486480713 0.88906538486480713 0.88906538486480713
0.42860892415046692 0.42860892415046692 0.42860892415046692
0.46992200613021851 0.46992200613021851 0.46992200613021851
0.53341472148895264 0.53341472148895264 0.53341472148895264
0.62906342744827271 0.62906342744827271 0.62906342744827271
0.74066388607025146 0.74066388607025146 0.74066388607025146
0.84187138080596924 0.84187138080596924 0.84187138080596924
0.92067986726760864 0.92067986726760864 0.92067986726760864
0.58768874406814575 0.58768874406814575 0.58768874406814575
0.61129975318908691 0.61129975318908691 0.61129975318908691
0.66501611471176147 0.66501611471176147 0.66501611471176147
0.72540676593780518 0.72540676593780518 0.72540676593780518
0.81189298629760742 0.81189298629760742 0.81189298629760742
0.88704866170883179 0.88704866170883179 0.88704866170883179
0.96178215742111206 0.96178215742111206 0.96178215742111206
0.073257908225059509 0.073257908225059509 0.073257908225059509
0.13059267401695251 0.13059267401695251 0.13059267401695251
0.21531009674072266 0.21531009674072266 0.21531009674072266
0.33438378572463989 0.33438378572463989 0.33438378572463989
0.50133955478668213 0.50133955478668213 0.50133955478668213
0.69891577959060669 0.69891577959060669 0.69891577959060669
0.84743446111679077 0.84743446111679077 0.84743446111679077
0.12620316445827484 0.12620316445827484 0.12620316445827484
0.17086715996265411 0.17086715996265411 0.17086715996265411
0.261881023645401 0.261881023645401 0.261881023645401
0.38501468300819397 0.38501468300819397 0.38501468300819397
0.54618740081787109 0.54618740081787109 0.54618740081787109
0.70894074440002441 0.70894074440002441 0.70894074440002441
0.85104823112487793 0.85104823112487793 0.85104823112487793
0.18534766137599945 0.18534766137599945 0.18534766137599945
0.23664166033267975 0.23664166033267975 0.23664166033267975
0.33160686492919922 0.33160686492919922 0.33160686492919922
0.45667141675949097 0.45667141675949097 0.45667141675949097
0.58975541591644287 0.58975541591644287 0.58975541591644287
0.73409169912338257 0.73409169912338257 0.73409169912338257
0.86609864234924316 0.86609864234924316 0.86609864234924316
0.26823511719703674 0.26823511719703674 0.26823511719703674
0.29742047190666199 0.29742047190666199 0.29742047190666199
0.41213533282279968 0.41213533282279968 0.41213533282279968
0.53462827205657959 0.53462827205657959 0.53462827205657959
0.65610641241073608 0.65610641241073608 0.65610641241073608
0.7837643027305603 0.7837643027305603 0.7837643027305603
0.88773590326309204 0.88773590326309204 0.88773590326309204
0.37076899409294128 0.37076899409294128 0.37076899409294128
0.41560369729995728 0.41560369729995728 0.41560369729995728
0.50242137908935547 0.50242137908935547 0.50242137908935547
0.61192470788955688 0.61192470788955688 0.61192470788955688
0.72375458478927612 0.72375458478927612 0.72375458478927612
0.82507306337356567 0.82507306337356567 0.82507306337356567
0.90930736064910889 0.90930736064910889 0.90930736064910889
0.50423127412796021 0.50423127412796021 0.50423127412796021
0.55229359865188599 0.55229359865188599 0.55229359865188599
0.6129155158996582 0.6129155158996582 0.6129155158996582
0.68816155195236206 0.68816155195236206 0.68816155195236206
0.78131312131881714 0.78131312131881714 0.78131312131881714
0.86686277389526367 0.86686277389526367 0.86686277389526367
0.93719279766082764 0.93719279766082764 0.93719279766082764
0.66222786903381348 0.66222786903381348 0.66222786903381348
0.67541515827178955 0.67541515827178955 0.67541515827178955
0.71620148420333862 0.71620148420333862 0.71620148420333862
0.76771169900894165 0.76771169900894165 0.76771169900894165
0.84002816677093506 0.84002816677093506 0.84002816677093506
0.90046316385269165 0.90046316385269165 0.90046316385269165
0.96608996391296387 0.96608996391296387 0.96608996391296387
0.13349507749080658 0.13349507749080658 0.13349507749080658
0.20065833628177643 0.20065833628177643 0.20065833628177643
0.27939653396606445 0.27939653396606445 0.27939653396606445
0.41986379027366638 0.41986379027366638 0.41986379027366638
0.58915513753890991 0.58915513753890991 0.58915513753890991
0.74521130323410034 0.74521130323410034 0.74521130323410034
0.87400162220001221 0.87400162220001221 0.87400162220001221
0.19549384713172913 0.19549384713172913 0.19549384713172913
0.2419828474521637 0.2419828474521637 0.2419828474521637
0.34190988540649414 0.34190988540649414 0.34190988540649414
0.46800076961517334 0.46800076961517334 0.46800076961517334
0.61472773551940918 0.61472773551940918 0.61472773551940918
0.756378173828125 0.756378173828125 0.756378173828125
0.87527501583099365 0.87527501583099365 0.87527501583099365
0.27388167381286621 0.27388167381286621 0.27388167381286621
0.3394927978515625 0.3394927978515625 0.3394927978515625
0.42788717150688171 0.42788717150688171 0.42788717150688171
0.54635429382324219 0.54635429382324219 0.54635429382324219
0.66030079126358032 0.66030079126358032 0.66030079126358032
0.77924734354019165 0.77924734354019165 0.77924734354019165
0.89204281568527222 0.89204281568527222 0.89204281568527222
0.37114563584327698 0.37114563584327698 0.37114563584327698
0.43018025159835815 0.43018025159835815 0.43018025159835815
0.5115962028503418 0.5115962028503418 0.5115962028503418
0.61791402101516724 0.61791402101516724 0.61791402101516724
0.72157460451126099 0.72157460451126099 0.72157460451126099
0.82505041360855103 0.82505041360855103 0.82505041360855103
0.91325962543487549 0.91325962543487549 0.91325962543487549
0.49219483137130737 0.49219483137130737 0.49219483137130737
0.53203862905502319 0.53203862905502319 0.53203862905502319
0.60839742422103882 0.60839742422103882 0.60839742422103882
0.68635201454162598 0.68635201454162598 0.68635201454162598
0.77684277296066284 0.77684277296066284 0.77684277296066284
0.86372315883636475 0.86372315883636475 0.86372315883636475
0.93489742279052734 0.93489742279052734 0.93489742279052734
0.60855519771575928 0.60855519771575928 0.60855519771575928
0.63786798715591431 0.63786798715591431 0.63786798715591431
0.68894273042678833 0.68894273042678833 0.68894273042678833
0.75685042142868042 0.75685042142868042 0.75685042142868042
0.81990975141525269 0.81990975141525269 0.81990975141525269
0.88835471868515015 0.88835471868515015 0.88835471868515015
0.94969075918197632 0.94969075918197632 0.94969075918197632
0.71851426362991333 0.71851426362991333 0.71851426362991333
0.73710042238235474 0.73710042238235474 0.73710042238235474
0.77675282955169678 0.77675282955169678 0.77675282955169678
0.82626122236251831 0.82626122236251831 0.82626122236251831
0.87061238288879395 0.87061238288879395 0.87061238288879395
0.91890710592269897 0.91890710592269897 0.91890710592269897
0.97593992948532104 0.97593992948532104 0.97593992948532104
0.22494262456893921 0.22494262456893921 0.22494262456893921
0.29194003343582153 0.29194003343582153 0.29194003343582153
0.38368824124336243 0.38368824124336243 0.38368824124336243
0.52393859624862671 0.52393859624862671 0.52393859624862671
0.67360997200012207 0.67360997200012207 0.67360997200012207
0.80106920003890991 0.80106920003890991 0.80106920003890991
0.89579552412033081 0.89579552412033081 0.89579552412033081
0.29205372929573059 0.29205372929573059 0.29205372929573059
0.34866964817047119 0.34866964817047119 0.34866964817047119
0.42861992120742798 0.42861992120742798 0.42861992120742798
0.5582459568977356 0.5582459568977356 0.5582459568977356
0.67872035503387451 0.67872035503387451 0.67872035503387451
0.80951195955276489 0.80951195955276489 0.80951195955276489
0.89812177419662476 0.89812177419662476 0.89812177419662476
0.38363006711006165 0.38363006711006165 0.38363006711006165
0.45486798882484436 0.45486798882484436 0.45486798882484436
0.52457559108734131 0.52457559108734131 0.52457559108734131
0.62054175138473511 0.62054175138473511 0.62054175138473511
0.72730296850204468 0.72730296850204468 0.72730296850204468
0.83589202165603638 0.83589202165603638 0.83589202165603638
0.91600173711776733 0.91600173711776733 0.91600173711776733
0.49936646223068237 0.49936646223068237 0.49936646223068237
0.55808943510055542 0.55808943510055542 0.55808943510055542
0.61456006765365601 0.61456006765365601 0.61456006765365601
0.6862332820892334 0.6862332820892334 0.6862332820892334
0.77970820665359497 0.77970820665359497 0.77970820665359497
0.87254554033279419 0.87254554033279419 0.87254554033279419
0.92907732725143433 0.92907732725143433 0.92907732725143433
0.62098276615142822 0.62098276615142822 0.62098276615142822
0.65058708190917969 0.65058708190917969 0.65058708190917969
0.69764447212219238 0.69764447212219238 0.69764447212219238
0.76028895378112793 0.76028895378112793 0.76028895378112793
0.83124798536300659 0.83124798536300659 0.83124798536300659
0.89923262596130371 0.89923262596130371 0.89923262596130371
0.94171184301376343 0.94171184301376343 0.94171184301376343
0.71181845664978027 0.71181845664978027 0.71181845664978027
0.73782670497894287 0.73782670497894287 0.73782670497894287
0.77507740259170532 0.77507740259170532 0.77507740259170532
0.82117849588394165 0.82117849588394165 0.82117849588394165
0.86743968725204468 0.86743968725204468 0.86743968725204468
0.92448550462722778 0.92448550462722778 0.92448550462722778
0.95985943078994751 0.95985943078994751 0.95985943078994751
0.79620993137359619 0.79620993137359619 0.79620993137359619
0.81918537616729736 0.81918537616729736 0.81918537616729736
0.84488743543624878 0.84488743543624878 0.84488743543624878
0.87584751844406128 0.87584751844406128 0.87584751844406128
0.90598809719085693 0.90598809719085693 0.90598809719085693
0.95206946134567261 0.95206946134567261 0.95206946134567261
0.9747888445854187 0.9747888445854187 0.9747888445854187
0.40168169140815735 0.40168169140815735 0.40168169140815735
0.42019444704055786 0.42019444704055786 0.42019444704055786
0.51623988151550293 0.51623988151550293 0.51623988151550293
0.63781493902206421 0.63781493902206421 0.63781493902206421
0.74727541208267212 0.74727541208267212 0.74727541208267212
0.84127449989318848 0.84127449989318848 0.84127449989318848
0.92307275533676147 0.92307275533676147 0.92307275533676147
0.43877688050270081 0.43877688050270081 0.43877688050270081
0.4792085587978363 0.4792085587978363 0.4792085587978363
0.57211649417877197 0.57211649417877197 0.57211649417877197
0.65788847208023071 0.65788847208023071 0.65788847208023071
0.76142621040344238 0.76142621040344238 0.76142621040344238
0.85110974311828613 0.85110974311828613 0.85110974311828613
0.92602920532226562 0.92602920532226562 0.92602920532226562
0.54208624362945557 0.54208624362945557 0.54208624362945557
0.57771623134613037 0.57771623134613037 0.57771623134613037
0.63942164182662964 0.63942164182662964 0.63942164182662964
0.7137446403503418 0.7137446403503418 0.7137446403503418
0.79692691564559937 0.79692691564559937 0.79692691564559937
0.87605714797973633 0.87605714797973633 0.87605714797973633
0.94341564178466797 0.94341564178466797 0.94341564178466797
0.64863395690917969 0.64863395690917969 0.64863395690917969
0.67417615652084351 0.67417615652084351 0.67417615652084351
0.71892720460891724 0.71892720460891724 0.71892720460891724
0.7720494270324707 0.7720494270324707 0.7720494270324707
0.83250266313552856 0.83250266313552856 0.83250266313552856
0.90175634622573853 0.90175634622573853 0.90175634622573853
0.94326794147491455 0.94326794147491455 0.94326794147491455
0.72050142288208008 0.72050142288208008 0.72050142288208008
0.74305528402328491 0.74305528402328491 0.74305528402328491
0.78534120321273804 0.78534120321273804 0.78534120321273804
0.83160465955734253 0.83160465955734253 0.83160465955734253
0.88006144762039185 0.88006144762039185 0.88006144762039185
0.93181592226028442 0.93181592226028442 0.93181592226028442
0.94818693399429321 0.94818693399429321 0.94818693399429321
0.80154424905776978 0.80154424905776978 0.80154424905776978
0.8220323920249939 0.8220323920249939 0.8220323920249939
0.85957300662994385 0.85957300662994385 0.85957300662994385
0.88709622621536255 0.88709622621536255 0.88709622621536255
0.91730093955993652 0.91730093955993652 0.91730093955993652
0.95405113697052002 0.95405113697052002 0.95405113697052002
0.95921808481216431 0.95921808481216431 0.95921808481216431
0.88970392942428589 0.88970392942428589 0.88970392942428589
0.91027200222015381 0.91027200222015381 0.91027200222015381
0.91647839546203613 0.91647839546203613 0.91647839546203613
0.93943268060684204 0.93943268060684204 0.93943268060684204
0.95418077707290649 0.95418077707290649 0.95418077707290649
0.97192108631134033 0.97192108631134033 0.97192108631134033
0.97181373834609985 0.97181373834609985 0.97181373834609985
