films/rollei_ir_400.cube
# Created by: G'MIC (https://gmic.eu)
TITLE "rollei_ir_400"
# LUT size
LUT_3D_SIZE 5
# Data domain
DOMAIN_MIN 0.0 0.0 0.0
DOMAIN_MAX 1.0 1.0 1.0
# LUT data points
0.014747545123100281 0.014747545123100281 0.014747545123100281
0.067753933370113373 0.067753933370113373 0.067753933370113373
0.16773100197315216 0.16773100197315216 0.16773100197315216
0.29039281606674194 0.29039281606674194 0.29039281606674194
0.40728580951690674 0.40728580951690674 0.40728580951690674
0.26786574721336365 0.26786574721336365 0.26786574721336365
0.33766546845436096 0.33766546845436096 0.33766546845436096
0.41056376695632935 0.41056376695632935 0.41056376695632935
0.54781782627105713 0.54781782627105713 0.54781782627105713
0.64808475971221924 0.64808475971221924 0.64808475971221924
0.76771032810211182 0.76771032810211182 0.76771032810211182
0.79542464017868042 0.79542464017868042 0.79542464017868042
0.86031550168991089 0.86031550168991089 0.86031550168991089
0.95140624046325684 0.95140624046325684 0.95140624046325684
0.99063879251480103 0.99063879251480103 0.99063879251480103
1 1 1
1 1 1
1 1 1
1 1 1
1 1 1
1 1 1
1 1 1
1 1 1
1 1 1
1 1 1
0 0 0
0 0 0
0.012393816374242306 0.012393816374242306 0.012393816374242306
0.1373828798532486 0.1373828798532486 0.1373828798532486
0.25503265857696533 0.25503265857696533 0.25503265857696533
0.10786733031272888 0.10786733031272888 0.10786733031272888
0.16146214306354523 0.16146214306354523 0.16146214306354523
0.25181594491004944 0.25181594491004944 0.25181594491004944
0.39078760147094727 0.39078760147094727 0.39078760147094727
0.50335925817489624 0.50335925817489624 0.50335925817489624
0.60359871387481689 0.60359871387481689 0.60359871387481689
0.63751041889190674 0.63751041889190674 0.63751041889190674
0.70580500364303589 0.70580500364303589 0.70580500364303589
0.82881128787994385 0.82881128787994385 0.82881128787994385
0.91357213258743286 0.91357213258743286 0.91357213258743286
1 1 1
1 1 1
1 1 1
1 1 1
1 1 1
1 1 1
1 1 1
1 1 1
1 1 1
1 1 1
0 0 0
0 0 0
0 0 0
0 0 0
0.0097607029601931572 0.0097607029601931572 0.0097607029601931572
0 0 0
0.00025217392249032855 0.00025217392249032855 0.00025217392249032855
0.0077241635881364346 0.0077241635881364346 0.0077241635881364346
0.11579377204179764 0.11579377204179764 0.11579377204179764
0.2066476047039032 0.2066476047039032 0.2066476047039032
0.31254294514656067 0.31254294514656067 0.31254294514656067
0.35795101523399353 0.35795101523399353 0.35795101523399353
0.43891507387161255 0.43891507387161255 0.43891507387161255
0.56970310211181641 0.56970310211181641 0.56970310211181641
0.65207964181900024 0.65207964181900024 0.65207964181900024
0.91174590587615967 0.91174590587615967 0.91174590587615967
0.92083621025085449 0.92083621025085449 0.92083621025085449
0.96308547258377075 0.96308547258377075 0.96308547258377075
0.99820351600646973 0.99820351600646973 0.99820351600646973
1 1 1
1 1 1
1 1 1
1 1 1
1 1 1
1 1 1
0 0 0
0 0 0
0 0 0
0 0 0
0 0 0
0 0 0
0 0 0
0 0 0
0 0 0
0.00010151582682738081 0.00010151582682738081 0.00010151582682738081
0.012816544622182846 0.012816544622182846 0.012816544622182846
0.027005348354578018 0.027005348354578018 0.027005348354578018
0.084914520382881165 0.084914520382881165 0.084914520382881165
0.17531649768352509 0.17531649768352509 0.17531649768352509
0.2670837938785553 0.2670837938785553 0.2670837938785553
0.5779840350151062 0.5779840350151062 0.5779840350151062
0.5977141261100769 0.5977141261100769 0.5977141261100769
0.67541462182998657 0.67541462182998657 0.67541462182998657
0.77274131774902344 0.77274131774902344 0.77274131774902344
0.84180468320846558 0.84180468320846558 0.84180468320846558
0.96859043836593628 0.96859043836593628 0.96859043836593628
0.98029321432113647 0.98029321432113647 0.98029321432113647
0.99969702959060669 0.99969702959060669 0.99969702959060669
1 1 1
1 1 1
0 0 0
0 0 0
0 0 0
0 0 0
0.00059159222291782498 0.00059159222291782498 0.00059159222291782498
0 0 0
0 0 0
0 0 0
0 0 0
0 0 0
0 0 0
0 0 0
0 0 0
0.0014331593411043286 0.0014331593411043286 0.0014331593411043286
0.038256581872701645 0.038256581872701645 0.038256581872701645
0.30782029032707214 0.30782029032707214 0.30782029032707214
0.34566381573677063 0.34566381573677063 0.34566381573677063
0.43876993656158447 0.43876993656158447 0.43876993656158447
0.52985012531280518 0.52985012531280518 0.52985012531280518
0.58878409862518311 0.58878409862518311 0.58878409862518311
0.77166974544525146 0.77166974544525146 0.77166974544525146
0.79583299160003662 0.79583299160003662 0.79583299160003662
0.86914312839508057 0.86914312839508057 0.86914312839508057
0.91612493991851807 0.91612493991851807 0.91612493991851807
0.96776247024536133 0.96776247024536133 0.96776247024536133
