films/rollei_retro_80s.cube
# Created by: G'MIC (https://gmic.eu)
TITLE "rollei_retro_80s"
# LUT size
LUT_3D_SIZE 5
# Data domain
DOMAIN_MIN 0.0 0.0 0.0
DOMAIN_MAX 1.0 1.0 1.0
# LUT data points
0.014384415931999683 0.014384415931999683 0.014384415931999683
0.06865653395652771 0.06865653395652771 0.06865653395652771
0.1821453720331192 0.1821453720331192 0.1821453720331192
0.46244129538536072 0.46244129538536072 0.46244129538536072
0.7899201512336731 0.7899201512336731 0.7899201512336731
0.049217566847801208 0.049217566847801208 0.049217566847801208
0.10356741398572922 0.10356741398572922 0.10356741398572922
0.24085342884063721 0.24085342884063721 0.24085342884063721
0.52124398946762085 0.52124398946762085 0.52124398946762085
0.81199175119400024 0.81199175119400024 0.81199175119400024
0.1258387565612793 0.1258387565612793 0.1258387565612793
0.18219771981239319 0.18219771981239319 0.18219771981239319
0.3167690634727478 0.3167690634727478 0.3167690634727478
0.60133606195449829 0.60133606195449829 0.60133606195449829
0.83262640237808228 0.83262640237808228 0.83262640237808228
0.26086312532424927 0.26086312532424927 0.26086312532424927
0.32287025451660156 0.32287025451660156 0.32287025451660156
0.47578266263008118 0.47578266263008118 0.47578266263008118
0.71161115169525146 0.71161115169525146 0.71161115169525146
0.89599740505218506 0.89599740505218506 0.89599740505218506
0.49387580156326294 0.49387580156326294 0.49387580156326294
0.55403667688369751 0.55403667688369751 0.55403667688369751
0.68091297149658203 0.68091297149658203 0.68091297149658203
0.82497245073318481 0.82497245073318481 0.82497245073318481
0.95227515697479248 0.95227515697479248 0.95227515697479248
0.033173564821481705 0.033173564821481705 0.033173564821481705
0.10326726734638214 0.10326726734638214 0.10326726734638214
0.24411135911941528 0.24411135911941528 0.24411135911941528
0.5259891152381897 0.5259891152381897 0.5259891152381897
0.80785864591598511 0.80785864591598511 0.80785864591598511
0.083590470254421234 0.083590470254421234 0.083590470254421234
0.15386316180229187 0.15386316180229187 0.15386316180229187
0.28639185428619385 0.28639185428619385 0.28639185428619385
0.56039553880691528 0.56039553880691528 0.56039553880691528
0.81802862882614136 0.81802862882614136 0.81802862882614136
0.17271424829959869 0.17271424829959869 0.17271424829959869
0.24845142662525177 0.24845142662525177 0.24845142662525177
0.38908043503761292 0.38908043503761292 0.38908043503761292
0.64417362213134766 0.64417362213134766 0.64417362213134766
0.86275452375411987 0.86275452375411987 0.86275452375411987
0.32338586449623108 0.32338586449623108 0.32338586449623108
0.38486090302467346 0.38486090302467346 0.38486090302467346
0.54725438356399536 0.54725438356399536 0.54725438356399536
0.74667870998382568 0.74667870998382568 0.74667870998382568
0.89670670032501221 0.89670670032501221 0.89670670032501221
0.55937248468399048 0.55937248468399048 0.55937248468399048
0.60176336765289307 0.60176336765289307 0.60176336765289307
0.71021801233291626 0.71021801233291626 0.71021801233291626
0.83924627304077148 0.83924627304077148 0.83924627304077148
0.96174770593643188 0.96174770593643188 0.96174770593643188
0.073257908225059509 0.073257908225059509 0.073257908225059509
0.16885413229465485 0.16885413229465485 0.16885413229465485
0.33438378572463989 0.33438378572463989 0.33438378572463989
0.60564172267913818 0.60564172267913818 0.60564172267913818
0.84743446111679077 0.84743446111679077 0.84743446111679077
0.15142139792442322 0.15142139792442322 0.15142139792442322
0.24293181300163269 0.24293181300163269 0.24293181300163269
0.41455703973770142 0.41455703973770142 0.41455703973770142
0.64415645599365234 0.64415645599365234 0.64415645599365234
0.85836374759674072 0.85836374759674072 0.85836374759674072
0.26823511719703674 0.26823511719703674 0.26823511719703674
0.34765690565109253 0.34765690565109253 0.34765690565109253
0.53462827205657959 0.53462827205657959 0.53462827205657959
0.72325193881988525 0.72325193881988525 0.72325193881988525
0.88773590326309204 0.88773590326309204 0.88773590326309204
0.4374927282333374 0.4374927282333374 0.4374927282333374
0.5153917670249939 0.5153917670249939 0.5153917670249939
0.65043562650680542 0.65043562650680542 0.65043562650680542
0.80079418420791626 0.80079418420791626 0.80079418420791626
0.92265230417251587 0.92265230417251587 0.92265230417251587
0.66222786903381348 0.66222786903381348 0.66222786903381348
0.69286596775054932 0.69286596775054932 0.69286596775054932
0.76771169900894165 0.76771169900894165 0.76771169900894165
0.86778980493545532 0.86778980493545532 0.86778980493545532
0.96608996391296387 0.96608996391296387 0.96608996391296387
0.16592846810817719 0.16592846810817719 0.16592846810817719
0.28590819239616394 0.28590819239616394 0.28590819239616394
0.46620124578475952 0.46620124578475952 0.46620124578475952
0.70625436305999756 0.70625436305999756 0.70625436305999756
0.88735765218734741 0.88735765218734741 0.88735765218734741
0.28282833099365234 0.28282833099365234 0.28282833099365234
0.38377177715301514 0.38377177715301514 0.38377177715301514
0.54487848281860352 0.54487848281860352 0.54487848281860352
0.72482287883758545 0.72482287883758545 0.72482287883758545
0.89147233963012695 0.89147233963012695 0.89147233963012695
0.42861437797546387 0.42861437797546387 0.42861437797546387
0.52766925096511841 0.52766925096511841 0.52766925096511841
0.65350973606109619 0.65350973606109619 0.65350973606109619
0.80387759208679199 0.80387759208679199 0.80387759208679199
0.92311149835586548 0.92311149835586548 0.92311149835586548
0.61476832628250122 0.61476832628250122 0.61476832628250122
0.66203564405441284 0.66203564405441284 0.66203564405441284
0.75948911905288696 0.75948911905288696 0.75948911905288696
0.85831421613693237 0.85831421613693237 0.85831421613693237
0.9467470645904541 0.9467470645904541 0.9467470645904541
0.75355291366577148 0.75355291366577148 0.75355291366577148
0.79491764307022095 0.79491764307022095 0.79491764307022095
0.84861689805984497 0.84861689805984497 0.84861689805984497
0.90871375799179077 0.90871375799179077 0.90871375799179077
0.97703969478607178 0.97703969478607178 0.97703969478607178
0.40168169140815735 0.40168169140815735 0.40168169140815735
0.45489254593849182 0.45489254593849182 0.45489254593849182
0.63781493902206421 0.63781493902206421 0.63781493902206421
0.79878216981887817 0.79878216981887817 0.79878216981887817
0.92307275533676147 0.92307275533676147 0.92307275533676147
0.48711737990379333 0.48711737990379333 0.48711737990379333
0.56730514764785767 0.56730514764785767 0.56730514764785767
0.68214309215545654 0.68214309215545654 0.68214309215545654
0.82616567611694336 0.82616567611694336 0.82616567611694336
0.93807446956634521 0.93807446956634521 0.93807446956634521
0.64863395690917969 0.64863395690917969 0.64863395690917969
0.69446045160293579 0.69446045160293579 0.69446045160293579
0.7720494270324707 0.7720494270324707 0.7720494270324707
0.86751300096511841 0.86751300096511841 0.86751300096511841
0.94326794147491455 0.94326794147491455 0.94326794147491455
0.75808244943618774 0.75808244943618774 0.75808244943618774
0.79566943645477295 0.79566943645477295 0.79566943645477295
0.86131322383880615 0.86131322383880615 0.86131322383880615
0.92361772060394287 0.92361772060394287 0.92361772060394287
0.95205527544021606 0.95205527544021606 0.95205527544021606
0.88970392942428589 0.88970392942428589 0.88970392942428589
0.9159056544303894 0.9159056544303894 0.9159056544303894
0.93943268060684204 0.93943268060684204 0.93943268060684204
0.96939182281494141 0.96939182281494141 0.96939182281494141
0.97181373834609985 0.97181373834609985 0.97181373834609985
