films/rollei_ir_400.cube
# Created by: G'MIC (https://gmic.eu)
TITLE "rollei_ir_400"
# LUT size
LUT_3D_SIZE 7
# Data domain
DOMAIN_MIN 0.0 0.0 0.0
DOMAIN_MAX 1.0 1.0 1.0
# LUT data points
0.014747545123100281 0.014747545123100281 0.014747545123100281
0.041798654943704605 0.041798654943704605 0.041798654943704605
0.098016299307346344 0.098016299307346344 0.098016299307346344
0.16773100197315216 0.16773100197315216 0.16773100197315216
0.24859121441841125 0.24859121441841125 0.24859121441841125
0.33087533712387085 0.33087533712387085 0.33087533712387085
0.40728580951690674 0.40728580951690674 0.40728580951690674
0.16361328959465027 0.16361328959465027 0.16361328959465027
0.20248380303382874 0.20248380303382874 0.20248380303382874
0.2548183798789978 0.2548183798789978 0.2548183798789978
0.31700903177261353 0.31700903177261353 0.31700903177261353
0.40426921844482422 0.40426921844482422 0.40426921844482422
0.48441886901855469 0.48441886901855469 0.48441886901855469
0.55575442314147949 0.55575442314147949 0.55575442314147949
0.4083135724067688 0.4083135724067688 0.4083135724067688
0.45099392533302307 0.45099392533302307 0.45099392533302307
0.48880460858345032 0.48880460858345032 0.48880460858345032
0.53101420402526855 0.53101420402526855 0.53101420402526855
0.62773990631103516 0.62773990631103516 0.62773990631103516
0.70232987403869629 0.70232987403869629 0.70232987403869629
0.76143914461135864 0.76143914461135864 0.76143914461135864
0.76771032810211182 0.76771032810211182 0.76771032810211182
0.78349632024765015 0.78349632024765015 0.78349632024765015
0.81162410974502563 0.81162410974502563 0.81162410974502563
0.86031550168991089 0.86031550168991089 0.86031550168991089
0.92461180686950684 0.92461180686950684 0.92461180686950684
0.96926283836364746 0.96926283836364746 0.96926283836364746
0.99063879251480103 0.99063879251480103 0.99063879251480103
1 1 1
1 1 1
1 1 1
1 1 1
1 1 1
1 1 1
1 1 1
1 1 1
1 1 1
1 1 1
1 1 1
1 1 1
1 1 1
1 1 1
1 1 1
1 1 1
1 1 1
1 1 1
1 1 1
1 1 1
1 1 1
0 0 0
0 0 0
0.0066434224136173725 0.0066434224136173725 0.0066434224136173725
0.062837608158588409 0.062837608158588409 0.062837608158588409
0.14737322926521301 0.14737322926521301 0.14737322926521301
0.23811344802379608 0.23811344802379608 0.23811344802379608
0.31290444731712341 0.31290444731712341 0.31290444731712341
0.057725988328456879 0.057725988328456879 0.057725988328456879
0.089433647692203522 0.089433647692203522 0.089433647692203522
0.14847497642040253 0.14847497642040253 0.14847497642040253
0.21798552572727203 0.21798552572727203 0.21798552572727203
0.30436107516288757 0.30436107516288757 0.30436107516288757
0.39340409636497498 0.39340409636497498 0.39340409636497498
0.46520179510116577 0.46520179510116577 0.46520179510116577
0.31345432996749878 0.31345432996749878 0.31345432996749878
0.34242060780525208 0.34242060780525208 0.34242060780525208
0.38742554187774658 0.38742554187774658 0.38742554187774658
0.44730144739151001 0.44730144739151001 0.44730144739151001
0.53441774845123291 0.53441774845123291 0.53441774845123291
0.61595219373703003 0.61595219373703003 0.61595219373703003
0.67952930927276611 0.67952930927276611 0.67952930927276611
0.67346823215484619 0.67346823215484619 0.67346823215484619
0.68844437599182129 0.68844437599182129 0.68844437599182129
0.72214007377624512 0.72214007377624512 0.72214007377624512
0.77653199434280396 0.77653199434280396 0.77653199434280396
0.84615933895111084 0.84615933895111084 0.84615933895111084
0.91217398643493652 0.91217398643493652 0.91217398643493652
0.95855271816253662 0.95855271816253662 0.95855271816253662
0.99486404657363892 0.99486404657363892 0.99486404657363892
0.99571484327316284 0.99571484327316284 0.99571484327316284
0.99889469146728516 0.99889469146728516 0.99889469146728516
1 1 1
1 1 1
1 1 1
1 1 1
1 1 1
1 1 1
1 1 1
1 1 1
1 1 1
1 1 1
1 1 1
1 1 1
1 1 1
1 1 1
1 1 1
1 1 1
1 1 1
1 1 1
0 0 0
0 0 0
0 0 0
3.5903034586226568e-05 3.5903034586226568e-05 3.5903034586226568e-05
0.022425407543778419 0.022425407543778419 0.022425407543778419
0.10829170048236847 0.10829170048236847 0.10829170048236847
0.17496852576732635 0.17496852576732635 0.17496852576732635
0.00011488970631035045 0.00011488970631035045 0.00011488970631035045
0.0018969217780977488 0.0018969217780977488 0.0018969217780977488
0.019322982057929039 0.019322982057929039 0.019322982057929039
0.068111330270767212 0.068111330270767212 0.068111330270767212
0.15842097997665405 0.15842097997665405 0.15842097997665405
0.25773948431015015 0.25773948431015015 0.25773948431015015
0.32688802480697632 0.32688802480697632 0.32688802480697632
0.16733351349830627 0.16733351349830627 0.16733351349830627
0.19536212086677551 0.19536212086677551 0.19536212086677551
0.24213139712810516 0.24213139712810516 0.24213139712810516
0.29542547464370728 0.29542547464370728 0.29542547464370728
0.38843417167663574 0.38843417167663574 0.38843417167663574
0.48311114311218262 0.48311114311218262 0.48311114311218262
0.54631882905960083 0.54631882905960083 0.54631882905960083
0.51677268743515015 0.51677268743515015 0.51677268743515015
0.53570622205734253 0.53570622205734253 0.53570622205734253
0.57641327381134033 0.57641327381134033 0.57641327381134033
0.62428379058837891 0.62428379058837891 0.62428379058837891
0.71966463327407837 0.71966463327407837 0.71966463327407837
0.79698985815048218 0.79698985815048218 0.79698985815048218
0.8438686728477478 0.8438686728477478 0.8438686728477478
0.9122169017791748 0.9122169017791748 0.9122169017791748
0.93033194541931152 0.93033194541931152 0.93033194541931152
0.95160204172134399 0.95160204172134399 0.95160204172134399
0.97096508741378784 0.97096508741378784 0.97096508741378784
0.9975968599319458 0.9975968599319458 0.9975968599319458
1 1 1
1 1 1
1 1 1
1 1 1
1 1 1
1 1 1
1 1 1
1 1 1
1 1 1
1 1 1
1 1 1
1 1 1
1 1 1
1 1 1
1 1 1
1 1 1
0 0 0
0 0 0
0 0 0
0 0 0
0 0 0
5.2956973377149552e-05 5.2956973377149552e-05 5.2956973377149552e-05
0.0097607029601931572 0.0097607029601931572 0.0097607029601931572
0 0 0
0 0 0
0 0 0
0 0 0
0.0055525088682770729 0.0055525088682770729 0.0055525088682770729
0.056529715657234192 0.056529715657234192 0.056529715657234192
0.11225850880146027 0.11225850880146027 0.11225850880146027
0.016678528860211372 0.016678528860211372 0.016678528860211372
0.028048437088727951 0.028048437088727951 0.028048437088727951
0.06638018786907196 0.06638018786907196 0.06638018786907196
0.10384300351142883 0.10384300351142883 0.10384300351142883
0.19154435396194458 0.19154435396194458 0.19154435396194458
0.28487154841423035 0.28487154841423035 0.28487154841423035
0.33311355113983154 0.33311355113983154 0.33311355113983154
0.31254294514656067 0.31254294514656067 0.31254294514656067
0.3342953622341156 0.3342953622341156 0.3342953622341156
0.38364759087562561 0.38364759087562561 0.38364759087562561
0.43891507387161255 0.43891507387161255 0.43891507387161255
0.52666521072387695 0.52666521072387695 0.52666521072387695
0.60394948720932007 0.60394948720932007 0.60394948720932007
0.65207964181900024 0.65207964181900024 0.65207964181900024
0.72025710344314575 0.72025710344314575 0.72025710344314575
0.73417359590530396 0.73417359590530396 0.73417359590530396
0.762767493724823 0.762767493724823 0.762767493724823
0.81102079153060913 0.81102079153060913 0.81102079153060913
0.89244174957275391 0.89244174957275391 0.89244174957275391
0.94270199537277222 0.94270199537277222 0.94270199537277222
0.97351503372192383 0.97351503372192383 0.97351503372192383
0.99749070405960083 0.99749070405960083 0.99749070405960083
0.99760347604751587 0.99760347604751587 0.99760347604751587
0.99896121025085449 0.99896121025085449 0.99896121025085449
0.99998921155929565 0.99998921155929565 0.99998921155929565
1 1 1
1 1 1
1 1 1
1 1 1
1 1 1
1 1 1
1 1 1
1 1 1
1 1 1
1 1 1
0 0 0
0 0 0
0 0 0
0 0 0
0 0 0
0 0 0
0 0 0
0 0 0
0 0 0
0 0 0
0 0 0
0 0 0
0 0 0
0.00019992006127722561 0.00019992006127722561 0.00019992006127722561
0 0 0
0 0 0
0 0 0
0.00026065603015013039 0.00026065603015013039 0.00026065603015013039
0.0096655748784542084 0.0096655748784542084 0.0096655748784542084
0.045870266854763031 0.045870266854763031 0.045870266854763031
0.093858785927295685 0.093858785927295685 0.093858785927295685
0.075247190892696381 0.075247190892696381 0.075247190892696381
0.0896882563829422 0.0896882563829422 0.0896882563829422
0.14453749358654022 0.14453749358654022 0.14453749358654022
0.20124562084674835 0.20124562084674835 0.20124562084674835
0.2730134129524231 0.2730134129524231 0.2730134129524231
0.33678469061851501 0.33678469061851501 0.33678469061851501
0.39198547601699829 0.39198547601699829 0.39198547601699829
0.48734423518180847 0.48734423518180847 0.48734423518180847
0.49918118119239807 0.49918118119239807 0.49918118119239807
0.53638410568237305 0.53638410568237305 0.53638410568237305
0.59161311388015747 0.59161311388015747 0.59161311388015747
0.66303163766860962 0.66303163766860962 0.66303163766860962
0.7217293381690979 0.7217293381690979 0.7217293381690979
0.76688838005065918 0.76688838005065918 0.76688838005065918
0.83783942461013794 0.83783942461013794 0.83783942461013794
0.84755277633666992 0.84755277633666992 0.84755277633666992
0.87399166822433472 0.87399166822433472 0.87399166822433472
0.92315948009490967 0.92315948009490967 0.92315948009490967
0.97140944004058838 0.97140944004058838 0.97140944004058838
0.99341261386871338 0.99341261386871338 0.99341261386871338
0.99866825342178345 0.99866825342178345 0.99866825342178345
0.9993252158164978 0.9993252158164978 0.9993252158164978
0.99980324506759644 0.99980324506759644 0.99980324506759644
1 1 1
1 1 1
1 1 1
1 1 1
1 1 1
0 0 0
0 0 0
0 0 0
0 0 0
0 0 0
0 0 0
0 0 0
0 0 0
0 0 0
0 0 0
0 0 0
0 0 0
0 0 0
0 0 0
0 0 0
0 0 0
0 0 0
0 0 0
0 0 0
0 0 0
8.2457299868110567e-05 8.2457299868110567e-05 8.2457299868110567e-05
0.00058153935242444277 0.00058153935242444277 0.00058153935242444277
0.00070594338467344642 0.00070594338467344642 0.00070594338467344642
0.0051730885170400143 0.0051730885170400143 0.0051730885170400143
0.019519461318850517 0.019519461318850517 0.019519461318850517
0.05369235947728157 0.05369235947728157 0.05369235947728157
0.097929053008556366 0.097929053008556366 0.097929053008556366
0.16285862028598785 0.16285862028598785 0.16285862028598785
0.28828975558280945 0.28828975558280945 0.28828975558280945
0.29215109348297119 0.29215109348297119 0.29215109348297119
0.33427378535270691 0.33427378535270691 0.33427378535270691
0.39046815037727356 0.39046815037727356 0.39046815037727356
0.46210014820098877 0.46210014820098877 0.46210014820098877
0.51125317811965942 0.51125317811965942 0.51125317811965942
0.56412172317504883 0.56412172317504883 0.56412172317504883
0.65278643369674683 0.65278643369674683 0.65278643369674683
0.65338170528411865 0.65338170528411865 0.65338170528411865
0.69274038076400757 0.69274038076400757 0.69274038076400757
0.75277906656265259 0.75277906656265259 0.75277906656265259
0.81385648250579834 0.81385648250579834 0.81385648250579834
0.86613094806671143 0.86613094806671143 0.86613094806671143
0.90130144357681274 0.90130144357681274 0.90130144357681274
0.89664489030838013 0.89664489030838013 0.89664489030838013
0.89944243431091309 0.89944243431091309 0.89944243431091309
0.92759650945663452 0.92759650945663452 0.92759650945663452
0.98181861639022827 0.98181861639022827 0.98181861639022827
0.99732041358947754 0.99732041358947754 0.99732041358947754
0.99998456239700317 0.99998456239700317 0.99998456239700317
1 1 1
0 0 0
0 0 0
0 0 0
0 0 0
0 0 0
0 0 0
0.00059159222291782498 0.00059159222291782498 0.00059159222291782498
0 0 0
0 0 0
0 0 0
0 0 0
0 0 0
0 0 0
0 0 0
0 0 0
0 0 0
0 0 0
0 0 0
0 0 0
0 0 0
0 0 0
0 0 0
0 0 0
0 0 0
0 0 0
0.00015653722221031785 0.00015653722221031785 0.00015653722221031785
0.0081525016576051712 0.0081525016576051712 0.0081525016576051712
0.038256581872701645 0.038256581872701645 0.038256581872701645
0.10894288867712021 0.10894288867712021 0.10894288867712021
0.12953568994998932 0.12953568994998932 0.12953568994998932
0.16668695211410522 0.16668695211410522 0.16668695211410522
0.23952864110469818 0.23952864110469818 0.23952864110469818
0.29166379570960999 0.29166379570960999 0.29166379570960999
0.35523083806037903 0.35523083806037903 0.35523083806037903
0.40329265594482422 0.40329265594482422 0.40329265594482422
0.48934102058410645 0.48934102058410645 0.48934102058410645
0.50402438640594482 0.50402438640594482 0.50402438640594482
0.56768214702606201 0.56768214702606201 0.56768214702606201
0.61956572532653809 0.61956572532653809 0.61956572532653809
0.67142647504806519 0.67142647504806519 0.67142647504806519
0.72645086050033569 0.72645086050033569 0.72645086050033569
0.74402314424514771 0.74402314424514771 0.74402314424514771
0.77166974544525146 0.77166974544525146 0.77166974544525146
0.77954363822937012 0.77954363822937012 0.77954363822937012
0.81837183237075806 0.81837183237075806 0.81837183237075806
0.86914312839508057 0.86914312839508057 0.86914312839508057
0.90016692876815796 0.90016692876815796 0.90016692876815796
0.93966948986053467 0.93966948986053467 0.93966948986053467
0.96776247024536133 0.96776247024536133 0.96776247024536133
