films/rollei_ir_400.cube
# Created by: G'MIC (https://gmic.eu)
TITLE "rollei_ir_400"
# LUT size
LUT_3D_SIZE 13
# Data domain
DOMAIN_MIN 0.0 0.0 0.0
DOMAIN_MAX 1.0 1.0 1.0
# LUT data points
0.014747545123100281 0.014747545123100281 0.014747545123100281
0.023357406258583069 0.023357406258583069 0.023357406258583069
0.041798654943704605 0.041798654943704605 0.041798654943704605
0.067753933370113373 0.067753933370113373 0.067753933370113373
0.098016299307346344 0.098016299307346344 0.098016299307346344
0.13153962790966034 0.13153962790966034 0.13153962790966034
0.16773100197315216 0.16773100197315216 0.16773100197315216
0.20718339085578918 0.20718339085578918 0.20718339085578918
0.24859121441841125 0.24859121441841125 0.24859121441841125
0.29039281606674194 0.29039281606674194 0.29039281606674194
0.33087533712387085 0.33087533712387085 0.33087533712387085
0.36958169937133789 0.36958169937133789 0.36958169937133789
0.40728580951690674 0.40728580951690674 0.40728580951690674
0.078711837530136108 0.078711837530136108 0.078711837530136108
0.092084966599941254 0.092084966599941254 0.092084966599941254
0.11347339302301407 0.11347339302301407 0.11347339302301407
0.13990549743175507 0.13990549743175507 0.13990549743175507
0.16951161623001099 0.16951161623001099 0.16951161623001099
0.20157034695148468 0.20157034695148468 0.20157034695148468
0.23762696981430054 0.23762696981430054 0.23762696981430054
0.27765539288520813 0.27765539288520813 0.27765539288520813
0.3206017017364502 0.3206017017364502 0.3206017017364502
0.3629671037197113 0.3629671037197113 0.3629671037197113
0.40259912610054016 0.40259912610054016 0.40259912610054016
0.44022253155708313 0.44022253155708313 0.44022253155708313
0.47761160135269165 0.47761160135269165 0.47761160135269165
0.16361328959465027 0.16361328959465027 0.16361328959465027
0.17916825413703918 0.17916825413703918 0.17916825413703918
0.20248380303382874 0.20248380303382874 0.20248380303382874
0.22843460738658905 0.22843460738658905 0.22843460738658905
0.2548183798789978 0.2548183798789978 0.2548183798789978
0.28305438160896301 0.28305438160896301 0.28305438160896301
0.31700903177261353 0.31700903177261353 0.31700903177261353
0.35903248190879822 0.35903248190879822 0.35903248190879822
0.40426921844482422 0.40426921844482422 0.40426921844482422
0.4469417929649353 0.4469417929649353 0.4469417929649353
0.48441886901855469 0.48441886901855469 0.48441886901855469
0.51870989799499512 0.51870989799499512 0.51870989799499512
0.55575442314147949 0.55575442314147949 0.55575442314147949
0.26786574721336365 0.26786574721336365 0.26786574721336365
0.28871694207191467 0.28871694207191467 0.28871694207191467
0.31384000182151794 0.31384000182151794 0.31384000182151794
0.33766546845436096 0.33766546845436096 0.33766546845436096
0.35922223329544067 0.35922223329544067 0.35922223329544067
0.38038679957389832 0.38038679957389832 0.38038679957389832
0.41056376695632935 0.41056376695632935 0.41056376695632935
0.45637208223342896 0.45637208223342896 0.45637208223342896
0.50500947237014771 0.50500947237014771 0.50500947237014771
0.54781782627105713 0.54781782627105713 0.54781782627105713
0.58244198560714722 0.58244198560714722 0.58244198560714722
0.61232119798660278 0.61232119798660278 0.61232119798660278
0.64808475971221924 0.64808475971221924 0.64808475971221924
0.4083135724067688 0.4083135724067688 0.4083135724067688
0.42866399884223938 0.42866399884223938 0.42866399884223938
0.45099392533302307 0.45099392533302307 0.45099392533302307
0.47135356068611145 0.47135356068611145 0.47135356068611145
0.48880460858345032 0.48880460858345032 0.48880460858345032
0.50500589609146118 0.50500589609146118 0.50500589609146118
0.53101420402526855 0.53101420402526855 0.53101420402526855
0.57882189750671387 0.57882189750671387 0.57882189750671387
0.62773990631103516 0.62773990631103516 0.62773990631103516
0.66906875371932983 0.66906875371932983 0.66906875371932983
0.70232987403869629 0.70232987403869629 0.70232987403869629
0.73053818941116333 0.73053818941116333 0.73053818941116333
0.76143914461135864 0.76143914461135864 0.76143914461135864
0.58261293172836304 0.58261293172836304 0.58261293172836304
0.5957026481628418 0.5957026481628418 0.5957026481628418
0.61115473508834839 0.61115473508834839 0.61115473508834839
0.62711262702941895 0.62711262702941895 0.62711262702941895
0.64338356256484985 0.64338356256484985 0.64338356256484985
0.66193366050720215 0.66193366050720215 0.66193366050720215
0.68930160999298096 0.68930160999298096 0.68930160999298096
0.72911721467971802 0.72911721467971802 0.72911721467971802
0.77159637212753296 0.77159637212753296 0.77159637212753296
0.80850964784622192 0.80850964784622192 0.80850964784622192
0.83824604749679565 0.83824604749679565 0.83824604749679565
0.86379879713058472 0.86379879713058472 0.86379879713058472
0.88820469379425049 0.88820469379425049 0.88820469379425049
0.76771032810211182 0.76771032810211182 0.76771032810211182
0.77502268552780151 0.77502268552780151 0.77502268552780151
0.78349632024765015 0.78349632024765015 0.78349632024765015
0.79542464017868042 0.79542464017868042 0.79542464017868042
0.81162410974502563 0.81162410974502563 0.81162410974502563
0.83324897289276123 0.83324897289276123 0.83324897289276123
0.86031550168991089 0.86031550168991089 0.86031550168991089
0.89145731925964355 0.89145731925964355 0.89145731925964355
0.92461180686950684 0.92461180686950684 0.92461180686950684
0.95140624046325684 0.95140624046325684 0.95140624046325684
0.96926283836364746 0.96926283836364746 0.96926283836364746
0.98199939727783203 0.98199939727783203 0.98199939727783203
0.99063879251480103 0.99063879251480103 0.99063879251480103
0.94222325086593628 0.94222325086593628 0.94222325086593628
0.94551879167556763 0.94551879167556763 0.94551879167556763
0.9491117000579834 0.9491117000579834 0.9491117000579834
0.95615226030349731 0.95615226030349731 0.95615226030349731
0.96693605184555054 0.96693605184555054 0.96693605184555054
0.97910135984420776 0.97910135984420776 0.97910135984420776
0.98981314897537231 0.98981314897537231 0.98981314897537231
0.9965667724609375 0.9965667724609375 0.9965667724609375
0.99959385395050049 0.99959385395050049 0.99959385395050049
1 1 1
1 1 1
1 1 1
1 1 1
1 1 1
1 1 1
1 1 1
1 1 1
1 1 1
1 1 1
1 1 1
1 1 1
1 1 1
1 1 1
1 1 1
1 1 1
1 1 1
1 1 1
1 1 1
1 1 1
1 1 1
1 1 1
1 1 1
1 1 1
1 1 1
1 1 1
1 1 1
1 1 1
1 1 1
1 1 1
1 1 1
1 1 1
1 1 1
1 1 1
1 1 1
1 1 1
1 1 1
1 1 1
1 1 1
1 1 1
1 1 1
1 1 1
1 1 1
1 1 1
1 1 1
1 1 1
1 1 1
1 1 1
1 1 1
1 1 1
1 1 1
1 1 1
1 1 1
1 1 1
1 1 1
1 1 1
1 1 1
1 1 1
1 1 1
1 1 1
1 1 1
1 1 1
1 1 1
1 1 1
1 1 1
1 1 1
1 1 1
1 1 1
1 1 1
6.2291765061672777e-05 6.2291765061672777e-05 6.2291765061672777e-05
0.00070301129017025232 0.00070301129017025232 0.00070301129017025232
0.0043978523463010788 0.0043978523463010788 0.0043978523463010788
0.017550494521856308 0.017550494521856308 0.017550494521856308
0.044433325529098511 0.044433325529098511 0.044433325529098511
0.079261496663093567 0.079261496663093567 0.079261496663093567
0.11651336401700974 0.11651336401700974 0.11651336401700974
0.15655714273452759 0.15655714273452759 0.15655714273452759
0.19955024123191833 0.19955024123191833 0.19955024123191833
0.24325241148471832 0.24325241148471832 0.24325241148471832
0.2852308452129364 0.2852308452129364 0.2852308452129364
0.32423096895217896 0.32423096895217896 0.32423096895217896
0.36131775379180908 0.36131775379180908 0.36131775379180908
0.026213118806481361 0.026213118806481361 0.026213118806481361
0.036474026739597321 0.036474026739597321 0.036474026739597321
0.056548338383436203 0.056548338383436203 0.056548338383436203
0.084539167582988739 0.084539167582988739 0.084539167582988739
0.11654182523488998 0.11654182523488998 0.11654182523488998
0.1510499119758606 0.1510499119758606 0.1510499119758606
0.18775138258934021 0.18775138258934021 0.18775138258934021
0.22824615240097046 0.22824615240097046 0.22824615240097046
0.27220910787582397 0.27220910787582397 0.27220910787582397
0.31663727760314941 0.31663727760314941 0.31663727760314941
0.3579440712928772 0.3579440712928772 0.3579440712928772
0.39564615488052368 0.39564615488052368 0.39564615488052368
0.43249201774597168 0.43249201774597168 0.43249201774597168
0.11110446602106094 0.11110446602106094 0.11110446602106094
0.12425025552511215 0.12425025552511215 0.12425025552511215
0.14682808518409729 0.14682808518409729 0.14682808518409729
0.17374812066555023 0.17374812066555023 0.17374812066555023
0.20315757393836975 0.20315757393836975 0.20315757393836975
0.23452304303646088 0.23452304303646088 0.23452304303646088
0.26991066336631775 0.26991066336631775 0.26991066336631775
0.31138452887535095 0.31138452887535095 0.31138452887535095
0.35680499672889709 0.35680499672889709 0.35680499672889709
0.40072733163833618 0.40072733163833618 0.40072733163833618
0.43914136290550232 0.43914136290550232 0.43914136290550232
0.47325596213340759 0.47325596213340759 0.47325596213340759
0.51005452871322632 0.51005452871322632 0.51005452871322632
0.22217202186584473 0.22217202186584473 0.22217202186584473
0.2374197393655777 0.2374197393655777 0.2374197393655777
0.25984644889831543 0.25984644889831543 0.25984644889831543
0.28455990552902222 0.28455990552902222 0.28455990552902222
0.30947566032409668 0.30947566032409668 0.30947566032409668
0.33584806323051453 0.33584806323051453 0.33584806323051453
0.36903956532478333 0.36903956532478333 0.36903956532478333
0.41228505969047546 0.41228505969047546 0.41228505969047546
0.45920833945274353 0.45920833945274353 0.45920833945274353
0.50230908393859863 0.50230908393859863 0.50230908393859863
0.5375286340713501 0.5375286340713501 0.5375286340713501
0.56593805551528931 0.56593805551528931 0.56593805551528931
0.602408766746521 0.602408766746521 0.602408766746521
0.36526599526405334 0.36526599526405334 0.36526599526405334
0.37977522611618042 0.37977522611618042 0.37977522611618042
0.39975956082344055 0.39975956082344055 0.39975956082344055
0.42057967185974121 0.42057967185974121 0.42057967185974121
0.44175505638122559 0.44175505638122559 0.44175505638122559
0.46449398994445801 0.46449398994445801 0.46449398994445801
0.49557465314865112 0.49557465314865112 0.49557465314865112
0.53860682249069214 0.53860682249069214 0.53860682249069214
0.58499312400817871 0.58499312400817871 0.58499312400817871
0.62687557935714722 0.62687557935714722 0.62687557935714722
0.66064345836639404 0.66064345836639404 0.66064345836639404
0.68953365087509155 0.68953365087509155 0.68953365087509155
0.72087615728378296 0.72087615728378296 0.72087615728378296
0.53805059194564819 0.53805059194564819 0.53805059194564819
0.54905492067337036 0.54905492067337036 0.54905492067337036
0.56366246938705444 0.56366246938705444 0.56366246938705444
0.58036696910858154 0.58036696910858154 0.58036696910858154
0.59950351715087891 0.59950351715087891 0.59950351715087891
0.62253934144973755 0.62253934144973755 0.62253934144973755
0.65285766124725342 0.65285766124725342 0.65285766124725342
0.69117540121078491 0.69117540121078491 0.69117540121078491
0.73243898153305054 0.73243898153305054 0.73243898153305054
0.77024990320205688 0.77024990320205688 0.77024990320205688
0.8024897575378418 0.8024897575378418 0.8024897575378418
0.83046102523803711 0.83046102523803711 0.83046102523803711
0.85598129034042358 0.85598129034042358 0.85598129034042358
0.72606790065765381 0.72606790065765381 0.72606790065765381
0.73323017358779907 0.73323017358779907 0.73323017358779907
0.74192261695861816 0.74192261695861816 0.74192261695861816
0.75494945049285889 0.75494945049285889 0.75494945049285889
0.77326148748397827 0.77326148748397827 0.77326148748397827
0.79828906059265137 0.79828906059265137 0.79828906059265137
0.82773393392562866 0.82773393392562866 0.82773393392562866
0.85802358388900757 0.85802358388900757 0.85802358388900757
0.89059436321258545 0.89059436321258545 0.89059436321258545
0.92118936777114868 0.92118936777114868 0.92118936777114868
0.94657027721405029 0.94657027721405029 0.94657027721405029
0.96581721305847168 0.96581721305847168 0.96581721305847168
0.97866237163543701 0.97866237163543701 0.97866237163543701
0.90992534160614014 0.90992534160614014 0.90992534160614014
0.91549742221832275 0.91549742221832275 0.91549742221832275
0.91985785961151123 0.91985785961151123 0.91985785961151123
0.92911314964294434 0.92911314964294434 0.92911314964294434
0.94362610578536987 0.94362610578536987 0.94362610578536987
0.96234190464019775 0.96234190464019775 0.96234190464019775
0.97879445552825928 0.97879445552825928 0.97879445552825928
0.9886513352394104 0.9886513352394104 0.9886513352394104
0.99581700563430786 0.99581700563430786 0.99581700563430786
0.99931460618972778 0.99931460618972778 0.99931460618972778
0.99998849630355835 0.99998849630355835 0.99998849630355835
1 1 1
1 1 1
0.99947053194046021 0.99947053194046021 0.99947053194046021
0.99982994794845581 0.99982994794845581 0.99982994794845581
0.9999091625213623 0.9999091625213623 0.9999091625213623
1 1 1
1 1 1
1 1 1
1 1 1
1 1 1
1 1 1
1 1 1
1 1 1
1 1 1
1 1 1
1 1 1
1 1 1
1 1 1
1 1 1
1 1 1
1 1 1
1 1 1
1 1 1
1 1 1
1 1 1
1 1 1
1 1 1
1 1 1
1 1 1
1 1 1
1 1 1
1 1 1
1 1 1
1 1 1
1 1 1
1 1 1
1 1 1
1 1 1
1 1 1
1 1 1
1 1 1
1 1 1
1 1 1
1 1 1
1 1 1
1 1 1
1 1 1
1 1 1
1 1 1
1 1 1
1 1 1
1 1 1
1 1 1
1 1 1
1 1 1
1 1 1
1 1 1
1 1 1
1 1 1
1 1 1
1 1 1
1 1 1
1 1 1
1 1 1
1 1 1
1 1 1
1 1 1
0 0 0
0 0 0
0 0 0
0.0004149941960349679 0.0004149941960349679 0.0004149941960349679
0.0066434224136173725 0.0066434224136173725 0.0066434224136173725
0.028230853378772736 0.028230853378772736 0.028230853378772736
0.062837608158588409 0.062837608158588409 0.062837608158588409
0.10279568284749985 0.10279568284749985 0.10279568284749985
0.14737322926521301 0.14737322926521301 0.14737322926521301
0.19423675537109375 0.19423675537109375 0.19423675537109375
0.23811344802379608 0.23811344802379608 0.23811344802379608
0.27712714672088623 0.27712714672088623 0.27712714672088623
0.31290444731712341 0.31290444731712341 0.31290444731712341
0.0018660003552213311 0.0018660003552213311 0.0018660003552213311
0.0040492638945579529 0.0040492638945579529 0.0040492638945579529
0.011900478973984718 0.011900478973984718 0.011900478973984718
0.03083883598446846 0.03083883598446846 0.03083883598446846
0.062017135322093964 0.062017135322093964 0.062017135322093964
0.099393688142299652 0.099393688142299652 0.099393688142299652
0.13478431105613708 0.13478431105613708 0.13478431105613708
0.17430806159973145 0.17430806159973145 0.17430806159973145
0.22024977207183838 0.22024977207183838 0.22024977207183838
0.26846170425415039 0.26846170425415039 0.26846170425415039
0.31241944432258606 0.31241944432258606 0.31241944432258606
0.35085263848304749 0.35085263848304749 0.35085263848304749
0.38644251227378845 0.38644251227378845 0.38644251227378845
0.057725988328456879 0.057725988328456879 0.057725988328456879
0.068757496774196625 0.068757496774196625 0.068757496774196625
0.089433647692203522 0.089433647692203522 0.089433647692203522
0.11668627709150314 0.11668627709150314 0.11668627709150314
0.14847497642040253 0.14847497642040253 0.14847497642040253
0.18275640904903412 0.18275640904903412 0.18275640904903412
0.21798552572727203 0.21798552572727203 0.21798552572727203
0.25836580991744995 0.25836580991744995 0.25836580991744995
0.30436107516288757 0.30436107516288757 0.30436107516288757
0.351472407579422 0.351472407579422 0.351472407579422
0.39340409636497498 0.39340409636497498 0.39340409636497498
0.42986750602722168 0.42986750602722168 0.42986750602722168
0.46520179510116577 0.46520179510116577 0.46520179510116577
0.17077288031578064 0.17077288031578064 0.17077288031578064
0.18236599862575531 0.18236599862575531 0.18236599862575531
0.20258907973766327 0.20258907973766327 0.20258907973766327
0.22734516859054565 0.22734516859054565 0.22734516859054565
0.2547028660774231 0.2547028660774231 0.2547028660774231
0.28468096256256104 0.28468096256256104 0.28468096256256104
0.3189709484577179 0.3189709484577179 0.3189709484577179
0.36081546545028687 0.36081546545028687 0.36081546545028687
0.40723305940628052 0.40723305940628052 0.40723305940628052
0.45267513394355774 0.45267513394355774 0.45267513394355774
0.49199888110160828 0.49199888110160828 0.49199888110160828
0.52578628063201904 0.52578628063201904 0.52578628063201904
0.56004929542541504 0.56004929542541504 0.56004929542541504
0.31345432996749878 0.31345432996749878 0.31345432996749878
0.32436555624008179 0.32436555624008179 0.32436555624008179
0.34242060780525208 0.34242060780525208 0.34242060780525208
0.3635517954826355 0.3635517954826355 0.3635517954826355
0.38742554187774658 0.38742554187774658 0.38742554187774658
0.41404324769973755 0.41404324769973755 0.41404324769973755
0.44730144739151001 0.44730144739151001 0.44730144739151001
0.48886722326278687 0.48886722326278687 0.48886722326278687
0.53441774845123291 0.53441774845123291 0.53441774845123291
0.57821774482727051 0.57821774482727051 0.57821774482727051
0.61595219373703003 0.61595219373703003 0.61595219373703003
0.64860528707504272 0.64860528707504272 0.64860528707504272
0.67952930927276611 0.67952930927276611 0.67952930927276611
0.48405852913856506 0.48405852913856506 0.48405852913856506
0.49283444881439209 0.49283444881439209 0.49283444881439209
0.50673431158065796 0.50673431158065796 0.50673431158065796
0.52437478303909302 0.52437478303909302 0.52437478303909302
0.545643150806427 0.545643150806427 0.545643150806427
0.57062560319900513 0.57062560319900513 0.57062560319900513
0.60274589061737061 0.60274589061737061 0.60274589061737061
0.64182668924331665 0.64182668924331665 0.64182668924331665
0.68410283327102661 0.68410283327102661 0.68410283327102661
0.72460323572158813 0.72460323572158813 0.72460323572158813
0.76044571399688721 0.76044571399688721 0.76044571399688721
0.79202455282211304 0.79202455282211304 0.79202455282211304
0.81844645738601685 0.81844645738601685 0.81844645738601685
0.67346823215484619 0.67346823215484619 0.67346823215484619
0.6791006326675415 0.6791006326675415 0.6791006326675415
0.68844437599182129 0.68844437599182129 0.68844437599182129
0.70335400104522705 0.70335400104522705 0.70335400104522705
0.72214007377624512 0.72214007377624512 0.72214007377624512
0.74621677398681641 0.74621677398681641 0.74621677398681641
0.77653199434280396 0.77653199434280396 0.77653199434280396
0.81049442291259766 0.81049442291259766 0.81049442291259766
0.84615933895111084 0.84615933895111084 0.84615933895111084
0.88083702325820923 0.88083702325820923 0.88083702325820923
0.91217398643493652 0.91217398643493652 0.91217398643493652
0.93937331438064575 0.93937331438064575 0.93937331438064575
0.95855271816253662 0.95855271816253662 0.95855271816253662
0.86795580387115479 0.86795580387115479 0.86795580387115479
0.870563805103302 0.870563805103302 0.870563805103302
0.87546688318252563 0.87546688318252563 0.87546688318252563
0.88704174757003784 0.88704174757003784 0.88704174757003784
0.90281647443771362 0.90281647443771362 0.90281647443771362
0.92364490032196045 0.92364490032196045 0.92364490032196045
0.94661962985992432 0.94661962985992432 0.94661962985992432
0.96629208326339722 0.96629208326339722 0.96629208326339722
0.98235183954238892 0.98235183954238892 0.98235183954238892
0.99326038360595703 0.99326038360595703 0.99326038360595703
0.99847221374511719 0.99847221374511719 0.99847221374511719
0.99989813566207886 0.99989813566207886 0.99989813566207886
1 1 1
0.99486404657363892 0.99486404657363892 0.99486404657363892
0.99499279260635376 0.99499279260635376 0.99499279260635376
0.99571484327316284 0.99571484327316284 0.99571484327316284
0.9974212646484375 0.9974212646484375 0.9974212646484375
0.99889469146728516 0.99889469146728516 0.99889469146728516
0.99977868795394897 0.99977868795394897 0.99977868795394897
1 1 1
1 1 1
1 1 1
1 1 1
1 1 1
1 1 1
1 1 1
1 1 1
1 1 1
1 1 1
1 1 1
1 1 1
1 1 1
1 1 1
1 1 1
1 1 1
1 1 1
1 1 1
1 1 1
1 1 1
1 1 1
1 1 1
1 1 1
1 1 1
1 1 1
1 1 1
1 1 1
1 1 1
1 1 1
1 1 1
1 1 1
1 1 1
1 1 1
1 1 1
1 1 1
1 1 1
1 1 1
1 1 1
1 1 1
1 1 1
1 1 1
1 1 1
1 1 1
1 1 1
1 1 1
1 1 1
1 1 1
1 1 1
1 1 1
1 1 1
1 1 1
1 1 1
1 1 1
1 1 1
1 1 1
1 1 1
1 1 1
1 1 1
1 1 1
0 0 0
0 0 0
0 0 0
0 0 0
8.6167283370741643e-06 8.6167283370741643e-06 8.6167283370741643e-06
0.0016422047046944499 0.0016422047046944499 0.0016422047046944499
0.012393816374242306 0.012393816374242306 0.012393816374242306
0.041962344199419022 0.041962344199419022 0.041962344199419022
0.087253272533416748 0.087253272533416748 0.087253272533416748
0.1373828798532486 0.1373828798532486 0.1373828798532486
0.18307030200958252 0.18307030200958252 0.18307030200958252
0.22019656002521515 0.22019656002521515 0.22019656002521515
0.25503265857696533 0.25503265857696533 0.25503265857696533
0 0 0
0 0 0
0.00011822569649666548 0.00011822569649666548 0.00011822569649666548
0.002174437278881669 0.002174437278881669 0.002174437278881669
0.012903684750199318 0.012903684750199318 0.012903684750199318
0.039131343364715576 0.039131343364715576 0.039131343364715576
0.070989973843097687 0.070989973843097687 0.070989973843097687
0.10995860397815704 0.10995860397815704 0.10995860397815704
0.15812148153781891 0.15812148153781891 0.15812148153781891
0.21161402761936188 0.21161402761936188 0.21161402761936188
0.25951376557350159 0.25951376557350159 0.25951376557350159
0.29602387547492981 0.29602387547492981 0.29602387547492981
0.33149921894073486 0.33149921894073486 0.33149921894073486
0.012915084138512611 0.012915084138512611 0.012915084138512611
0.017917977645993233 0.017917977645993233 0.017917977645993233
0.03088746964931488 0.03088746964931488 0.03088746964931488
0.053505841642618179 0.053505841642618179 0.053505841642618179
0.08414757251739502 0.08414757251739502 0.08414757251739502
0.11790074408054352 0.11790074408054352 0.11790074408054352
0.15154643356800079 0.15154643356800079 0.15154643356800079
0.19143505394458771 0.19143505394458771 0.19143505394458771
0.2398192435503006 0.2398192435503006 0.2398192435503006
0.29133132100105286 0.29133132100105286 0.29133132100105286
0.33706316351890564 0.33706316351890564 0.33706316351890564
0.37432563304901123 0.37432563304901123 0.37432563304901123
0.4082801342010498 0.4082801342010498 0.4082801342010498
0.10786733031272888 0.10786733031272888 0.10786733031272888
0.11767018586397171 0.11767018586397171 0.11767018586397171
0.13677322864532471 0.13677322864532471 0.13677322864532471
0.16146214306354523 0.16146214306354523 0.16146214306354523
0.18897952139377594 0.18897952139377594 0.18897952139377594
0.21849757432937622 0.21849757432937622 0.21849757432937622
0.25181594491004944 0.25181594491004944 0.25181594491004944
0.29300260543823242 0.29300260543823242 0.29300260543823242
0.34154447913169861 0.34154447913169861 0.34154447913169861
0.39078760147094727 0.39078760147094727 0.39078760147094727
0.43414366245269775 0.43414366245269775 0.43414366245269775
0.47072896361351013 0.47072896361351013 0.47072896361351013
0.50335925817489624 0.50335925817489624 0.50335925817489624
0.24711453914642334 0.24711453914642334 0.24711453914642334
0.25663906335830688 0.25663906335830688 0.25663906335830688
0.2742706835269928 0.2742706835269928 0.2742706835269928
0.29629701375961304 0.29629701375961304 0.29629701375961304
0.32053568959236145 0.32053568959236145 0.32053568959236145
0.34721854329109192 0.34721854329109192 0.34721854329109192
0.38030186295509338 0.38030186295509338 0.38030186295509338
0.42174848914146423 0.42174848914146423 0.42174848914146423
0.4697105884552002 0.4697105884552002 0.4697105884552002
0.51718443632125854 0.51718443632125854 0.51718443632125854
0.55871939659118652 0.55871939659118652 0.55871939659118652
0.59366250038146973 0.59366250038146973 0.59366250038146973
0.62366330623626709 0.62366330623626709 0.62366330623626709
0.41461816430091858 0.41461816430091858 0.41461816430091858
0.42177990078926086 0.42177990078926086 0.42177990078926086
0.43626394867897034 0.43626394867897034 0.43626394867897034
0.45634391903877258 0.45634391903877258 0.45634391903877258
0.47802057862281799 0.47802057862281799 0.47802057862281799
0.5014946460723877 0.5014946460723877 0.5014946460723877
