films/rollei_ortho_25.cube
# Created by: G'MIC (https://gmic.eu)
TITLE "rollei_ortho_25"
# LUT size
LUT_3D_SIZE 5
# Data domain
DOMAIN_MIN 0.0 0.0 0.0
DOMAIN_MAX 1.0 1.0 1.0
# LUT data points
0.030881410464644432 0.030881410464644432 0.030881410464644432
0.049069888889789581 0.049069888889789581 0.049069888889789581
0.063785836100578308 0.063785836100578308 0.063785836100578308
0.057489298284053802 0.057489298284053802 0.057489298284053802
0.054116971790790558 0.054116971790790558 0.054116971790790558
0.13706628978252411 0.13706628978252411 0.13706628978252411
0.14156603813171387 0.14156603813171387 0.14156603813171387
0.14446321129798889 0.14446321129798889 0.14446321129798889
0.15255774557590485 0.15255774557590485 0.15255774557590485
0.16319531202316284 0.16319531202316284 0.16319531202316284
0.2677912712097168 0.2677912712097168 0.2677912712097168
0.26955121755599976 0.26955121755599976 0.26955121755599976
0.2701188325881958 0.2701188325881958 0.2701188325881958
0.2801155149936676 0.2801155149936676 0.2801155149936676
0.29799604415893555 0.29799604415893555 0.29799604415893555
0.5028725266456604 0.5028725266456604 0.5028725266456604
0.51255851984024048 0.51255851984024048 0.51255851984024048
0.52236711978912354 0.52236711978912354 0.52236711978912354
0.52288460731506348 0.52288460731506348 0.52288460731506348
0.55260789394378662 0.55260789394378662 0.55260789394378662
0.85129815340042114 0.85129815340042114 0.85129815340042114
0.849387526512146 0.849387526512146 0.849387526512146
0.84658187627792358 0.84658187627792358 0.84658187627792358
0.83848375082015991 0.83848375082015991 0.83848375082015991
0.85994589328765869 0.85994589328765869 0.85994589328765869
0.15716800093650818 0.15716800093650818 0.15716800093650818
0.16005688905715942 0.16005688905715942 0.16005688905715942
0.16465942561626434 0.16465942561626434 0.16465942561626434
0.17197878658771515 0.17197878658771515 0.17197878658771515
0.18807071447372437 0.18807071447372437 0.18807071447372437
0.23965668678283691 0.23965668678283691 0.23965668678283691
0.23706786334514618 0.23706786334514618 0.23706786334514618
0.23859909176826477 0.23859909176826477 0.23859909176826477
0.25687572360038757 0.25687572360038757 0.25687572360038757
0.26958760619163513 0.26958760619163513 0.26958760619163513
0.37439695000648499 0.37439695000648499 0.37439695000648499
0.38744860887527466 0.38744860887527466 0.38744860887527466
0.39104494452476501 0.39104494452476501 0.39104494452476501
0.39663851261138916 0.39663851261138916 0.39663851261138916
0.4057101309299469 0.4057101309299469 0.4057101309299469
0.65946865081787109 0.65946865081787109 0.65946865081787109
0.65350228548049927 0.65350228548049927 0.65350228548049927
0.66683071851730347 0.66683071851730347 0.66683071851730347
0.67857915163040161 0.67857915163040161 0.67857915163040161
0.6903146505355835 0.6903146505355835 0.6903146505355835
0.8837464451789856 0.8837464451789856 0.8837464451789856
0.88278216123580933 0.88278216123580933 0.88278216123580933
0.89171212911605835 0.89171212911605835 0.89171212911605835
0.89301306009292603 0.89301306009292603 0.89301306009292603
0.89874434471130371 0.89874434471130371 0.89874434471130371
0.31807446479797363 0.31807446479797363 0.31807446479797363
0.31500717997550964 0.31500717997550964 0.31500717997550964
0.31720656156539917 0.31720656156539917 0.31720656156539917
0.32859876751899719 0.32859876751899719 0.32859876751899719
0.35156384110450745 0.35156384110450745 0.35156384110450745
0.41064533591270447 0.41064533591270447 0.41064533591270447
0.43787023425102234 0.43787023425102234 0.43787023425102234
0.43651449680328369 0.43651449680328369 0.43651449680328369
0.46368995308876038 0.46368995308876038 0.46368995308876038
0.49345359206199646 0.49345359206199646 0.49345359206199646
0.60898303985595703 0.60898303985595703 0.60898303985595703
0.62192386388778687 0.62192386388778687 0.62192386388778687
0.64969509840011597 0.64969509840011597 0.64969509840011597
0.65227842330932617 0.65227842330932617 0.65227842330932617
0.68200099468231201 0.68200099468231201 0.68200099468231201
0.82354223728179932 0.82354223728179932 0.82354223728179932
0.8207404613494873 0.8207404613494873 0.8207404613494873
0.82332426309585571 0.82332426309585571 0.82332426309585571
0.83012741804122925 0.83012741804122925 0.83012741804122925
0.82655829191207886 0.82655829191207886 0.82655829191207886
0.94337844848632812 0.94337844848632812 0.94337844848632812
0.94418025016784668 0.94418025016784668 0.94418025016784668
0.93890655040740967 0.93890655040740967 0.93890655040740967
0.94060122966766357 0.94060122966766357 0.94060122966766357
0.94084781408309937 0.94084781408309937 0.94084781408309937
0.57909196615219116 0.57909196615219116 0.57909196615219116
0.59938174486160278 0.59938174486160278 0.59938174486160278
0.63476473093032837 0.63476473093032837 0.63476473093032837
0.63936126232147217 0.63936126232147217 0.63936126232147217
0.66822659969329834 0.66822659969329834 0.66822659969329834
0.7291332483291626 0.7291332483291626 0.7291332483291626
0.73547154664993286 0.73547154664993286 0.73547154664993286
0.75843632221221924 0.75843632221221924 0.75843632221221924
0.77643591165542603 0.77643591165542603 0.77643591165542603
0.76930320262908936 0.76930320262908936 0.76930320262908936
0.83265894651412964 0.83265894651412964 0.83265894651412964
0.84467923641204834 0.84467923641204834 0.84467923641204834
0.85351377725601196 0.85351377725601196 0.85351377725601196
0.86289048194885254 0.86289048194885254 0.86289048194885254
0.86098051071166992 0.86098051071166992 0.86098051071166992
0.93230283260345459 0.93230283260345459 0.93230283260345459
0.91975337266921997 0.91975337266921997 0.91975337266921997
0.92772012948989868 0.92772012948989868 0.92772012948989868
0.92148977518081665 0.92148977518081665 0.92148977518081665
0.91813409328460693 0.91813409328460693 0.91813409328460693
0.9998965859413147 0.9998965859413147 0.9998965859413147
0.99885207414627075 0.99885207414627075 0.99885207414627075
0.99487930536270142 0.99487930536270142 0.99487930536270142
0.98593133687973022 0.98593133687973022 0.98593133687973022
0.97541886568069458 0.97541886568069458 0.97541886568069458
0.85031396150588989 0.85031396150588989 0.85031396150588989
0.85399794578552246 0.85399794578552246 0.85399794578552246
0.85527700185775757 0.85527700185775757 0.85527700185775757
0.86418843269348145 0.86418843269348145 0.86418843269348145
0.85563051700592041 0.85563051700592041 0.85563051700592041
0.9014742374420166 0.9014742374420166 0.9014742374420166
0.9100954532623291 0.9100954532623291 0.9100954532623291
0.9165312647819519 0.9165312647819519 0.9165312647819519
0.92201858758926392 0.92201858758926392 0.92201858758926392
0.91438162326812744 0.91438162326812744 0.91438162326812744
0.96127820014953613 0.96127820014953613 0.96127820014953613
0.96084380149841309 0.96084380149841309 0.96084380149841309
0.96320921182632446 0.96320921182632446 0.96320921182632446
0.96374684572219849 0.96374684572219849 0.96374684572219849
0.95492804050445557 0.95492804050445557 0.95492804050445557
1 1 1
0.99955981969833374 0.99955981969833374 0.99955981969833374
0.99893832206726074 0.99893832206726074 0.99893832206726074
0.99371027946472168 0.99371027946472168 0.99371027946472168
0.9797244668006897 0.9797244668006897 0.9797244668006897
1 1 1
1 1 1
1 1 1
1 1 1
0.99813210964202881 0.99813210964202881 0.99813210964202881
