films/rollei_ortho_25.cube
# Created by: G'MIC (https://gmic.eu)
TITLE "rollei_ortho_25"
# LUT size
LUT_3D_SIZE 13
# Data domain
DOMAIN_MIN 0.0 0.0 0.0
DOMAIN_MAX 1.0 1.0 1.0
# LUT data points
0.030881410464644432 0.030881410464644432 0.030881410464644432
0.034486941993236542 0.034486941993236542 0.034486941993236542
0.041743498295545578 0.041743498295545578 0.041743498295545578
0.049069888889789581 0.049069888889789581 0.049069888889789581
0.055498264729976654 0.055498264729976654 0.055498264729976654
0.060901239514350891 0.060901239514350891 0.060901239514350891
0.063785836100578308 0.063785836100578308 0.063785836100578308
0.063102960586547852 0.063102960586547852 0.063102960586547852
0.060641001909971237 0.060641001909971237 0.060641001909971237
0.057489298284053802 0.057489298284053802 0.057489298284053802
0.053862012922763824 0.053862012922763824 0.053862012922763824
0.050887521356344223 0.050887521356344223 0.050887521356344223
0.054116971790790558 0.054116971790790558 0.054116971790790558
0.062702074646949768 0.062702074646949768 0.062702074646949768
0.063841335475444794 0.063841335475444794 0.063841335475444794
0.069290608167648315 0.069290608167648315 0.069290608167648315
0.075423628091812134 0.075423628091812134 0.075423628091812134
0.080723181366920471 0.080723181366920471 0.080723181366920471
0.085138984024524689 0.085138984024524689 0.085138984024524689
0.087679021060466766 0.087679021060466766 0.087679021060466766
0.088025063276290894 0.088025063276290894 0.088025063276290894
0.086990565061569214 0.086990565061569214 0.086990565061569214
0.085532829165458679 0.085532829165458679 0.085532829165458679
0.083325088024139404 0.083325088024139404 0.083325088024139404
0.082653984427452087 0.082653984427452087 0.082653984427452087
0.088361762464046478 0.088361762464046478 0.088361762464046478
0.098954036831855774 0.098954036831855774 0.098954036831855774
0.098249457776546478 0.098249457776546478 0.098249457776546478
0.10197349637746811 0.10197349637746811 0.10197349637746811
0.10634715110063553 0.10634715110063553 0.10634715110063553
0.10946399718523026 0.10946399718523026 0.10946399718523026
0.1119631752371788 0.1119631752371788 0.1119631752371788
0.11405307799577713 0.11405307799577713 0.11405307799577713
0.11566627025604248 0.11566627025604248 0.11566627025604248
0.11672859638929367 0.11672859638929367 0.11672859638929367
0.11735030263662338 0.11735030263662338 0.11735030263662338
0.11727465689182281 0.11727465689182281 0.11727465689182281
0.11865466088056564 0.11865466088056564 0.11865466088056564
0.1253027468919754 0.1253027468919754 0.1253027468919754
0.13706628978252411 0.13706628978252411 0.13706628978252411
0.13567890226840973 0.13567890226840973 0.13567890226840973
0.13829240202903748 0.13829240202903748 0.13829240202903748
0.14156603813171387 0.14156603813171387 0.14156603813171387
0.14214697480201721 0.14214697480201721 0.14214697480201721
0.14276528358459473 0.14276528358459473 0.14276528358459473
0.14446321129798889 0.14446321129798889 0.14446321129798889
0.14740520715713501 0.14740520715713501 0.14740520715713501
0.1508336067199707 0.1508336067199707 0.1508336067199707
0.15255774557590485 0.15255774557590485 0.15255774557590485
0.15322129428386688 0.15322129428386688 0.15322129428386688
0.15569989383220673 0.15569989383220673 0.15569989383220673
0.16319531202316284 0.16319531202316284 0.16319531202316284
0.17634250223636627 0.17634250223636627 0.17634250223636627
0.17377349734306335 0.17377349734306335 0.17377349734306335
0.17616766691207886 0.17616766691207886 0.17616766691207886
0.17809465527534485 0.17809465527534485 0.17809465527534485
0.17808167636394501 0.17808167636394501 0.17808167636394501
0.17770756781101227 0.17770756781101227 0.17770756781101227
0.17996218800544739 0.17996218800544739 0.17996218800544739
0.18379803001880646 0.18379803001880646 0.18379803001880646
0.18921889364719391 0.18921889364719391 0.18921889364719391
0.191664919257164 0.191664919257164 0.191664919257164
0.19220846891403198 0.19220846891403198 0.19220846891403198
0.19477427005767822 0.19477427005767822 0.19477427005767822
0.20306785404682159 0.20306785404682159 0.20306785404682159
0.2189595103263855 0.2189595103263855 0.2189595103263855
0.2151481956243515 0.2151481956243515 0.2151481956243515
0.21681535243988037 0.21681535243988037 0.21681535243988037
0.22015051543712616 0.22015051543712616 0.22015051543712616
0.22163809835910797 0.22163809835910797 0.22163809835910797
0.22074069082736969 0.22074069082736969 0.22074069082736969
0.22126130759716034 0.22126130759716034 0.22126130759716034
0.22534488141536713 0.22534488141536713 0.22534488141536713
0.23102766275405884 0.23102766275405884 0.23102766275405884
0.23324945569038391 0.23324945569038391 0.23324945569038391
0.23380914330482483 0.23380914330482483 0.23380914330482483
0.23716680705547333 0.23716680705547333 0.23716680705547333
0.2470586895942688 0.2470586895942688 0.2470586895942688
0.2677912712097168 0.2677912712097168 0.2677912712097168
0.26366317272186279 0.26366317272186279 0.26366317272186279
0.26502794027328491 0.26502794027328491 0.26502794027328491
0.26955121755599976 0.26955121755599976 0.26955121755599976
0.2726891040802002 0.2726891040802002 0.2726891040802002
0.27044612169265747 0.27044612169265747 0.27044612169265747
0.2701188325881958 0.2701188325881958 0.2701188325881958
0.2735322117805481 0.2735322117805481 0.2735322117805481
0.27754613757133484 0.27754613757133484 0.27754613757133484
0.2801155149936676 0.2801155149936676 0.2801155149936676
0.28240740299224854 0.28240740299224854 0.28240740299224854
0.28699347376823425 0.28699347376823425 0.28699347376823425
0.29799604415893555 0.29799604415893555 0.29799604415893555
0.32599726319313049 0.32599726319313049 0.32599726319313049
0.3235420286655426 0.3235420286655426 0.3235420286655426
0.32450968027114868 0.32450968027114868 0.32450968027114868
0.32742142677307129 0.32742142677307129 0.32742142677307129
0.33037537336349487 0.33037537336349487 0.33037537336349487
0.32879406213760376 0.32879406213760376 0.32879406213760376
0.33019351959228516 0.33019351959228516 0.33019351959228516
0.33467885851860046 0.33467885851860046 0.33467885851860046
0.33676812052726746 0.33676812052726746 0.33676812052726746
0.3393464982509613 0.3393464982509613 0.3393464982509613
0.34467288851737976 0.34467288851737976 0.34467288851737976
0.35091686248779297 0.35091686248779297 0.35091686248779297
0.36224210262298584 0.36224210262298584 0.36224210262298584
0.39813044667243958 0.39813044667243958 0.39813044667243958
0.40288129448890686 0.40288129448890686 0.40288129448890686
0.40252271294593811 0.40252271294593811 0.40252271294593811
0.40214598178863525 0.40214598178863525 0.40214598178863525
0.4067038893699646 0.4067038893699646 0.4067038893699646
0.40306863188743591 0.40306863188743591 0.40306863188743591
0.40852606296539307 0.40852606296539307 0.40852606296539307
0.41789501905441284 0.41789501905441284 0.41789501905441284
0.4152282178401947 0.4152282178401947 0.4152282178401947
0.41669291257858276 0.41669291257858276 0.41669291257858276
0.42789268493652344 0.42789268493652344 0.42789268493652344
0.43661630153656006 0.43661630153656006 0.43661630153656006
0.447297602891922 0.447297602891922 0.447297602891922
0.5028725266456604 0.5028725266456604 0.5028725266456604
0.51275944709777832 0.51275944709777832 0.51275944709777832
0.5137627124786377 0.5137627124786377 0.5137627124786377
0.51255851984024048 0.51255851984024048 0.51255851984024048
0.51775705814361572 0.51775705814361572 0.51775705814361572
0.51494342088699341 0.51494342088699341 0.51494342088699341
0.52236711978912354 0.52236711978912354 0.52236711978912354
0.53293490409851074 0.53293490409851074 0.53293490409851074
0.52540683746337891 0.52540683746337891 0.52540683746337891
0.52288460731506348 0.52288460731506348 0.52288460731506348
0.53379917144775391 0.53379917144775391 0.53379917144775391
0.54341131448745728 0.54341131448745728 0.54341131448745728
0.55260789394378662 0.55260789394378662 0.55260789394378662
0.63292676210403442 0.63292676210403442 0.63292676210403442
0.64477246999740601 0.64477246999740601 0.64477246999740601
0.64852571487426758 0.64852571487426758 0.64852571487426758
0.64684802293777466 0.64684802293777466 0.64684802293777466
0.65200924873352051 0.65200924873352051 0.65200924873352051
0.65200275182723999 0.65200275182723999 0.65200275182723999
0.65672397613525391 0.65672397613525391 0.65672397613525391
0.66317421197891235 0.66317421197891235 0.66317421197891235
0.65214121341705322 0.65214121341705322 0.65214121341705322
0.64480257034301758 0.64480257034301758 0.64480257034301758
0.64923202991485596 0.64923202991485596 0.64923202991485596
0.65717649459838867 0.65717649459838867 0.65717649459838867
0.66431921720504761 0.66431921720504761 0.66431921720504761
0.75425559282302856 0.75425559282302856 0.75425559282302856
0.76360738277435303 0.76360738277435303 0.76360738277435303
0.76575130224227905 0.76575130224227905 0.76575130224227905
0.76334530115127563 0.76334530115127563 0.76334530115127563
0.76697224378585815 0.76697224378585815 0.76697224378585815
0.76653933525085449 0.76653933525085449 0.76653933525085449
0.76586562395095825 0.76586562395095825 0.76586562395095825
0.76604992151260376 0.76604992151260376 0.76604992151260376
0.75796371698379517 0.75796371698379517 0.75796371698379517
0.75209236145019531 0.75209236145019531 0.75209236145019531
0.75531989336013794 0.75531989336013794 0.75531989336013794
0.76377493143081665 0.76377493143081665 0.76377493143081665
0.76998484134674072 0.76998484134674072 0.76998484134674072
0.85129815340042114 0.85129815340042114 0.85129815340042114
0.85299503803253174 0.85299503803253174 0.85299503803253174
0.85160887241363525 0.85160887241363525 0.85160887241363525
0.849387526512146 0.849387526512146 0.849387526512146
0.849129319190979 0.849129319190979 0.849129319190979
0.84855735301971436 0.84855735301971436 0.84855735301971436
0.84658187627792358 0.84658187627792358 0.84658187627792358
0.84417301416397095 0.84417301416397095 0.84417301416397095
0.83976823091506958 0.83976823091506958 0.83976823091506958
0.83848375082015991 0.83848375082015991 0.83848375082015991
0.84254682064056396 0.84254682064056396 0.84254682064056396
0.85248363018035889 0.85248363018035889 0.85248363018035889
0.85994589328765869 0.85994589328765869 0.85994589328765869
0.067906774580478668 0.067906774580478668 0.067906774580478668
0.069366469979286194 0.069366469979286194 0.069366469979286194
0.074801079928874969 0.074801079928874969 0.074801079928874969
0.080706574022769928 0.080706574022769928 0.080706574022769928
0.086396731436252594 0.086396731436252594 0.086396731436252594
0.092188633978366852 0.092188633978366852 0.092188633978366852
0.095740914344787598 0.095740914344787598 0.095740914344787598
0.094116926193237305 0.094116926193237305 0.094116926193237305
0.092152252793312073 0.092152252793312073 0.092152252793312073
0.090286895632743835 0.090286895632743835 0.090286895632743835
0.088716261088848114 0.088716261088848114 0.088716261088848114
0.088785521686077118 0.088785521686077118 0.088785521686077118
0.095041327178478241 0.095041327178478241 0.095041327178478241
0.096028976142406464 0.096028976142406464 0.096028976142406464
0.096660658717155457 0.096660658717155457 0.096660658717155457
0.10125530511140823 0.10125530511140823 0.10125530511140823
0.10599387437105179 0.10599387437105179 0.10599387437105179
0.11059293895959854 0.11059293895959854 0.11059293895959854
0.11485220491886139 0.11485220491886139 0.11485220491886139
0.11765026301145554 0.11765026301145554 0.11765026301145554
0.11787188798189163 0.11787188798189163 0.11787188798189163
0.11797081679105759 0.11797081679105759 0.11797081679105759
0.11819974333047867 0.11819974333047867 0.11819974333047867
0.11805156618356705 0.11805156618356705 0.11805156618356705
0.11866669356822968 0.11866669356822968 0.11866669356822968
0.12477163970470428 0.12477163970470428 0.12477163970470428
0.12911339104175568 0.12911339104175568 0.12911339104175568
0.12863090634346008 0.12863090634346008 0.12863090634346008
0.13123615086078644 0.13123615086078644 0.13123615086078644
0.13431449234485626 0.13431449234485626 0.13431449234485626
0.13693062961101532 0.13693062961101532 0.13693062961101532
0.13928231596946716 0.13928231596946716 0.13928231596946716
0.14126403629779816 0.14126403629779816 0.14126403629779816
0.14339433610439301 0.14339433610439301 0.14339433610439301
0.14600926637649536 0.14600926637649536 0.14600926637649536
0.14891405403614044 0.14891405403614044 0.14891405403614044
0.15020446479320526 0.15020446479320526 0.15020446479320526
0.15133963525295258 0.15133963525295258 0.15133963525295258
0.15714719891548157 0.15714719891548157 0.15714719891548157
0.16483043134212494 0.16483043134212494 0.16483043134212494
0.16329044103622437 0.16329044103622437 0.16329044103622437
0.16468891501426697 0.16468891501426697 0.16468891501426697
0.16629225015640259 0.16629225015640259 0.16629225015640259
0.16694976389408112 0.16694976389408112 0.16694976389408112
0.16770872473716736 0.16770872473716736 0.16770872473716736
0.1692173033952713 0.1692173033952713 0.1692173033952713
0.17263129353523254 0.17263129353523254 0.17263129353523254
0.17719739675521851 0.17719739675521851 0.17719739675521851
0.1815173476934433 0.1815173476934433 0.1815173476934433
0.18357519805431366 0.18357519805431366 0.18357519805431366
0.18485088646411896 0.18485088646411896 0.18485088646411896
0.19074912369251251 0.19074912369251251 0.19074912369251251
0.20262762904167175 0.20262762904167175 0.20262762904167175
0.19989442825317383 0.19989442825317383 0.19989442825317383
0.20081228017807007 0.20081228017807007 0.20081228017807007
0.20231609046459198 0.20231609046459198 0.20231609046459198
0.20246252417564392 0.20246252417564392 0.20246252417564392
0.20228725671768188 0.20228725671768188 0.20228725671768188
0.20314589142799377 0.20314589142799377 0.20314589142799377
0.20708891749382019 0.20708891749382019 0.20708891749382019
0.21304452419281006 0.21304452419281006 0.21304452419281006
0.21759353578090668 0.21759353578090668 0.21759353578090668
0.21963769197463989 0.21963769197463989 0.21963769197463989
0.2203948050737381 0.2203948050737381 0.2203948050737381
0.22725264728069305 0.22725264728069305 0.22725264728069305
0.24465429782867432 0.24465429782867432 0.24465429782867432
0.24119420349597931 0.24119420349597931 0.24119420349597931
0.24251362681388855 0.24251362681388855 0.24251362681388855
0.24496562778949738 0.24496562778949738 0.24496562778949738
0.24583777785301208 0.24583777785301208 0.24583777785301208
0.24460725486278534 0.24460725486278534 0.24460725486278534
0.24472400546073914 0.24472400546073914 0.24472400546073914
0.24843403697013855 0.24843403697013855 0.24843403697013855
0.25374311208724976 0.25374311208724976 0.25374311208724976
0.257894366979599 0.257894366979599 0.257894366979599
0.25918883085250854 0.25918883085250854 0.25918883085250854
0.25981193780899048 0.25981193780899048 0.25981193780899048
0.26800185441970825 0.26800185441970825 0.26800185441970825
0.29573023319244385 0.29573023319244385 0.29573023319244385
0.29244789481163025 0.29244789481163025 0.29244789481163025
0.29406613111495972 0.29406613111495972 0.29406613111495972
0.29773682355880737 0.29773682355880737 0.29773682355880737
0.29954564571380615 0.29954564571380615 0.29954564571380615
0.29750335216522217 0.29750335216522217 0.29750335216522217
0.29694539308547974 0.29694539308547974 0.29694539308547974
0.2997705340385437 0.2997705340385437 0.2997705340385437
0.30321985483169556 0.30321985483169556 0.30321985483169556
0.3051970899105072 0.3051970899105072 0.3051970899105072
0.30542978644371033 0.30542978644371033 0.30542978644371033
0.30649501085281372 0.30649501085281372 0.30649501085281372
0.3157288134098053 0.3157288134098053 0.3157288134098053
0.35969975590705872 0.35969975590705872 0.35969975590705872
0.35746386647224426 0.35746386647224426 0.35746386647224426
0.35959455370903015 0.35959455370903015 0.35959455370903015
0.3625304102897644 0.3625304102897644 0.3625304102897644
0.36414104700088501 0.36414104700088501 0.36414104700088501
0.36253452301025391 0.36253452301025391 0.36253452301025391
0.36322709918022156 0.36322709918022156 0.36322709918022156
0.36588948965072632 0.36588948965072632 0.36588948965072632
0.36660775542259216 0.36660775542259216 0.36660775542259216
0.36729928851127625 0.36729928851127625 0.36729928851127625
0.3685910701751709 0.3685910701751709 0.3685910701751709
0.36860087513923645 0.36860087513923645 0.36860087513923645
0.37505084276199341 0.37505084276199341 0.37505084276199341
0.44043383002281189 0.44043383002281189 0.44043383002281189
0.44211971759796143 0.44211971759796143 0.44211971759796143
0.44393366575241089 0.44393366575241089 0.44393366575241089
0.44517481327056885 0.44517481327056885 0.44517481327056885
0.44641152024269104 0.44641152024269104 0.44641152024269104
0.44505012035369873 0.44505012035369873 0.44505012035369873
0.44834187626838684 0.44834187626838684 0.44834187626838684
0.45279300212860107 0.45279300212860107 0.45279300212860107
0.44929936528205872 0.44929936528205872 0.44929936528205872
0.4499146044254303 0.4499146044254303 0.4499146044254303
0.45712220668792725 0.45712220668792725 0.45712220668792725
0.45787915587425232 0.45787915587425232 0.45787915587425232
0.46075278520584106 0.46075278520584106 0.46075278520584106
0.5444800853729248 0.5444800853729248 0.5444800853729248
0.54944652318954468 0.54944652318954468 0.54944652318954468
0.5513761043548584 0.5513761043548584 0.5513761043548584
0.55202567577362061 0.55202567577362061 0.55202567577362061
0.55365633964538574 0.55365633964538574 0.55365633964538574
0.55377620458602905 0.55377620458602905 0.55377620458602905
0.55948394536972046 0.55948394536972046 0.55948394536972046
0.56403708457946777 0.56403708457946777 0.56403708457946777
0.55823498964309692 0.55823498964309692 0.55823498964309692
0.5585971474647522 0.5585971474647522 0.5585971474647522
0.56787103414535522 0.56787103414535522 0.56787103414535522
0.57213443517684937 0.57213443517684937 0.57213443517684937
0.57663524150848389 0.57663524150848389 0.57663524150848389
0.66265785694122314 0.66265785694122314 0.66265785694122314
0.66875666379928589 0.66875666379928589 0.66875666379928589
0.67108076810836792 0.67108076810836792 0.67108076810836792
0.67112106084823608 0.67112106084823608 0.67112106084823608
0.67358708381652832 0.67358708381652832 0.67358708381652832
0.67631542682647705 0.67631542682647705 0.67631542682647705
0.68137466907501221 0.68137466907501221 0.68137466907501221
0.68345266580581665 0.68345266580581665 0.68345266580581665
0.67776346206665039 0.67776346206665039 0.67776346206665039
0.67615491151809692 0.67615491151809692 0.67615491151809692
0.68174725770950317 0.68174725770950317 0.68174725770950317
0.68689358234405518 0.68689358234405518 0.68689358234405518
0.69058263301849365 0.69058263301849365 0.69058263301849365
0.77204161882400513 0.77204161882400513 0.77204161882400513
0.77770388126373291 0.77770388126373291 0.77770388126373291
0.77874904870986938 0.77874904870986938 0.77874904870986938
0.77767246961593628 0.77767246961593628 0.77767246961593628
0.77927762269973755 0.77927762269973755 0.77927762269973755
0.78157293796539307 0.78157293796539307 0.78157293796539307
0.78383368253707886 0.78383368253707886 0.78383368253707886
0.78325134515762329 0.78325134515762329 0.78325134515762329
0.77840626239776611 0.77840626239776611 0.77840626239776611
0.77639603614807129 0.77639603614807129 0.77639603614807129
0.78050708770751953 0.78050708770751953 0.78050708770751953
0.78676563501358032 0.78676563501358032 0.78676563501358032
0.78983807563781738 0.78983807563781738 0.78983807563781738
0.86036145687103271 0.86036145687103271 0.86036145687103271
0.86345899105072021 0.86345899105072021 0.86345899105072021
0.86242985725402832 0.86242985725402832 0.86242985725402832
0.86050009727478027 0.86050009727478027 0.86050009727478027
0.86055529117584229 0.86055529117584229 0.86055529117584229
0.86174970865249634 0.86174970865249634 0.86174970865249634
0.86199092864990234 0.86199092864990234 0.86199092864990234
0.86022543907165527 0.86022543907165527 0.86022543907165527
0.85682600736618042 0.85682600736618042 0.85682600736618042
0.85652810335159302 0.85652810335159302 0.85652810335159302
0.86120760440826416 0.86120760440826416 0.86120760440826416
0.86791878938674927 0.86791878938674927 0.86791878938674927
0.87073683738708496 0.87073683738708496 0.87073683738708496
0.111298568546772 0.111298568546772 0.111298568546772
0.11201965063810349 0.11201965063810349 0.11201965063810349
0.11529276520013809 0.11529276520013809 0.11529276520013809
0.1181824654340744 0.1181824654340744 0.1181824654340744
0.12185658514499664 0.12185658514499664 0.12185658514499664
0.125937819480896 0.125937819480896 0.125937819480896
0.12832623720169067 0.12832623720169067 0.12832623720169067
0.12815140187740326 0.12815140187740326 0.12815140187740326
0.12863154709339142 0.12863154709339142 0.12863154709339142
0.12904393672943115 0.12904393672943115 0.12904393672943115
0.13013903796672821 0.13013903796672821 0.13013903796672821
0.1334749311208725 0.1334749311208725 0.1334749311208725
0.14194048941135406 0.14194048941135406 0.14194048941135406
0.1365363746881485 0.1365363746881485 0.1365363746881485
0.13740220665931702 0.13740220665931702 0.13740220665931702
0.14027798175811768 0.14027798175811768 0.14027798175811768
0.14269915223121643 0.14269915223121643 0.14269915223121643
0.1456046849489212 0.1456046849489212 0.1456046849489212
0.14852063357830048 0.14852063357830048 0.14852063357830048
0.15053099393844604 0.15053099393844604 0.15053099393844604
0.15159191191196442 0.15159191191196442 0.15159191191196442
0.15371692180633545 0.15371692180633545 0.15371692180633545
0.15718840062618256 0.15718840062618256 0.15718840062618256
0.15973824262619019 0.15973824262619019 0.15973824262619019
0.16192120313644409 0.16192120313644409 0.16192120313644409
0.16867265105247498 0.16867265105247498 0.16867265105247498
0.16657830774784088 0.16657830774784088 0.16657830774784088
0.16613684594631195 0.16613684594631195 0.16613684594631195
0.16720381379127502 0.16720381379127502 0.16720381379127502
0.16861985623836517 0.16861985623836517 0.16861985623836517
0.17017970979213715 0.17017970979213715 0.17017970979213715
0.17174232006072998 0.17174232006072998 0.17174232006072998
0.17324098944664001 0.17324098944664001 0.17324098944664001
0.17577730119228363 0.17577730119228363 0.17577730119228363
0.18045045435428619 0.18045045435428619 0.18045045435428619
0.18683941662311554 0.18683941662311554 0.18683941662311554
0.19097106158733368 0.19097106158733368 0.19097106158733368
0.19141432642936707 0.19141432642936707 0.19141432642936707
0.19650669395923615 0.19650669395923615 0.19650669395923615
0.20044387876987457 0.20044387876987457 0.20044387876987457
0.1991627961397171 0.1991627961397171 0.1991627961397171
0.19805470108985901 0.19805470108985901 0.19805470108985901
0.19791361689567566 0.19791361689567566 0.19791361689567566
0.19828997552394867 0.19828997552394867 0.19828997552394867
0.19876725971698761 0.19876725971698761 0.19876725971698761
0.20010280609130859 0.20010280609130859 0.20010280609130859
0.20358017086982727 0.20358017086982727 0.20358017086982727
0.20959280431270599 0.20959280431270599 0.20959280431270599
0.21686618030071259 0.21686618030071259 0.21686618030071259
0.22110185027122498 0.22110185027122498 0.22110185027122498
0.22146698832511902 0.22146698832511902 0.22146698832511902
0.22642047703266144 0.22642047703266144 0.22642047703266144
0.23611032962799072 0.23611032962799072 0.23611032962799072
0.23441366851329803 0.23441366851329803 0.23441366851329803
0.23279163241386414 0.23279163241386414 0.23279163241386414
0.23307281732559204 0.23307281732559204 0.23307281732559204
0.2333282083272934 0.2333282083272934 0.2333282083272934
0.23281612992286682 0.23281612992286682 0.23281612992286682
0.23399192094802856 0.23399192094802856 0.23399192094802856
