films/synthetic_cine_print.cube
TITLE "SYNTHETIC projection-print stylization - generated, not measured"
LUT_3D_SIZE 9
0.000000 0.000000 0.000000
0.033948 0.000000 0.000000
0.179544 0.000000 0.000000
0.314732 0.000000 0.000000
0.440617 0.000000 0.000000
0.555569 0.000000 0.000000
0.656402 0.000000 0.000000
0.739653 0.000000 0.000000
0.802692 0.000000 0.000000
0.000000 0.066924 0.000000
0.048352 0.069635 0.000000
0.192690 0.072318 0.000000
0.327027 0.074941 0.000000
0.452223 0.077450 0.000000
0.566494 0.079777 0.000000
0.666590 0.081846 0.000000
0.749053 0.083591 0.000000
0.811300 0.084966 0.000000
0.000000 0.214492 0.000000
0.061854 0.216981 0.000000
0.205051 0.219446 0.000000
0.338615 0.221854 0.000000
0.463184 0.224157 0.000000
0.576841 0.226288 0.000000
0.676279 0.228178 0.000000
0.758047 0.229764 0.000000
0.819602 0.231002 0.000000
0.000000 0.351828 0.000000
0.074378 0.354184 0.000000
0.216545 0.356516 0.000000
0.349412 0.358796 0.000000
0.473417 0.360972 0.000000
0.586525 0.362983 0.000000
0.685383 0.364761 0.000000
0.766547 0.366245 0.000000
0.827511 0.367394 0.000000
0.000000 0.479604 0.000000
0.085777 0.481873 0.000000
0.227028 0.484120 0.000000
0.359272 0.486315 0.000000
0.482775 0.488410 0.000000
0.595400 0.490341 0.000000
0.693755 0.492042 0.000000
0.774406 0.493455 0.000000
0.834873 0.494539 0.000000
0.000000 0.595791 0.000000
0.095859 0.597997 0.000000
0.236309 0.600181 0.000000
0.368006 0.602315 0.000000
0.491070 0.604349 0.000000
0.603277 0.606221 0.000000
0.701207 0.607865 0.000000
0.781430 0.609223 0.000000
0.841495 0.610256 0.000000
0.000000 0.696980 0.000000
0.104424 0.699133 0.000000
0.244191 0.701267 0.000000
0.375419 0.703352 0.000000
0.498105 0.705337 0.000000
0.609959 0.707162 0.000000
0.707537 0.708761 0.000000
0.787419 0.710076 0.000000
0.847172 0.711068 0.000000
0.000000 0.779700 0.000000
0.111302 0.781812 0.000000
0.250505 0.783905 0.000000
0.381342 0.785950 0.000000
0.503712 0.787898 0.000000
0.615277 0.789686 0.000000
0.712577 0.791250 0.000000
0.792199 0.792533 0.000000
0.851726 0.793494 0.000000
0.000000 0.841489 0.000000
0.116395 0.843568 0.000000
0.255154 0.845632 0.000000
0.385675 0.847648 0.000000
0.507792 0.849569 0.000000
0.619130 0.851331 0.000000
0.716224 0.852872 0.000000
0.795664 0.854132 0.000000
0.855046 0.855075 0.000000
0.000000 0.000000 0.096928
0.035442 0.000000 0.097440
0.180906 0.000000 0.097999
0.316004 0.000000 0.098575
0.441816 0.000000 0.099115
0.556697 0.000000 0.099549
0.657451 0.000000 0.099802
0.740619 0.000000 0.099807
0.803573 0.000000 0.099514
0.000000 0.067846 0.098874
0.049757 0.070551 0.099577
0.193975 0.073228 0.100325
0.328231 0.075845 0.101087
0.453360 0.078347 0.101809
0.567566 0.080668 0.102423
0.667592 0.082730 0.102852
0.749981 0.084470 0.103031
0.812153 0.085838 0.102912
0.000000 0.215339 0.101414
0.063176 0.217823 0.102303
0.206262 0.220282 0.103236
0.339752 0.222686 0.104180
0.464262 0.224983 0.105080
0.577860 0.227109 0.105869
0.677236 0.228993 0.106471
0.758939 0.230574 0.106820
0.820430 0.231808 0.106870
0.000000 0.352629 0.104418
0.075619 0.354981 0.105488
0.217686 0.357309 0.106600
0.350486 0.359584 0.107720
0.474437 0.361756 0.108795
0.587493 0.363763 0.109754
0.686297 0.365535 0.110524
0.767405 0.367015 0.111039
0.828314 0.368159 0.111255
0.000000 0.480375 0.107684
0.086941 0.482640 0.108931
0.228101 0.484884 0.110217
0.360284 0.487076 0.111508
0.483739 0.489166 0.112751
0.596319 0.491093 0.113875
0.694628 0.492791 0.114808
0.775231 0.494200 0.115485
0.835654 0.495280 0.115861
0.000000 0.596541 0.110966
0.096951 0.598743 0.112383
0.237317 0.600925 0.113837
0.368960 0.603055 0.115294
0.491981 0.605086 0.116699
0.604149 0.606954 0.117983
0.702039 0.608595 0.119074
0.782224 0.609950 0.119906
0.842254 0.610980 0.120437
0.000000 0.697712 0.114002
0.105447 0.699863 0.115583
0.245138 0.701994 0.117199
0.376316 0.704076 0.118815
0.498965 0.706059 0.120377
0.610786 0.707881 0.121814
0.708332 0.709478 0.123056
0.788184 0.710790 0.124038
0.847910 0.711779 0.124716
0.000000 0.780418 0.116560
0.112260 0.782527 0.118299
0.251394 0.784619 0.120071
0.382186 0.786662 0.121839
0.504524 0.788608 0.123550
0.616062 0.790394 0.125134
0.713338 0.791956 0.126519
0.792937 0.793237 0.127641
0.852446 0.794196 0.128458
0.000000 0.842195 0.118474
0.117293 0.844274 0.120364
0.255989 0.846336 0.122283
0.386470 0.848351 0.124196
0.508559 0.850270 0.126047
0.619876 0.852031 0.127768
0.716952 0.853570 0.129286
0.796378 0.854830 0.130537
0.855750 0.855771 0.131478
0.000000 0.000000 0.233987
0.036920 0.000000 0.234515
0.182253 0.000000 0.235087
0.317263 0.000000 0.235673
0.443004 0.000000 0.236223
0.557813 0.000000 0.236672
0.658491 0.000000 0.236949
0.741576 0.000000 0.236990
0.804446 0.000000 0.236748
0.000000 0.068760 0.235971
0.051148 0.071459 0.236675
0.195247 0.074130 0.237421
0.329422 0.076740 0.238180
0.454486 0.079237 0.238899
0.568628 0.081551 0.239514
0.668585 0.083608 0.239954
0.750901 0.085340 0.240156
0.813000 0.086703 0.240075
0.000000 0.216178 0.238503
0.064483 0.218658 0.239380
0.207462 0.221112 0.240297
0.340878 0.223511 0.241224
0.465329 0.225803 0.242109
0.578869 0.227923 0.242887
0.678184 0.229802 0.243487
0.759823 0.231378 0.243848
0.821251 0.232607 0.243924
0.000000 0.353424 0.241462
0.076847 0.355771 0.242507
0.218815 0.358095 0.243592
0.351548 0.360366 0.244683
0.475446 0.362534 0.245730
0.588451 0.364536 0.246667
0.687202 0.366304 0.247424
0.768255 0.367779 0.247939
0.829111 0.368919 0.248169
0.000000 0.481141 0.244660
0.088093 0.483402 0.245870
0.229163 0.485642 0.247116
0.361286 0.487830 0.248367
0.484693 0.489917 0.249571
0.597228 0.491840 0.250663
0.695491 0.493534 0.251572
0.776048 0.494939 0.252238
0.836428 0.496015 0.252618
0.000000 0.597285 0.247864
0.098030 0.599484 0.249233
0.238315 0.601663 0.250637
0.369903 0.603790 0.252043
0.492882 0.605817 0.253399
0.605011 0.607683 0.254640
0.702863 0.609320 0.255697
0.783011 0.610672 0.256509
0.843006 0.611699 0.257033
0.000000 0.698439 0.250827
0.106458 0.700587 0.252350
0.246074 0.702716 0.253906
0.377203 0.704795 0.255461
0.499815 0.706776 0.256964
0.611604 0.708595 0.258349
0.709120 0.710189 0.259548
0.788942 0.711499 0.260499
0.848643 0.712486 0.261161
0.000000 0.781131 0.253329
0.113207 0.783238 0.255000
0.252273 0.785328 0.256701
0.383020 0.787369 0.258399
0.505327 0.789313 0.260042
0.616838 0.791097 0.261565
0.714090 0.792657 0.262898
0.793668 0.793936 0.263981
0.853160 0.794894 0.264772
0.000000 0.842897 0.255212
0.118180 0.844974 0.257024
0.256813 0.847035 0.258864
0.387255 0.849049 0.260697
0.509318 0.850966 0.262471
0.620614 0.852727 0.264122
0.717673 0.854265 0.265579
0.797086 0.855523 0.266782
0.856448 0.856463 0.267690
0.000000 0.000000 0.361948
0.038369 0.000000 0.362538
0.183574 0.000000 0.363168
0.318497 0.000000 0.363810
0.444168 0.000000 0.364413
0.558907 0.000000 0.364917
0.659509 0.000000 0.365250
0.742512 0.000000 0.365352
0.805300 0.000000 0.365177
0.000000 0.069652 0.364125
0.052511 0.072346 0.364878
0.196493 0.075011 0.365669
0.330590 0.077615 0.366470
0.455590 0.080106 0.367231
0.569668 0.082414 0.367887
0.669557 0.084464 0.368372
0.751800 0.086191 0.368623
0.813827 0.087548 0.368597
0.000000 0.216998 0.366807
0.065763 0.219473 0.367720
0.208636 0.221923 0.368670
0.341981 0.224316 0.369628
0.466373 0.226604 0.370542
0.579857 0.228719 0.371350
0.679111 0.230593 0.371984
0.760688 0.232164 0.372382
0.822054 0.233387 0.372502
0.000000 0.354200 0.369879
0.078048 0.356544 0.370949
0.219921 0.358864 0.372055
0.352588 0.361130 0.373165
0.476434 0.363294 0.374230
0.589389 0.365292 0.375187
0.688087 0.367056 0.375967
0.769086 0.368526 0.376509
0.829890 0.369662 0.376773
0.000000 0.481889 0.373161
0.089219 0.484147 0.374384
0.230201 0.486384 0.375641
0.362265 0.488568 0.376901
0.485626 0.490651 0.378113
0.598117 0.492571 0.379214
0.696335 0.494261 0.380137
0.776847 0.495662 0.380820
0.837184 0.496735 0.381224
0.000000 0.598013 0.376427
0.099085 0.600209 0.377799
0.239290 0.602384 0.379203
0.370825 0.604508 0.380608
0.493762 0.606533 0.381963
0.605854 0.608395 0.383205
0.703669 0.610029 0.384266
0.783780 0.611378 0.385086
0.843742 0.612401 0.385624
0.000000 0.699149 0.379439
0.107445 0.701295 0.380955
0.246988 0.703422 0.382502
0.378070 0.705499 0.384047
0.500645 0.707476 0.385540
0.612403 0.709294 0.386917
0.709888 0.710885 0.388110
0.789682 0.712192 0.389061
0.849358 0.713177 0.389729
0.000000 0.781828 0.381983
0.114131 0.783933 0.383639
0.253130 0.786021 0.385322
0.383834 0.788060 0.387001
0.506110 0.790002 0.388626
0.617596 0.791785 0.390131
0.714824 0.793343 0.391451
0.794383 0.794620 0.392525
0.853858 0.795576 0.393314
0.000000 0.843584 0.383907
0.119045 0.845659 0.385695
0.257618 0.847719 0.387508
0.388021 0.849731 0.389314
0.510057 0.851648 0.391061
0.621334 0.853407 0.392687
0.718377 0.854944 0.394123
0.797777 0.856201 0.395309
0.857130 0.857140 0.396206
0.000000 0.000000 0.480640
0.039768 0.000000 0.481343
0.184850 0.000000 0.482081
0.319689 0.000000 0.482827
0.445291 0.000000 0.483531
0.559961 0.000000 0.484132
0.660488 0.000000 0.484561
0.743411 0.000000 0.484757
0.806118 0.000000 0.484678
0.000000 0.070504 0.483178
0.053826 0.073192 0.484029
0.197696 0.075852 0.484913
0.331716 0.078451 0.485802
0.456653 0.080936 0.486648
0.570669 0.083238 0.487388
0.670491 0.085282 0.487954
0.752663 0.087003 0.488286
0.814619 0.088354 0.488341
0.000000 0.217781 0.486171
0.066997 0.220251 0.487166
0.209768 0.222696 0.488195
0.343043 0.225086 0.489227
0.467379 0.227368 0.490213
0.580807 0.229479 0.491090
0.680002 0.231348 0.491792
0.761516 0.232914 0.492258
0.822821 0.234133 0.492446
0.000000 0.354942 0.489506
0.079205 0.357281 0.490644
0.220984 0.359597 0.491815
0.353589 0.361860 0.492986
0.477384 0.364020 0.494110
0.590289 0.366013 0.495123
0.688935 0.367773 0.495958
0.769882 0.369239 0.496556
0.830634 0.370371 0.496875
0.000000 0.482603 0.493008
0.090302 0.484858 0.494287
0.231199 0.487091 0.495596
0.363206 0.489272 0.496905
0.486521 0.491352 0.498163
0.598969 0.493268 0.499308
0.697144 0.494954 0.500274
0.777612 0.496352 0.501001
0.837906 0.497421 0.501448
0.000000 0.598707 0.496459
0.100097 0.600900 0.497874
0.240225 0.603073 0.499318
0.371708 0.605194 0.500760
0.494605 0.607215 0.502149
0.606660 0.609074 0.503424
0.704439 0.610706 0.504516
0.784514 0.612051 0.505368
0.844443 0.613072 0.505940
0.000000 0.699827 0.499623
0.108391 0.701971 0.501171
0.247863 0.704095 0.502746
0.378898 0.706169 0.504317
0.501439 0.708145 0.505833
0.613165 0.709959 0.507231
0.710622 0.711548 0.508446
0.790388 0.712853 0.509419
0.850041 0.713835 0.510109
0.000000 0.782492 0.502293
0.115013 0.784596 0.503968
0.253948 0.786682 0.505669
0.384611 0.788719 0.507363
0.506857 0.790659 0.509000
0.618317 0.792440 0.510517
0.715524 0.793997 0.511848
0.795063 0.795272 0.512934
0.854522 0.796226 0.513735
0.000000 0.844239 0.504317
0.119870 0.846313 0.506114
0.258384 0.848371 0.507934
0.388750 0.850382 0.509744
0.510761 0.852298 0.511495
0.622019 0.854056 0.513122
0.719046 0.855591 0.514559
0.798434 0.856847 0.515748
0.857780 0.857786 0.516647
0.000000 0.000000 0.587796
0.041095 0.000000 0.588663
0.186059 0.000000 0.589560
0.320817 0.000000 0.590458
0.446351 0.000000 0.591309
0.560955 0.000000 0.592051
0.661408 0.000000 0.592617
0.744251 0.000000 0.592946
0.806879 0.000000 0.592995
0.000000 0.071291 0.590863
0.055069 0.073974 0.591858
0.198833 0.076628 0.592881
0.332779 0.079222 0.593903
0.457655 0.081702 0.594877
0.571610 0.083998 0.595740
0.671366 0.086037 0.596425
0.753469 0.087753 0.596871
0.815355 0.089099 0.597037
0.000000 0.218504 0.594319
0.068162 0.220970 0.595440
0.210835 0.223411 0.596589
0.344044 0.225796 0.597735
0.468324 0.228074 0.598831
0.581697 0.230180 0.599814
0.680834 0.232045 0.600616
0.762288 0.233606 0.601179
0.823533 0.234820 0.601461
0.000000 0.355626 0.598055
0.080293 0.357962 0.599302
0.221984 0.360275 0.600574
0.354528 0.362533 0.601843
0.478273 0.364689 0.603060
0.591130 0.366679 0.604161
0.689726 0.368434 0.605080
0.770621 0.369897 0.605759
0.831323 0.371025 0.606156
0.000000 0.483262 0.601902
0.091317 0.485514 0.603271
0.232135 0.487744 0.604666
0.364087 0.489921 0.606055
0.487358 0.491998 0.607390
0.599764 0.493910 0.608607
0.697895 0.495593 0.609642
0.778320 0.496987 0.610434
0.838574 0.498053 0.610943
0.000000 0.599347 0.605642
0.101044 0.601537 0.607131
0.241098 0.603707 0.608645
0.372532 0.605825 0.610152
0.495390 0.607844 0.611602
0.607409 0.609700 0.612933
0.705152 0.611328 0.614079
0.785193 0.612671 0.614982
0.845091 0.613689 0.615601
0.000000 0.700451 0.609045
0.109271 0.702593 0.610652
0.248677 0.704715 0.612281
0.379668 0.706787 0.613902
0.502175 0.708760 0.615464
0.613871 0.710572 0.616905
0.711299 0.712158 0.618159
0.791039 0.713461 0.619168
0.850669 0.714441 0.619892
0.000000 0.783103 0.611906
0.115832 0.785205 0.613626
0.254707 0.787290 0.615366
0.385330 0.789325 0.617096
0.507546 0.791264 0.618765
0.618983 0.793043 0.620311
0.716168 0.794598 0.621668
0.795688 0.795871 0.622777
0.855133 0.796824 0.623598
0.000000 0.844840 0.614078
0.120631 0.846913 0.615905
0.259090 0.848970 0.617751
0.389421 0.850981 0.619584
0.511408 0.852895 0.621353
0.622647 0.854652 0.622996
0.719660 0.856186 0.624446
0.799037 0.857441 0.625646
0.858376 0.858379 0.626553
0.000000 0.000000 0.680167
0.042323 0.000000 0.681243
0.187177 0.000000 0.682341
0.321859 0.000000 0.683433
0.447328 0.000000 0.684471
0.561865 0.000000 0.685393
0.662246 0.000000 0.686132
0.745011 0.000000 0.686627
0.807560 0.000000 0.686837
0.000000 0.071989 0.683908
0.056217 0.074667 0.685087
0.199880 0.077316 0.686287
0.333757 0.079905 0.687480
0.458574 0.082380 0.688617
0.572470 0.084671 0.689637
0.672160 0.086705 0.690472
0.754194 0.088416 0.691063
0.816012 0.089756 0.691367
0.000000 0.219145 0.687956
0.069231 0.221607 0.689238
0.211814 0.224044 0.690542
0.344960 0.226425 0.691836
0.469187 0.228698 0.693073
0.582507 0.230800 0.694191
0.681586 0.232660 0.695122
0.762980 0.234217 0.695808
0.824167 0.235427 0.696207
0.000000 0.356232 0.692209
0.081289 0.358564 0.693594
0.222897 0.360873 0.694999
0.355384 0.363128 0.696394
0.479081 0.365280 0.697731
0.591892 0.367266 0.698946
0.690438 0.369018 0.699973
0.771282 0.370476 0.700754
0.831935 0.371601 0.701247
0.000000 0.483844 0.696498
0.092241 0.486093 0.697985
0.232984 0.488319 0.699491
0.364884 0.490494 0.700986
0.488113 0.492567 0.702420
0.600478 0.494476 0.703731
0.698568 0.496155 0.704853
0.778950 0.497546 0.705727
0.839165 0.498609 0.706314
0.000000 0.599911 0.700610
0.101899 0.602098 0.702197
0.241886 0.604265 0.703802
0.373274 0.606381 0.705394
0.496095 0.608396 0.706924
0.608079 0.610250 0.708329
0.705787 0.611875 0.709544
0.785794 0.613215 0.710510
0.845661 0.614230 0.711188
0.000000 0.701000 0.704319
0.110062 0.703139 0.706004
0.249407 0.705259 0.707705
0.380357 0.707328 0.709392
0.502831 0.709299 0.711015
0.614498 0.711109 0.712511
0.711899 0.712693 0.713816
0.791613 0.713994 0.714871
0.851221 0.714972 0.715636
0.000000 0.783640 0.707422
0.116562 0.785740 0.709201
0.255381 0.787822 0.710995
0.385968 0.789857 0.712773
0.508157 0.791793 0.714485
0.619570 0.793570 0.716069
0.716735 0.795124 0.717459
0.796237 0.796395 0.718597
0.855668 0.797347 0.719443
0.000000 0.845367 0.709776
0.121305 0.847439 0.711644
0.259713 0.849495 0.713526
0.390012 0.851504 0.715390
0.511977 0.853417 0.717185
0.623198 0.855173 0.718850
0.720197 0.856706 0.720318
0.799564 0.857961 0.721531
0.858896 0.858897 0.722448
0.000000 0.000000 0.754653
0.043432 0.000000 0.755968
0.188185 0.000000 0.757296
0.322795 0.000000 0.758610
0.448202 0.000000 0.759862
0.562675 0.000000 0.760991
0.662983 0.000000 0.761928
0.745672 0.000000 0.762614
0.808143 0.000000 0.763006
0.000000 0.072577 0.759164
0.057247 0.075250 0.760555
0.200819 0.077895 0.761959
0.334630 0.080480 0.763348
0.459391 0.082950 0.764673
0.573228 0.085236 0.765873
0.672855 0.087265 0.766880
0.754821 0.088971 0.767636
0.816572 0.090307 0.768097
0.000000 0.219683 0.763894
0.070186 0.222142 0.765361
0.212686 0.224575 0.766842
0.345772 0.226951 0.768306
0.469948 0.229221 0.769706
0.583216 0.231319 0.770978
0.682240 0.233175 0.772057
0.763575 0.234727 0.772882
0.824704 0.235933 0.773414
0.000000 0.356739 0.768740
0.082170 0.359068 0.770285
0.223704 0.361373 0.771842
0.356137 0.363625 0.773382
0.479789 0.365774 0.774856
0.592553 0.367756 0.776201
0.691051 0.369504 0.777351
0.771845 0.370959 0.778248
0.832451 0.372079 0.778850
0.000000 0.484330 0.773537
0.093053 0.486575 0.775159
0.233728 0.488799 0.776792
0.365580 0.490970 0.778408
0.488768 0.493040 0.779955
0.601094 0.494946 0.781373
0.699142 0.496622 0.782595
0.779483 0.498010 0.783562
0.839659 0.499069 0.784235
0.000000 0.600379 0.778075
0.102644 0.602564 0.779773
0.242570 0.604728 0.781482
0.373914 0.606841 0.783172
0.496700 0.608854 0.784792
0.608650 0.610705 0.786282
0.706325 0.612328 0.787574
0.786299 0.613665 0.788611
0.846136 0.614677 0.789353
0.000000 0.701454 0.782131
0.110743 0.703590 0.783904
0.250033 0.705708 0.785687
0.380944 0.707776 0.787448
0.503388 0.709744 0.789140
0.615027 0.711552 0.790699
0.712401 0.713134 0.792060
0.792091 0.714432 0.793165
0.851677 0.715408 0.793974
0.000000 0.784081 0.785506
0.117183 0.786180 0.787351
0.255952 0.788261 0.789205
0.386505 0.790293 0.791036
0.508668 0.792228 0.792796
0.620060 0.794004 0.794422
0.717205 0.795555 0.795849
0.796690 0.796826 0.797018
0.856107 0.797776 0.797889
0.000000 0.845800 0.788059
0.121869 0.847871 0.789973
0.260234 0.849926 0.791894
0.390504 0.851934 0.793792
0.512447 0.853845 0.795616
0.623652 0.855600 0.797304
0.720638 0.857133 0.798790
0.799995 0.858386 0.800016
0.859321 0.859322 0.800941
0.000000 0.000000 0.809197
0.044410 0.000000 0.810762
0.189071 0.000000 0.812332
0.323614 0.000000 0.813879
0.448961 0.000000 0.815356
0.563371 0.000000 0.816700
0.663609 0.000000 0.817845
0.746222 0.000000 0.818730
0.808617 0.000000 0.819314
0.000000 0.073041 0.814516
0.058147 0.075711 0.816129
0.201636 0.078352 0.817747
0.335387 0.080932 0.819341
0.460094 0.083397 0.820863
0.573874 0.085679 0.822251
0.673438 0.087703 0.823439
0.755338 0.089404 0.824367
0.817022 0.090735 0.824992
0.000000 0.220107 0.819959
0.071012 0.222561 0.821621
0.213437 0.224991 0.823288
0.346468 0.227364 0.824930
0.470596 0.229630 0.826499
0.583813 0.231723 0.827933
0.682782 0.233575 0.829166
0.764059 0.235123 0.830138
0.825132 0.236325 0.830808
0.000000 0.357135 0.825426
0.082924 0.359461 0.827139
0.224391 0.361763 0.828855
0.356775 0.364012 0.830547
0.480383 0.366157 0.832164
0.593103 0.368135 0.833645
0.691553 0.369880 0.834923
0.772298 0.371331 0.835941
0.832857 0.372448 0.836656
0.000000 0.484706 0.830755
0.093738 0.486949 0.832518
0.234353 0.489169 0.834285
0.366161 0.491338 0.836026
0.489311 0.493404 0.837691
0.601597 0.495307 0.839220
0.699606 0.496980 0.840545
0.779907 0.498364 0.841608
0.840045 0.499420 0.842370
0.000000 0.600739 0.835737
0.103263 0.602921 0.837551
0.243135 0.605083 0.839368
0.374440 0.607193 0.841158
0.497192 0.609204 0.842872
0.609110 0.611052 0.844448
0.706751 0.612672 0.845819
0.786694 0.614006 0.846929
0.846502 0.615015 0.847736
0.000000 0.701799 0.840152
0.111299 0.703934 0.842016
0.250541 0.706050 0.843883
0.381417 0.708115 0.845722
0.503832 0.710081 0.847483
0.615445 0.711887 0.849105
0.712793 0.713467 0.850523
0.792459 0.714763 0.851678
0.852024 0.715736 0.852530
0.000000 0.784415 0.843805
0.117680 0.786512 0.845718
0.256407 0.788592 0.847632
0.386929 0.790623 0.849518
0.509068 0.792556 0.851326
0.620438 0.794330 0.852993
0.717564 0.795880 0.854455
0.797033 0.797148 0.855653
0.856438 0.798097 0.856548
0.000000 0.846126 0.846559
0.122311 0.848195 0.848518
0.260638 0.850249 0.850479
0.390882 0.852256 0.852410
0.512806 0.854167 0.854261
0.623995 0.855920 0.855970
0.720969 0.857452 0.857472
0.800318 0.858704 0.858708
0.859639 0.859639 0.859639
