films/synthetic_archival_neutral.cube
TITLE "SYNTHETIC near-neutral print - generated, not measured"
LUT_3D_SIZE 9
0.000000 0.000000 0.000000
0.123504 0.000399 0.000399
0.246739 0.000796 0.000796
0.369014 0.001191 0.001191
0.489202 0.001579 0.001579
0.605786 0.001955 0.001955
0.716945 0.002314 0.002314
0.820682 0.002648 0.002648
0.914990 0.002953 0.002953
0.001341 0.124447 0.001341
0.124845 0.124845 0.001739
0.248080 0.125243 0.002137
0.370355 0.125637 0.002532
0.490543 0.126025 0.002920
0.607127 0.126401 0.003296
0.718286 0.126760 0.003654
0.822023 0.127095 0.003989
0.916331 0.127399 0.004294
0.002679 0.248621 0.002679
0.126183 0.249020 0.003077
0.249417 0.249417 0.003475
0.371693 0.249812 0.003870
0.491881 0.250200 0.004257
0.608465 0.250576 0.004634
0.719624 0.250935 0.004992
0.823361 0.251270 0.005327
0.917668 0.251574 0.005631
0.004006 0.371829 0.004006
0.127510 0.372228 0.004405
0.250745 0.372626 0.004802
0.373020 0.373020 0.005197
0.493209 0.373408 0.005585
0.609792 0.373784 0.005961
0.720951 0.374143 0.006320
0.824688 0.374478 0.006655
0.918996 0.374782 0.006959
0.005311 0.492935 0.005311
0.128815 0.493333 0.005709
0.252050 0.493731 0.006107
0.374325 0.494126 0.006502
0.494513 0.494513 0.006890
0.611097 0.494890 0.007266
0.722256 0.495248 0.007625
0.825993 0.495583 0.007959
0.920301 0.495887 0.008264
0.006577 0.610408 0.006577
0.130081 0.610807 0.006975
0.253315 0.611204 0.007373
0.375591 0.611599 0.007767
0.495779 0.611987 0.008155
0.612363 0.612363 0.008531
0.723521 0.612722 0.008890
0.827259 0.613056 0.009225
0.921566 0.613361 0.009529
0.007783 0.722415 0.007783
0.131288 0.722813 0.008182
0.254522 0.723211 0.008580
0.376797 0.723605 0.008974
0.496986 0.723993 0.009362
0.613570 0.724369 0.009738
0.724728 0.724728 0.010097
0.828465 0.725063 0.010432
0.922773 0.725367 0.010736
0.008910 0.826943 0.008910
0.132414 0.827342 0.009308
0.255648 0.827739 0.009706
0.377924 0.828134 0.010100
0.498112 0.828522 0.010488
0.614696 0.828898 0.010864
0.725854 0.829257 0.011223
0.829591 0.829591 0.011558
0.923899 0.829896 0.011862
0.009933 0.921970 0.009933
0.133438 0.922369 0.010332
0.256672 0.922767 0.010730
0.378947 0.923161 0.011124
0.499136 0.923549 0.011512
0.615720 0.923925 0.011888
0.726878 0.924284 0.012247
0.830615 0.924619 0.012582
0.924923 0.924923 0.012886
0.000135 0.000135 0.123241
0.123640 0.000534 0.123640
0.246874 0.000932 0.124037
0.369149 0.001326 0.124432
0.489338 0.001714 0.124820
0.605922 0.002090 0.125196
0.717080 0.002449 0.125555
0.820817 0.002784 0.125890
0.915125 0.003088 0.126194
0.001476 0.124582 0.124582
0.124980 0.124980 0.124980
0.248215 0.125378 0.125378
0.370490 0.125773 0.125773
0.490679 0.126161 0.126161
0.607263 0.126537 0.126537
0.718421 0.126896 0.126896
0.822158 0.127230 0.127230
0.916466 0.127535 0.127535
0.002814 0.248757 0.125920
0.126318 0.249155 0.126318
0.249553 0.249553 0.126716
0.371828 0.249947 0.127111
0.492016 0.250335 0.127498
0.608600 0.250712 0.127875
0.719759 0.251070 0.128233
0.823496 0.251405 0.128568
0.917804 0.251709 0.128873
0.004141 0.371965 0.127247
0.127646 0.372363 0.127646
0.250880 0.372761 0.128043
0.373156 0.373156 0.128438
0.493344 0.373543 0.128826
0.609928 0.373920 0.129202
0.721086 0.374278 0.129561
0.824823 0.374613 0.129896
0.919131 0.374917 0.130200
0.005446 0.493070 0.128552
0.128951 0.493469 0.128951
0.252185 0.493866 0.129348
0.374460 0.494261 0.129743
0.494649 0.494649 0.130131
0.611233 0.495025 0.130507
0.722391 0.495384 0.130866
0.826128 0.495718 0.131200
0.920436 0.496023 0.131505
0.006712 0.610543 0.129818
0.130216 0.610942 0.130216
0.253451 0.611340 0.130614
0.375726 0.611734 0.131009
0.495914 0.612122 0.131396
0.612498 0.612498 0.131773
0.723657 0.612857 0.132131
0.827394 0.613192 0.132466
0.921702 0.613496 0.132770
0.007919 0.722550 0.131024
0.131423 0.722948 0.131423
0.254657 0.723346 0.131821
0.376933 0.723741 0.132215
0.497121 0.724129 0.132603
0.613705 0.724505 0.132979
0.724864 0.724864 0.133338
0.828601 0.725198 0.133673
0.922908 0.725503 0.133977
0.009045 0.827078 0.132151
0.132549 0.827477 0.132549
0.255784 0.827875 0.132947
0.378059 0.828269 0.133341
0.498247 0.828657 0.133729
0.614831 0.829033 0.134106
0.725990 0.829392 0.134464
0.829727 0.829727 0.134799
0.924035 0.830031 0.135103
0.010069 0.922106 0.133174
0.133573 0.922504 0.133573
0.256808 0.922902 0.133971
0.379083 0.923297 0.134365
0.499271 0.923684 0.134753
0.615855 0.924061 0.135129
0.727014 0.924419 0.135488
0.830751 0.924754 0.135823
0.925059 0.925059 0.136127
0.000270 0.000270 0.246213
0.123775 0.000669 0.246612
0.247009 0.001067 0.247009
0.369285 0.001461 0.247404
0.489473 0.001849 0.247792
0.606057 0.002225 0.248168
0.717215 0.002584 0.248527
0.820952 0.002919 0.248861
0.915260 0.003223 0.249166
0.001611 0.124717 0.247554
0.125116 0.125116 0.247952
0.248350 0.125513 0.248350
0.370625 0.125908 0.248745
0.490814 0.126296 0.249132
0.607398 0.126672 0.249509
0.718556 0.127031 0.249867
0.822293 0.127365 0.250202
0.916601 0.127670 0.250507
0.002949 0.248892 0.248892
0.126453 0.249290 0.249290
0.249688 0.249688 0.249688
0.371963 0.250082 0.250082
0.492152 0.250470 0.250470
0.608735 0.250847 0.250847
0.719894 0.251205 0.251205
0.823631 0.251540 0.251540
0.917939 0.251844 0.251844
0.004277 0.372100 0.250219
0.127781 0.372498 0.250618
0.251015 0.372896 0.251015
0.373291 0.373291 0.251410
0.493479 0.373678 0.251798
0.610063 0.374055 0.252174
0.721221 0.374413 0.252533
0.824958 0.374748 0.252868
0.919266 0.375053 0.253172
0.005581 0.493205 0.251524
0.129086 0.493604 0.251922
0.252320 0.494001 0.252320
0.374595 0.494396 0.252715
0.494784 0.494784 0.253103
0.611368 0.495160 0.253479
0.722526 0.495519 0.253838
0.826263 0.495854 0.254172
0.920571 0.496158 0.254477
0.006847 0.610678 0.252790
0.130351 0.611077 0.253188
0.253586 0.611475 0.253586
0.375861 0.611869 0.253980
0.496049 0.612257 0.254368
0.612633 0.612633 0.254744
0.723792 0.612992 0.255103
0.827529 0.613327 0.255438
0.921837 0.613631 0.255742
0.008054 0.722685 0.253996
0.131558 0.723083 0.254395
0.254793 0.723481 0.254793
0.377068 0.723876 0.255187
0.497256 0.724264 0.255575
0.613840 0.724640 0.255951
0.724999 0.724999 0.256310
0.828736 0.725333 0.256645
0.923044 0.725638 0.256949
0.009180 0.827213 0.255122
0.132684 0.827612 0.255521
0.255919 0.828010 0.255919
0.378194 0.828404 0.256313
0.498382 0.828792 0.256701
0.614966 0.829168 0.257077
0.726125 0.829527 0.257436
0.829862 0.829862 0.257771
0.924170 0.830166 0.258075
0.010204 0.922241 0.256146
0.133708 0.922639 0.256545
0.256943 0.923037 0.256943
0.379218 0.923432 0.257337
0.499406 0.923819 0.257725
0.615990 0.924196 0.258101
0.727149 0.924554 0.258460
0.830886 0.924889 0.258795
0.925194 0.925194 0.259099
0.000404 0.000404 0.368228
0.123909 0.000803 0.368626
0.247143 0.001201 0.369024
0.369419 0.001595 0.369419
0.489607 0.001983 0.369806
0.606191 0.002359 0.370183
0.717349 0.002718 0.370541
0.821086 0.003053 0.370876
0.915394 0.003357 0.371180
0.001745 0.124851 0.369568
0.125250 0.125250 0.369967
0.248484 0.125647 0.370365
0.370759 0.126042 0.370759
0.490948 0.126430 0.371147
0.607532 0.126806 0.371523
0.718690 0.127165 0.371882
0.822427 0.127499 0.372217
0.916735 0.127804 0.372521
0.003083 0.249026 0.370906
0.126587 0.249424 0.371305
0.249822 0.249822 0.371703
0.372097 0.250216 0.372097
0.492286 0.250604 0.372485
0.608869 0.250981 0.372861
0.720028 0.251339 0.373220
0.823765 0.251674 0.373555
0.918073 0.251978 0.373859
0.004411 0.372234 0.372234
0.127915 0.372632 0.372632
0.251149 0.373030 0.373030
0.373425 0.373425 0.373425
0.493613 0.373812 0.373812
0.610197 0.374189 0.374189
0.721355 0.374547 0.374547
0.825092 0.374882 0.374882
0.919400 0.375187 0.375187
0.005715 0.493339 0.373539
0.129220 0.493738 0.373937
0.252454 0.494135 0.374335
0.374729 0.494530 0.374729
0.494918 0.494918 0.375117
0.611502 0.495294 0.375493
0.722660 0.495653 0.375852
0.826397 0.495988 0.376187
0.920705 0.496292 0.376491
0.006981 0.610812 0.374804
0.130485 0.611211 0.375203
0.253720 0.611609 0.375600
0.375995 0.612003 0.375995
0.496183 0.612391 0.376383
0.612767 0.612767 0.376759
0.723926 0.613126 0.377118
0.827663 0.613461 0.377453
0.921971 0.613765 0.377757
0.008188 0.722819 0.376011
0.131692 0.723217 0.376410
0.254927 0.723615 0.376807
0.377202 0.724010 0.377202
0.497390 0.724398 0.377590
0.613974 0.724774 0.377966
0.725133 0.725133 0.378325
0.828870 0.725467 0.378659
0.923178 0.725772 0.378964
0.009314 0.827347 0.377137
0.132818 0.827746 0.377536
0.256053 0.828144 0.377933
0.378328 0.828538 0.378328
0.498516 0.828926 0.378716
0.615100 0.829302 0.379092
0.726259 0.829661 0.379451
0.829996 0.829996 0.379786
0.924304 0.830300 0.380090
0.010338 0.922375 0.378161
0.133842 0.922773 0.378560
0.257077 0.923171 0.378957
0.379352 0.923566 0.379352
0.499540 0.923954 0.379740
0.616124 0.924330 0.380116
0.727283 0.924688 0.380475
0.831020 0.925023 0.380809
0.925328 0.925328 0.381114
0.000536 0.000536 0.488160
0.124040 0.000935 0.488558
0.247275 0.001332 0.488956
0.369550 0.001727 0.489351
0.489739 0.002115 0.489739
0.606322 0.002491 0.490115
0.717481 0.002850 0.490474
0.821218 0.003185 0.490808
0.915526 0.003489 0.491113
0.001877 0.124983 0.489501
0.125381 0.125381 0.489899
0.248616 0.125779 0.490297
0.370891 0.126174 0.490692
0.491079 0.126561 0.491079
0.607663 0.126938 0.491456
0.718822 0.127296 0.491814
0.822559 0.127631 0.492149
0.916867 0.127935 0.492453
0.003215 0.249157 0.490839
0.126719 0.249556 0.491237
0.249954 0.249954 0.491635
0.372229 0.250348 0.492029
0.492417 0.250736 0.492417
0.609001 0.251112 0.492793
0.720160 0.251471 0.493152
0.823897 0.251806 0.493487
0.918205 0.252110 0.493791
0.004542 0.372365 0.492166
0.128047 0.372764 0.492565
0.251281 0.373162 0.492962
0.373556 0.373556 0.493357
0.493745 0.373944 0.493745
0.610329 0.374320 0.494121
0.721487 0.374679 0.494480
0.825224 0.375014 0.494814
0.919532 0.375318 0.495119
0.005847 0.493471 0.493471
0.129351 0.493869 0.493869
0.252586 0.494267 0.494267
0.374861 0.494662 0.494662
0.495050 0.495050 0.495050
0.611633 0.495426 0.495426
0.722792 0.495784 0.495784
0.826529 0.496119 0.496119
0.920837 0.496424 0.496424
0.007113 0.610944 0.494736
0.130617 0.611343 0.495135
0.253852 0.611740 0.495533
0.376127 0.612135 0.495927
0.496315 0.612523 0.496315
0.612899 0.612899 0.496691
0.724058 0.613258 0.497050
0.827795 0.613593 0.497385
0.922103 0.613897 0.497689
0.008319 0.722951 0.495943
0.131824 0.723349 0.496342
0.255058 0.723747 0.496739
0.377334 0.724141 0.497134
0.497522 0.724529 0.497522
0.614106 0.724906 0.497898
0.725264 0.725264 0.498257
0.829001 0.725599 0.498592
0.923309 0.725903 0.498896
0.009446 0.827479 0.497069
0.132950 0.827878 0.497468
0.256184 0.828275 0.497866
0.378460 0.828670 0.498260
0.498648 0.829058 0.498648
0.615232 0.829434 0.499024
0.726391 0.829793 0.499383
0.830128 0.830128 0.499718
0.924435 0.830432 0.500022
0.010469 0.922507 0.498093
0.133974 0.922905 0.498492
0.257208 0.923303 0.498889
0.379484 0.923697 0.499284
0.499672 0.924085 0.499672
0.616256 0.924461 0.500048
0.727414 0.924820 0.500407
0.831151 0.925155 0.500742
0.925459 0.925459 0.501046
0.000664 0.000664 0.604495
0.124168 0.001062 0.604894
0.247403 0.001460 0.605292
0.369678 0.001855 0.605686
0.489866 0.002243 0.606074
0.606450 0.002619 0.606450
0.717609 0.002978 0.606809
0.821346 0.003312 0.607144
0.915654 0.003617 0.607448
0.002005 0.125110 0.605836
0.125509 0.125509 0.606235
0.248744 0.125907 0.606632
0.371019 0.126301 0.607027
0.491207 0.126689 0.607415
0.607791 0.127065 0.607791
0.718950 0.127424 0.608150
0.822687 0.127759 0.608485
0.916995 0.128063 0.608789
0.003343 0.249285 0.607174
0.126847 0.249684 0.607573
0.250081 0.250081 0.607970
0.372357 0.250476 0.608365
0.492545 0.250864 0.608753
0.609129 0.251240 0.609129
0.720287 0.251599 0.609488
0.824025 0.251934 0.609822
0.918332 0.252238 0.610127
0.004670 0.372493 0.608501
0.128174 0.372892 0.608900
0.251409 0.373290 0.609298
0.373684 0.373684 0.609692
0.493872 0.374072 0.610080
0.610456 0.374448 0.610456
0.721615 0.374807 0.610815
0.825352 0.375142 0.611150
0.919660 0.375446 0.611454
0.005975 0.493599 0.609806
0.129479 0.493997 0.610205
0.252714 0.494395 0.610602
0.374989 0.494789 0.610997
0.495177 0.495177 0.611385
0.611761 0.495554 0.611761
0.722920 0.495912 0.612120
0.826657 0.496247 0.612455
0.920965 0.496551 0.612759
0.007240 0.611072 0.611072
0.130745 0.611470 0.611470
0.253979 0.611868 0.611868
0.376255 0.612263 0.612263
0.496443 0.612651 0.612651
0.613027 0.613027 0.613027
0.724185 0.613386 0.613386
0.827922 0.613720 0.613720
0.922230 0.614025 0.614025
0.008447 0.723078 0.612279
0.131952 0.723477 0.612677
0.255186 0.723875 0.613075
0.377461 0.724269 0.613469
0.497650 0.724657 0.613857
0.614234 0.725033 0.614234
0.725392 0.725392 0.614592
0.829129 0.725727 0.614927
0.923437 0.726031 0.615231
0.009573 0.827607 0.613405
0.133078 0.828005 0.613803
0.256312 0.828403 0.614201
0.378588 0.828798 0.614596
0.498776 0.829186 0.614984
0.615360 0.829562 0.615360
0.726518 0.829921 0.615718
0.830255 0.830255 0.616053
0.924563 0.830560 0.616358
0.010597 0.922634 0.614429
0.134102 0.923033 0.614827
0.257336 0.923431 0.615225
0.379611 0.923825 0.615620
0.499800 0.924213 0.616007
0.616384 0.924589 0.616384
0.727542 0.924948 0.616742
0.831279 0.925283 0.617077
0.925587 0.925587 0.617381
0.000786 0.000786 0.715417
0.124290 0.001184 0.715815
0.247525 0.001582 0.716213
0.369800 0.001977 0.716608
0.489988 0.002364 0.716996
0.606572 0.002741 0.717372
0.717731 0.003099 0.717731
0.821468 0.003434 0.718065
0.915776 0.003739 0.718370
0.002127 0.125232 0.716758
0.125631 0.125631 0.717156
0.248865 0.126029 0.717554
0.371141 0.126423 0.717949
0.491329 0.126811 0.718336
0.607913 0.127187 0.718713
0.719071 0.127546 0.719071
0.822808 0.127881 0.719406
0.917116 0.128185 0.719710
0.003464 0.249407 0.718096
0.126969 0.249806 0.718494
0.250203 0.250203 0.718892
0.372478 0.250598 0.719286
0.492667 0.250986 0.719674
0.609251 0.251362 0.720051
0.720409 0.251721 0.720409
0.824146 0.252055 0.720744
0.918454 0.252360 0.721048
0.004792 0.372615 0.719423
0.128296 0.373014 0.719822
0.251531 0.373411 0.720219
0.373806 0.373806 0.720614
0.493994 0.374194 0.721002
0.610578 0.374570 0.721378
0.721737 0.374929 0.721737
0.825474 0.375264 0.722071
0.919782 0.375568 0.722376
0.006097 0.493720 0.720728
0.129601 0.494119 0.721126
0.252835 0.494517 0.721524
0.375111 0.494911 0.721919
0.495299 0.495299 0.722307
0.611883 0.495675 0.722683
0.723041 0.496034 0.723041
0.826779 0.496369 0.723376
0.921086 0.496673 0.723681
0.007362 0.611194 0.721993
0.130867 0.611592 0.722392
0.254101 0.611990 0.722790
0.376376 0.612385 0.723184
0.496565 0.612772 0.723572
0.613149 0.613149 0.723948
0.724307 0.613507 0.724307
0.828044 0.613842 0.724642
0.922352 0.614146 0.724946
0.008569 0.723200 0.723200
0.132073 0.723599 0.723599
0.255308 0.723996 0.723996
0.377583 0.724391 0.724391
0.497772 0.724779 0.724779
0.614355 0.725155 0.725155
0.725514 0.725514 0.725514
0.829251 0.725849 0.725849
0.923559 0.726153 0.726153
0.009695 0.827729 0.724326
0.133200 0.828127 0.724725
0.256434 0.828525 0.725123
0.378709 0.828920 0.725517
0.498898 0.829307 0.725905
0.615482 0.829684 0.726281
0.726640 0.830042 0.726640
0.830377 0.830377 0.726975
0.924685 0.830682 0.727279
0.010719 0.922756 0.725350
0.134223 0.923155 0.725749
0.257458 0.923552 0.726147
0.379733 0.923947 0.726541
0.499922 0.924335 0.726929
0.616505 0.924711 0.727305
0.727664 0.925070 0.727664
0.831401 0.925405 0.727999
0.925709 0.925709 0.728303
0.000899 0.000899 0.818933
0.124404 0.001298 0.819332
0.247638 0.001696 0.819729
0.369914 0.002090 0.820124
0.490102 0.002478 0.820512
0.606686 0.002854 0.820888
0.717844 0.003213 0.821247
0.821581 0.003548 0.821581
0.915889 0.003852 0.821886
0.002240 0.125346 0.820274
0.125745 0.125745 0.820672
0.248979 0.126142 0.821070
0.371254 0.126537 0.821465
0.491443 0.126925 0.821852
0.608027 0.127301 0.822229
0.719185 0.127660 0.822587
0.822922 0.127994 0.822922
0.917230 0.128299 0.823227
0.003578 0.249521 0.821612
0.127082 0.249919 0.822010
0.250317 0.250317 0.822408
0.372592 0.250711 0.822802
0.492781 0.251099 0.823190
0.609364 0.251476 0.823567
0.720523 0.251834 0.823925
0.824260 0.252169 0.824260
0.918568 0.252473 0.824564
0.004906 0.372729 0.822939
0.128410 0.373127 0.823338
0.251644 0.373525 0.823735
0.373920 0.373920 0.824130
0.494108 0.374307 0.824518
0.610692 0.374684 0.824894
0.721850 0.375042 0.825253
0.825587 0.375377 0.825587
0.919895 0.375682 0.825892
0.006210 0.493834 0.824244
0.129715 0.494233 0.824642
0.252949 0.494630 0.825040
0.375224 0.495025 0.825435
0.495413 0.495413 0.825823
0.611997 0.495789 0.826199
0.723155 0.496148 0.826557
0.826892 0.496483 0.826892
0.921200 0.496787 0.827197
0.007476 0.611307 0.825509
0.130980 0.611706 0.825908
0.254215 0.612104 0.826306
0.376490 0.612498 0.826700
0.496678 0.612886 0.827088
0.613262 0.613262 0.827464
0.724421 0.613621 0.827823
0.828158 0.613956 0.828158
0.922466 0.614260 0.828462
0.008683 0.723314 0.826716
0.132187 0.723712 0.827115
0.255422 0.724110 0.827513
0.377697 0.724505 0.827907
0.497885 0.724893 0.828295
0.614469 0.725269 0.828671
0.725628 0.725628 0.829030
0.829365 0.725962 0.829365
0.923673 0.726267 0.829669
0.009809 0.827842 0.827842
0.133313 0.828241 0.828241
0.256548 0.828639 0.828639
0.378823 0.829033 0.829033
0.499011 0.829421 0.829421
0.615595 0.829797 0.829797
0.726754 0.830156 0.830156
0.830491 0.830491 0.830491
0.924799 0.830795 0.830795
0.010833 0.922870 0.828866
0.134337 0.923268 0.829265
0.257572 0.923666 0.829663
0.379847 0.924061 0.830057
0.500035 0.924449 0.830445
0.616619 0.924825 0.830821
0.727778 0.925183 0.831180
0.831515 0.925518 0.831515
0.925823 0.925823 0.831819
0.001003 0.001003 0.913040
0.124507 0.001401 0.913438
0.247742 0.001799 0.913836
0.370017 0.002194 0.914231
0.490205 0.002581 0.914619
0.606789 0.002958 0.914995
0.717948 0.003316 0.915353
0.821685 0.003651 0.915688
0.915993 0.003956 0.915993
0.002344 0.125449 0.914381
0.125848 0.125848 0.914779
0.249082 0.126246 0.915177
0.371358 0.126640 0.915571
0.491546 0.127028 0.915959
0.608130 0.127404 0.916336
0.719288 0.127763 0.916694
0.823026 0.128098 0.917029
0.917333 0.128402 0.917333
0.003681 0.249624 0.915718
0.127186 0.250023 0.916117
0.250420 0.250420 0.916515
0.372696 0.250815 0.916909
0.492884 0.251203 0.917297
0.609468 0.251579 0.917673
0.720626 0.251938 0.918032
0.824363 0.252272 0.918367
0.918671 0.252577 0.918671
0.005009 0.372832 0.917046
0.128513 0.373231 0.917444
0.251748 0.373628 0.917842
0.374023 0.374023 0.918237
0.494211 0.374411 0.918625
0.610795 0.374787 0.919001
0.721954 0.375146 0.919360
0.825691 0.375481 0.919694
0.919999 0.375785 0.919999
0.006314 0.493937 0.918351
0.129818 0.494336 0.918749
0.253052 0.494734 0.919147
0.375328 0.495128 0.919542
0.495516 0.495516 0.919929
0.612100 0.495892 0.920306
0.723259 0.496251 0.920664
0.826996 0.496586 0.920999
0.921303 0.496890 0.921303
0.007579 0.611411 0.919616
0.131084 0.611809 0.920015
0.254318 0.612207 0.920413
0.376593 0.612602 0.920807
0.496782 0.612989 0.921195
0.613366 0.613366 0.921571
0.724524 0.613724 0.921930
0.828261 0.614059 0.922265
0.922569 0.614364 0.922569
0.008786 0.723417 0.920823
0.132290 0.723816 0.921222
0.255525 0.724214 0.921619
0.377800 0.724608 0.922014
0.497989 0.724996 0.922402
0.614572 0.725372 0.922778
0.725731 0.725731 0.923137
0.829468 0.726066 0.923472
0.923776 0.726370 0.923776
0.009912 0.827946 0.921949
0.133417 0.828344 0.922348
0.256651 0.828742 0.922746
0.378926 0.829137 0.923140
0.499115 0.829525 0.923528
0.615699 0.829901 0.923904
0.726857 0.830259 0.924263
0.830594 0.830594 0.924598
0.924902 0.830899 0.924902
0.010936 0.922973 0.922973
0.134440 0.923372 0.923372
0.257675 0.923769 0.923769
0.379950 0.924164 0.924164
0.500139 0.924552 0.924552
0.616722 0.924928 0.924928
0.727881 0.925287 0.925287
0.831618 0.925622 0.925622
0.925926 0.925926 0.925926
