films/synthetic_archival_neutral.cube
TITLE "SYNTHETIC near-neutral print - generated, not measured"
LUT_3D_SIZE 17
0.000000 0.000000 0.000000
0.061761 0.000199 0.000199
0.123504 0.000399 0.000399
0.185188 0.000598 0.000598
0.246739 0.000796 0.000796
0.308057 0.000994 0.000994
0.369014 0.001191 0.001191
0.429456 0.001386 0.001386
0.489202 0.001579 0.001579
0.548053 0.001769 0.001769
0.605786 0.001955 0.001955
0.662166 0.002137 0.002137
0.716945 0.002314 0.002314
0.769868 0.002484 0.002484
0.820682 0.002648 0.002648
0.869136 0.002805 0.002805
0.914990 0.002953 0.002953
0.000670 0.062232 0.000670
0.062431 0.062431 0.000870
0.124175 0.062630 0.001069
0.185858 0.062829 0.001268
0.247409 0.063028 0.001467
0.308727 0.063226 0.001665
0.369685 0.063423 0.001861
0.430126 0.063618 0.002056
0.489873 0.063810 0.002249
0.548723 0.064000 0.002439
0.606457 0.064187 0.002625
0.662837 0.064369 0.002807
0.717615 0.064545 0.002984
0.770539 0.064716 0.003155
0.821352 0.064880 0.003319
0.869806 0.065037 0.003475
0.915660 0.065185 0.003623
0.001341 0.124447 0.001341
0.063101 0.124646 0.001540
0.124845 0.124845 0.001739
0.186529 0.125044 0.001938
0.248080 0.125243 0.002137
0.309398 0.125441 0.002335
0.370355 0.125637 0.002532
0.430796 0.125832 0.002727
0.490543 0.126025 0.002920
0.549394 0.126215 0.003109
0.607127 0.126401 0.003296
0.663507 0.126583 0.003478
0.718286 0.126760 0.003654
0.771209 0.126931 0.003825
0.822023 0.127095 0.003989
0.870476 0.127251 0.004146
0.916331 0.127399 0.004294
0.002010 0.186601 0.002010
0.063771 0.186800 0.002210
0.125515 0.186999 0.002409
0.187198 0.187198 0.002608
0.248749 0.187397 0.002807
0.310067 0.187595 0.003005
0.371025 0.187791 0.003201
0.431466 0.187987 0.003396
0.491213 0.188179 0.003589
0.550063 0.188369 0.003779
0.607797 0.188556 0.003965
0.664177 0.188737 0.004147
0.718955 0.188914 0.004324
0.771879 0.189085 0.004495
0.822692 0.189249 0.004659
0.871146 0.189405 0.004815
0.917000 0.189553 0.004963
0.002679 0.248621 0.002679
0.064439 0.248821 0.002878
0.126183 0.249020 0.003077
0.187866 0.249219 0.003276
0.249417 0.249417 0.003475
0.310736 0.249615 0.003673
0.371693 0.249812 0.003870
0.432134 0.250007 0.004065
0.491881 0.250200 0.004257
0.550732 0.250390 0.004447
0.608465 0.250576 0.004634
0.664845 0.250758 0.004816
0.719624 0.250935 0.004992
0.772547 0.251106 0.005163
0.823361 0.251270 0.005327
0.871814 0.251426 0.005483
0.917668 0.251574 0.005631
0.003344 0.310407 0.003344
0.065105 0.310606 0.003544
0.126849 0.310806 0.003743
0.188532 0.311005 0.003942
0.250083 0.311203 0.004141
0.311401 0.311401 0.004338
0.372358 0.311598 0.004535
0.432800 0.311793 0.004730
0.492547 0.311986 0.004923
0.551397 0.312176 0.005113
0.609131 0.312362 0.005299
0.665511 0.312544 0.005481
0.720289 0.312721 0.005658
0.773213 0.312892 0.005829
0.824026 0.313056 0.005993
0.872480 0.313212 0.006149
0.918334 0.313360 0.006297
0.004006 0.371829 0.004006
0.065767 0.372029 0.004205
0.127510 0.372228 0.004405
0.189194 0.372427 0.004604
0.250745 0.372626 0.004802
0.312063 0.372823 0.005000
0.373020 0.373020 0.005197
0.433462 0.373215 0.005392
0.493209 0.373408 0.005585
0.552059 0.373598 0.005775
0.609792 0.373784 0.005961
0.666172 0.373966 0.006143
0.720951 0.374143 0.006320
0.773874 0.374314 0.006491
0.824688 0.374478 0.006655
0.873142 0.374634 0.006811
0.918996 0.374782 0.006959
0.004662 0.432732 0.004662
0.066423 0.432931 0.004862
0.128167 0.433131 0.005061
0.189850 0.433330 0.005260
0.251401 0.433528 0.005459
0.312719 0.433726 0.005656
0.373676 0.433923 0.005853
0.434118 0.434118 0.006048
0.493865 0.434311 0.006241
0.552715 0.434501 0.006431
0.610449 0.434687 0.006617
0.666828 0.434869 0.006799
0.721607 0.435046 0.006976
0.774531 0.435216 0.007147
0.825344 0.435380 0.007311
0.873798 0.435537 0.007467
0.919652 0.435685 0.007615
0.005311 0.492935 0.005311
0.067071 0.493134 0.005510
0.128815 0.493333 0.005709
0.190499 0.493532 0.005909
0.252050 0.493731 0.006107
0.313368 0.493929 0.006305
0.374325 0.494126 0.006502
0.434767 0.494321 0.006697
0.494513 0.494513 0.006890
0.553364 0.494703 0.007080
0.611097 0.494890 0.007266
0.667477 0.495072 0.007448
0.722256 0.495248 0.007625
0.775179 0.495419 0.007795
0.825993 0.495583 0.007959
0.874446 0.495739 0.008116
0.920301 0.495887 0.008264
0.005950 0.552234 0.005950
0.067710 0.552433 0.006149
0.129454 0.552633 0.006348
0.191138 0.552832 0.006547
0.252689 0.553030 0.006746
0.314007 0.553228 0.006944
0.374964 0.553425 0.007141
0.435405 0.553620 0.007336
0.495152 0.553813 0.007528
0.554003 0.554003 0.007718
0.611736 0.554189 0.007905
0.668116 0.554371 0.008087
0.722895 0.554548 0.008263
0.775818 0.554719 0.008434
0.826632 0.554883 0.008598
0.875085 0.555039 0.008755
0.920940 0.555187 0.008903
0.006577 0.610408 0.006577
0.068337 0.610607 0.006776
0.130081 0.610807 0.006975
0.191764 0.611006 0.007174
0.253315 0.611204 0.007373
0.314634 0.611402 0.007571
0.375591 0.611599 0.007767
0.436032 0.611794 0.007962
0.495779 0.611987 0.008155
0.554630 0.612177 0.008345
0.612363 0.612363 0.008531
0.668743 0.612545 0.008713
0.723521 0.612722 0.008890
0.776445 0.612892 0.009061
0.827259 0.613056 0.009225
0.875712 0.613213 0.009381
0.921566 0.613361 0.009529
0.007189 0.667218 0.007189
0.068949 0.667417 0.007388
0.130693 0.667617 0.007587
0.192376 0.667816 0.007786
0.253927 0.668014 0.007985
0.315246 0.668212 0.008183
0.376203 0.668409 0.008379
0.436644 0.668604 0.008575
0.496391 0.668797 0.008767
0.555242 0.668987 0.008957
0.612975 0.669173 0.009144
0.669355 0.669355 0.009326
0.724133 0.669532 0.009502
0.777057 0.669702 0.009673
0.827871 0.669866 0.009837
0.876324 0.670023 0.009993
0.922178 0.670171 0.010141
0.007783 0.722415 0.007783
0.069544 0.722614 0.007983
0.131288 0.722813 0.008182
0.192971 0.723012 0.008381
0.254522 0.723211 0.008580
0.315840 0.723409 0.008777
0.376797 0.723605 0.008974
0.437239 0.723800 0.009169
0.496986 0.723993 0.009362
0.555836 0.724183 0.009552
0.613570 0.724369 0.009738
0.669950 0.724551 0.009920
0.724728 0.724728 0.010097
0.777652 0.724899 0.010268
0.828465 0.725063 0.010432
0.876919 0.725219 0.010588
0.922773 0.725367 0.010736
0.008358 0.775742 0.008358
0.070118 0.775941 0.008557
0.131862 0.776140 0.008756
0.193546 0.776339 0.008955
0.255097 0.776538 0.009154
0.316415 0.776736 0.009352
0.377372 0.776933 0.009549
0.437814 0.777128 0.009744
0.497560 0.777321 0.009937
0.556411 0.777510 0.010126
0.614144 0.777697 0.010313
0.670524 0.777879 0.010495
0.725303 0.778055 0.010672
0.778226 0.778226 0.010842
0.829040 0.778390 0.011006
0.877493 0.778547 0.011163
0.923348 0.778695 0.011311
0.008910 0.826943 0.008910
0.070670 0.827142 0.009109
0.132414 0.827342 0.009308
0.194097 0.827541 0.009507
0.255648 0.827739 0.009706
0.316966 0.827937 0.009904
0.377924 0.828134 0.010100
0.438365 0.828329 0.010295
0.498112 0.828522 0.010488
0.556962 0.828712 0.010678
0.614696 0.828898 0.010864
0.671076 0.829080 0.011046
0.725854 0.829257 0.011223
0.778778 0.829427 0.011394
0.829591 0.829591 0.011558
0.878045 0.829748 0.011714
0.923899 0.829896 0.011862
0.009436 0.875766 0.009436
0.071196 0.875966 0.009635
0.132940 0.876165 0.009834
0.194623 0.876364 0.010033
0.256174 0.876563 0.010232
0.317492 0.876760 0.010430
0.378450 0.876957 0.010626
0.438891 0.877152 0.010821
0.498638 0.877345 0.011014
0.557489 0.877535 0.011204
0.615222 0.877721 0.011390
0.671602 0.877903 0.011572
0.726380 0.878080 0.011749
0.779304 0.878251 0.011920
0.830117 0.878415 0.012084
0.878571 0.878571 0.012240
0.924425 0.878719 0.012388
0.009933 0.921970 0.009933
0.071694 0.922170 0.010133
0.133438 0.922369 0.010332
0.195121 0.922568 0.010531
0.256672 0.922767 0.010730
0.317990 0.922965 0.010927
0.378947 0.923161 0.011124
0.439389 0.923356 0.011319
0.499136 0.923549 0.011512
0.557986 0.923739 0.011702
0.615720 0.923925 0.011888
0.672100 0.924107 0.012070
0.726878 0.924284 0.012247
0.779802 0.924455 0.012418
0.830615 0.924619 0.012582
0.879069 0.924775 0.012738
0.924923 0.924923 0.012886
0.000068 0.000068 0.061629
0.061828 0.000267 0.061828
0.123572 0.000466 0.062028
0.185255 0.000665 0.062227
0.246807 0.000864 0.062425
0.308125 0.001062 0.062623
0.369082 0.001259 0.062820
0.429523 0.001454 0.063015
0.489270 0.001646 0.063208
0.548121 0.001836 0.063398
0.605854 0.002023 0.063584
0.662234 0.002205 0.063766
0.717013 0.002381 0.063943
0.769936 0.002552 0.064113
0.820750 0.002716 0.064277
0.869203 0.002872 0.064434
0.915058 0.003020 0.064582
0.000738 0.062299 0.062299
0.062499 0.062499 0.062499
0.124243 0.062698 0.062698
0.185926 0.062897 0.062897
0.247477 0.063096 0.063096
0.308795 0.063294 0.063294
0.369752 0.063490 0.063490
0.430194 0.063685 0.063685
0.489941 0.063878 0.063878
0.548791 0.064068 0.064068
0.606525 0.064254 0.064254
0.662904 0.064436 0.064436
0.717683 0.064613 0.064613
0.770607 0.064784 0.064784
0.821420 0.064948 0.064948
0.869874 0.065104 0.065104
0.915728 0.065252 0.065252
0.001408 0.124514 0.062970
0.063169 0.124714 0.063169
0.124913 0.124913 0.063368
0.186596 0.125112 0.063567
0.248147 0.125310 0.063766
0.309465 0.125508 0.063964
0.370423 0.125705 0.064161
0.430864 0.125900 0.064356
0.490611 0.126093 0.064548
0.549461 0.126283 0.064738
0.607195 0.126469 0.064925
0.663575 0.126651 0.065107
0.718353 0.126828 0.065283
0.771277 0.126999 0.065454
0.822090 0.127163 0.065618
0.870544 0.127319 0.065775
0.916398 0.127467 0.065923
0.002078 0.186668 0.063639
0.063839 0.186868 0.063839
0.125582 0.187067 0.064038
0.187266 0.187266 0.064237
0.248817 0.187465 0.064436
0.310135 0.187662 0.064634
0.371092 0.187859 0.064830
0.431534 0.188054 0.065025
0.491281 0.188247 0.065218
0.550131 0.188437 0.065408
0.607864 0.188623 0.065594
0.664244 0.188805 0.065776
0.719023 0.188982 0.065953
0.771947 0.189153 0.066124
0.822760 0.189317 0.066288
0.871214 0.189473 0.066444
0.917068 0.189621 0.066592
0.002746 0.248689 0.064308
0.064507 0.248888 0.064507
0.126251 0.249087 0.064706
0.187934 0.249287 0.064905
0.249485 0.249485 0.065104
0.310803 0.249683 0.065302
0.371760 0.249880 0.065498
0.432202 0.250075 0.065694
0.491949 0.250268 0.065886
0.550799 0.250458 0.066076
0.608533 0.250644 0.066263
0.664913 0.250826 0.066445
0.719691 0.251003 0.066621
0.772615 0.251173 0.066792
0.823428 0.251337 0.066956
0.871882 0.251494 0.067112
0.917736 0.251642 0.067260
0.003412 0.310475 0.064973
0.065173 0.310674 0.065173
0.126916 0.310873 0.065372
0.188600 0.311072 0.065571
0.250151 0.311271 0.065770
0.311469 0.311469 0.065967
0.372426 0.311666 0.066164
0.432868 0.311861 0.066359
0.492614 0.312054 0.066552
0.551465 0.312243 0.066742
0.609198 0.312430 0.066928
0.665578 0.312612 0.067110
0.720357 0.312789 0.067287
0.773280 0.312959 0.067458
0.824094 0.313123 0.067622
0.872548 0.313280 0.067778
0.918402 0.313428 0.067926
0.004074 0.371897 0.065635
0.065834 0.372096 0.065834
0.127578 0.372296 0.066034
0.189262 0.372495 0.066233
0.250813 0.372693 0.066431
0.312131 0.372891 0.066629
0.373088 0.373088 0.066826
0.433529 0.373283 0.067021
0.493276 0.373476 0.067214
0.552127 0.373666 0.067404
0.609860 0.373852 0.067590
0.666240 0.374034 0.067772
0.721019 0.374211 0.067949
0.773942 0.374381 0.068120
0.824756 0.374545 0.068284
0.873209 0.374702 0.068440
0.919064 0.374850 0.068588
0.004730 0.432800 0.066291
0.066491 0.432999 0.066491
0.128234 0.433198 0.066690
0.189918 0.433397 0.066889
0.251469 0.433596 0.067088
0.312787 0.433794 0.067285
0.373744 0.433991 0.067482
0.434186 0.434186 0.067677
0.493932 0.434378 0.067870
0.552783 0.434568 0.068060
0.610516 0.434755 0.068246
0.666896 0.434937 0.068428
0.721675 0.435113 0.068605
0.774598 0.435284 0.068776
0.825412 0.435448 0.068940
0.873865 0.435605 0.069096
0.919720 0.435752 0.069244
0.005379 0.493002 0.066940
0.067139 0.493202 0.067139
0.128883 0.493401 0.067338
0.190566 0.493600 0.067537
0.252117 0.493799 0.067736
0.313436 0.493996 0.067934
0.374393 0.494193 0.068131
0.434834 0.494388 0.068326
0.494581 0.494581 0.068519
0.553432 0.494771 0.068709
0.611165 0.494957 0.068895
0.667545 0.495139 0.069077
0.722323 0.495316 0.069254
0.775247 0.495487 0.069424
0.826061 0.495651 0.069588
0.874514 0.495807 0.069745
0.920368 0.495955 0.069893
0.006017 0.552302 0.067579
0.067778 0.552501 0.067778
0.129522 0.552700 0.067977
0.191205 0.552899 0.068176
0.252756 0.553098 0.068375
0.314074 0.553296 0.068573
0.375032 0.553493 0.068770
0.435473 0.553688 0.068965
0.495220 0.553881 0.069157
0.554070 0.554070 0.069347
0.611804 0.554257 0.069534
0.668184 0.554439 0.069716
0.722962 0.554615 0.069892
0.775886 0.554786 0.070063
0.826699 0.554950 0.070227
0.875153 0.555107 0.070384
0.921007 0.555255 0.070532
0.006644 0.610476 0.068206
0.068405 0.610675 0.068405
0.130149 0.610874 0.068604
0.191832 0.611073 0.068803
0.253383 0.611272 0.069002
0.314701 0.611470 0.069200
0.375658 0.611667 0.069396
0.436100 0.611862 0.069591
0.495847 0.612054 0.069784
0.554697 0.612244 0.069974
0.612431 0.612431 0.070160
0.668810 0.612613 0.070342
0.723589 0.612789 0.070519
0.776513 0.612960 0.070690
0.827326 0.613124 0.070854
0.875780 0.613280 0.071010
0.921634 0.613428 0.071158
0.007256 0.667286 0.068818
0.069017 0.667485 0.069017
0.130761 0.667684 0.069216
0.192444 0.667883 0.069415
0.253995 0.668082 0.069614
0.315313 0.668280 0.069812
0.376270 0.668476 0.070008
0.436712 0.668672 0.070204
0.496459 0.668864 0.070396
0.555309 0.669054 0.070586
0.613043 0.669241 0.070773
0.669423 0.669423 0.070954
0.724201 0.669599 0.071131
0.777125 0.669770 0.071302
0.827938 0.669934 0.071466
0.876392 0.670090 0.071622
0.922246 0.670238 0.071770
0.007851 0.722482 0.069412
0.069612 0.722682 0.069612
0.131355 0.722881 0.069811
0.193039 0.723080 0.070010
0.254590 0.723278 0.070209
0.315908 0.723476 0.070406
0.376865 0.723673 0.070603
0.437307 0.723868 0.070798
0.497053 0.724061 0.070991
0.555904 0.724251 0.071181
0.613637 0.724437 0.071367
0.670017 0.724619 0.071549
0.724796 0.724796 0.071726
0.777719 0.724967 0.071897
0.828533 0.725131 0.072061
0.876987 0.725287 0.072217
0.922841 0.725435 0.072365
0.008426 0.775809 0.069987
0.070186 0.776009 0.070186
0.131930 0.776208 0.070385
0.193613 0.776407 0.070584
0.255164 0.776606 0.070783
0.316483 0.776804 0.070981
0.377440 0.777000 0.071178
0.437881 0.777195 0.071373
0.497628 0.777388 0.071566
0.556479 0.777578 0.071755
0.614212 0.777764 0.071942
0.670592 0.777946 0.072124
0.725370 0.778123 0.072301
0.778294 0.778294 0.072471
0.829108 0.778458 0.072635
0.877561 0.778614 0.072792
0.923415 0.778762 0.072940
0.008977 0.827011 0.070538
0.070738 0.827210 0.070738
0.132482 0.827409 0.070937
0.194165 0.827608 0.071136
0.255716 0.827807 0.071335
0.317034 0.828005 0.071533
0.377991 0.828202 0.071729
0.438433 0.828397 0.071924
0.498180 0.828589 0.072117
0.557030 0.828779 0.072307
0.614764 0.828966 0.072493
0.671143 0.829148 0.072675
0.725922 0.829324 0.072852
0.778846 0.829495 0.073023
0.829659 0.829659 0.073187
0.878113 0.829816 0.073343
0.923967 0.829963 0.073491
0.009503 0.875834 0.071065
0.071264 0.876033 0.071264
0.133008 0.876233 0.071463
0.194691 0.876432 0.071662
0.256242 0.876630 0.071861
0.317560 0.876828 0.072059
0.378517 0.877025 0.072255
0.438959 0.877220 0.072450
0.498706 0.877413 0.072643
0.557556 0.877603 0.072833
0.615290 0.877789 0.073019
0.671669 0.877971 0.073201
0.726448 0.878148 0.073378
0.779372 0.878318 0.073549
0.830185 0.878482 0.073713
0.878639 0.878639 0.073869
0.924493 0.878787 0.074017
0.010001 0.922038 0.071562
0.071762 0.922237 0.071762
0.133505 0.922437 0.071961
0.195189 0.922636 0.072160
0.256740 0.922834 0.072359
0.318058 0.923032 0.072556
0.379015 0.923229 0.072753
0.439457 0.923424 0.072948
0.499203 0.923617 0.073141
0.558054 0.923807 0.073331
0.615787 0.923993 0.073517
0.672167 0.924175 0.073699
0.726946 0.924352 0.073876
0.779869 0.924523 0.074047
0.830683 0.924686 0.074211
0.879137 0.924843 0.074367
0.924991 0.924991 0.074515
0.000135 0.000135 0.123241
0.061896 0.000335 0.123440
0.123640 0.000534 0.123640
0.185323 0.000733 0.123839
0.246874 0.000932 0.124037
0.308192 0.001129 0.124235
0.369149 0.001326 0.124432
0.429591 0.001521 0.124627
0.489338 0.001714 0.124820
0.548188 0.001904 0.125010
0.605922 0.002090 0.125196
0.662302 0.002272 0.125378
0.717080 0.002449 0.125555
0.770004 0.002620 0.125726
0.820817 0.002784 0.125890
0.869271 0.002940 0.126046
0.915125 0.003088 0.126194
0.000806 0.062367 0.123912
0.062566 0.062566 0.124111
0.124310 0.062766 0.124310
0.185994 0.062965 0.124509
0.247545 0.063163 0.124708
0.308863 0.063361 0.124906
0.369820 0.063558 0.125102
0.430262 0.063753 0.125298
0.490008 0.063946 0.125490
0.548859 0.064136 0.125680
0.606592 0.064322 0.125867
0.662972 0.064504 0.126048
0.717751 0.064681 0.126225
0.770674 0.064852 0.126396
0.821488 0.065016 0.126560
0.869941 0.065172 0.126716
0.915796 0.065320 0.126864
0.001476 0.124582 0.124582
0.063237 0.124781 0.124781
0.124980 0.124980 0.124980
0.186664 0.125180 0.125180
0.248215 0.125378 0.125378
0.309533 0.125576 0.125576
0.370490 0.125773 0.125773
0.430932 0.125968 0.125968
0.490679 0.126161 0.126161
0.549529 0.126351 0.126351
0.607263 0.126537 0.126537
0.663642 0.126719 0.126719
0.718421 0.126896 0.126896
0.771345 0.127066 0.127066
0.822158 0.127230 0.127230
0.870612 0.127387 0.127387
0.916466 0.127535 0.127535
0.002146 0.186736 0.125252
0.063906 0.186935 0.125451
0.125650 0.187135 0.125650
0.187334 0.187334 0.125849
0.248885 0.187532 0.126048
0.310203 0.187730 0.126246
0.371160 0.187927 0.126442
0.431601 0.188122 0.126637
0.491348 0.188315 0.126830
0.550199 0.188505 0.127020
0.607932 0.188691 0.127207
0.664312 0.188873 0.127388
0.719091 0.189050 0.127565
0.772014 0.189220 0.127736
0.822828 0.189384 0.127900
0.871281 0.189541 0.128056
0.917136 0.189689 0.128204
0.002814 0.248757 0.125920
0.064575 0.248956 0.126119
0.126318 0.249155 0.126318
0.188002 0.249354 0.126517
0.249553 0.249553 0.126716
0.310871 0.249751 0.126914
0.371828 0.249947 0.127111
0.432270 0.250142 0.127306
0.492016 0.250335 0.127498
0.550867 0.250525 0.127688
0.608600 0.250712 0.127875
0.664980 0.250893 0.128057
0.719759 0.251070 0.128233
0.772682 0.251241 0.128404
0.823496 0.251405 0.128568
0.871950 0.251561 0.128725
0.917804 0.251709 0.128873
0.003480 0.310543 0.126585
0.065240 0.310742 0.126785
0.126984 0.310941 0.126984
0.188667 0.311140 0.127183
0.250219 0.311339 0.127382
0.311537 0.311537 0.127580
0.372494 0.311733 0.127776
0.432935 0.311928 0.127971
0.492682 0.312121 0.128164
0.551533 0.312311 0.128354
0.609266 0.312497 0.128540
0.665646 0.312679 0.128722
0.720425 0.312856 0.128899
0.773348 0.313027 0.129070
0.824162 0.313191 0.129234
0.872615 0.313347 0.129390
0.918470 0.313495 0.129538
0.004141 0.371965 0.127247
0.065902 0.372164 0.127447
0.127646 0.372363 0.127646
0.189329 0.372562 0.127845
0.250880 0.372761 0.128043
0.312198 0.372959 0.128241
0.373156 0.373156 0.128438
0.433597 0.373351 0.128633
0.493344 0.373543 0.128826
0.552194 0.373733 0.129016
0.609928 0.373920 0.129202
0.666308 0.374102 0.129384
0.721086 0.374278 0.129561
0.774010 0.374449 0.129732
0.824823 0.374613 0.129896
0.873277 0.374769 0.130052
0.919131 0.374917 0.130200
0.004798 0.432867 0.127903
0.066558 0.433067 0.128103
0.128302 0.433266 0.128302
0.189985 0.433465 0.128501
0.251536 0.433664 0.128700
0.312855 0.433862 0.128898
0.373812 0.434058 0.129094
0.434253 0.434253 0.129289
0.494000 0.434446 0.129482
0.552851 0.434636 0.129672
0.610584 0.434822 0.129858
0.666964 0.435004 0.130040
0.721742 0.435181 0.130217
0.774666 0.435352 0.130388
0.825480 0.435516 0.130552
0.873933 0.435672 0.130708
0.919787 0.435820 0.130856
0.005446 0.493070 0.128552
0.067207 0.493269 0.128751
0.128951 0.493469 0.128951
0.190634 0.493668 0.129150
0.252185 0.493866 0.129348
0.313503 0.494064 0.129546
0.374460 0.494261 0.129743
0.434902 0.494456 0.129938
0.494649 0.494649 0.130131
0.553499 0.494839 0.130321
0.611233 0.495025 0.130507
0.667612 0.495207 0.130689
0.722391 0.495384 0.130866
0.775315 0.495554 0.131036
0.826128 0.495718 0.131200
0.874582 0.495875 0.131357
0.920436 0.496023 0.131505
0.006085 0.552369 0.129191
0.067846 0.552569 0.129390
0.129589 0.552768 0.129589
0.191273 0.552967 0.129789
0.252824 0.553166 0.129987
0.314142 0.553364 0.130185
0.375099 0.553560 0.130382
0.435541 0.553755 0.130577
0.495288 0.553948 0.130770
0.554138 0.554138 0.130960
0.611871 0.554324 0.131146
0.668251 0.554506 0.131328
0.723030 0.554683 0.131505
0.775954 0.554854 0.131675
0.826767 0.555018 0.131839
0.875221 0.555174 0.131996
0.921075 0.555322 0.132144
0.006712 0.610543 0.129818
0.068473 0.610743 0.130017
0.130216 0.610942 0.130216
0.191900 0.611141 0.130415
0.253451 0.611340 0.130614
0.314769 0.611537 0.130812
0.375726 0.611734 0.131009
0.436168 0.611929 0.131204
0.495914 0.612122 0.131396
0.554765 0.612312 0.131586
0.612498 0.612498 0.131773
0.668878 0.612680 0.131955
0.723657 0.612857 0.132131
0.776580 0.613028 0.132302
0.827394 0.613192 0.132466
0.875847 0.613348 0.132622
0.921702 0.613496 0.132770
0.007324 0.667353 0.130430
0.069085 0.667553 0.130629
0.130828 0.667752 0.130828
0.192512 0.667951 0.131027
0.254063 0.668150 0.131226
0.315381 0.668347 0.131424
0.376338 0.668544 0.131621
0.436780 0.668739 0.131816
0.496526 0.668932 0.132008
0.555377 0.669122 0.132198
0.613110 0.669308 0.132385
0.669490 0.669490 0.132567
0.724269 0.669667 0.132743
0.777192 0.669838 0.132914
0.828006 0.670002 0.133078
0.876460 0.670158 0.133235
0.922314 0.670306 0.133383
0.007919 0.722550 0.131024
0.069679 0.722749 0.131224
0.131423 0.722948 0.131423
0.193106 0.723147 0.131622
0.254657 0.723346 0.131821
0.315976 0.723544 0.132019
0.376933 0.723741 0.132215
0.437374 0.723936 0.132410
0.497121 0.724129 0.132603
0.555972 0.724318 0.132793
0.613705 0.724505 0.132979
0.670085 0.724687 0.133161
0.724864 0.724864 0.133338
0.777787 0.725034 0.133509
0.828601 0.725198 0.133673
0.877054 0.725355 0.133829
0.922908 0.725503 0.133977
0.008493 0.775877 0.131599
0.070254 0.776076 0.131798
0.131998 0.776276 0.131998
0.193681 0.776475 0.132197
0.255232 0.776673 0.132395
0.316550 0.776871 0.132593
0.377507 0.777068 0.132790
0.437949 0.777263 0.132985
0.497696 0.777456 0.133178
0.556546 0.777646 0.133368
0.614280 0.777832 0.133554
0.670659 0.778014 0.133736
0.725438 0.778191 0.133913
0.778362 0.778362 0.134083
0.829175 0.778526 0.134247
0.877629 0.778682 0.134404
0.923483 0.778830 0.134552
0.009045 0.827078 0.132151
0.070805 0.827278 0.132350
0.132549 0.827477 0.132549
0.194233 0.827676 0.132748
0.255784 0.827875 0.132947
0.317102 0.828073 0.133145
0.378059 0.828269 0.133341
0.438501 0.828464 0.133537
0.498247 0.828657 0.133729
0.557098 0.828847 0.133919
0.614831 0.829033 0.134106
0.671211 0.829215 0.134288
0.725990 0.829392 0.134464
0.778913 0.829563 0.134635
0.829727 0.829727 0.134799
0.878180 0.829883 0.134955
0.924035 0.830031 0.135103
0.009571 0.875902 0.132677
0.071331 0.876101 0.132876
0.133075 0.876300 0.133075
0.194759 0.876499 0.133274
0.256310 0.876698 0.133473
0.317628 0.876896 0.133671
0.378585 0.877092 0.133867
0.439027 0.877288 0.134063
0.498773 0.877480 0.134255
0.557624 0.877670 0.134445
0.615357 0.877857 0.134632
0.671737 0.878039 0.134814
0.726516 0.878215 0.134990
0.779439 0.878386 0.135161
0.830253 0.878550 0.135325
0.878706 0.878706 0.135481
0.924561 0.878854 0.135629
0.010069 0.922106 0.133174
0.071829 0.922305 0.133374
0.133573 0.922504 0.133573
0.195256 0.922703 0.133772
0.256808 0.922902 0.133971
0.318126 0.923100 0.134169
0.379083 0.923297 0.134365
0.439524 0.923492 0.134560
0.499271 0.923684 0.134753
0.558122 0.923874 0.134943
0.615855 0.924061 0.135129
0.672235 0.924243 0.135311
0.727014 0.924419 0.135488
0.779937 0.924590 0.135659
0.830751 0.924754 0.135823
0.879204 0.924911 0.135979
0.925059 0.925059 0.136127
0.000203 0.000203 0.184793
0.061964 0.000402 0.184992
0.123707 0.000602 0.185192
0.185391 0.000801 0.185391
0.246942 0.000999 0.185589
0.308260 0.001197 0.185787
0.369217 0.001394 0.185984
0.429659 0.001589 0.186179
0.489405 0.001782 0.186372
0.548256 0.001972 0.186562
0.605989 0.002158 0.186748
0.662369 0.002340 0.186930
0.717148 0.002517 0.187107
0.770071 0.002687 0.187278
0.820885 0.002851 0.187442
0.869338 0.003008 0.187598
0.915193 0.003156 0.187746
0.000873 0.062435 0.185464
0.062634 0.062634 0.185663
