films/synthetic_cine_print.cube
TITLE "SYNTHETIC projection-print stylization - generated, not measured"
LUT_3D_SIZE 5
0.000000 0.000000 0.000000
0.179544 0.000000 0.000000
0.440617 0.000000 0.000000
0.656402 0.000000 0.000000
0.802692 0.000000 0.000000
0.000000 0.214492 0.000000
0.205051 0.219446 0.000000
0.463184 0.224157 0.000000
0.676279 0.228178 0.000000
0.819602 0.231002 0.000000
0.000000 0.479604 0.000000
0.227028 0.484120 0.000000
0.482775 0.488410 0.000000
0.693755 0.492042 0.000000
0.834873 0.494539 0.000000
0.000000 0.696980 0.000000
0.244191 0.701267 0.000000
0.498105 0.705337 0.000000
0.707537 0.708761 0.000000
0.847172 0.711068 0.000000
0.000000 0.841489 0.000000
0.255154 0.845632 0.000000
0.507792 0.849569 0.000000
0.716224 0.852872 0.000000
0.855046 0.855075 0.000000
0.000000 0.000000 0.233987
0.182253 0.000000 0.235087
0.443004 0.000000 0.236223
0.658491 0.000000 0.236949
0.804446 0.000000 0.236748
0.000000 0.216178 0.238503
0.207462 0.221112 0.240297
0.465329 0.225803 0.242109
0.678184 0.229802 0.243487
0.821251 0.232607 0.243924
0.000000 0.481141 0.244660
0.229163 0.485642 0.247116
0.484693 0.489917 0.249571
0.695491 0.493534 0.251572
0.836428 0.496015 0.252618
0.000000 0.698439 0.250827
0.246074 0.702716 0.253906
0.499815 0.706776 0.256964
0.709120 0.710189 0.259548
0.848643 0.712486 0.261161
0.000000 0.842897 0.255212
0.256813 0.847035 0.258864
0.509318 0.850966 0.262471
0.717673 0.854265 0.265579
0.856448 0.856463 0.267690
0.000000 0.000000 0.480640
0.184850 0.000000 0.482081
0.445291 0.000000 0.483531
0.660488 0.000000 0.484561
0.806118 0.000000 0.484678
0.000000 0.217781 0.486171
0.209768 0.222696 0.488195
0.467379 0.227368 0.490213
0.680002 0.231348 0.491792
0.822821 0.234133 0.492446
0.000000 0.482603 0.493008
0.231199 0.487091 0.495596
0.486521 0.491352 0.498163
0.697144 0.494954 0.500274
0.837906 0.497421 0.501448
0.000000 0.699827 0.499623
0.247863 0.704095 0.502746
0.501439 0.708145 0.505833
0.710622 0.711548 0.508446
0.850041 0.713835 0.510109
0.000000 0.844239 0.504317
0.258384 0.848371 0.507934
0.510761 0.852298 0.511495
0.719046 0.855591 0.514559
0.857780 0.857786 0.516647
0.000000 0.000000 0.680167
0.187177 0.000000 0.682341
0.447328 0.000000 0.684471
0.662246 0.000000 0.686132
0.807560 0.000000 0.686837
0.000000 0.219145 0.687956
0.211814 0.224044 0.690542
0.469187 0.228698 0.693073
0.681586 0.232660 0.695122
0.824167 0.235427 0.696207
0.000000 0.483844 0.696498
0.232984 0.488319 0.699491
0.488113 0.492567 0.702420
0.698568 0.496155 0.704853
0.839165 0.498609 0.706314
0.000000 0.701000 0.704319
0.249407 0.705259 0.707705
0.502831 0.709299 0.711015
0.711899 0.712693 0.713816
0.851221 0.714972 0.715636
0.000000 0.845367 0.709776
0.259713 0.849495 0.713526
0.511977 0.853417 0.717185
0.720197 0.856706 0.720318
0.858896 0.858897 0.722448
0.000000 0.000000 0.809197
0.189071 0.000000 0.812332
0.448961 0.000000 0.815356
0.663609 0.000000 0.817845
0.808617 0.000000 0.819314
0.000000 0.220107 0.819959
0.213437 0.224991 0.823288
0.470596 0.229630 0.826499
0.682782 0.233575 0.829166
0.825132 0.236325 0.830808
0.000000 0.484706 0.830755
0.234353 0.489169 0.834285
0.489311 0.493404 0.837691
0.699606 0.496980 0.840545
0.840045 0.499420 0.842370
0.000000 0.701799 0.840152
0.250541 0.706050 0.843883
0.503832 0.710081 0.847483
0.712793 0.713467 0.850523
0.852024 0.715736 0.852530
0.000000 0.846126 0.846559
0.260638 0.850249 0.850479
0.512806 0.854167 0.854261
0.720969 0.857452 0.857472
0.859639 0.859639 0.859639
