films/synthetic_archival_neutral.cube
TITLE "SYNTHETIC near-neutral print - generated, not measured"
LUT_3D_SIZE 5
0.000000 0.000000 0.000000
0.246739 0.000796 0.000796
0.489202 0.001579 0.001579
0.716945 0.002314 0.002314
0.914990 0.002953 0.002953
0.002679 0.248621 0.002679
0.249417 0.249417 0.003475
0.491881 0.250200 0.004257
0.719624 0.250935 0.004992
0.917668 0.251574 0.005631
0.005311 0.492935 0.005311
0.252050 0.493731 0.006107
0.494513 0.494513 0.006890
0.722256 0.495248 0.007625
0.920301 0.495887 0.008264
0.007783 0.722415 0.007783
0.254522 0.723211 0.008580
0.496986 0.723993 0.009362
0.724728 0.724728 0.010097
0.922773 0.725367 0.010736
0.009933 0.921970 0.009933
0.256672 0.922767 0.010730
0.499136 0.923549 0.011512
0.726878 0.924284 0.012247
0.924923 0.924923 0.012886
0.000270 0.000270 0.246213
0.247009 0.001067 0.247009
0.489473 0.001849 0.247792
0.717215 0.002584 0.248527
0.915260 0.003223 0.249166
0.002949 0.248892 0.248892
0.249688 0.249688 0.249688
0.492152 0.250470 0.250470
0.719894 0.251205 0.251205
0.917939 0.251844 0.251844
0.005581 0.493205 0.251524
0.252320 0.494001 0.252320
0.494784 0.494784 0.253103
0.722526 0.495519 0.253838
0.920571 0.496158 0.254477
0.008054 0.722685 0.253996
0.254793 0.723481 0.254793
0.497256 0.724264 0.255575
0.724999 0.724999 0.256310
0.923044 0.725638 0.256949
0.010204 0.922241 0.256146
0.256943 0.923037 0.256943
0.499406 0.923819 0.257725
0.727149 0.924554 0.258460
0.925194 0.925194 0.259099
0.000536 0.000536 0.488160
0.247275 0.001332 0.488956
0.489739 0.002115 0.489739
0.717481 0.002850 0.490474
0.915526 0.003489 0.491113
0.003215 0.249157 0.490839
0.249954 0.249954 0.491635
0.492417 0.250736 0.492417
0.720160 0.251471 0.493152
0.918205 0.252110 0.493791
0.005847 0.493471 0.493471
0.252586 0.494267 0.494267
0.495050 0.495050 0.495050
0.722792 0.495784 0.495784
0.920837 0.496424 0.496424
0.008319 0.722951 0.495943
0.255058 0.723747 0.496739
0.497522 0.724529 0.497522
0.725264 0.725264 0.498257
0.923309 0.725903 0.498896
0.010469 0.922507 0.498093
0.257208 0.923303 0.498889
0.499672 0.924085 0.499672
0.727414 0.924820 0.500407
0.925459 0.925459 0.501046
0.000786 0.000786 0.715417
0.247525 0.001582 0.716213
0.489988 0.002364 0.716996
0.717731 0.003099 0.717731
0.915776 0.003739 0.718370
0.003464 0.249407 0.718096
0.250203 0.250203 0.718892
0.492667 0.250986 0.719674
0.720409 0.251721 0.720409
0.918454 0.252360 0.721048
0.006097 0.493720 0.720728
0.252835 0.494517 0.721524
0.495299 0.495299 0.722307
0.723041 0.496034 0.723041
0.921086 0.496673 0.723681
0.008569 0.723200 0.723200
0.255308 0.723996 0.723996
0.497772 0.724779 0.724779
0.725514 0.725514 0.725514
0.923559 0.726153 0.726153
0.010719 0.922756 0.725350
0.257458 0.923552 0.726147
0.499922 0.924335 0.726929
0.727664 0.925070 0.727664
0.925709 0.925709 0.728303
0.001003 0.001003 0.913040
0.247742 0.001799 0.913836
0.490205 0.002581 0.914619
0.717948 0.003316 0.915353
0.915993 0.003956 0.915993
0.003681 0.249624 0.915718
0.250420 0.250420 0.916515
0.492884 0.251203 0.917297
0.720626 0.251938 0.918032
0.918671 0.252577 0.918671
0.006314 0.493937 0.918351
0.253052 0.494734 0.919147
0.495516 0.495516 0.919929
0.723259 0.496251 0.920664
0.921303 0.496890 0.921303
0.008786 0.723417 0.920823
0.255525 0.724214 0.921619
0.497989 0.724996 0.922402
0.725731 0.725731 0.923137
0.923776 0.726370 0.923776
0.010936 0.922973 0.922973
0.257675 0.923769 0.923769
0.500139 0.924552 0.924552
0.727881 0.925287 0.925287
0.925926 0.925926 0.925926
