films/synthetic_cine_print.cube
TITLE "SYNTHETIC projection-print stylization - generated, not measured"
LUT_3D_SIZE 17
0.000000 0.000000 0.000000
0.000000 0.000000 0.000000
0.033948 0.000000 0.000000
0.108251 0.000000 0.000000
0.179544 0.000000 0.000000
0.248294 0.000000 0.000000
0.314732 0.000000 0.000000
0.378888 0.000000 0.000000
0.440617 0.000000 0.000000
0.499637 0.000000 0.000000
0.555569 0.000000 0.000000
0.607975 0.000000 0.000000
0.656402 0.000000 0.000000
0.700420 0.000000 0.000000
0.739653 0.000000 0.000000
0.773809 0.000000 0.000000
0.802692 0.000000 0.000000
0.000000 0.000000 0.000000
0.000000 0.000000 0.000000
0.041261 0.000000 0.000000
0.115206 0.000000 0.000000
0.186213 0.000000 0.000000
0.254728 0.000000 0.000000
0.320966 0.000000 0.000000
0.384941 0.000000 0.000000
0.446498 0.000000 0.000000
0.505346 0.000491 0.000000
0.561101 0.001697 0.000000
0.613322 0.002834 0.000000
0.661555 0.003895 0.000000
0.705373 0.004871 0.000000
0.744401 0.005754 0.000000
0.778351 0.006540 0.000000
0.807031 0.007224 0.000000
0.000000 0.066924 0.000000
0.000000 0.068282 0.000000
0.048352 0.069635 0.000000
0.121955 0.070981 0.000000
0.192690 0.072318 0.000000
0.260981 0.073640 0.000000
0.327027 0.074941 0.000000
0.390830 0.076214 0.000000
0.452223 0.077450 0.000000
0.510907 0.078641 0.000000
0.566494 0.079777 0.000000
0.618539 0.080848 0.000000
0.666590 0.081846 0.000000
0.710218 0.082763 0.000000
0.749053 0.083591 0.000000
0.782809 0.084327 0.000000
0.811300 0.084966 0.000000
0.000000 0.142166 0.000000
0.000000 0.143462 0.000000
0.055219 0.144752 0.000000
0.128497 0.146037 0.000000
0.198972 0.147312 0.000000
0.267049 0.148573 0.000000
0.332913 0.149814 0.000000
0.396551 0.151028 0.000000
0.457788 0.152206 0.000000
0.516317 0.153341 0.000000
0.571743 0.154423 0.000000
0.623622 0.155443 0.000000
0.671500 0.156392 0.000000
0.714950 0.157262 0.000000
0.753605 0.158048 0.000000
0.787180 0.158744 0.000000
0.815493 0.159347 0.000000
0.000000 0.214492 0.000000
0.000000 0.215739 0.000000
0.061854 0.216981 0.000000
0.134824 0.218218 0.000000
0.205051 0.219446 0.000000
0.272925 0.220660 0.000000
0.338615 0.221854 0.000000
0.402097 0.223023 0.000000
0.463184 0.224157 0.000000
0.521565 0.225248 0.000000
0.576841 0.226288 0.000000
0.628563 0.227267 0.000000
0.676279 0.228178 0.000000
0.719561 0.229012 0.000000
0.758047 0.229764 0.000000
0.791454 0.230428 0.000000
0.819602 0.231002 0.000000
0.000000 0.284320 0.000000
0.000000 0.285529 0.000000
0.068246 0.286734 0.000000
0.140922 0.287934 0.000000
0.210914 0.289125 0.000000
0.278595 0.290302 0.000000
0.344120 0.291461 0.000000
0.407453 0.292594 0.000000
0.468400 0.293693 0.000000
0.526641 0.294751 0.000000
0.581774 0.295757 0.000000
0.633349 0.296705 0.000000
0.680912 0.297585 0.000000
0.724039 0.298390 0.000000
0.762367 0.299115 0.000000
0.795618 0.299754 0.000000
0.823614 0.300304 0.000000
0.000000 0.351828 0.000000
0.000000 0.353008 0.000000
0.074378 0.354184 0.000000
0.146776 0.355354 0.000000
0.216545 0.356516 0.000000
0.284044 0.357665 0.000000
0.349412 0.358796 0.000000
0.412604 0.359901 0.000000
0.473417 0.360972 0.000000
0.531527 0.362003 0.000000
0.586525 0.362983 0.000000
0.637962 0.363905 0.000000
0.685383 0.364761 0.000000
0.728365 0.365543 0.000000
0.766547 0.366245 0.000000
0.799654 0.366863 0.000000
0.827511 0.367394 0.000000
0.000000 0.416989 0.000000
0.004937 0.418145 0.000000
0.080230 0.419297 0.000000
0.152365 0.420444 0.000000
0.221924 0.421583 0.000000
0.289250 0.422709 0.000000
0.354470 0.423817 0.000000
0.417529 0.424899 0.000000
0.478216 0.425949 0.000000
0.536202 0.426957 0.000000
0.591075 0.427916 0.000000
0.642383 0.428817 0.000000
0.689672 0.429652 0.000000
0.732520 0.430415 0.000000
0.770568 0.431098 0.000000
0.803543 0.431698 0.000000
0.831272 0.432212 0.000000
0.000000 0.479604 0.000000
0.010797 0.480740 0.000000
0.085777 0.481873 0.000000
0.157666 0.483000 0.000000
0.227028 0.484120 0.000000
0.294190 0.485227 0.000000
0.359272 0.486315 0.000000
0.422206 0.487379 0.000000
0.482775 0.488410 0.000000
0.540644 0.489400 0.000000
0.595400 0.490341 0.000000
0.646588 0.491224 0.000000
0.693755 0.492042 0.000000
0.736480 0.492787 0.000000
0.774406 0.493455 0.000000
0.807260 0.494039 0.000000
0.834873 0.494539 0.000000
0.000000 0.539343 0.000000
0.016306 0.540462 0.000000
0.090996 0.541578 0.000000
0.162654 0.542689 0.000000
0.231831 0.543792 0.000000
0.298841 0.544882 0.000000
0.363792 0.545955 0.000000
0.426609 0.547002 0.000000
0.487068 0.548017 0.000000
0.544829 0.548991 0.000000
0.599476 0.549917 0.000000
0.650554 0.550785 0.000000
0.697609 0.551588 0.000000
0.740221 0.552318 0.000000
0.778035 0.552971 0.000000
0.810780 0.553542 0.000000
0.838290 0.554028 0.000000
0.000000 0.595791 0.000000
0.021440 0.596895 0.000000
0.095859 0.597997 0.000000
0.167304 0.599093 0.000000
0.236309 0.600181 0.000000
0.303177 0.601257 0.000000
0.368006 0.602315 0.000000
0.430714 0.603348 0.000000
0.491070 0.604349 0.000000
0.548731 0.605309 0.000000
0.603277 0.606221 0.000000
0.654254 0.607075 0.000000
0.701207 0.607865 0.000000
0.743717 0.608583 0.000000
0.781430 0.609223 0.000000
0.814078 0.609782 0.000000
0.841495 0.610256 0.000000
0.000000 0.648490 0.000000
0.026172 0.649581 0.000000
0.100343 0.650668 0.000000
0.171591 0.651751 0.000000
0.240436 0.652827 0.000000
0.307173 0.653889 0.000000
0.371890 0.654934 0.000000
0.434496 0.655955 0.000000
0.494757 0.656943 0.000000
0.552325 0.657891 0.000000
0.606779 0.658790 0.000000
0.657664 0.659632 0.000000
0.704524 0.660410 0.000000
0.746942 0.661116 0.000000
0.784566 0.661745 0.000000
0.817128 0.662293 0.000000
0.844464 0.662756 0.000000
0.000000 0.696980 0.000000
0.030480 0.698058 0.000000
0.104424 0.699133 0.000000
0.175491 0.700204 0.000000
0.244191 0.701267 0.000000
0.310807 0.702319 0.000000
0.375419 0.703352 0.000000
0.437932 0.704361 0.000000
0.498105 0.705337 0.000000
0.555588 0.706274 0.000000
0.609959 0.707162 0.000000
0.660760 0.707994 0.000000
0.707537 0.708761 0.000000
0.749874 0.709457 0.000000
0.787419 0.710076 0.000000
0.819906 0.710614 0.000000
0.847172 0.711068 0.000000
0.000000 0.740836 0.000000
0.034343 0.741903 0.000000
0.108082 0.742967 0.000000
0.178985 0.744027 0.000000
0.247552 0.745079 0.000000
0.314058 0.746120 0.000000
0.378575 0.747143 0.000000
0.441002 0.748142 0.000000
0.501095 0.749108 0.000000
0.558502 0.750035 0.000000
0.612797 0.750914 0.000000
0.663523 0.751736 0.000000
0.710227 0.752494 0.000000
0.752492 0.753181 0.000000
0.789968 0.753791 0.000000
0.822391 0.754320 0.000000
0.849598 0.754766 0.000000
0.000000 0.779700 0.000000
0.037746 0.780757 0.000000
0.111302 0.781812 0.000000
0.182058 0.782862 0.000000
0.250505 0.783905 0.000000
0.316911 0.784937 0.000000
0.381342 0.785950 0.000000
0.443691 0.786940 0.000000
0.503712 0.787898 0.000000
0.561050 0.788816 0.000000
0.615277 0.789686 0.000000
0.665938 0.790500 0.000000
0.712577 0.791250 0.000000
0.754781 0.791930 0.000000
0.792199 0.792533 0.000000
0.824568 0.793055 0.000000
0.851726 0.793494 0.000000
0.000000 0.813306 0.000000
0.040680 0.814354 0.000000
0.114074 0.815400 0.000000
0.184700 0.816442 0.000000
0.253041 0.817477 0.000000
0.319357 0.818500 0.000000
0.383710 0.819506 0.000000
0.445989 0.820488 0.000000
0.505946 0.821439 0.000000
0.563221 0.822350 0.000000
0.617390 0.823213 0.000000
0.667993 0.824021 0.000000
0.714578 0.824764 0.000000
0.756729 0.825437 0.000000
0.794099 0.826034 0.000000
0.826424 0.826551 0.000000
0.853544 0.826984 0.000000
0.000000 0.841489 0.000000
0.043141 0.842529 0.000000
0.116395 0.843568 0.000000
0.186907 0.844603 0.000000
0.255154 0.845632 0.000000
0.321391 0.846648 0.000000
0.385675 0.847648 0.000000
0.447893 0.848624 0.000000
0.507792 0.849569 0.000000
0.565013 0.850474 0.000000
0.619130 0.851331 0.000000
0.669685 0.852133 0.000000
0.716224 0.852872 0.000000
0.758333 0.853540 0.000000
0.795664 0.854132 0.000000
0.827955 0.854645 0.000000
0.855046 0.855075 0.000000
0.000000 0.000000 0.024238
0.000000 0.000000 0.024490
0.034697 0.000000 0.024757
0.108962 0.000000 0.025036
0.180226 0.000000 0.025326
0.248952 0.000000 0.025620
0.315369 0.000000 0.025912
0.379506 0.000000 0.026195
0.441217 0.000000 0.026461
0.500220 0.000000 0.026699
0.556134 0.000000 0.026900
0.608520 0.000000 0.027054
0.656927 0.000000 0.027151
0.700924 0.000000 0.027184
0.740137 0.000000 0.027143
0.774271 0.000000 0.027025
0.803133 0.000000 0.026826
0.000000 0.000000 0.025145
0.000000 0.000000 0.025448
0.041987 0.000000 0.025764
0.115896 0.000000 0.026094
0.186876 0.000000 0.026433
0.255367 0.000000 0.026776
0.321585 0.000000 0.027117
0.385543 0.000000 0.027449
0.447083 0.000000 0.027762
0.505914 0.000965 0.028048
0.561652 0.002168 0.028296
0.613854 0.003304 0.028496
0.662069 0.004363 0.028640
0.705867 0.005337 0.028718
0.744875 0.006219 0.028723
0.778805 0.007003 0.028651
0.807465 0.007685 0.028497
0.000000 0.067385 0.026219
0.000000 0.068742 0.026571
0.049056 0.070093 0.026937
0.122626 0.071438 0.027316
0.193334 0.072773 0.027704
0.261603 0.074094 0.028095
0.327630 0.075393 0.028485
0.391416 0.076664 0.028864
0.452792 0.077899 0.029225
0.511461 0.079088 0.029557
0.567031 0.080223 0.029852
0.619059 0.081292 0.030098
0.667092 0.082289 0.030287
0.710701 0.083204 0.030411
0.749518 0.084031 0.030462
0.783255 0.084765 0.030435
0.811727 0.085403 0.030326
0.000000 0.142607 0.027449
0.000000 0.143901 0.027850
0.055902 0.145190 0.028265
0.129148 0.146473 0.028693
0.199597 0.147747 0.029129
0.267653 0.149006 0.029569
0.333499 0.150246 0.030006
0.397121 0.151458 0.030432
0.458342 0.152636 0.030840
0.516856 0.153769 0.031218
0.572267 0.154849 0.031558
0.624130 0.155867 0.031850
0.671991 0.156815 0.032085
0.715423 0.157684 0.032253
0.754060 0.158468 0.032349
0.787618 0.159163 0.032367
0.815914 0.159765 0.032302
0.000000 0.214916 0.028821
0.000000 0.216161 0.029271
0.062516 0.217403 0.029734
0.135455 0.218638 0.030210
0.205658 0.219864 0.030694
0.273512 0.221077 0.031181
0.339185 0.222271 0.031665
0.402651 0.223438 0.032138
0.463724 0.224570 0.032591
0.522091 0.225660 0.033016
0.577351 0.226699 0.033401
0.629058 0.227677 0.033738
0.676758 0.228586 0.034017
0.720025 0.229419 0.034230
0.758494 0.230169 0.034370
0.791884 0.230832 0.034431
0.820017 0.231405 0.034411
0.000000 0.284731 0.030316
0.000000 0.285939 0.030813
0.068888 0.287143 0.031325
0.141534 0.288341 0.031848
0.211503 0.289531 0.032378
0.279165 0.290708 0.032912
0.344674 0.291865 0.033442
0.407992 0.292997 0.033961
0.468925 0.294095 0.034460
0.527152 0.295151 0.034929
0.582271 0.296157 0.035359
0.633832 0.297103 0.035740
0.681380 0.297982 0.036063
0.724492 0.298786 0.036320
0.762805 0.299509 0.036504
0.796041 0.300147 0.036609
0.824022 0.300696 0.036632
0.000000 0.352229 0.031908
0.000000 0.353408 0.032453
0.075000 0.354583 0.033012
0.147370 0.355752 0.033581
0.217117 0.356913 0.034158
0.284597 0.358061 0.034738
0.349950 0.359190 0.035313
0.413128 0.360294 0.035877
0.473928 0.361365 0.036421
0.532024 0.362394 0.036934
0.587010 0.363373 0.037408
0.638433 0.364294 0.037833
0.685841 0.365148 0.038200
0.728809 0.365929 0.038499
0.766977 0.366630 0.038726
0.800070 0.367247 0.038874
0.827913 0.367777 0.038940
0.000000 0.417382 0.033571
0.005573 0.418537 0.034162
0.080832 0.419688 0.034767
0.152941 0.420834 0.035382
0.222479 0.421972 0.036004
0.289787 0.423097 0.036629
0.354992 0.424204 0.037250
0.418038 0.425285 0.037858
0.478713 0.426333 0.038445
0.536687 0.427341 0.039003
0.591547 0.428299 0.039520
0.642843 0.429199 0.039988
0.690119 0.430033 0.040397
0.732954 0.430794 0.040739
0.770989 0.431476 0.041008
0.803951 0.432075 0.041198
0.831668 0.432588 0.041307
0.000000 0.479990 0.035272
0.011412 0.481125 0.035909
0.086360 0.482257 0.036558
0.158224 0.483384 0.037219
0.227565 0.484502 0.037886
0.294712 0.485608 0.038555
0.359779 0.486696 0.039220
0.422700 0.487758 0.039871
0.483258 0.488788 0.040502
0.541116 0.489777 0.041102
0.595860 0.490717 0.041662
0.647037 0.491600 0.042172
0.694192 0.492417 0.042623
0.736905 0.493161 0.043007
0.774819 0.493827 0.043318
0.807662 0.494411 0.043550
0.835264 0.494909 0.043700
0.000000 0.539723 0.036977
0.016902 0.540842 0.037658
0.091561 0.541957 0.038353
0.163195 0.543067 0.039058
0.232352 0.544169 0.039769
0.299347 0.545259 0.040482
0.364284 0.546330 0.041189
0.427089 0.547376 0.041884
0.487537 0.548390 0.042557
0.545288 0.549364 0.043200
0.599924 0.550288 0.043801
0.650991 0.551155 0.044353
0.698036 0.551957 0.044845
0.740637 0.552687 0.045270
0.778440 0.553339 0.045621
0.811175 0.553909 0.045894
0.838675 0.554395 0.046084
0.000000 0.596167 0.038652
0.022016 0.597270 0.039378
0.096406 0.598370 0.040116
0.167828 0.599466 0.040864
0.236814 0.600553 0.041619
0.303668 0.601628 0.042374
0.368484 0.602685 0.043124
0.431180 0.603718 0.043861
0.491526 0.604717 0.044576
0.549177 0.605677 0.045260
0.603714 0.606588 0.045902
0.654681 0.607441 0.046494
0.701624 0.608230 0.047027
0.744124 0.608947 0.047492
0.781827 0.609587 0.047884
0.814467 0.610145 0.048196
0.841875 0.610618 0.048427
0.000000 0.648861 0.040262
0.026730 0.649951 0.041032
0.100873 0.651038 0.041813
0.172098 0.652120 0.042604
0.240926 0.653194 0.043401
0.307649 0.654256 0.044198
0.372353 0.655301 0.044990
0.434949 0.656320 0.045768
0.495200 0.657307 0.046524
0.552759 0.658255 0.047248
0.607204 0.659153 0.047931
0.658080 0.659995 0.048563
0.704931 0.660772 0.049135
0.747341 0.661477 0.049640
0.784956 0.662106 0.050070
0.817510 0.662652 0.050422
0.844839 0.663115 0.050691
0.000000 0.697346 0.041777
0.031019 0.698424 0.042589
0.104936 0.699498 0.043412
0.175982 0.700569 0.044245
0.244665 0.701631 0.045084
0.311267 0.702682 0.045922
0.375868 0.703714 0.046755
0.438371 0.704722 0.047573
0.498536 0.705699 0.048369
0.556011 0.706635 0.049133
0.610373 0.707522 0.049855
0.661166 0.708353 0.050526
0.707935 0.709120 0.051137
0.750265 0.709815 0.051680
0.787802 0.710433 0.052149
0.820282 0.710971 0.052538
0.847542 0.711424 0.052845
0.000000 0.741198 0.043166
0.034864 0.742264 0.044020
0.108578 0.743328 0.044885
0.179460 0.744388 0.045759
0.248012 0.745440 0.046638
0.314504 0.746480 0.047517
0.379010 0.747502 0.048389
0.441429 0.748500 0.049247
0.501514 0.749466 0.050082
0.558913 0.750392 0.050884
0.613200 0.751270 0.051645
0.663919 0.752092 0.052354
0.710616 0.752849 0.053003
0.752875 0.753536 0.053583
0.790345 0.754145 0.054089
0.822761 0.754674 0.054515
0.849963 0.755120 0.054859
0.000000 0.780059 0.044406
0.038251 0.781116 0.045300
0.111782 0.782170 0.046206
0.182518 0.783220 0.047120
0.250951 0.784262 0.048039
0.317344 0.785293 0.048957
0.381764 0.786306 0.049868
0.444105 0.787296 0.050765
0.504119 0.788253 0.051638
0.561449 0.789171 0.052478
0.615670 0.790041 0.053276
0.666324 0.790854 0.054022
0.712958 0.791604 0.054707
0.755156 0.792282 0.055324
0.792568 0.792885 0.055865
0.824932 0.793407 0.056327
0.852086 0.793845 0.056706
0.000000 0.813662 0.045477
0.041168 0.814710 0.046411
0.114539 0.815755 0.047357
0.185146 0.816797 0.048310
0.253472 0.817831 0.049267
0.319777 0.818854 0.050224
0.384120 0.819860 0.051173
0.446392 0.820842 0.052107
0.506341 0.821792 0.053017
0.563610 0.822702 0.053894
0.617773 0.823565 0.054728
0.668370 0.824372 0.055509
0.714950 0.825115 0.056230
0.757097 0.825788 0.056881
0.794462 0.826384 0.057457
0.826784 0.826901 0.057953
0.853900 0.827334 0.058365
0.000000 0.841842 0.046367
0.043614 0.842883 0.047340
0.116845 0.843921 0.048324
0.187339 0.844956 0.049315
0.255572 0.845984 0.050311
0.321798 0.847000 0.051304
0.386073 0.848000 0.052290
0.448283 0.848975 0.053260
0.508176 0.849919 0.054206
0.565392 0.850824 0.055118
0.619504 0.851682 0.055986
0.670054 0.852483 0.056802
0.716588 0.853221 0.057556
0.758694 0.853889 0.058240
0.796021 0.854481 0.058849
0.828310 0.854993 0.059376
0.855398 0.855423 0.059820
0.000000 0.000000 0.096928
0.000000 0.000000 0.097177
0.035442 0.000000 0.097440
0.109671 0.000000 0.097715
0.180906 0.000000 0.097999
0.249607 0.000000 0.098288
0.316004 0.000000 0.098575
0.380122 0.000000 0.098854
0.441816 0.000000 0.099115
0.500801 0.000000 0.099350
0.556697 0.000000 0.099549
0.609064 0.000000 0.099703
0.657451 0.000000 0.099802
0.701428 0.000000 0.099839
0.740619 0.000000 0.099807
0.774732 0.000000 0.099699
0.803573 0.000000 0.099514
0.000000 0.000000 0.097822
0.000000 0.000000 0.098119
0.042710 0.000000 0.098430
0.116585 0.000000 0.098752
0.187536 0.000000 0.099084
0.256005 0.000000 0.099420
0.322203 0.000000 0.099754
0.386142 0.000000 0.100078
0.447666 0.000178 0.100385
0.506481 0.001437 0.100665
0.562201 0.002639 0.100909
0.614385 0.003773 0.101107
0.662581 0.004831 0.101251
0.706359 0.005803 0.101332
0.745348 0.006682 0.101343
0.779257 0.007464 0.101279
0.807898 0.008145 0.101137
0.000000 0.067846 0.098874
0.000000 0.069201 0.099219
0.049757 0.070551 0.099577
0.123294 0.071894 0.099947
0.193975 0.073228 0.100325
0.262222 0.074547 0.100707
0.328231 0.075845 0.101087
0.391999 0.077114 0.101457
0.453360 0.078347 0.101809
0.512013 0.079535 0.102134
0.567566 0.080668 0.102423
0.619577 0.081736 0.102665
0.667592 0.082730 0.102852
0.711183 0.083644 0.102977
0.749981 0.084470 0.103031
0.783700 0.085202 0.103011
0.812153 0.085838 0.102912
0.000000 0.143046 0.100076
0.000000 0.144338 0.100468
0.056582 0.145626 0.100873
0.129796 0.146908 0.101289
0.200220 0.148180 0.101714
0.268255 0.149439 0.102142
0.334083 0.150677 0.102567
0.397689 0.151888 0.102983
0.458895 0.153064 0.103379
0.517394 0.154196 0.103749
0.572789 0.155274 0.104081
0.624636 0.156291 0.104367
0.672480 0.157237 0.104597
0.715895 0.158105 0.104764
0.754515 0.158888 0.104862
0.788055 0.159581 0.104884
0.816334 0.160181 0.104828
0.000000 0.215339 0.101414
0.000000 0.216583 0.101852
0.063176 0.217823 0.102303
0.136084 0.219057 0.102766
0.206262 0.220282 0.103236
0.274097 0.221494 0.103709
0.339752 0.222686 0.104180
0.403203 0.223852 0.104639
0.464262 0.224983 0.105080
0.522614 0.226072 0.105493
0.577860 0.227109 0.105869
0.629552 0.228085 0.106198
0.677236 0.228993 0.106471
0.720486 0.229825 0.106681
0.758939 0.230574 0.106820
0.792314 0.231236 0.106885
0.820430 0.231808 0.106870
0.000000 0.285141 0.102869
0.000000 0.286348 0.103353
0.069527 0.287551 0.103850
0.142145 0.288748 0.104357
0.212090 0.289937 0.104873
0.279733 0.291112 0.105391
0.345225 0.292268 0.105905
0.408529 0.293399 0.106409
0.469448 0.294496 0.106893
0.527662 0.295551 0.107349
0.582767 0.296555 0.107768
0.634313 0.297500 0.108139
0.681847 0.298377 0.108454
0.724944 0.299180 0.108706
0.763242 0.299902 0.108887
0.796463 0.300539 0.108993
0.824430 0.301087 0.109021
0.000000 0.352629 0.104418
0.000065 0.353807 0.104947
0.075619 0.354981 0.105488
0.147961 0.356149 0.106041
0.217686 0.357309 0.106600
0.285148 0.358456 0.107162
0.350486 0.359584 0.107720
0.413650 0.360687 0.108267
0.474437 0.361756 0.108795
0.532521 0.362784 0.109293
0.587493 0.363763 0.109754
0.638903 0.364682 0.110167
0.686297 0.365535 0.110524
0.729251 0.366315 0.110817
0.767405 0.367015 0.111039
0.800485 0.367631 0.111187
0.828314 0.368159 0.111255
0.000000 0.417774 0.106033
0.006207 0.418928 0.106606
0.081432 0.420078 0.107192
0.153514 0.421224 0.107788
0.223031 0.422360 0.108392
0.290322 0.423484 0.108997
0.355513 0.424590 0.109598
0.418546 0.425670 0.110188
0.479208 0.426718 0.110757
0.537169 0.427724 0.111298
0.592018 0.428681 0.111800
0.643301 0.429580 0.112254
0.690565 0.430413 0.112652
0.733387 0.431173 0.112986
0.771409 0.431854 0.113249
0.804359 0.432452 0.113437
0.832064 0.432964 0.113545
0.000000 0.480375 0.107684
0.012025 0.481509 0.108302
0.086941 0.482640 0.108931
0.158780 0.483766 0.109570
0.228101 0.484884 0.110217
0.295231 0.485989 0.110865
0.360284 0.487076 0.111508
0.423193 0.488137 0.112140
0.483739 0.489166 0.112751
0.541586 0.490154 0.113332
0.596319 0.491093 0.113875
0.647484 0.491975 0.114370
0.694628 0.492791 0.114808
0.737329 0.493534 0.115182
0.775231 0.494200 0.115485
0.808062 0.494782 0.115713
0.835654 0.495280 0.115861
0.000000 0.540103 0.109340
0.017495 0.541220 0.110000
0.092123 0.542335 0.110672
0.163733 0.543444 0.111354
0.232872 0.544545 0.112043
0.299851 0.545634 0.112733
0.364775 0.546704 0.113418
0.427568 0.547750 0.114090
0.488005 0.548763 0.114742
0.545745 0.549736 0.115364
0.600371 0.550659 0.115947
0.651427 0.551525 0.116482
0.698461 0.552326 0.116960
0.741052 0.553056 0.117373
0.778844 0.553707 0.117716
0.811569 0.554276 0.117982
0.839059 0.554760 0.118170
0.000000 0.596541 0.110966
0.022590 0.597644 0.111669
0.096951 0.598743 0.112383
0.168349 0.599838 0.113107
0.237317 0.600925 0.113837
0.304156 0.601999 0.114568
0.368960 0.603055 0.115294
0.431645 0.604087 0.116007
0.491981 0.605086 0.116699
0.549622 0.606044 0.117360
0.604149 0.606954 0.117983
0.655106 0.607807 0.118557
0.702039 0.608595 0.119074
0.744530 0.609311 0.119526
0.782224 0.609950 0.119906
0.814854 0.610507 0.120211
0.842254 0.610980 0.120437
0.000000 0.649231 0.112531
0.027285 0.650320 0.113275
0.101400 0.651406 0.114030
0.172603 0.652488 0.114795
0.241414 0.653561 0.115566
0.308122 0.654623 0.116338
0.372814 0.655666 0.117103
0.435400 0.656685 0.117856
0.495642 0.657672 0.118587
0.553191 0.658618 0.119288
0.607628 0.659516 0.119949
0.658495 0.660357 0.120561
0.705337 0.661133 0.121116
0.747738 0.661838 0.121606
0.785345 0.662465 0.122024
0.817891 0.663012 0.122367
0.845212 0.663474 0.122630
0.000000 0.697712 0.114002
0.031556 0.698789 0.114787
0.105447 0.699863 0.115583
0.176471 0.700932 0.116389
0.245138 0.701994 0.117199
0.311726 0.703044 0.118010
0.376316 0.704076 0.118815
0.438809 0.705084 0.119607
0.498965 0.706059 0.120377
0.556431 0.706994 0.121116
0.610786 0.707881 0.121814
0.661571 0.708712 0.122464
0.708332 0.709478 0.123056
0.750654 0.710172 0.123583
0.788184 0.710790 0.124038
0.820657 0.711327 0.124417
0.847910 0.711779 0.124716
0.000000 0.741560 0.115353
0.035384 0.742626 0.116178
0.109072 0.743689 0.117014
0.179934 0.744748 0.117859
0.248469 0.745799 0.118709
0.314949 0.746839 0.119559
0.379445 0.747861 0.120402
0.441854 0.748858 0.121231
0.501931 0.749824 0.122039
0.559322 0.750749 0.122815
0.613602 0.751627 0.123551
0.664314 0.752448 0.124237
0.711004 0.753204 0.124865
0.753256 0.753890 0.125428
0.790720 0.754499 0.125919
0.823131 0.755028 0.126333
0.850327 0.755473 0.126667
0.000000 0.780418 0.116560
0.038753 0.781474 0.117424
0.112260 0.782527 0.118299
0.182977 0.783577 0.119183
0.251394 0.784619 0.120071
0.317775 0.785649 0.120958
0.382186 0.786662 0.121839
0.444518 0.787651 0.122706
0.504524 0.788608 0.123550
0.561847 0.789525 0.124362
0.616062 0.790394 0.125134
0.666710 0.791207 0.125855
0.713338 0.791956 0.126519
0.755530 0.792635 0.127116
0.792937 0.793237 0.127641
0.825296 0.793758 0.128089
0.852446 0.794196 0.128458
0.000000 0.814018 0.117604
0.041655 0.815065 0.118507
0.115001 0.816110 0.119420
0.185590 0.817151 0.120341
0.253902 0.818185 0.121267
0.320195 0.819208 0.122191
0.384528 0.820213 0.123108
0.446792 0.821194 0.124011
0.506735 0.822144 0.124890
0.563998 0.823054 0.125738
0.618155 0.823917 0.126544
0.668747 0.824723 0.127300
0.715321 0.825466 0.127997
0.757464 0.826138 0.128628
0.794825 0.826734 0.129186
0.827142 0.827250 0.129667
0.854255 0.827683 0.130067
0.000000 0.842195 0.118474
0.044085 0.843235 0.119414
0.117293 0.844274 0.120364
0.187769 0.845308 0.121322
0.255989 0.846336 0.122283
0.322203 0.847352 0.123243
0.386470 0.848351 0.124196
0.448673 0.849326 0.125133
0.508559 0.850270 0.126047
0.565769 0.851174 0.126928
0.619876 0.852031 0.127768
0.670421 0.852833 0.128556
0.716952 0.853570 0.129286
0.759053 0.854238 0.129948
0.796378 0.854830 0.130537
0.828664 0.855342 0.131048
0.855750 0.855771 0.131478
0.000000 0.000000 0.166693
0.000000 0.000000 0.166943
0.036184 0.000000 0.167207
0.110376 0.000000 0.167483
0.181582 0.000000 0.167767
0.250259 0.000000 0.168056
0.316635 0.000000 0.168343
0.380736 0.000000 0.168621
0.442412 0.000000 0.168883
0.501380 0.000000 0.169118
0.557257 0.000000 0.169320
0.609606 0.000000 0.169477
0.657973 0.000000 0.169581
0.701929 0.000000 0.169625
0.741099 0.000000 0.169601
0.775191 0.000000 0.169505
0.804011 0.000000 0.169333
0.000000 0.000000 0.167590
