data/prints/synthetic_minilab.cube
TITLE "SYNTHETIC consumer-lab stylization - generated, not measured"
LUT_3D_SIZE 5
0.000000 0.000000 0.000000
0.245776 0.000000 0.000000
0.544128 0.000000 0.000000
0.808581 0.000000 0.000000
1.000000 0.000000 0.000000
0.000000 0.234885 0.000000
0.241659 0.231186 0.000000
0.538563 0.227284 0.000000
0.802574 0.223178 0.000000
1.000000 0.218868 0.000000
0.000000 0.521919 0.000000
0.231487 0.517767 0.000000
0.527271 0.513418 0.000000
0.791749 0.508868 0.000000
0.993390 0.504119 0.000000
0.000000 0.778629 0.000000
0.215248 0.774560 0.000000
0.510181 0.770309 0.000000
0.775936 0.765876 0.000000
0.981580 0.761257 0.000000
0.000000 0.977423 0.000000
0.192927 0.974171 0.000000
0.487196 0.970771 0.000000
0.754897 0.967219 0.000000
0.965815 0.963514 0.000000
0.000000 0.000000 0.243097
0.245635 0.000000 0.235271
0.543825 0.000000 0.227792
0.808190 0.000000 0.220661
1.000000 0.000000 0.213878
0.000000 0.233652 0.218151
0.240907 0.229884 0.211496
0.537684 0.225912 0.205189
0.801702 0.221737 0.199231
1.000000 0.217357 0.193624
0.000000 0.520531 0.197150
0.230123 0.516312 0.191670
0.525810 0.511895 0.186540
0.790383 0.507278 0.181761
0.992366 0.502460 0.177334
0.000000 0.777267 0.180109
0.213271 0.773137 0.175809
0.508130 0.768824 0.171860
0.774054 0.764328 0.168263
0.980175 0.759646 0.165017
0.000000 0.976335 0.167041
0.190336 0.973033 0.163923
0.484544 0.969582 0.161157
0.752472 0.965978 0.158743
0.963987 0.962220 0.156681
0.000000 0.000000 0.539629
0.245432 0.000000 0.532367
0.543463 0.000000 0.525417
0.807750 0.000000 0.518782
1.000000 0.000000 0.512464
0.000000 0.232395 0.516445
0.240093 0.228558 0.510244
0.536747 0.224517 0.504363
0.800781 0.220273 0.498807
1.000000 0.215824 0.493575
0.000000 0.519121 0.496864
0.228697 0.514835 0.491752
0.524291 0.510349 0.486967
0.788965 0.505664 0.482512
0.991305 0.500778 0.478388
0.000000 0.775885 0.480973
0.211232 0.771693 0.476969
0.506019 0.767318 0.473299
0.772118 0.762759 0.469963
0.978729 0.758013 0.466961
0.000000 0.975230 0.468831
0.187682 0.971878 0.465952
0.481830 0.968375 0.463409
0.749991 0.964720 0.461203
0.962113 0.960907 0.459334
0.000000 0.000000 0.803668
0.245168 0.000000 0.797727
0.543044 0.000000 0.792023
0.807263 0.000000 0.786561
1.000000 0.000000 0.781347
0.000000 0.231115 0.784634
0.239218 0.227209 0.779512
0.535751 0.223099 0.774644
0.799811 0.218785 0.770036
0.999484 0.214267 0.765692
0.000000 0.517687 0.768424
0.227210 0.513334 0.764176
0.522712 0.508781 0.760197
0.787497 0.504027 0.756491
0.990207 0.499073 0.753060
0.000000 0.774482 0.755210
0.209131 0.770228 0.751880
0.503847 0.765791 0.748829
0.770128 0.761168 0.746060
0.977243 0.756359 0.743576
0.000000 0.974108 0.745123
0.184965 0.970705 0.742742
0.479055 0.967151 0.740649
0.747453 0.963443 0.738844
0.960193 0.959576 0.737329
0.000000 0.000000 1.000000
0.244842 0.000000 0.998882
0.542567 0.000000 0.995114
0.806727 0.000000 0.991487
1.000000 0.000000 0.988007
0.000000 0.229811 0.990203
0.238281 0.225836 0.986778
0.534696 0.221656 0.983510
0.798791 0.217273 0.980404
0.998705 0.212686 0.977466
0.000000 0.516231 0.979314
0.225661 0.511810 0.976439
0.521073 0.507189 0.973738
0.785976 0.502368 0.971218
0.989071 0.497345 0.968882
0.000000 0.773057 0.970346
0.206968 0.768742 0.968078
0.501615 0.764242 0.966000
0.768085 0.759556 0.964115
0.975714 0.754683 0.962427
0.000000 0.972969 0.963478
0.182187 0.969515 0.961862
0.476219 0.965909 0.960447
0.744857 0.962147 0.959234
0.958227 0.958227 0.958227
