data/prints/synthetic_minilab.cube
TITLE "SYNTHETIC consumer-lab stylization - generated, not measured"
LUT_3D_SIZE 9
0.000000 0.000000 0.000000
0.092331 0.000000 0.000000
0.245776 0.000000 0.000000
0.397273 0.000000 0.000000
0.544128 0.000000 0.000000
0.682649 0.000000 0.000000
0.808581 0.000000 0.000000
0.917708 0.000000 0.000000
1.000000 0.000000 0.000000
0.000000 0.087078 0.000000
0.091474 0.085416 0.000000
0.244474 0.083704 0.000000
0.395555 0.081941 0.000000
0.542058 0.080126 0.000000
0.680335 0.078261 0.000000
0.806171 0.076345 0.000000
0.915382 0.074378 0.000000
1.000000 0.072360 0.000000
0.000000 0.234885 0.000000
0.089095 0.233061 0.000000
0.241659 0.231186 0.000000
0.392353 0.229261 0.000000
0.538563 0.227284 0.000000
0.676693 0.225256 0.000000
0.802574 0.223178 0.000000
0.912046 0.221048 0.000000
1.000000 0.218868 0.000000
0.000000 0.380587 0.000000
0.085196 0.378627 0.000000
0.237330 0.376616 0.000000
0.387663 0.374554 0.000000
0.533637 0.372442 0.000000
0.671714 0.370279 0.000000
0.797773 0.368065 0.000000
0.907680 0.365801 0.000000
0.997931 0.363486 0.000000
0.000000 0.521919 0.000000
0.079776 0.519868 0.000000
0.231487 0.517767 0.000000
0.381482 0.515617 0.000000
0.527271 0.513418 0.000000
0.665383 0.511168 0.000000
0.791749 0.508868 0.000000
0.902258 0.506519 0.000000
0.993390 0.504119 0.000000
0.000000 0.655788 0.000000
0.072834 0.653715 0.000000
0.224127 0.651593 0.000000
0.373804 0.649424 0.000000
0.519456 0.647206 0.000000
0.657686 0.644940 0.000000
0.784480 0.642626 0.000000
0.895750 0.640263 0.000000
0.987954 0.637851 0.000000
0.000000 0.778629 0.000000
0.064371 0.776617 0.000000
0.215248 0.774560 0.000000
0.364626 0.772457 0.000000
0.510181 0.770309 0.000000
0.648601 0.768116 0.000000
0.775936 0.765876 0.000000
0.888119 0.763590 0.000000
0.981580 0.761257 0.000000
0.000000 0.886863 0.000000
0.054386 0.885007 0.000000
0.204849 0.883110 0.000000
0.353939 0.881170 0.000000
0.499432 0.879189 0.000000
0.638109 0.877166 0.000000
0.766087 0.875100 0.000000
0.879324 0.872991 0.000000
0.974219 0.870839 0.000000
0.000000 0.977423 0.000000
0.042880 0.975815 0.000000
0.192927 0.974171 0.000000
0.341738 0.972489 0.000000
0.487196 0.970771 0.000000
0.626185 0.969014 0.000000
0.754897 0.967219 0.000000
0.869319 0.965386 0.000000
0.965815 0.963514 0.000000
0.000000 0.000000 0.090912
0.092314 0.000000 0.086905
0.245713 0.000000 0.082985
0.397167 0.000000 0.079154
0.543983 0.000000 0.075411
0.682476 0.000000 0.071756
0.808391 0.000000 0.068188
0.917519 0.000000 0.064709
1.000000 0.000000 0.061318
0.000000 0.086519 0.077781
0.091303 0.084841 0.074070
0.244258 0.083111 0.070447
0.395299 0.081330 0.066912
0.541770 0.079499 0.063465
0.680028 0.077616 0.060106
0.805862 0.075683 0.056835
0.915091 0.073698 0.053652
1.000000 0.071663 0.050558
0.000000 0.234271 0.065647
0.088771 0.232430 0.062232
0.241291 0.230538 0.058905
0.391947 0.228595 0.055666
0.538131 0.226601 0.052516
0.676251 0.224556 0.049453
0.802144 0.222460 0.046479
0.911652 0.220313 0.043593
1.000000 0.218116 0.040795
0.000000 0.379927 0.054509
0.084718 0.377949 0.051391
0.236809 0.375921 0.048360
0.387106 0.373842 0.045418
0.533060 0.371713 0.042564
0.671136 0.369533 0.039798
0.797221 0.367302 0.037120
0.907181 0.365020 0.034531
0.997512 0.362688 0.032029
0.000000 0.521228 0.044369
0.079144 0.519160 0.041547
0.230813 0.517043 0.038813
0.380775 0.514876 0.036167
0.526548 0.512659 0.033610
0.664669 0.510393 0.031141
0.791072 0.508076 0.028759
0.901651 0.505709 0.026466
0.992882 0.503292 0.024261
0.000000 0.655089 0.035226
0.072049 0.652999 0.032701
0.223299 0.650862 0.030263
0.372946 0.648676 0.027914
0.518587 0.646442 0.025653
0.656832 0.644159 0.023481
0.783675 0.641829 0.021396
0.895031 0.639449 0.019400
0.987354 0.637021 0.017491
0.000000 0.777951 0.027081
0.063432 0.775923 0.024852
0.214267 0.773851 0.022711
0.363615 0.771733 0.020659
0.509163 0.769570 0.018695
0.647606 0.767360 0.016818
0.775001 0.765105 0.015030
0.887285 0.762803 0.013331
0.980883 0.760454 0.011719
0.000000 0.886238 0.019934
0.053294 0.884367 0.018001
0.203715 0.882456 0.016157
0.352776 0.880502 0.014401
0.498265 0.878507 0.012734
0.636971 0.876469 0.011154
0.765019 0.874389 0.009663
0.878370 0.872265 0.008259
0.973419 0.870098 0.006944
0.000000 0.976881 0.013784
0.041634 0.975261 0.012148
0.191639 0.973604 0.010601
0.340421 0.971910 0.009141
0.485878 0.970178 0.007770
0.624901 0.968409 0.006487
0.753692 0.966601 0.005292
0.868240 0.964755 0.004186
0.964907 0.962869 0.003167
0.000000 0.000000 0.243097
0.092281 0.000000 0.239141
0.245635 0.000000 0.235271
0.397046 0.000000 0.231488
0.543825 0.000000 0.227792
0.682289 0.000000 0.224183
0.808190 0.000000 0.220661
0.917319 0.000000 0.217226
1.000000 0.000000 0.213878
0.000000 0.085955 0.230133
0.091116 0.084259 0.226468
0.244027 0.082512 0.222891
0.395028 0.080714 0.219401
0.541468 0.078865 0.215997
0.679707 0.076965 0.212681
0.805541 0.075014 0.209452
0.914790 0.073013 0.206311
1.000000 0.070960 0.203257
0.000000 0.233652 0.218151
0.088431 0.231793 0.214780
0.240907 0.229884 0.211496
0.391526 0.227924 0.208299
0.537684 0.225912 0.205189
0.675796 0.223850 0.202166
0.801702 0.221737 0.199231
0.911248 0.219573 0.196384
1.000000 0.217357 0.193624
0.000000 0.379261 0.207156
0.084224 0.377266 0.204078
0.236273 0.375221 0.201088
0.386535 0.373125 0.198185
0.532468 0.370978 0.195369
0.670545 0.368781 0.192641
0.796656 0.366533 0.190001
0.906671 0.364234 0.187448
0.997084 0.361884 0.184983
0.000000 0.520531 0.197150
0.078497 0.518447 0.194366
0.230123 0.516312 0.191670
0.380052 0.514129 0.189061
0.525810 0.511895 0.186540
0.663940 0.509611 0.184107
0.790383 0.507278 0.181761
0.901033 0.504894 0.179504
0.992366 0.502460 0.177334
0.000000 0.654385 0.188133
0.071248 0.652279 0.185644
0.222456 0.650125 0.183243
0.372072 0.647923 0.180929
0.517702 0.645672 0.178704
0.655964 0.643373 0.176565
0.782858 0.641026 0.174515
0.894301 0.638630 0.172553
0.986744 0.636185 0.170678
0.000000 0.777267 0.180109
0.062478 0.775225 0.177915
0.213271 0.773137 0.175809
0.362590 0.771003 0.173791
0.508130 0.768824 0.171860
0.646597 0.766599 0.170018
0.774054 0.764328 0.168263
0.886438 0.762011 0.166596
0.980175 0.759646 0.165017
0.000000 0.885607 0.173078
0.052186 0.883723 0.171179
0.202565 0.881797 0.169369
0.351598 0.879829 0.167646
0.497082 0.877820 0.166011
0.635818 0.875767 0.164464
0.763937 0.873672 0.163005
0.877403 0.871534 0.161634
0.972608 0.869352 0.160351
0.000000 0.976335 0.167041
0.040372 0.974702 0.165438
0.190336 0.973033 0.163923
0.339090 0.971326 0.162496
0.484544 0.969582 0.161157
0.623602 0.967799 0.159906
0.752472 0.965978 0.158743
0.867148 0.964119 0.157668
0.963987 0.962220 0.156681
0.000000 0.000000 0.393543
0.092232 0.000000 0.389690
0.245541 0.000000 0.385920
0.396909 0.000000 0.382234
0.543651 0.000000 0.378632
0.682088 0.000000 0.375113
0.807976 0.000000 0.371679
0.917109 0.000000 0.368329
1.000000 0.000000 0.365064
0.000000 0.085385 0.380913
0.090914 0.083671 0.377341
0.243781 0.081907 0.373853
0.394742 0.080092 0.370450
0.541151 0.078226 0.367131
0.679373 0.076308 0.363896
0.805208 0.074340 0.360747
0.914479 0.072321 0.357682
1.000000 0.070251 0.354703
0.000000 0.233026 0.369232
0.088075 0.231151 0.365944
0.240508 0.229224 0.362740
0.391089 0.227246 0.359621
0.537223 0.225218 0.356587
0.675327 0.223138 0.353639
0.801247 0.221008 0.350776
0.910833 0.218826 0.347998
1.000000 0.216594 0.345305
0.000000 0.378589 0.358507
0.083715 0.376577 0.355504
0.235720 0.374515 0.352587
0.385948 0.372402 0.349754
0.531861 0.370238 0.347008
0.669940 0.368023 0.344346
0.796079 0.365758 0.341771
0.906151 0.363441 0.339281
0.996648 0.361074 0.336878
0.000000 0.519829 0.348744
0.077834 0.517727 0.346029
0.229418 0.515576 0.343399
0.379315 0.513376 0.340855
0.525058 0.511125 0.338396
0.663197 0.508825 0.336024
0.789680 0.506474 0.333738
0.900404 0.504073 0.331538
0.991840 0.501622 0.329424
0.000000 0.653675 0.339950
0.070432 0.651553 0.337523
0.221598 0.649382 0.335182
0.371183 0.647164 0.332927
0.516802 0.644897 0.330758
0.655082 0.642582 0.328676
0.782028 0.640218 0.326679
0.893559 0.637805 0.324770
0.986125 0.635343 0.322947
0.000000 0.776579 0.332127
0.061508 0.774521 0.329990
0.212259 0.772417 0.327939
0.361549 0.770269 0.325974
0.507082 0.768074 0.324096
0.645573 0.765833 0.322304
0.773092 0.763546 0.320599
0.885580 0.761213 0.318981
0.979457 0.758832 0.317449
0.000000 0.884972 0.325280
0.051062 0.883074 0.323434
0.201399 0.881134 0.321674
0.350404 0.879152 0.320000
0.495884 0.877127 0.318413
0.634650 0.875061 0.316913
0.762841 0.872951 0.315500
0.876424 0.870798 0.314173
0.971787 0.868601 0.312933
0.000000 0.975785 0.319412
0.039095 0.974140 0.317857
0.189016 0.972457 0.316388
0.337743 0.970738 0.315007
0.483195 0.968981 0.313712
0.622288 0.967185 0.312504
0.751239 0.965351 0.311382
0.866043 0.963478 0.310348
0.963056 0.961566 0.309401
0.000000 0.000000 0.539629
0.092168 0.000000 0.535959
0.245432 0.000000 0.532367
0.396758 0.000000 0.528853
0.543463 0.000000 0.525417
0.681874 0.000000 0.522060
0.807750 0.000000 0.518782
0.916889 0.000000 0.515583
1.000000 0.000000 0.512464
0.000000 0.084809 0.527593
0.090696 0.083078 0.524186
0.243519 0.081296 0.520857
0.394441 0.079464 0.517608
0.540819 0.077580 0.514438
0.679025 0.075646 0.511349
0.804862 0.073660 0.508339
0.914157 0.071624 0.505410
1.000000 0.069536 0.502561
0.000000 0.232395 0.516445
0.087704 0.230502 0.513304
0.240093 0.228558 0.510244
0.390638 0.226563 0.507263
0.536747 0.224517 0.504363
0.674844 0.222420 0.501544
0.800781 0.220273 0.498807
0.910408 0.218074 0.496150
1.000000 0.215824 0.493575
0.000000 0.377912 0.506198
0.083191 0.375883 0.503328
0.235153 0.373803 0.500538
0.385347 0.371672 0.497830
0.531240 0.369491 0.495203
0.669321 0.367259 0.492658
0.795489 0.364977 0.490195
0.905619 0.362643 0.487814
0.996202 0.360259 0.485515
0.000000 0.519121 0.496864
0.077156 0.517002 0.494267
0.228697 0.514835 0.491752
0.378562 0.512617 0.489318
0.524291 0.510349 0.486967
0.662441 0.508032 0.484699
0.788965 0.505664 0.482512
0.899763 0.503246 0.480409
0.991305 0.500778 0.478388
0.000000 0.652960 0.488453
0.069600 0.650821 0.486132
0.220724 0.648634 0.483893
0.370279 0.646399 0.481737
0.515888 0.644116 0.479664
0.654185 0.641784 0.477673
0.781185 0.639404 0.475766
0.892806 0.636974 0.473942
0.985496 0.634496 0.472202
0.000000 0.775885 0.480973
0.060522 0.773811 0.478929
0.211232 0.771693 0.476969
0.360492 0.769528 0.475093
0.506019 0.767318 0.473299
0.644535 0.765062 0.471589
0.772118 0.762759 0.469963
0.884710 0.760410 0.468420
0.978729 0.758013 0.466961
0.000000 0.884332 0.474430
0.049923 0.882419 0.472667
0.200218 0.880465 0.470987
0.349195 0.878469 0.469391
0.494671 0.876430 0.467879
0.633468 0.874349 0.466451
0.761732 0.872225 0.465107
0.875432 0.870057 0.463847
0.970954 0.867845 0.462671
0.000000 0.975230 0.468831
0.037802 0.973572 0.467350
0.187682 0.971878 0.465952
0.336380 0.970145 0.464638
0.481830 0.968375 0.463409
0.620959 0.966567 0.462264
0.749991 0.964720 0.461203
0.864925 0.962833 0.460226
0.962113 0.960907 0.459334
0.000000 0.000000 0.677739
0.092088 0.000000 0.674352
0.245308 0.000000 0.671034
0.396591 0.000000 0.667785
0.543261 0.000000 0.664607
0.681647 0.000000 0.661500
0.807513 0.000000 0.658465
0.916659 0.000000 0.655501
1.000000 0.000000 0.652610
0.000000 0.084227 0.666620
0.090463 0.082479 0.663468
0.243242 0.080680 0.660387
0.394124 0.078830 0.657377
0.540473 0.076929 0.654440
0.678663 0.074977 0.651575
0.804505 0.072974 0.648784
0.913825 0.070921 0.646065
1.000000 0.068816 0.643421
0.000000 0.231758 0.656300
0.087317 0.229848 0.653389
0.239663 0.227886 0.650550
0.390171 0.225874 0.647785
0.536256 0.223811 0.645094
0.674348 0.221697 0.642477
0.800302 0.219532 0.639934
0.909972 0.217315 0.637466
0.999860 0.215048 0.635074
0.000000 0.377228 0.646797
0.082650 0.375182 0.644133
0.234570 0.373085 0.641543
0.384729 0.370937 0.639027
0.530604 0.368739 0.636586
0.668688 0.366490 0.634221
0.794887 0.364190 0.631932
0.905077 0.361839 0.629718
0.995748 0.359438 0.627581
0.000000 0.518407 0.638130
0.076462 0.516272 0.635717
0.227961 0.514087 0.633379
0.377794 0.511853 0.631117
0.523508 0.509568 0.628932
0.661670 0.507233 0.626822
0.788237 0.504849 0.624790
0.899111 0.502414 0.622835
0.990760 0.499929 0.620957
0.000000 0.652239 0.630313
0.068752 0.650084 0.628155
0.219835 0.647881 0.626074
0.369359 0.645629 0.624069
0.514958 0.643330 0.622142
0.653275 0.640981 0.620292
0.780328 0.638584 0.618520
0.892041 0.636138 0.616826
0.984857 0.633643 0.615210
0.000000 0.775186 0.623359
0.059521 0.773097 0.621460
0.210189 0.770963 0.619638
0.359420 0.768783 0.617894
0.504941 0.766557 0.616229
0.643483 0.764285 0.614641
0.771130 0.761966 0.613132
0.883828 0.759601 0.611702
0.977991 0.757189 0.610350
0.000000 0.883687 0.617279
0.048768 0.881760 0.615642
0.199022 0.879792 0.614083
0.347970 0.877781 0.612602
0.493443 0.875728 0.611201
0.632271 0.873632 0.609878
0.760609 0.871493 0.608634
0.874428 0.869310 0.607469
0.970111 0.867084 0.606384
0.000000 0.974671 0.612083
0.036494 0.973001 0.610710
0.186331 0.971294 0.609416
0.335002 0.969548 0.608201
0.480451 0.967765 0.607065
0.619615 0.965944 0.606009
0.748729 0.964083 0.605032
0.863794 0.962184 0.604135
0.961159 0.960244 0.603318
0.000000 0.000000 0.803668
0.091993 0.000000 0.800668
0.245168 0.000000 0.797727
0.396410 0.000000 0.794845
0.543044 0.000000 0.792023
0.681406 0.000000 0.789261
0.807263 0.000000 0.786561
0.916419 0.000000 0.783923
1.000000 0.000000 0.781347
0.000000 0.083639 0.793811
0.090215 0.081873 0.791011
0.242949 0.080057 0.788271
0.393793 0.078190 0.785594
0.540112 0.076272 0.782978
0.678288 0.074303 0.780425
0.804135 0.072283 0.777936
0.913483 0.070212 0.775511
1.000000 0.068089 0.773151
0.000000 0.231115 0.784634
0.086915 0.229187 0.782041
0.239218 0.227209 0.779512
0.389690 0.225179 0.777046
0.535751 0.223099 0.774644
0.673838 0.220967 0.772308
0.799811 0.218785 0.770036
0.909526 0.216551 0.767831
0.999484 0.214267 0.765692
0.000000 0.376539 0.776164
0.082095 0.374476 0.773786
0.233972 0.372361 0.771473
0.384097 0.370197 0.769226
0.529954 0.367981 0.767044
0.668042 0.365715 0.764930
0.794272 0.363397 0.762882
0.904524 0.361029 0.760901
0.995285 0.358610 0.758989
0.000000 0.517687 0.768424
0.075753 0.515535 0.766267
0.227210 0.513334 0.764176
0.377011 0.511082 0.762153
0.522712 0.508781 0.760197
0.660885 0.506429 0.758310
0.787497 0.504027 0.756491
0.898448 0.501575 0.754741
0.990207 0.499073 0.753060
0.000000 0.651512 0.761433
0.067890 0.649341 0.759502
0.218930 0.647122 0.757640
0.368424 0.644854 0.755846
0.514014 0.642538 0.754121
0.652350 0.640173 0.752465
0.779459 0.637759 0.750879
0.891265 0.635296 0.749363
0.984208 0.632785 0.747918
0.000000 0.774482 0.755210
0.058505 0.772377 0.753510
0.209131 0.770228 0.751880
0.358333 0.768032 0.750319
0.503847 0.765791 0.748829
0.642416 0.763503 0.747409
0.770128 0.761168 0.746060
0.882934 0.758787 0.744782
0.977243 0.756359 0.743576
0.000000 0.883037 0.749769
0.047598 0.881097 0.748304
0.197810 0.879114 0.746910
0.346730 0.877089 0.745587
0.492199 0.875021 0.744335
0.631059 0.872911 0.743154
0.759472 0.870757 0.742045
0.873411 0.868559 0.741008
0.969257 0.866318 0.740043
0.000000 0.974108 0.745123
0.035170 0.972425 0.743897
0.184965 0.970705 0.742742
0.333608 0.968947 0.741660
0.479055 0.967151 0.740649
0.618256 0.965316 0.739710
0.747453 0.963443 0.738844
0.862650 0.961529 0.738050
0.960193 0.959576 0.737329
0.000000 0.000000 0.913203
0.091883 0.000000 0.910685
0.245012 0.000000 0.908214
0.396213 0.000000 0.905789
0.542813 0.000000 0.903412
0.681151 0.000000 0.901084
0.807001 0.000000 0.898804
0.916168 0.000000 0.896575
1.000000 0.000000 0.894396
0.000000 0.083045 0.904918
0.089951 0.081262 0.902559
0.242641 0.079429 0.900248
0.393446 0.077544 0.897987
0.539737 0.075609 0.895775
0.677900 0.073622 0.893616
0.803753 0.071585 0.891507
0.913130 0.069497 0.889452
1.000000 0.067357 0.887449
0.000000 0.230466 0.897176
0.086498 0.228521 0.894983
0.238757 0.226525 0.892842
0.389193 0.224478 0.890753
0.535231 0.222380 0.888716
0.673314 0.220232 0.886733
0.799307 0.218032 0.884805
0.909069 0.215781 0.882930
0.999099 0.213479 0.881112
0.000000 0.375844 0.890005
0.081524 0.373763 0.887988
0.233358 0.371632 0.886025
0.383450 0.369450 0.884116
0.529288 0.367217 0.882262
0.667381 0.364933 0.880463
0.793644 0.362599 0.878721
0.903960 0.360214 0.877035
0.994813 0.357777 0.875407
0.000000 0.516962 0.883434
0.075028 0.514793 0.881601
0.226443 0.512575 0.879822
0.376212 0.510306 0.878101
0.521900 0.507988 0.876436
0.660086 0.505619 0.874828
0.786743 0.503200 0.873278
0.897774 0.500731 0.871787
0.989644 0.498212 0.870354
0.000000 0.650780 0.877488
0.067011 0.648593 0.875844
0.218010 0.646357 0.874257
0.367474 0.644073 0.872729
0.513054 0.641740 0.871259
0.651411 0.639359 0.869848
0.778576 0.636928 0.868496
0.890476 0.634449 0.867204
0.983550 0.631920 0.865973
0.000000 0.773772 0.872187
0.057473 0.771652 0.870738
0.208057 0.769487 0.869349
0.357230 0.767276 0.868019
0.502739 0.765019 0.866749
0.641334 0.762715 0.865540
0.769113 0.760365 0.864391
0.882027 0.757968 0.863303
0.976484 0.755523 0.862277
0.000000 0.882383 0.867550
0.046413 0.880428 0.866302
0.196582 0.878431 0.865114
0.345474 0.876392 0.863988
0.490941 0.874309 0.862923
0.629833 0.872184 0.861919
0.758321 0.870015 0.860977
0.872382 0.867803 0.860097
0.968392 0.865546 0.859279
0.000000 0.973541 0.863593
0.033831 0.971845 0.862550
0.183584 0.970112 0.861569
0.332199 0.968342 0.860649
0.477645 0.966532 0.859792
0.616882 0.964684 0.858997
0.746162 0.962797 0.858265
0.861493 0.960871 0.857596
0.959216 0.958904 0.856990
0.000000 0.000000 1.000000
0.091757 0.000000 1.000000
0.244842 0.000000 0.998882
0.396001 0.000000 0.996981
0.542567 0.000000 0.995114
0.680883 0.000000 0.993283
0.806727 0.000000 0.991487
0.915907 0.000000 0.989728
1.000000 0.000000 0.988007
0.000000 0.082445 0.996297
0.089671 0.080645 0.994443
0.242318 0.078795 0.992625
0.393084 0.076893 0.990843
0.539347 0.074940 0.989097
0.677497 0.072936 0.987390
0.803359 0.070881 0.985722
0.912767 0.068776 0.984093
1.000000 0.066619 0.982504
0.000000 0.229811 0.990203
0.086065 0.227849 0.988471
0.238281 0.225836 0.986778
0.388681 0.223772 0.985124
0.534696 0.221656 0.983510
0.672776 0.219490 0.981936
0.798791 0.217273 0.980404
0.908601 0.215005 0.978913
0.998705 0.212686 0.977466
0.000000 0.375143 0.984532
0.080937 0.373045 0.982932
0.232729 0.370897 0.981373
0.382787 0.368697 0.979856
0.528608 0.366447 0.978381
0.666707 0.364146 0.976949
0.793004 0.361795 0.975561
0.903385 0.359392 0.974217
0.994332 0.356938 0.972917
0.000000 0.516231 0.979314
0.074288 0.514046 0.977855
0.225661 0.511810 0.976439
0.375398 0.509525 0.975066
0.521073 0.507189 0.973738
0.659274 0.504803 0.972455
0.785976 0.502368 0.971218
0.897088 0.499881 0.970027
0.989071 0.497345 0.968882
0.000000 0.650043 0.974578
0.066117 0.647839 0.973266
0.217074 0.645587 0.972000
0.366508 0.643286 0.970779
0.512080 0.640937 0.969604
0.650458 0.638539 0.968477
0.777680 0.636092 0.967397
0.889676 0.633596 0.966364
0.982881 0.631051 0.965380
0.000000 0.773057 0.970346
0.056425 0.770922 0.969189
0.206968 0.768742 0.968078
0.356112 0.766515 0.967015
0.501615 0.764242 0.966000
0.640238 0.761922 0.965033
0.768085 0.759556 0.964115
0.881108 0.757143 0.963247
0.975714 0.754683 0.962427
0.000000 0.881724 0.966640
0.045212 0.879755 0.965643
0.195339 0.877743 0.964694
0.344203 0.875689 0.963793
0.489667 0.873593 0.962943
0.628592 0.871453 0.962142
0.757156 0.869269 0.961390
0.871340 0.867042 0.960690
0.967516 0.864770 0.960039
0.000000 0.972969 0.963478
0.032477 0.971261 0.962645
0.182187 0.969515 0.961862
0.330774 0.967731 0.961129
0.476219 0.965909 0.960447
0.615493 0.964048 0.959815
0.744857 0.962147 0.959234
0.860322 0.960207 0.958705
0.958227 0.958227 0.958227
