data/prints/synthetic_minilab.cube
TITLE "SYNTHETIC consumer-lab stylization - generated, not measured"
LUT_3D_SIZE 17
0.000000 0.000000 0.000000
0.015386 0.000000 0.000000
0.092331 0.000000 0.000000
0.169175 0.000000 0.000000
0.245776 0.000000 0.000000
0.321909 0.000000 0.000000
0.397273 0.000000 0.000000
0.471492 0.000000 0.000000
0.544128 0.000000 0.000000
0.614689 0.000000 0.000000
0.682649 0.000000 0.000000
0.747461 0.000000 0.000000
0.808581 0.000000 0.000000
0.865488 0.000000 0.000000
0.917708 0.000000 0.000000
0.964829 0.000000 0.000000
1.000000 0.000000 0.000000
0.000000 0.012814 0.000000
0.015260 0.012032 0.000000
0.092093 0.011238 0.000000
0.168824 0.010431 0.000000
0.245314 0.009611 0.000000
0.321339 0.008778 0.000000
0.396599 0.007933 0.000000
0.470722 0.007075 0.000000
0.543271 0.006204 0.000000
0.613758 0.005320 0.000000
0.681658 0.004424 0.000000
0.746427 0.003515 0.000000
0.807524 0.002593 0.000000
0.864430 0.001658 0.000000
0.916670 0.000711 0.000000
0.963835 0.000000 0.000000
1.000000 0.000000 0.000000
0.000000 0.087078 0.000000
0.014754 0.086254 0.000000
0.091474 0.085416 0.000000
0.168093 0.084567 0.000000
0.244474 0.083704 0.000000
0.320394 0.082829 0.000000
0.395555 0.081941 0.000000
0.469588 0.081040 0.000000
0.542058 0.080126 0.000000
0.612481 0.079200 0.000000
0.680335 0.078261 0.000000
0.745078 0.077309 0.000000
0.806171 0.076345 0.000000
0.863097 0.075368 0.000000
0.915382 0.074378 0.000000
0.962616 0.073375 0.000000
1.000000 0.072360 0.000000
0.000000 0.161142 0.000000
0.013868 0.160276 0.000000
0.090475 0.159397 0.000000
0.166983 0.158506 0.000000
0.243255 0.157601 0.000000
0.319073 0.156684 0.000000
0.394140 0.155755 0.000000
0.468089 0.154812 0.000000
0.540489 0.153857 0.000000
0.610860 0.152889 0.000000
0.678681 0.151909 0.000000
0.743414 0.150915 0.000000
0.804522 0.149909 0.000000
0.861489 0.148890 0.000000
0.913841 0.147859 0.000000
0.961170 0.146814 0.000000
1.000000 0.145757 0.000000
0.000000 0.234885 0.000000
0.012602 0.233979 0.000000
0.089095 0.233061 0.000000
0.165493 0.232130 0.000000
0.241659 0.231186 0.000000
0.317376 0.230230 0.000000
0.392353 0.229261 0.000000
0.466224 0.228279 0.000000
0.538563 0.227284 0.000000
0.608892 0.226277 0.000000
0.676693 0.225256 0.000000
0.741432 0.224224 0.000000
0.802574 0.223178 0.000000
0.859602 0.222119 0.000000
0.912046 0.221048 0.000000
0.959494 0.219964 0.000000
1.000000 0.218868 0.000000
0.000000 0.308118 0.000000
0.010955 0.307176 0.000000
0.087336 0.306222 0.000000
0.163624 0.305254 0.000000
0.239684 0.304274 0.000000
0.315304 0.303282 0.000000
0.390194 0.302276 0.000000
0.463994 0.301258 0.000000
0.536279 0.300227 0.000000
0.606576 0.299183 0.000000
0.674371 0.298127 0.000000
0.739132 0.297058 0.000000
0.800325 0.295976 0.000000
0.857436 0.294882 0.000000
0.909993 0.293774 0.000000
0.957585 0.292654 0.000000
0.999878 0.291522 0.000000
0.000000 0.380587 0.000000
0.008927 0.379613 0.000000
0.085196 0.378627 0.000000
0.161374 0.377628 0.000000
0.237330 0.376616 0.000000
0.312855 0.375591 0.000000
0.387663 0.374554 0.000000
0.461396 0.373504 0.000000
0.533637 0.372442 0.000000
0.603912 0.371367 0.000000
0.671714 0.370279 0.000000
0.736511 0.369178 0.000000
0.797773 0.368065 0.000000
0.854986 0.366939 0.000000
0.907680 0.365801 0.000000
0.955440 0.364649 0.000000
0.997931 0.363486 0.000000
0.000000 0.451976 0.000000
0.006520 0.450976 0.000000
0.082676 0.449964 0.000000
0.158745 0.448938 0.000000
0.234598 0.447901 0.000000
0.310030 0.446850 0.000000
0.384759 0.445788 0.000000
0.458432 0.444712 0.000000
0.530635 0.443624 0.000000
0.600898 0.442524 0.000000
0.668718 0.441410 0.000000
0.733567 0.440285 0.000000
0.794915 0.439146 0.000000
0.852251 0.437995 0.000000
0.905103 0.436832 0.000000
0.953055 0.435655 0.000000
0.995770 0.434466 0.000000
0.000000 0.521919 0.000000
0.003732 0.520899 0.000000
0.079776 0.519868 0.000000
0.155735 0.518824 0.000000
0.231487 0.517767 0.000000
0.306828 0.516699 0.000000
0.381482 0.515617 0.000000
0.455100 0.514524 0.000000
0.527271 0.513418 0.000000
0.597533 0.512299 0.000000
0.665383 0.511168 0.000000
0.730298 0.510024 0.000000
0.791749 0.508868 0.000000
0.849227 0.507700 0.000000
0.902258 0.506519 0.000000
0.950426 0.505325 0.000000
0.993390 0.504119 0.000000
0.000000 0.590003 0.000000
0.000564 0.588973 0.000000
0.076495 0.587931 0.000000
0.152346 0.586877 0.000000
0.227996 0.585810 0.000000
0.303249 0.584732 0.000000
0.377830 0.583641 0.000000
0.451398 0.582538 0.000000
0.523546 0.581422 0.000000
0.593814 0.580294 0.000000
0.661706 0.579154 0.000000
0.726701 0.578002 0.000000
0.788272 0.576837 0.000000
0.845910 0.575660 0.000000
0.899142 0.574470 0.000000
0.947549 0.573268 0.000000
0.990786 0.572054 0.000000
0.000000 0.655788 0.000000
0.000000 0.654757 0.000000
0.072834 0.653715 0.000000
0.148576 0.652660 0.000000
0.224127 0.651593 0.000000
0.299292 0.650514 0.000000
0.373804 0.649424 0.000000
0.447326 0.648321 0.000000
0.519456 0.647206 0.000000
0.589741 0.646079 0.000000
0.657686 0.644940 0.000000
0.722773 0.643789 0.000000
0.784480 0.642626 0.000000
0.842297 0.641450 0.000000
0.895750 0.640263 0.000000
0.944419 0.639063 0.000000
0.987954 0.637851 0.000000
0.000000 0.718817 0.000000
0.000000 0.717795 0.000000
0.068793 0.716762 0.000000
0.144427 0.715718 0.000000
0.219877 0.714662 0.000000
0.294957 0.713594 0.000000
0.369403 0.712514 0.000000
0.442883 0.711423 0.000000
0.515002 0.710319 0.000000
0.585310 0.709204 0.000000
0.653318 0.708078 0.000000
0.718511 0.706939 0.000000
0.780369 0.705789 0.000000
0.838383 0.704626 0.000000
0.892077 0.703452 0.000000
0.941030 0.702266 0.000000
0.984887 0.701067 0.000000
0.000000 0.778629 0.000000
0.000000 0.777629 0.000000
0.064371 0.776617 0.000000
0.139896 0.775594 0.000000
0.215248 0.774560 0.000000
0.290243 0.773514 0.000000
0.364626 0.772457 0.000000
0.438068 0.771389 0.000000
0.510181 0.770309 0.000000
0.580521 0.769218 0.000000
0.648601 0.768116 0.000000
0.713913 0.767002 0.000000
0.775936 0.765876 0.000000
0.834163 0.764739 0.000000
0.888119 0.763590 0.000000
0.937377 0.762429 0.000000
0.981580 0.761257 0.000000
0.000000 0.834782 0.000000
0.000000 0.833814 0.000000
0.059569 0.832836 0.000000
0.134986 0.831846 0.000000
0.210239 0.830846 0.000000
0.285151 0.829835 0.000000
0.359471 0.828813 0.000000
0.432880 0.827780 0.000000
0.504992 0.826736 0.000000
0.575370 0.825681 0.000000
0.643533 0.824615 0.000000
0.708974 0.823538 0.000000
0.771177 0.822450 0.000000
0.829634 0.821350 0.000000
0.883870 0.820239 0.000000
0.933454 0.819117 0.000000
0.978026 0.817984 0.000000
0.000000 0.886863 0.000000
0.000000 0.885940 0.000000
0.054386 0.885007 0.000000
0.129695 0.884064 0.000000
0.204849 0.883110 0.000000
0.279678 0.882145 0.000000
0.353939 0.881170 0.000000
0.427316 0.880185 0.000000
0.499432 0.879189 0.000000
0.569855 0.878183 0.000000
0.638109 0.877166 0.000000
0.703691 0.876138 0.000000
0.766087 0.875100 0.000000
0.824790 0.874051 0.000000
0.879324 0.872991 0.000000
0.929256 0.871920 0.000000
0.974219 0.870839 0.000000
0.000000 0.934511 0.000000
0.000000 0.933645 0.000000
0.048823 0.932768 0.000000
0.124023 0.931882 0.000000
0.199079 0.930986 0.000000
0.273826 0.930080 0.000000
0.348028 0.929164 0.000000
0.421377 0.928239 0.000000
0.493501 0.927303 0.000000
0.563975 0.926357 0.000000
0.632328 0.925402 0.000000
0.698060 0.924436 0.000000
0.760662 0.923460 0.000000
0.819627 0.922473 0.000000
0.874476 0.921477 0.000000
0.924774 0.920470 0.000000
0.970151 0.919453 0.000000
0.000000 0.977423 0.000000
0.000000 0.976624 0.000000
0.042880 0.975815 0.000000
0.117971 0.974998 0.000000
0.192927 0.974171 0.000000
0.267593 0.973335 0.000000
0.341738 0.972489 0.000000
0.415060 0.971635 0.000000
0.487196 0.970771 0.000000
0.557726 0.969897 0.000000
0.626185 0.969014 0.000000
0.692079 0.968121 0.000000
0.754897 0.967219 0.000000
0.814138 0.966308 0.000000
0.869319 0.965386 0.000000
0.920004 0.964455 0.000000
0.965815 0.963514 0.000000
0.000000 0.000000 0.014658
0.015391 0.000000 0.012635
0.092324 0.000000 0.010635
0.169157 0.000000 0.008656
0.245746 0.000000 0.006699
0.321869 0.000000 0.004765
0.397222 0.000000 0.002852
0.471431 0.000000 0.000962
0.544057 0.000000 0.000000
0.614611 0.000000 0.000000
0.682564 0.000000 0.000000
0.747371 0.000000 0.000000
0.808488 0.000000 0.000000
0.865394 0.000000 0.000000
0.917614 0.000000 0.000000
0.964739 0.000000 0.000000
1.000000 0.000000 0.000000
0.000000 0.012550 0.007941
0.015227 0.011764 0.005993
0.092047 0.010965 0.004066
0.168768 0.010154 0.002162
0.245246 0.009329 0.000279
0.321261 0.008492 0.000000
0.396511 0.007643 0.000000
0.470624 0.006780 0.000000
0.543165 0.005905 0.000000
0.613645 0.005017 0.000000
0.681539 0.004116 0.000000
0.746305 0.003203 0.000000
0.807401 0.002277 0.000000
0.864308 0.001338 0.000000
0.916551 0.000386 0.000000
0.963722 0.000000 0.000000
1.000000 0.000000 0.000000
0.000000 0.086799 0.001474
0.014682 0.085971 0.000000
0.091390 0.085129 0.000000
0.167999 0.084275 0.000000
0.244368 0.083408 0.000000
0.320277 0.082529 0.000000
0.395429 0.081636 0.000000
0.469453 0.080731 0.000000
0.541916 0.079813 0.000000
0.612333 0.078883 0.000000
0.680183 0.077939 0.000000
0.744925 0.076983 0.000000
0.806018 0.076015 0.000000
0.862947 0.075033 0.000000
0.915238 0.074039 0.000000
0.962481 0.073032 0.000000
1.000000 0.072012 0.000000
0.000000 0.160849 0.000000
0.013758 0.159979 0.000000
0.090353 0.159096 0.000000
0.166850 0.158200 0.000000
0.243111 0.157291 0.000000
0.318919 0.156370 0.000000
0.393976 0.155436 0.000000
0.467917 0.154489 0.000000
0.540311 0.153530 0.000000
0.610677 0.152558 0.000000
0.678495 0.151573 0.000000
0.743228 0.150575 0.000000
0.804339 0.149564 0.000000
0.861311 0.148541 0.000000
0.913672 0.147505 0.000000
0.961011 0.146457 0.000000
1.000000 0.145395 0.000000
0.000000 0.234579 0.000000
0.012453 0.233669 0.000000
0.088935 0.232746 0.000000
0.165322 0.231811 0.000000
0.241477 0.230863 0.000000
0.317184 0.229902 0.000000
0.392152 0.228929 0.000000
0.466015 0.227942 0.000000
0.538349 0.226943 0.000000
0.608674 0.225932 0.000000
0.676474 0.224907 0.000000
0.741215 0.223870 0.000000
0.802360 0.222820 0.000000
0.859396 0.221757 0.000000
0.911850 0.220682 0.000000
0.959312 0.219593 0.000000
1.000000 0.218492 0.000000
0.000000 0.307800 0.000000
0.010767 0.306854 0.000000
0.087137 0.305895 0.000000
0.163414 0.304923 0.000000
0.239463 0.303939 0.000000
0.315074 0.302942 0.000000
0.389955 0.301932 0.000000
0.463748 0.300909 0.000000
0.536029 0.299874 0.000000
0.606323 0.298826 0.000000
0.674118 0.297765 0.000000
0.738882 0.296692 0.000000
0.800081 0.295606 0.000000
0.857201 0.294507 0.000000
0.909771 0.293396 0.000000
0.957379 0.292271 0.000000
0.999691 0.291134 0.000000
0.000000 0.380258 0.000000
0.008702 0.379280 0.000000
0.084959 0.378289 0.000000
0.161126 0.377285 0.000000
0.237072 0.376269 0.000000
0.312587 0.375240 0.000000
0.387386 0.374199 0.000000
0.461114 0.373145 0.000000
0.533350 0.372078 0.000000
0.603624 0.370999 0.000000
0.671427 0.369907 0.000000
0.736229 0.368802 0.000000
0.797498 0.367684 0.000000
0.854723 0.366554 0.000000
0.907432 0.365411 0.000000
0.955210 0.364256 0.000000
0.997722 0.363087 0.000000
0.000000 0.451638 0.000000
0.006256 0.450634 0.000000
0.082401 0.449617 0.000000
0.158458 0.448587 0.000000
0.234301 0.447545 0.000000
0.309724 0.446491 0.000000
0.384445 0.445424 0.000000
0.458112 0.444344 0.000000
0.530311 0.443252 0.000000
0.600575 0.442147 0.000000
0.668397 0.441030 0.000000
0.733252 0.439899 0.000000
0.794610 0.438757 0.000000
0.851959 0.437601 0.000000
0.904828 0.436433 0.000000
0.952801 0.435253 0.000000
0.995539 0.434060 0.000000
0.000000 0.521574 0.000000
0.003429 0.520550 0.000000
0.079462 0.519515 0.000000
0.155410 0.518466 0.000000
0.231152 0.517406 0.000000
0.306484 0.516333 0.000000
0.381130 0.515247 0.000000
0.454743 0.514149 0.000000
0.526912 0.513039 0.000000
0.597174 0.511916 0.000000
0.665028 0.510781 0.000000
0.729950 0.509633 0.000000
0.791412 0.508473 0.000000
0.848906 0.507300 0.000000
0.901956 0.506115 0.000000
0.950147 0.504917 0.000000
0.993137 0.503706 0.000000
0.000000 0.589655 0.000000
0.000223 0.588621 0.000000
0.076143 0.587574 0.000000
0.151983 0.586516 0.000000
0.227623 0.585445 0.000000
0.302866 0.584363 0.000000
0.377441 0.583267 0.000000
0.451004 0.582160 0.000000
0.523149 0.581040 0.000000
0.593419 0.579908 0.000000
0.661316 0.578764 0.000000
0.726319 0.577608 0.000000
0.787903 0.576439 0.000000
0.845559 0.575257 0.000000
0.898812 0.574064 0.000000
0.947245 0.572857 0.000000
0.990511 0.571639 0.000000
0.000000 0.655440 0.000000
0.000000 0.654405 0.000000
0.072443 0.653358 0.000000
0.148175 0.652299 0.000000
0.223715 0.651228 0.000000
0.298871 0.650145 0.000000
0.373377 0.649050 0.000000
0.446895 0.647944 0.000000
0.519023 0.646825 0.000000
0.589310 0.645694 0.000000
0.657260 0.644550 0.000000
0.722358 0.643395 0.000000
0.784079 0.642228 0.000000
0.841915 0.641048 0.000000
0.895392 0.639857 0.000000
0.944089 0.638653 0.000000
0.987655 0.637436 0.000000
0.000000 0.718471 0.000000
0.000000 0.717446 0.000000
0.068364 0.716409 0.000000
0.143987 0.715360 0.000000
0.219427 0.714300 0.000000
0.294498 0.713228 0.000000
0.368938 0.712145 0.000000
0.442414 0.711049 0.000000
0.514532 0.709942 0.000000
0.584843 0.708823 0.000000
0.652858 0.707692 0.000000
0.718062 0.706550 0.000000
0.779936 0.705395 0.000000
0.837971 0.704229 0.000000
0.891691 0.703050 0.000000
0.940673 0.701860 0.000000
0.984564 0.700658 0.000000
0.000000 0.778290 0.000000
0.000000 0.777286 0.000000
0.063903 0.776271 0.000000
0.139418 0.775244 0.000000
0.214759 0.774206 0.000000
0.289746 0.773157 0.000000
0.364122 0.772096 0.000000
0.437561 0.771024 0.000000
0.509674 0.769940 0.000000
0.580017 0.768845 0.000000
0.648106 0.767739 0.000000
0.713430 0.766621 0.000000
0.775470 0.765491 0.000000
0.833720 0.764350 0.000000
0.887703 0.763197 0.000000
0.936993 0.762033 0.000000
0.981233 0.760856 0.000000
0.000000 0.834454 0.000000
0.000000 0.833483 0.000000
0.059063 0.832501 0.000000
0.134469 0.831508 0.000000
0.209712 0.830504 0.000000
0.284615 0.829489 0.000000
0.358930 0.828464 0.000000
0.432335 0.827427 0.000000
0.504447 0.826379 0.000000
0.574829 0.825320 0.000000
0.643001 0.824251 0.000000
0.708456 0.823170 0.000000
0.770678 0.822078 0.000000
0.829160 0.820974 0.000000
0.883424 0.819860 0.000000
0.933043 0.818734 0.000000
0.977654 0.817597 0.000000
0.000000 0.886551 0.000000
0.000000 0.885625 0.000000
0.053842 0.884688 0.000000
0.129139 0.883741 0.000000
0.204284 0.882783 0.000000
0.279105 0.881815 0.000000
0.353359 0.880837 0.000000
0.426734 0.879848 0.000000
0.498851 0.878849 0.000000
0.569278 0.877839 0.000000
0.637542 0.876818 0.000000
0.703138 0.875787 0.000000
0.765554 0.874745 0.000000
0.824284 0.873692 0.000000
0.878848 0.872629 0.000000
0.928816 0.871554 0.000000
0.973820 0.870469 0.000000
0.000000 0.934218 0.000000
0.000000 0.933348 0.000000
0.048240 0.932468 0.000000
0.123429 0.931579 0.000000
0.198475 0.930679 0.000000
0.273214 0.929770 0.000000
0.347410 0.928851 0.000000
0.420756 0.927922 0.000000
0.492882 0.926983 0.000000
0.563361 0.926034 0.000000
0.631724 0.925075 0.000000
0.697473 0.924105 0.000000
0.760095 0.923126 0.000000
0.819087 0.922136 0.000000
0.873969 0.921136 0.000000
0.924306 0.920126 0.000000
0.969726 0.919105 0.000000
0.000000 0.977153 0.000000
0.000000 0.976350 0.000000
0.042259 0.975539 0.000000
0.117338 0.974718 0.000000
0.192285 0.973888 0.000000
0.266943 0.973049 0.000000
0.341081 0.972200 0.000000
0.414401 0.971342 0.000000
0.486539 0.970475 0.000000
0.557075 0.969598 0.000000
0.625545 0.968712 0.000000
0.691455 0.967816 0.000000
0.754296 0.966911 0.000000
0.813565 0.965996 0.000000
0.868781 0.965071 0.000000
0.919506 0.964136 0.000000
0.965363 0.963192 0.000000
0.000000 0.000000 0.090912
0.015391 0.000000 0.088897
0.092314 0.000000 0.086905
0.169135 0.000000 0.084934
0.245713 0.000000 0.082985
0.321824 0.000000 0.081059
0.397167 0.000000 0.079154
0.471366 0.000000 0.077271
0.543983 0.000000 0.075411
0.614529 0.000000 0.073572
0.682476 0.000000 0.071756
0.747278 0.000000 0.069961
0.808391 0.000000 0.068188
0.865297 0.000000 0.066438
0.917519 0.000000 0.064709
0.964647 0.000000 0.063003
1.000000 0.000000 0.061318
0.000000 0.012284 0.084222
0.015189 0.011494 0.082281
0.091998 0.010691 0.080363
0.168707 0.009875 0.078466
0.245175 0.009047 0.076591
0.321178 0.008205 0.074739
0.396418 0.007351 0.072908
0.470523 0.006484 0.071100
0.543055 0.005605 0.069313
0.613528 0.004713 0.067549
0.681417 0.003808 0.065806
0.746180 0.002890 0.064086
0.807275 0.001960 0.062387
0.864183 0.001016 0.060711
0.916430 0.000060 0.059056
0.963607 0.000000 0.057424
1.000000 0.000000 0.055814
0.000000 0.086519 0.077781
0.014606 0.085686 0.075914
0.091303 0.084841 0.074070
0.167900 0.083982 0.072247
0.244258 0.083111 0.070447
0.320157 0.082227 0.068668
0.395299 0.081330 0.066912
0.469315 0.080421 0.065177
0.541770 0.079499 0.063465
0.612182 0.078564 0.061774
0.680028 0.077616 0.060106
0.744768 0.076656 0.058459
0.805862 0.075683 0.056835
0.862795 0.074697 0.055233
0.915091 0.073698 0.053652
0.962343 0.072687 0.052094
1.000000 0.071663 0.050558
0.000000 0.160555 0.071589
0.013643 0.159680 0.069797
0.090227 0.158793 0.068026
0.166713 0.157893 0.066278
0.242964 0.156980 0.064551
0.318760 0.156054 0.062847
0.393809 0.155116 0.061164
0.467742 0.154165 0.059504
0.540129 0.153201 0.057866
0.610490 0.152225 0.056249
0.678306 0.151235 0.054655
0.743039 0.150233 0.053083
0.804153 0.149218 0.051532
0.861130 0.148191 0.050004
0.913499 0.147151 0.048498
0.960850 0.146097 0.047014
1.000000 0.145032 0.045552
0.000000 0.234271 0.065647
0.012300 0.233357 0.063928
0.088771 0.232430 0.062232
0.165146 0.231490 0.060557
0.241291 0.230538 0.058905
0.316988 0.229573 0.057275
0.391947 0.228595 0.055666
0.465803 0.227605 0.054080
0.538131 0.226601 0.052516
0.608452 0.225585 0.050973
0.676251 0.224556 0.049453
0.740994 0.223515 0.047955
0.802144 0.222460 0.046479
0.859187 0.221393 0.045025
0.911652 0.220313 0.043593
0.959127 0.219221 0.042183
1.000000 0.218116 0.040795
0.000000 0.307480 0.059953
0.010576 0.306529 0.058309
0.086935 0.305566 0.056686
0.163200 0.304590 0.055086
0.239239 0.303601 0.053508
0.314840 0.302600 0.051952
0.389713 0.301586 0.050417
0.463499 0.300559 0.048905
0.535775 0.299520 0.047415
0.606067 0.298467 0.045947
0.673862 0.297402 0.044501
0.738629 0.296325 0.043077
0.799834 0.295234 0.041675
0.856964 0.294131 0.040295
0.909547 0.293015 0.038937
0.957171 0.291886 0.037601
0.999502 0.290745 0.036287
0.000000 0.379927 0.054509
0.008472 0.378945 0.052939
0.084718 0.377949 0.051391
0.160874 0.376942 0.049864
0.236809 0.375921 0.048360
0.312315 0.374888 0.046878
0.387106 0.373842 0.045418
0.460828 0.372784 0.043980
0.533060 0.371713 0.042564
0.603332 0.370629 0.041170
0.671136 0.369533 0.039798
0.735943 0.368424 0.038448
0.797221 0.367302 0.037120
0.854457 0.366167 0.035815
0.907181 0.365020 0.034531
0.954978 0.363860 0.033269
0.997512 0.362688 0.032029
0.000000 0.451299 0.049314
0.005988 0.450290 0.047818
0.082121 0.449269 0.046344
0.158168 0.448235 0.044892
0.234000 0.447189 0.043462
0.309414 0.446130 0.042054
0.384127 0.445059 0.040668
0.457789 0.443975 0.039304
0.529985 0.442878 0.037962
0.600247 0.441769 0.036642
0.668072 0.440647 0.035345
0.732933 0.439513 0.034069
0.794301 0.438366 0.032815
0.851664 0.437206 0.031583
0.904550 0.436034 0.030374
0.952544 0.434849 0.029186
0.995307 0.433651 0.028021
0.000000 0.521228 0.044369
0.003123 0.520200 0.042947
0.079144 0.519160 0.041547
0.155082 0.518108 0.040169
0.230813 0.517043 0.038813
0.306136 0.515966 0.037479
0.380775 0.514876 0.036167
0.454382 0.513774 0.034878
0.526548 0.512659 0.033610
0.596811 0.511532 0.032364
0.664669 0.510393 0.031141
0.729598 0.509240 0.029939
0.791072 0.508076 0.028759
0.848581 0.506899 0.027602
0.901651 0.505709 0.026466
0.949866 0.504507 0.025353
0.992882 0.503292 0.024261
0.000000 0.589305 0.039673
0.000000 0.588267 0.038325
0.075787 0.587216 0.036999
0.151615 0.586154 0.035695
0.227246 0.585079 0.034414
0.302480 0.583992 0.033154
0.377048 0.582893 0.031916
0.450606 0.581781 0.030701
0.522749 0.580657 0.029507
0.593021 0.579521 0.028335
0.660922 0.578373 0.027186
0.725934 0.577212 0.026058
0.787532 0.576039 0.024953
0.845205 0.574853 0.023870
0.898480 0.573655 0.022808
0.946938 0.572445 0.021769
0.990233 0.571222 0.020752
0.000000 0.655089 0.035226
0.000000 0.654050 0.033952
0.072049 0.652999 0.032701
0.147769 0.651937 0.031471
0.223299 0.650862 0.030263
0.298447 0.649775 0.029078
0.372946 0.648676 0.027914
0.446459 0.647565 0.026773
0.518587 0.646442 0.025653
0.588875 0.645307 0.024556
0.656832 0.644159 0.023481
0.721939 0.643000 0.022427
0.783675 0.641829 0.021396
0.841531 0.640645 0.020387
0.895031 0.639449 0.019400
0.943756 0.638241 0.018434
0.987354 0.637021 0.017491
0.000000 0.718124 0.031029
0.000000 0.717095 0.029829
0.067931 0.716054 0.028652
0.143543 0.715002 0.027496
0.218973 0.713937 0.026363
0.294036 0.712862 0.025251
0.368469 0.711774 0.024162
0.441941 0.710675 0.023095
0.514058 0.709563 0.022049
0.584372 0.708440 0.021026
0.652394 0.707306 0.020025
0.717610 0.706159 0.019046
0.779500 0.705000 0.018088
0.837556 0.703830 0.017153
0.891301 0.702647 0.016240
0.940314 0.701453 0.015349
0.984239 0.700247 0.014480
0.000000 0.777951 0.027081
0.000000 0.776943 0.025956
0.063432 0.775923 0.024852
0.138936 0.774893 0.023771
0.214267 0.773851 0.022711
0.289246 0.772798 0.021674
0.363615 0.771733 0.020659
0.437051 0.770657 0.019666
0.509163 0.769570 0.018695
0.579510 0.768471 0.017746
0.647606 0.767360 0.016818
0.712943 0.766238 0.015913
0.775001 0.765105 0.015030
0.833274 0.763960 0.014169
0.887285 0.762803 0.013331
0.936607 0.761634 0.012514
0.980883 0.760454 0.011719
0.000000 0.834126 0.023383
0.000000 0.833151 0.022331
0.058553 0.832165 0.021302
0.133948 0.831168 0.020295
0.209181 0.830161 0.019310
0.284076 0.829142 0.018347
0.358385 0.828113 0.017405
0.431786 0.827072 0.016486
0.503899 0.826021 0.015589
0.574286 0.824958 0.014714
0.642466 0.823885 0.013861
0.707935 0.822800 0.013031
0.770176 0.821704 0.012222
0.828682 0.820597 0.011435
0.882976 0.819479 0.010670
0.932629 0.818349 0.009927
0.977278 0.817208 0.009207
0.000000 0.886238 0.019934
0.000000 0.885308 0.018956
0.053294 0.884367 0.018001
0.128580 0.883417 0.017068
0.203715 0.882456 0.016157
0.278527 0.881484 0.015268
0.352776 0.880502 0.014401
0.426147 0.879510 0.013556
0.498265 0.878507 0.012734
0.568697 0.877493 0.011933
0.636971 0.876469 0.011154
0.702582 0.875434 0.010397
0.765019 0.874389 0.009663
0.823774 0.873332 0.008950
0.878370 0.872265 0.008259
0.928374 0.871187 0.007591
0.973419 0.870098 0.006944
0.000000 0.933924 0.016734
0.000000 0.933050 0.015831
0.047654 0.932167 0.014950
0.122832 0.931274 0.014091
0.197867 0.930372 0.013254
0.272598 0.929459 0.012439
0.346788 0.928537 0.011647
0.420132 0.927604 0.010876
0.492258 0.926662 0.010127
0.562743 0.925709 0.009401
0.631117 0.924747 0.008696
0.696881 0.923774 0.008013
0.759526 0.922791 0.007353
0.818545 0.921798 0.006714
0.873460 0.920794 0.006098
0.923835 0.919780 0.005503
0.969298 0.918756 0.004931
0.000000 0.976881 0.013784
0.000000 0.976076 0.012955
0.041634 0.975261 0.012148
0.116702 0.974437 0.011364
0.191639 0.973604 0.010601
0.266289 0.972762 0.009860
0.340421 0.971910 0.009141
0.413739 0.971049 0.008445
0.485878 0.970178 0.007770
0.556420 0.969298 0.007118
0.624901 0.968409 0.006487
0.690828 0.967510 0.005879
0.753692 0.966601 0.005292
0.812989 0.965683 0.004728
0.868240 0.964755 0.004186
0.919005 0.963817 0.003666
0.964907 0.962869 0.003167
0.000000 0.000000 0.167104
0.015388 0.000000 0.165100
0.092299 0.000000 0.163117
0.169109 0.000000 0.161157
0.245676 0.000000 0.159219
0.321776 0.000000 0.157302
0.397108 0.000000 0.155408
0.471297 0.000000 0.153535
0.543906 0.000000 0.151684
0.614444 0.000000 0.149855
0.682384 0.000000 0.148048
0.747181 0.000000 0.146263
0.808292 0.000000 0.144500
0.865197 0.000000 0.142759
0.917420 0.000000 0.141040
0.964552 0.000000 0.139342
1.000000 0.000000 0.137667
0.000000 0.012017 0.160449
